P2
256 256 255
0 0 0 0 0 0 0 0 0 0 0 0 0 0 0 0 0 0 0 0 0 0 0 0 0 0 0 0 0 0 0 0 0 0 0 0 0 0 0 0 0 0 0 0 0 0 0 0 0 0 0 0 0 0 0 0 0 0 0 0 0 0 0 0 0 0 0 0 0 0 0 0 0 0 0 0 0 0 0 0 0 0 0 0 0 0 0 0 0 0 0 0 0 0 0 0 0 0 0 0 0 0 0 0 0 0 0 0 0 0 0 0 0 0 0 0 0 0 0 0 0 0 0 0 0 0 0 0 0 0 0 0 0 0 0 0 0 0 0 0 0 0 0 0 0 0 0 0 0 0 0 0 0 0 0 0 0 0 0 0 0 0 0 0 0 0 0 0 0 0 0 0 0 0 0 0 0 0 0 0 0 0 0 0 0 0 0 0 0 0 0 0 0 0 0 0 0 0 0 0 0 0 0 0 0 0 0 0 0 0 0 0 0 0 0 0 0 0 0 0 0 0 0 0 0 0 0 0 0 0 0 0 0 0 0 0 0 0 0 0 0 0 0 0 0 0 0 0 0 0 0 0 0 0 0 0 
0 2 3 2 2 2 2 2 1 1 2 2 3 2 3 3 3 3 2 2 2 2 2 1 2 2 2 1 1 1 1 1 1 1 2 2 2 1 2 2 2 2 2 2 1 1 1 1 2 2 2 2 2 2 2 3 3 2 2 2 2 2 2 1 2 2 2 2 2 1 1 2 2 2 2 3 2 2 2 2 3 3 3 3 3 3 3 3 3 3 3 3 3 3 3 3 3 3 4 4 4 5 5 5 5 7 9 11 13 15 18 21 22 21 18 14 11 11 14 19 24 24 18 11 5 4 4 4 4 4 4 4 4 4 4 5 5 4 3 2 2 2 2 2 2 3 3 2 2 2 2 2 2 2 2 2 2 2 2 2 1 1 0 0 0 0 0 1 1 1 2 2 2 2 2 2 2 2 1 1 1 1 1 1 1 1 1 2 2 2 2 2 2 3 3 3 2 1 0 0 0 1 1 1 2 3 6 5 10 6 7 3 2 1 2 1 2 2 2 2 2 2 2 2 2 2 1 1 1 1 1 1 2 5 6 6 5 2 3 1 2 1 1 1 1 2 2 2 4 9 12 11 9 4 2 0 
0 3 5 3 3 3 4 4 4 4 4 5 5 4 5 6 5 5 3 4 4 4 4 4 5 5 4 3 2 2 3 3 2 3 3 4 3 3 3 3 4 4 3 4 3 2 2 2 3 3 3 3 3 3 4 4 4 4 3 3 3 2 3 2 3 3 4 4 3 3 2 3 3 3 3 3 3 3 3 4 4 5 5 5 5 5 5 5 5 4 4 4 5 5 5 5 5 5 6 6 6 7 7 7 7 9 13 16 19 22 27 32 36 35 31 25 20 19 21 30 39 40 30 17 7 6 5 5 5 5 5 5 5 6 6 7 6 6 5 5 4 4 4 4 4 4 4 4 4 4 4 4 3 3 3 3 3 3 3 4 3 3 2 2 2 2 2 2 3 3 3 3 3 3 3 3 2 2 2 2 2 2 2 2 2 2 2 2 2 3 3 3 3 4 5 4 3 1 1 1 1 2 2 2 3 6 10 9 15 11 12 5 4 3 4 3 4 3 3 3 3 3 4 3 3 3 2 2 2 2 2 2 3 7 10 10 9 5 6 4 4 3 3 1 2 2 3 3 8 14 19 18 13 8 4 0 
0 3 4 3 2 3 4 5 5 4 4 4 5 5 6 6 6 5 4 4 4 5 6 6 6 6 5 4 3 3 3 3 3 3 4 4 4 4 4 4 4 4 4 4 4 3 3 3 4 3 3 3 3 3 4 4 4 3 2 2 2 2 2 3 3 4 4 4 4 3 3 3 3 3 2 3 3 2 2 3 3 4 4 4 4 5 5 5 4 3 4 4 4 4 4 5 4 5 5 6 5 6 5 5 5 6 9 13 16 19 24 29 34 35 33 29 23 18 19 27 39 41 31 17 5 4 4 4 4 4 4 4 4 5 5 5 4 4 3 3 3 3 3 3 3 2 2 3 3 3 3 4 3 3 2 3 3 3 3 3 3 2 2 2 2 2 2 2 2 2 2 2 2 2 2 2 1 1 1 1 1 1 1 1 1 2 2 1 1 1 1 2 3 4 4 4 3 2 1 1 1 2 2 3 3 7 9 11 14 11 10 4 3 2 3 3 3 3 3 3 3 4 4 4 3 2 2 2 3 3 3 2 3 7 9 10 9 6 7 5 6 5 5 3 3 2 2 3 8 14 16 15 11 10 6 0 
0 3 5 4 4 4 6 7 7 6 5 6 7 7 7 7 7 7 6 6 7 8 9 8 8 7 6 5 5 5 4 4 4 4 4 5 4 4 4 5 5 5 4 5 4 4 4 4 4 3 3 3 3 3 4 4 4 3 3 3 3 3 3 3 3 4 4 4 3 3 3 2 2 2 2 2 2 2 2 2 3 3 3 3 4 4 4 4 3 3 3 3 3 4 4 4 4 4 5 5 4 4 3 4 3 4 7 10 13 17 21 26 31 34 35 32 26 20 17 24 37 41 31 17 6 5 4 4 3 3 4 4 4 5 4 4 3 2 2 2 2 2 2 2 2 1 1 1 2 3 3 3 2 2 2 2 2 2 2 2 3 3 3 3 3 3 3 2 2 1 1 1 1 2 1 1 0 0 0 0 0 0 0 0 1 1 1 1 0 0 1 2 3 3 3 3 2 2 1 1 2 3 2 3 4 7 8 12 12 12 9 3 3 2 3 3 4 3 2 2 2 4 4 3 2 1 1 1 2 2 3 2 4 7 9 10 8 7 7 7 10 10 10 7 5 3 2 4 9 13 14 13 10 10 6 0 
0 4 6 5 5 5 7 8 8 7 7 8 9 8 8 8 8 8 7 7 9 10 10 9 8 7 7 6 5 4 4 4 4 4 4 5 5 4 5 5 6 5 5 5 5 5 4 4 4 3 3 3 3 3 4 4 4 3 3 4 4 4 4 4 4 3 4 3 3 3 3 3 2 2 2 2 2 2 2 3 3 4 3 3 3 3 4 3 3 3 3 3 3 4 3 3 3 3 4 4 3 3 2 3 3 4 5 7 10 14 17 22 27 32 35 34 30 23 18 23 33 39 30 16 6 5 5 4 4 4 3 4 4 4 5 4 3 3 3 2 2 2 2 2 1 0 0 1 1 1 1 1 1 1 1 1 1 1 1 1 2 2 2 2 2 2 2 1 2 1 1 1 1 2 1 1 0 0 0 0 0 0 0 0 1 1 2 1 0 0 1 2 3 3 3 3 2 2 1 1 2 3 3 3 4 8 8 13 12 12 8 3 3 2 2 3 4 4 3 2 2 4 4 3 2 2 2 2 2 2 2 2 4 8 9 10 8 8 8 9 13 14 16 11 9 5 2 5 8 12 12 10 8 9 5 0 
0 5 7 7 7 8 9 10 10 9 8 10 11 10 9 9 9 9 9 10 11 11 10 9 7 6 6 6 6 6 6 5 4 4 4 5 5 5 6 6 5 5 4 4 4 4 4 4 4 4 4 4 4 5 5 5 4 4 4 5 6 6 5 4 4 3 3 3 2 2 2 2 3 3 2 2 2 3 3 4 4 4 4 4 3 3 3 3 3 3 3 3 3 3 3 3 2 3 3 3 2 2 2 3 3 3 4 4 6 9 13 16 20 26 31 34 33 29 22 24 30 34 29 19 12 11 11 10 9 8 7 7 7 7 8 8 8 7 7 6 5 5 4 3 3 3 3 4 4 4 4 3 3 3 3 3 2 2 2 2 2 2 2 2 2 2 2 2 2 1 1 1 1 2 2 2 1 0 0 0 0 0 0 0 1 1 1 1 0 0 1 2 2 2 2 2 3 3 3 3 3 4 3 3 5 10 9 14 12 12 8 2 2 2 2 3 3 4 3 2 2 3 3 3 2 2 1 2 2 2 2 2 4 8 9 10 7 7 8 11 16 15 18 14 13 9 5 7 9 10 10 8 7 8 4 0 
0 5 8 8 8 9 11 12 11 10 10 10 11 11 10 11 10 10 10 10 10 10 9 8 6 5 5 5 6 7 6 5 5 4 5 5 5 5 6 6 6 5 5 5 5 4 4 4 5 5 5 6 5 5 5 4 4 4 5 5 6 5 5 4 4 3 3 2 2 2 2 3 3 3 3 2 2 3 3 3 3 3 3 3 3 2 3 3 3 3 3 3 3 3 2 2 2 2 2 2 2 2 2 3 3 3 2 2 3 5 8 11 15 20 26 31 34 33 29 27 28 28 24 17 12 11 11 11 11 10 10 10 11 11 12 13 14 13 12 12 11 11 11 10 10 10 11 12 13 13 13 13 12 11 11 11 11 11 11 10 9 8 7 7 7 7 8 7 7 6 5 5 5 6 5 5 4 3 3 3 3 3 3 2 2 3 3 3 2 1 1 2 2 2 2 2 3 3 3 3 3 4 3 4 5 11 10 16 12 12 7 3 2 2 2 3 3 4 3 3 3 3 3 3 2 2 2 3 3 3 3 2 4 8 9 10 7 6 7 11 16 16 19 14 13 9 7 8 8 7 7 6 6 6 4 0 
0 5 9 9 9 10 11 12 11 10 10 10 10 10 10 11 10 9 9 9 9 10 9 8 7 6 6 7 7 7 7 6 5 5 5 6 6 6 6 6 6 5 5 5 5 4 4 4 5 5 5 5 5 5 5 4 4 3 4 5 5 5 4 4 4 4 4 3 3 3 4 4 4 4 3 3 3 4 4 3 3 3 3 3 2 1 2 2 3 2 2 2 3 2 2 2 2 2 2 2 1 1 1 2 3 2 1 1 1 3 4 6 8 12 18 25 31 34 33 30 29 27 25 20 17 16 16 15 14 12 11 10 9 9 10 11 12 13 13 14 14 15 14 13 13 13 14 15 16 17 17 17 17 17 17 18 18 18 18 18 17 16 16 16 16 16 17 16 15 14 13 13 13 13 13 12 10 10 10 10 11 11 10 9 8 7 7 7 7 7 7 7 7 6 6 7 8 9 10 10 10 9 8 8 8 13 10 15 10 10 5 3 3 4 4 5 4 5 4 4 4 4 5 6 6 6 7 8 8 8 8 7 8 11 13 12 9 8 9 12 14 12 12 11 11 9 7 7 6 5 5 5 5 6 3 0 
0 6 10 10 10 10 11 11 10 10 9 9 9 9 10 10 9 8 7 8 9 10 9 8 7 6 6 6 7 7 6 6 5 5 6 6 6 6 6 6 6 5 5 4 4 4 4 4 4 4 4 4 4 4 4 4 3 3 4 4 4 4 4 4 4 4 4 4 4 4 4 4 4 4 3 4 4 4 4 3 2 2 2 2 1 0 1 1 2 2 2 2 2 2 2 3 3 3 3 2 1 1 1 1 2 2 1 1 1 2 2 3 4 6 10 16 22 28 32 32 31 28 25 22 20 19 19 20 19 18 17 17 16 16 16 16 16 16 16 16 16 16 16 15 16 16 17 18 20 21 22 21 19 18 18 18 18 18 18 17 16 16 16 17 17 17 18 18 18 18 17 17 18 18 18 18 17 17 17 17 17 17 17 17 16 15 15 16 16 16 16 15 15 14 14 15 16 18 18 18 18 17 16 16 16 19 16 18 13 15 12 12 12 13 13 13 13 14 14 14 14 15 15 16 16 16 17 17 17 18 18 18 20 22 22 21 19 18 19 20 22 21 20 18 16 13 10 7 5 4 3 4 5 5 3 0 
0 6 9 9 9 9 9 8 9 9 10 9 9 8 8 7 7 7 7 7 8 8 8 7 6 5 6 5 5 4 4 4 4 5 6 6 6 6 5 5 5 4 4 4 4 4 4 4 4 4 3 2 2 2 3 3 3 3 3 3 4 4 3 3 3 3 3 4 4 4 4 4 3 3 3 3 3 4 3 3 2 2 2 1 0 0 0 0 1 1 1 1 2 2 3 3 3 3 2 2 1 1 0 0 1 1 1 1 1 1 1 1 2 3 5 8 13 18 23 27 28 28 26 23 21 20 20 20 19 18 17 16 15 14 14 14 15 15 16 17 18 19 19 18 17 17 17 19 20 21 22 22 22 21 21 22 22 22 22 22 22 22 22 22 23 23 23 23 21 20 19 19 18 18 17 16 15 14 14 15 15 15 15 14 14 14 14 15 15 15 15 15 15 15 16 16 17 18 19 19 20 19 19 19 20 21 18 19 17 19 19 19 20 20 20 20 19 18 18 18 18 19 20 21 22 22 22 21 21 20 20 21 22 22 22 21 20 20 20 20 19 17 16 15 16 14 11 8 6 5 4 4 4 4 2 0 
0 5 8 8 7 7 7 8 8 8 9 8 8 7 6 6 5 6 6 7 7 7 6 6 5 5 6 5 5 4 4 4 4 4 5 6 5 4 4 3 3 2 2 2 2 3 3 3 3 3 3 2 2 2 3 3 3 2 2 3 3 4 3 3 2 3 3 3 3 3 3 2 2 1 2 2 2 3 3 2 2 2 2 1 0 0 0 0 0 0 1 1 1 2 3 3 3 3 2 2 1 1 0 0 0 1 1 2 2 1 2 1 1 1 2 3 6 10 14 18 21 21 20 19 18 18 18 19 18 18 18 18 18 18 18 18 18 18 18 19 19 19 19 19 19 18 18 19 19 20 20 20 20 20 19 19 18 18 18 18 18 19 20 21 21 21 21 21 21 20 20 20 21 22 22 22 21 20 19 19 20 20 19 19 19 19 19 20 20 21 21 21 21 20 20 21 21 22 22 22 22 22 22 22 22 21 19 17 16 17 17 18 19 19 19 20 20 20 20 20 21 21 22 23 23 23 23 23 23 23 24 26 28 29 29 28 27 26 27 28 30 29 26 24 23 21 17 12 8 6 5 4 4 4 2 0 
0 5 8 8 7 7 7 8 9 8 8 7 7 7 6 6 5 6 6 6 6 5 4 4 4 4 5 5 5 4 4 4 4 4 4 5 4 3 3 2 3 3 2 2 3 3 3 3 3 3 3 3 2 2 2 2 2 2 1 2 3 4 3 3 2 2 2 3 2 2 2 2 1 1 1 1 1 1 1 2 1 1 1 1 0 0 0 0 0 0 0 0 1 1 2 2 3 2 1 1 2 1 1 0 0 1 2 2 2 2 2 2 2 2 2 3 3 5 7 9 10 11 11 11 12 12 12 12 12 12 12 13 13 14 14 15 15 16 17 18 19 20 20 20 19 18 18 19 19 19 19 20 21 21 22 22 22 22 22 22 22 22 22 23 23 23 23 22 21 20 19 19 20 20 20 19 18 17 16 16 17 17 16 15 15 16 16 17 17 18 18 18 18 18 18 18 19 19 20 21 22 22 23 23 25 24 23 22 23 24 24 24 24 24 24 24 23 22 22 22 23 23 24 25 26 26 25 25 25 25 25 25 26 26 26 27 27 27 28 29 29 28 27 27 26 24 21 15 10 5 4 4 4 4 2 0 
0 5 8 8 8 7 8 9 9 8 7 7 7 6 6 5 4 5 5 5 5 4 4 3 3 4 4 5 4 4 4 4 3 3 3 4 3 2 2 2 3 3 3 3 4 4 4 3 3 4 4 3 2 2 2 2 2 2 2 2 2 4 3 4 2 3 2 3 3 3 2 2 1 1 1 1 1 1 1 1 1 1 1 1 0 0 0 0 0 0 0 1 1 2 2 3 3 2 2 1 1 1 1 1 1 2 2 2 2 2 2 2 2 2 2 3 3 4 4 5 5 5 6 6 6 7 6 6 6 7 7 8 8 9 9 9 10 10 11 11 12 13 13 13 12 12 12 12 13 13 13 14 14 14 15 16 17 17 17 17 17 17 18 19 19 19 20 20 19 19 20 20 21 21 22 22 22 21 21 21 21 21 21 21 20 20 21 21 21 22 22 22 21 21 21 21 21 21 22 23 23 23 23 24 24 23 22 20 20 19 20 20 20 20 20 19 19 19 19 20 20 21 22 23 23 24 24 24 24 24 25 25 26 26 27 28 28 29 29 30 31 31 30 29 27 24 20 14 9 5 3 4 4 4 3 0 
0 4 7 6 6 6 8 9 9 7 6 6 6 6 6 5 5 5 5 5 5 4 2 2 2 3 3 3 3 4 3 3 3 3 3 3 2 2 2 2 3 3 4 4 4 4 3 3 3 4 4 3 2 2 2 2 2 2 3 2 2 3 3 3 1 2 2 3 2 2 2 2 2 2 2 2 1 1 1 2 2 2 2 2 1 1 1 1 1 1 0 1 1 1 2 2 2 2 2 1 1 1 1 1 1 2 2 2 2 2 2 2 3 3 4 4 4 4 4 4 4 4 5 5 4 4 4 4 4 4 4 4 5 5 5 5 6 5 6 6 6 6 6 6 6 6 6 6 6 7 7 7 7 7 7 8 9 9 9 9 9 9 10 10 11 11 12 12 12 12 12 13 13 13 14 15 15 15 16 15 15 15 15 16 16 17 17 17 17 17 17 17 18 18 18 18 19 19 20 20 21 21 22 22 24 25 25 24 24 24 24 24 24 24 24 23 22 22 22 22 23 23 23 23 23 23 22 22 22 21 22 22 22 22 23 25 25 26 26 26 26 26 26 26 25 22 17 12 7 4 3 3 3 4 2 0 
0 3 5 4 5 5 7 8 8 6 5 5 5 5 4 4 4 5 5 5 4 3 2 2 1 2 2 2 2 3 2 3 2 3 2 3 2 2 2 2 3 3 4 4 5 4 3 3 4 4 3 2 1 1 1 2 2 2 3 2 2 3 2 2 1 2 2 2 2 2 2 2 2 2 1 1 1 2 2 2 3 3 3 2 2 1 1 2 2 1 1 1 1 1 2 2 2 2 2 1 1 1 1 1 1 1 2 2 2 2 2 1 2 2 3 3 3 3 3 3 3 4 4 4 2 2 2 2 3 3 3 3 3 3 3 3 3 3 3 3 2 2 2 2 2 1 2 3 4 5 6 5 4 3 4 4 5 5 5 5 5 5 5 5 5 6 6 7 7 7 7 7 7 6 6 7 8 9 10 9 8 8 9 10 11 11 11 11 11 10 10 10 10 10 11 12 12 12 13 13 13 13 13 13 15 16 17 17 17 17 16 16 16 16 16 15 15 14 14 15 15 14 14 14 14 14 13 13 12 12 12 12 12 13 13 14 14 15 15 15 14 14 14 15 15 13 11 9 6 5 4 4 3 3 2 0 
0 2 3 2 3 3 5 6 5 5 4 5 5 5 4 5 5 5 4 3 2 1 1 1 2 2 2 2 2 3 3 4 3 3 2 2 2 2 2 2 3 3 3 4 4 4 3 3 3 3 2 1 0 0 0 1 2 2 2 2 2 3 2 1 0 1 1 2 2 1 2 2 2 2 1 1 2 2 2 2 2 3 3 3 2 2 2 2 2 2 1 1 1 1 1 2 2 2 1 1 1 2 2 2 1 2 1 2 2 2 2 2 2 1 2 2 2 2 2 2 3 4 3 3 1 1 1 1 1 1 1 1 1 1 1 1 1 1 1 0 0 0 0 1 1 1 1 1 2 2 2 2 2 2 2 2 2 2 2 2 2 2 2 2 2 3 3 3 4 4 4 4 3 3 4 4 4 5 5 4 4 3 4 5 6 6 6 6 6 5 5 5 5 5 5 6 6 6 7 7 7 7 7 6 7 8 9 9 9 8 8 7 8 8 9 8 8 8 8 7 7 7 7 7 7 8 8 7 7 6 6 7 8 8 8 8 7 7 8 8 8 8 7 8 8 8 9 9 8 8 6 6 6 5 3 0 
0 2 3 3 3 4 5 5 4 3 2 3 4 3 3 4 4 4 3 2 1 1 1 2 2 2 2 2 2 3 3 4 3 3 2 2 2 2 2 2 2 2 2 3 4 4 3 2 2 2 1 1 0 0 1 1 1 2 2 2 2 2 1 1 0 1 1 2 2 1 2 2 2 2 0 1 1 2 2 2 3 3 3 3 2 2 2 2 2 2 1 2 1 2 1 2 1 2 1 1 1 2 2 2 2 2 2 2 2 2 2 2 2 2 2 2 2 2 1 2 3 4 3 2 1 1 1 1 1 1 2 1 1 1 1 1 1 0 0 0 0 0 0 1 1 1 1 1 2 2 2 2 1 1 1 0 0 0 0 1 1 1 1 1 1 1 1 1 2 2 2 2 2 2 2 2 2 2 3 2 1 1 2 3 3 3 3 3 3 3 3 2 3 3 3 3 3 4 4 4 5 5 5 4 4 5 5 6 5 5 4 4 5 5 6 5 5 5 4 5 5 5 5 6 6 6 7 7 6 5 5 6 6 6 6 6 5 4 5 6 6 6 6 6 6 7 9 10 10 10 9 9 9 9 5 0 
0 3 4 4 3 3 4 4 3 2 2 3 5 5 5 4 4 3 2 0 0 0 1 2 3 2 2 2 2 2 3 3 3 3 2 2 2 2 3 2 2 2 2 3 3 4 3 2 1 1 1 1 1 1 2 2 2 2 2 2 2 2 1 1 0 1 2 2 2 1 1 1 2 1 0 0 1 1 2 1 2 3 3 2 2 1 2 2 1 2 2 2 2 2 1 1 1 1 1 1 2 3 2 2 2 2 2 2 2 2 2 2 2 2 2 2 2 2 2 2 3 3 2 2 1 2 1 2 1 1 1 1 1 1 1 1 1 1 0 0 0 0 1 1 1 1 1 1 1 1 1 1 1 1 1 1 1 1 1 2 2 2 1 1 1 1 1 2 2 2 2 2 3 3 3 2 2 2 2 2 1 1 2 2 2 2 2 2 3 3 3 2 2 2 2 2 2 2 2 2 3 3 4 3 3 3 3 4 3 3 2 2 2 2 3 3 3 3 3 3 3 3 4 4 5 5 6 6 5 5 4 4 4 5 5 5 4 4 4 5 7 7 7 6 6 6 7 9 10 11 11 11 11 11 7 0 
0 3 4 4 3 3 4 4 3 2 1 2 4 5 5 4 3 3 2 0 0 1 2 3 3 2 2 2 2 2 2 3 3 3 2 3 3 3 3 3 2 2 2 2 3 3 3 2 1 1 2 2 2 2 2 2 2 2 2 2 2 2 1 1 1 2 2 3 2 1 1 2 1 1 0 0 1 2 2 2 3 4 3 3 2 1 1 1 1 1 2 2 2 2 2 2 2 1 1 1 2 2 2 2 1 2 2 2 2 2 2 2 2 2 2 2 2 2 1 2 3 3 2 2 1 2 1 1 1 1 1 1 1 1 1 1 1 1 1 1 1 1 1 1 1 1 0 0 0 0 0 0 0 0 0 0 1 1 1 2 2 3 3 3 3 3 3 3 3 3 3 3 3 3 3 3 3 3 3 3 3 3 3 2 2 1 2 2 3 3 3 3 3 2 2 1 1 1 1 2 3 3 4 3 3 4 3 4 3 2 1 1 1 1 2 3 3 3 3 3 4 3 3 3 4 4 4 4 4 3 2 3 3 4 5 5 5 4 4 4 5 6 6 6 6 5 6 7 8 10 11 11 11 10 6 0 
0 3 4 2 2 3 4 3 2 2 1 2 4 5 5 4 3 2 2 1 1 2 3 3 3 2 2 2 2 2 3 3 3 2 2 3 3 3 3 3 2 2 2 3 3 3 3 3 2 2 2 2 2 3 3 3 3 2 2 2 2 2 2 1 2 3 3 3 2 2 1 2 1 1 1 1 2 2 2 3 3 4 3 3 2 2 2 2 2 3 3 3 3 3 3 3 3 2 2 2 3 3 2 1 1 1 2 2 2 2 2 2 2 2 2 2 2 2 1 1 2 3 3 2 2 3 2 2 2 1 2 2 2 2 1 1 1 1 1 1 1 1 1 1 0 0 0 0 0 0 0 0 0 1 1 2 2 2 2 2 2 3 3 3 3 3 3 3 3 3 2 3 3 3 3 3 3 3 3 3 3 2 3 2 2 2 2 3 3 3 3 3 3 2 2 2 1 1 2 2 3 3 4 3 3 3 3 3 2 2 1 1 1 1 2 2 2 2 2 2 3 2 2 2 2 2 3 3 3 3 2 1 2 2 3 3 3 3 3 3 3 4 4 4 4 4 4 4 5 6 7 8 8 8 4 0 
0 3 4 2 3 3 4 4 2 2 2 3 4 4 4 3 3 2 1 1 1 3 4 4 3 2 2 2 3 3 3 3 3 2 2 2 2 2 2 3 3 3 3 3 4 4 4 3 3 2 2 3 3 3 3 3 3 3 3 2 2 2 2 2 2 3 3 3 2 2 2 2 2 1 1 2 2 3 3 3 4 4 4 4 3 3 3 3 3 3 3 3 3 3 4 4 4 4 3 3 3 3 2 2 2 1 2 2 2 2 2 2 3 2 3 3 3 2 1 2 2 3 3 2 2 2 2 2 3 2 3 3 3 3 2 2 1 1 0 0 0 0 0 1 1 0 0 0 0 0 1 1 1 2 2 3 2 2 2 2 3 3 3 3 3 3 3 3 3 3 3 3 2 2 3 3 3 2 2 2 2 1 2 1 1 1 2 2 2 2 2 2 2 2 2 1 1 1 1 1 2 2 2 2 2 2 2 2 2 1 1 1 1 1 2 2 2 1 1 1 2 2 2 3 3 3 3 3 2 2 2 1 1 2 2 3 3 2 2 2 2 2 2 2 2 2 3 3 3 3 4 4 5 5 3 0 
0 2 4 2 4 4 5 4 3 3 3 4 4 4 4 4 3 3 2 2 2 3 4 3 2 2 2 2 3 3 3 3 3 3 3 3 3 3 3 3 4 4 4 5 5 5 5 5 4 4 3 4 4 4 3 4 4 4 4 4 4 4 4 4 4 4 4 4 4 4 4 4 3 3 3 3 3 3 4 5 5 6 5 5 5 5 5 5 5 6 6 6 6 6 6 5 5 4 4 4 4 4 3 4 4 4 4 4 3 3 4 4 4 4 4 4 4 4 3 3 3 3 3 3 2 3 3 3 3 3 3 3 3 3 3 2 2 1 0 0 0 0 1 1 1 2 1 1 1 1 1 1 2 3 4 4 3 2 2 2 2 1 1 1 1 1 1 2 2 2 2 2 2 2 2 2 2 2 1 0 1 0 1 1 1 0 1 1 0 1 1 1 2 2 2 2 2 1 1 1 2 2 2 1 1 2 2 2 2 2 1 1 1 1 2 3 2 2 1 1 2 3 3 3 3 3 2 2 2 3 2 2 1 1 1 1 2 2 2 2 2 2 2 2 1 1 2 2 3 2 2 2 2 3 2 0 
0 2 4 3 4 5 5 5 4 4 4 5 5 4 4 4 5 4 4 3 4 4 5 4 3 2 3 3 3 3 4 4 4 5 5 5 5 5 5 6 6 6 6 7 7 7 7 7 6 6 6 6 6 5 5 5 6 7 7 7 7 7 7 7 6 6 5 5 5 5 5 5 5 5 5 4 4 4 5 6 6 6 6 5 6 6 7 7 6 7 8 8 8 7 7 5 5 4 4 4 4 5 5 6 6 6 5 5 5 5 5 6 6 5 5 4 4 4 4 4 4 4 3 2 2 3 3 3 3 3 3 3 3 3 3 3 3 2 2 2 2 2 2 2 3 2 2 2 1 1 1 2 3 3 4 4 3 3 2 2 1 2 1 1 1 1 2 2 2 2 2 2 2 2 2 2 2 2 1 1 1 1 1 1 1 0 0 0 0 1 1 1 2 2 2 2 1 1 0 0 1 1 1 1 1 1 1 1 1 1 1 0 0 1 2 2 3 2 2 1 2 2 3 3 2 2 2 2 2 2 2 3 2 2 1 2 1 2 2 2 2 2 2 2 1 1 2 2 3 2 1 1 1 2 1 0 
0 2 4 4 5 6 6 6 5 5 6 6 6 5 5 6 6 6 7 6 7 7 7 7 6 5 5 5 6 6 6 6 7 8 8 8 7 7 7 7 7 7 7 8 8 8 8 8 8 8 7 8 8 7 7 7 7 7 7 7 8 8 8 7 7 6 6 6 6 6 6 6 6 5 5 5 5 5 5 6 6 6 5 5 6 6 7 7 6 7 7 8 8 8 7 6 5 4 4 5 4 5 5 6 7 7 6 6 5 6 7 7 7 6 5 4 4 4 4 5 5 4 3 2 2 3 3 2 2 2 2 2 2 1 2 2 3 3 3 3 3 3 3 3 2 2 2 2 1 1 1 2 2 3 3 4 4 3 2 1 1 1 1 1 1 1 1 2 2 2 2 2 1 2 1 1 2 2 2 2 2 2 2 2 2 1 1 1 0 1 1 1 1 1 2 1 1 0 0 0 1 1 2 1 2 2 2 2 1 1 0 0 0 0 1 2 3 3 3 2 2 2 3 3 2 2 1 1 1 2 2 2 2 1 1 1 1 2 2 2 2 2 2 2 1 1 1 2 2 2 1 1 1 1 1 0 
0 3 6 7 7 8 8 7 6 6 6 7 7 6 7 7 8 8 8 8 8 9 9 8 7 7 8 8 8 8 8 8 8 9 9 9 9 8 8 8 8 7 7 7 7 6 6 6 7 7 7 7 7 7 7 7 6 6 6 6 6 7 7 6 6 5 5 5 5 5 5 5 5 5 5 5 5 5 6 6 5 4 5 5 5 6 5 6 6 6 6 6 6 6 6 6 5 5 5 5 4 4 5 5 6 6 5 5 5 6 7 7 6 5 5 5 4 4 4 4 4 4 3 3 3 3 3 2 2 2 2 2 1 1 1 2 2 3 3 3 3 3 3 2 2 1 1 1 1 1 1 2 2 3 3 3 3 2 2 1 1 2 2 2 2 2 2 2 2 2 2 2 2 2 2 2 2 2 2 2 2 2 3 2 2 2 1 1 1 1 1 2 2 1 1 1 1 1 0 1 1 2 2 2 2 2 1 1 1 0 0 0 0 0 0 1 3 4 4 3 2 2 3 3 3 2 2 2 2 2 3 2 2 1 1 2 1 1 1 1 1 1 1 2 1 1 1 1 2 2 1 1 1 1 1 0 
0 5 9 9 9 10 9 8 7 7 7 7 7 7 7 7 8 8 8 8 8 9 9 9 8 8 8 8 8 8 7 7 7 7 7 7 6 6 7 6 6 6 5 5 4 3 4 4 5 5 5 6 6 6 5 5 4 3 3 4 4 4 4 4 3 3 4 4 4 4 3 3 4 4 4 5 5 6 6 5 4 4 4 5 5 4 4 4 3 3 3 2 3 3 4 5 5 5 4 4 4 3 3 4 4 4 3 3 4 5 5 5 4 4 4 4 3 3 3 3 3 3 3 3 3 2 2 2 1 1 1 1 1 1 1 1 1 2 2 2 2 2 2 2 1 1 1 2 2 2 2 3 2 2 2 3 3 2 2 1 1 1 1 1 1 1 2 2 2 2 2 2 2 2 2 2 2 2 2 2 2 2 3 3 3 3 2 3 2 2 2 2 2 1 2 2 2 2 1 2 2 2 2 2 2 2 2 1 1 0 0 1 1 0 1 1 3 4 4 3 2 3 4 4 3 2 2 1 1 2 2 2 2 2 2 2 2 2 1 1 1 1 1 1 1 1 2 1 2 2 2 1 1 1 0 0 
0 5 9 9 9 9 9 8 7 6 6 6 6 6 6 6 7 7 6 6 6 6 6 6 6 6 6 6 6 6 5 5 5 5 5 4 4 4 5 5 5 4 4 3 2 2 3 3 3 3 3 3 3 3 3 3 1 2 2 3 3 4 3 3 2 2 2 3 3 3 2 2 3 4 4 5 5 5 5 5 4 4 4 4 4 4 3 3 2 2 2 1 2 2 3 4 4 4 3 3 3 2 2 3 3 3 3 3 3 4 4 3 2 2 3 3 3 2 2 2 2 3 3 2 2 2 1 1 1 1 1 1 1 1 1 1 1 1 1 1 1 1 1 1 1 1 1 2 2 3 3 3 2 2 2 3 3 2 1 1 2 2 1 1 1 1 2 2 2 2 1 1 1 1 2 1 2 2 2 3 3 2 3 3 4 3 3 3 3 3 3 3 3 2 2 2 2 2 2 2 2 2 2 2 2 2 2 1 0 0 0 1 1 0 1 1 3 4 4 4 4 4 4 4 3 2 1 1 1 2 2 3 3 3 2 2 2 2 1 1 1 1 1 1 1 1 2 2 2 2 2 2 1 1 0 0 
0 4 7 7 7 6 6 6 4 4 4 4 4 4 4 4 5 5 4 4 3 4 4 4 4 4 4 4 4 3 3 3 3 3 2 1 1 2 3 4 4 4 3 3 3 3 3 4 4 4 3 3 3 3 2 1 1 1 2 3 3 3 3 3 3 2 2 2 2 2 2 2 3 4 4 4 4 5 4 4 3 3 3 3 4 4 3 3 2 1 1 1 1 2 2 3 3 3 3 2 2 2 2 2 2 2 2 2 2 3 3 2 1 0 1 1 1 1 1 2 2 2 2 2 1 1 1 1 1 1 1 1 1 1 1 1 1 1 0 0 0 0 1 1 1 1 1 2 2 3 3 3 2 2 2 2 2 2 2 2 2 2 1 1 1 1 2 2 2 2 1 1 1 1 2 2 2 2 2 3 3 2 3 3 3 3 3 3 3 3 3 3 3 2 3 2 2 2 1 2 2 2 2 2 1 1 1 1 1 1 1 1 1 1 1 1 2 3 4 3 3 4 4 4 3 2 1 1 1 2 2 3 3 3 3 3 2 2 2 2 3 3 3 2 2 2 2 2 3 2 2 2 2 3 1 0 
0 2 4 4 4 4 3 3 2 3 2 3 3 3 3 3 3 4 3 3 3 3 3 3 3 3 3 3 3 3 2 2 3 3 2 1 1 2 3 4 4 3 2 3 3 4 4 4 4 3 3 2 2 2 1 1 1 1 2 3 3 3 3 3 2 2 2 3 2 2 2 2 3 4 4 3 3 4 3 3 2 2 2 2 3 4 3 4 2 2 2 1 2 2 2 3 2 3 3 2 2 2 2 2 2 2 2 2 2 3 3 2 1 1 1 1 1 1 1 1 2 2 2 1 1 0 0 0 1 1 1 1 1 1 1 1 1 1 0 0 0 0 0 1 1 1 1 2 2 2 2 2 2 1 2 2 2 2 1 1 1 1 1 1 1 1 1 2 2 2 1 0 1 1 2 2 2 3 2 3 3 2 2 2 2 2 2 2 2 2 3 3 3 2 3 2 2 2 1 2 1 2 2 2 1 1 1 1 2 2 2 2 2 2 2 1 2 3 3 3 3 4 4 4 3 2 1 1 2 2 2 2 3 3 3 3 3 2 2 3 3 4 4 3 2 2 3 3 4 3 3 3 3 4 2 0 
0 3 4 4 3 2 2 2 2 2 2 2 3 3 3 3 4 4 4 3 3 3 4 4 4 3 3 3 3 3 3 3 3 3 3 3 3 3 4 4 3 2 2 3 3 4 4 4 3 3 3 2 3 2 2 1 1 2 3 3 3 3 3 3 3 3 4 4 3 3 3 4 4 4 3 2 2 2 2 3 2 2 2 2 3 4 4 5 3 3 3 2 3 3 3 3 2 2 2 3 3 3 3 4 3 4 3 3 3 3 3 3 1 2 2 2 2 2 2 2 2 2 2 2 2 2 2 2 2 3 3 3 3 3 3 2 2 1 1 1 1 1 1 1 1 1 1 2 2 2 2 2 2 1 2 1 1 2 1 2 2 2 2 2 2 2 2 2 1 1 1 1 1 2 2 3 2 2 2 2 2 2 2 2 1 1 1 1 1 1 2 2 2 1 2 2 2 2 2 2 2 2 2 2 2 2 2 2 2 2 2 2 3 3 3 2 3 3 2 2 2 3 4 5 4 2 1 2 2 3 2 2 2 3 3 3 3 2 2 3 3 4 4 4 3 2 3 3 5 3 4 3 4 6 4 0 
0 3 4 4 3 2 2 2 2 3 3 3 4 4 4 4 4 5 4 3 4 4 4 4 3 3 3 3 3 3 3 3 4 4 3 3 3 3 3 3 2 2 2 2 3 3 2 2 2 1 1 1 2 2 2 2 2 3 3 3 3 3 3 3 3 4 4 4 4 4 4 4 4 3 2 1 1 2 2 3 2 3 3 2 3 3 5 5 4 3 3 3 4 4 3 3 2 3 3 3 3 4 4 4 4 4 3 3 3 3 2 3 2 2 2 2 2 2 2 2 1 1 2 2 3 3 3 3 3 3 3 3 3 3 3 2 2 2 2 1 1 1 1 1 1 1 1 2 2 2 2 2 2 1 1 1 1 1 1 2 2 2 2 3 3 2 2 1 1 1 1 1 1 2 3 3 3 2 1 1 1 1 1 1 1 1 1 1 1 1 2 2 2 1 1 1 2 2 2 2 2 2 2 3 3 3 2 2 2 2 2 1 2 2 3 3 3 3 3 2 2 4 5 5 4 2 1 1 1 2 2 2 2 3 3 3 3 2 1 1 2 2 3 3 3 2 3 3 4 3 3 3 4 6 4 0 
0 2 4 3 2 2 2 2 3 4 4 4 5 5 5 5 5 5 4 3 3 4 4 4 3 3 4 4 4 3 3 3 4 4 3 3 3 3 3 2 2 2 2 2 2 2 2 1 1 1 1 1 2 3 3 3 3 4 4 4 4 4 4 3 4 4 4 4 3 3 3 4 3 3 1 0 0 1 2 2 3 3 3 3 3 3 4 4 4 3 3 3 4 3 3 3 2 3 3 3 3 3 4 4 4 4 4 3 3 3 2 3 2 2 2 2 2 1 1 1 1 1 1 2 2 2 3 2 2 2 3 3 3 3 2 2 2 2 2 2 1 1 1 2 2 1 2 2 2 1 2 2 2 2 1 1 1 1 2 2 2 2 2 2 2 2 1 1 1 1 1 2 2 2 2 3 3 2 1 1 1 1 1 1 2 1 1 1 1 1 2 2 2 1 0 1 1 1 1 1 2 2 2 2 3 3 3 3 2 2 1 1 2 2 3 3 3 3 3 3 3 4 5 5 4 3 2 2 2 2 2 2 2 3 3 3 3 3 1 0 0 0 1 2 2 3 3 3 3 3 2 3 4 5 3 0 
0 2 3 3 2 2 2 3 3 4 4 4 5 5 5 5 5 5 4 4 4 4 4 4 3 3 4 4 4 3 3 3 4 3 3 2 2 2 3 3 2 2 2 2 2 2 2 1 1 1 2 1 2 3 4 4 4 3 3 3 3 3 3 3 3 3 3 3 2 2 3 3 3 2 1 1 1 1 2 2 2 3 2 2 2 3 3 3 3 2 2 2 3 3 2 2 2 3 3 3 3 3 4 3 3 3 3 4 3 3 3 3 2 2 2 1 1 1 1 0 0 0 1 1 1 1 1 1 1 1 1 1 1 1 1 1 2 2 2 1 1 1 1 1 2 1 2 1 2 1 1 1 2 1 1 1 1 1 2 2 2 2 2 2 2 2 2 2 2 1 1 2 2 2 2 3 3 2 1 1 1 1 1 1 2 1 1 1 1 1 2 2 2 1 0 0 0 0 1 1 1 1 2 2 2 3 3 2 2 1 1 1 1 1 2 2 3 3 3 2 2 3 5 5 4 3 2 3 3 2 2 2 2 3 3 3 3 3 2 1 0 0 1 2 2 3 3 3 3 2 2 3 4 4 3 0 
0 2 3 2 2 2 3 3 3 3 3 4 4 4 4 4 5 5 4 4 4 4 4 4 3 3 3 3 3 3 3 3 3 3 2 2 2 2 3 3 3 3 3 2 2 2 2 1 1 1 2 2 2 4 4 4 3 2 2 3 3 3 2 2 2 2 2 2 1 1 2 2 2 2 2 2 1 2 2 3 2 2 2 2 2 2 2 2 2 2 2 2 2 2 2 2 2 3 3 3 3 2 2 2 3 2 3 3 3 3 3 2 2 1 1 1 1 1 1 0 0 0 0 0 0 0 0 0 0 0 0 0 0 0 1 1 2 2 2 2 2 1 1 1 1 1 2 2 1 1 0 1 1 1 1 1 1 1 1 1 1 1 0 0 0 0 1 1 1 2 2 2 2 2 2 3 3 2 2 2 1 1 1 1 2 1 1 1 1 1 2 2 2 1 1 1 0 0 0 0 1 1 2 1 1 2 2 2 2 2 2 2 1 1 1 1 2 2 2 2 2 2 4 5 5 4 3 4 4 4 3 2 2 2 2 3 3 3 3 2 1 1 1 2 2 3 3 2 2 2 3 3 3 4 2 0 
0 2 3 3 3 3 3 3 3 3 3 3 4 3 4 4 5 5 4 4 4 4 4 3 3 3 2 2 2 2 2 3 3 3 2 2 2 2 3 3 3 3 3 2 2 2 2 1 2 2 1 1 2 3 4 4 3 2 2 3 3 3 2 2 2 2 2 2 2 2 2 2 2 2 2 2 2 2 2 3 3 3 3 3 3 2 2 2 2 2 2 2 2 2 2 2 3 3 3 3 2 2 2 2 3 2 3 2 2 3 2 2 1 1 1 1 1 1 1 1 1 1 0 0 0 0 1 1 1 1 1 1 1 1 1 1 1 1 1 2 2 1 1 1 1 1 2 1 1 1 0 1 0 1 1 1 1 1 1 1 1 1 0 0 0 0 1 1 1 2 2 2 2 2 2 2 2 2 2 2 1 1 1 1 2 1 1 1 1 2 2 2 2 1 1 1 1 1 1 1 1 1 2 1 1 2 1 2 2 2 2 2 1 1 1 1 2 2 2 2 2 2 4 5 6 4 4 4 4 4 4 3 2 2 2 3 3 3 4 3 3 2 2 2 2 2 2 2 2 2 2 2 3 4 3 0 
0 2 3 3 2 2 2 2 2 3 3 4 4 3 4 4 5 5 4 3 3 4 4 3 2 2 2 2 2 1 2 2 2 2 2 2 2 2 3 3 3 2 2 2 3 3 2 2 2 2 2 1 2 3 4 3 2 2 1 2 3 3 2 2 2 2 2 1 1 1 2 1 2 2 2 2 2 2 2 3 3 3 3 2 2 2 2 2 2 3 3 3 2 3 2 2 3 3 3 2 1 1 1 2 1 1 1 1 1 2 2 2 1 1 1 1 1 1 1 1 1 1 1 0 0 1 1 1 1 1 1 1 1 1 1 1 1 1 1 1 1 1 0 0 1 1 2 2 2 2 2 2 2 2 2 2 2 2 2 1 1 1 0 0 0 0 1 1 1 1 1 2 1 1 1 2 2 2 2 2 1 1 1 1 2 1 2 2 2 2 2 2 2 1 1 1 1 1 1 1 2 1 2 1 1 2 1 2 2 2 2 2 2 1 1 1 2 2 2 2 2 2 4 4 5 4 3 3 4 4 4 3 2 1 2 2 3 3 4 4 4 3 2 2 2 2 2 2 2 2 2 2 4 5 4 0 
0 1 2 2 2 1 1 2 2 3 4 4 4 3 4 4 5 5 3 3 2 3 3 2 2 2 2 2 2 1 1 1 2 2 2 1 1 1 2 3 2 2 2 2 2 2 3 3 3 3 2 2 2 3 4 3 2 2 1 2 3 3 3 3 2 2 1 1 2 1 1 1 1 1 2 2 1 2 2 3 3 3 3 3 2 2 2 2 2 2 3 3 3 3 2 2 2 2 2 1 1 1 1 2 2 1 1 0 1 1 1 1 0 0 0 0 1 1 1 1 1 1 1 0 0 1 1 1 1 0 0 0 0 0 0 0 0 0 0 1 1 1 0 0 1 1 2 2 3 3 3 3 3 3 3 3 3 3 3 2 2 1 1 1 1 1 1 1 2 2 2 2 1 1 1 1 2 2 2 2 2 2 1 1 2 2 1 1 1 2 2 1 1 0 0 0 1 1 1 1 1 1 2 1 1 2 2 2 2 2 2 2 3 2 2 1 2 2 2 1 1 2 3 4 4 3 3 2 3 3 3 3 1 1 1 2 2 2 4 4 5 4 2 2 2 2 3 2 2 1 3 2 4 5 4 0 
0 1 1 1 2 2 2 3 3 4 4 5 4 4 4 5 5 5 4 3 2 2 3 2 2 2 2 2 2 1 2 2 2 2 1 1 0 1 2 3 2 1 1 2 3 3 3 3 3 3 3 2 2 3 4 3 3 2 2 3 3 4 4 3 3 2 1 1 1 1 1 1 2 2 1 1 1 2 2 3 3 3 3 2 2 2 1 2 2 2 3 3 3 3 2 2 2 2 2 1 1 1 2 2 2 1 1 1 1 1 1 1 0 0 0 0 0 1 0 0 1 1 1 1 1 1 1 1 0 0 0 0 0 0 0 0 0 0 0 1 1 1 1 1 1 1 2 3 3 4 3 3 3 3 3 3 3 3 3 2 2 2 2 2 2 2 2 2 2 2 1 2 1 1 1 1 1 2 2 2 2 1 1 1 1 2 1 1 1 1 1 1 1 1 0 0 0 0 0 0 1 1 2 1 1 2 2 2 2 2 2 2 3 3 3 2 2 2 1 1 0 1 2 2 2 2 2 2 3 3 3 3 1 1 1 1 2 2 4 4 5 4 3 2 2 2 3 3 4 2 3 2 4 5 4 0 
0 0 1 1 2 2 3 3 3 4 4 4 4 4 4 4 5 5 4 3 2 2 2 2 1 2 2 2 2 1 2 2 2 2 1 1 0 1 2 3 2 2 2 2 2 2 2 2 3 2 2 2 2 3 4 4 3 2 2 3 4 4 4 4 3 3 2 2 2 2 2 2 2 2 1 1 1 2 3 3 3 3 3 3 2 1 1 1 1 2 3 3 3 3 2 2 2 2 2 2 1 1 2 2 2 2 2 1 1 1 1 0 0 0 0 0 0 0 1 1 1 1 1 1 1 1 1 1 1 1 1 1 1 1 1 1 1 1 1 1 1 1 1 1 1 1 2 2 3 3 2 3 2 2 1 1 1 1 2 1 1 1 1 1 1 1 2 2 3 2 1 2 1 1 1 1 1 2 2 2 2 2 1 2 2 2 1 1 1 1 1 1 1 1 1 1 0 0 0 0 0 1 1 1 1 2 2 2 2 2 2 2 2 2 2 2 2 2 1 0 0 0 1 1 1 1 1 2 2 3 3 3 2 1 1 1 1 2 4 4 5 4 3 2 2 2 3 4 4 3 3 2 3 5 4 0 
0 0 1 2 2 3 3 3 3 3 4 4 4 3 3 4 5 5 4 2 2 2 2 2 2 2 2 2 2 2 2 2 2 2 2 1 1 2 3 3 2 2 2 2 2 2 2 2 2 2 2 2 2 2 4 4 4 3 3 3 3 3 3 3 3 3 2 2 2 2 2 2 2 2 1 1 2 2 3 2 2 2 3 3 2 1 1 1 1 1 2 2 2 2 2 2 2 3 3 2 2 2 1 2 2 2 1 1 1 1 0 0 0 0 0 0 0 1 2 2 2 2 2 2 2 2 2 2 2 2 2 2 2 2 2 2 2 1 1 1 1 1 1 1 1 1 2 2 2 2 1 1 1 1 1 0 0 1 1 1 1 1 1 1 1 1 2 2 2 1 1 1 1 2 1 2 1 2 2 2 2 1 1 1 1 1 1 1 1 1 1 1 1 1 1 1 1 0 0 0 0 0 1 1 1 1 1 1 1 1 2 2 1 2 2 3 3 3 1 1 0 0 1 1 1 1 0 1 1 2 3 3 2 2 1 1 1 1 3 4 5 3 2 1 2 2 3 4 4 4 3 2 3 4 3 0 
0 1 1 2 2 3 3 2 3 3 4 4 4 3 2 3 4 4 3 2 1 2 2 2 2 2 2 2 2 1 1 1 2 2 2 2 2 2 3 3 3 3 2 2 2 2 2 1 2 2 2 2 2 2 4 5 4 3 2 3 3 3 2 2 2 2 2 2 2 2 2 2 2 2 1 1 2 3 3 2 1 2 3 3 2 1 1 1 1 1 2 2 1 1 2 2 2 3 2 2 1 1 1 2 1 1 1 0 0 0 0 0 0 0 0 0 1 1 2 3 2 3 3 3 2 2 2 2 1 1 1 1 1 1 1 1 1 1 0 0 0 0 1 1 1 1 2 2 1 1 1 1 1 1 0 0 0 0 0 0 0 0 0 0 0 0 1 1 1 1 0 1 1 2 2 2 2 2 2 2 1 1 1 1 1 0 0 0 1 1 1 1 1 1 1 1 1 1 1 0 0 0 0 0 0 0 0 1 1 2 2 2 2 2 2 3 3 3 2 1 1 1 1 2 2 1 1 1 1 2 2 3 3 3 2 1 1 0 2 3 4 3 2 1 1 1 2 3 4 3 3 3 3 3 2 0 
0 0 1 1 2 2 2 2 3 3 4 4 3 2 2 2 3 3 2 1 1 2 2 2 1 2 2 2 1 1 1 1 2 3 3 2 2 3 3 3 3 2 2 2 2 1 1 1 1 2 2 2 2 2 4 5 5 3 2 2 2 2 1 1 2 2 3 3 3 2 2 2 2 2 1 2 2 3 3 2 1 2 2 2 2 2 2 1 1 1 1 1 1 1 1 2 2 3 2 2 1 1 2 2 1 0 0 0 0 0 0 0 0 0 0 0 1 2 2 3 2 3 3 2 2 2 2 2 2 1 1 1 1 1 1 2 2 1 1 0 0 0 0 0 1 1 1 1 1 0 0 1 1 2 1 1 1 1 1 1 1 1 1 1 1 1 2 1 1 0 0 1 1 2 2 2 1 2 2 1 1 1 1 1 0 0 0 0 1 1 2 1 1 1 1 1 2 1 1 1 1 1 0 0 0 0 0 1 1 1 2 1 1 1 1 2 3 3 2 2 1 1 2 2 2 2 1 1 1 2 2 2 3 3 3 2 1 1 2 3 4 3 2 2 2 2 2 2 2 2 2 2 3 3 2 0 
0 1 2 2 2 3 3 3 3 4 4 4 3 2 2 2 3 3 3 2 2 2 3 2 2 2 2 2 1 1 1 2 3 4 3 2 2 3 4 3 3 2 2 2 2 1 1 1 2 2 3 2 2 3 5 6 5 4 3 2 2 1 1 2 2 2 3 3 3 2 2 1 1 1 1 1 2 2 3 2 2 2 2 2 1 1 1 1 2 1 1 1 1 1 2 2 2 3 2 2 1 1 1 1 1 0 0 0 0 0 1 1 0 0 0 1 2 3 2 2 2 2 2 2 2 2 2 2 1 0 0 0 0 0 0 0 1 1 1 1 1 1 0 1 1 0 0 0 0 0 1 1 1 1 0 0 0 0 0 0 0 0 0 0 0 0 1 1 1 1 1 1 1 2 1 1 1 1 1 1 0 0 0 0 0 1 1 1 1 2 1 1 1 1 1 1 2 2 2 2 1 1 1 1 1 1 1 1 2 1 2 1 2 1 1 2 2 3 2 2 1 1 2 3 3 2 2 2 2 2 2 2 3 3 3 3 2 1 2 3 4 4 3 3 3 2 2 2 2 1 1 1 2 2 2 0 
0 1 2 2 2 3 3 3 3 3 4 3 3 1 2 2 3 3 2 2 2 3 2 2 1 2 1 1 1 1 2 3 4 4 3 2 2 3 3 3 3 2 2 2 3 2 1 1 2 2 2 2 3 4 5 6 5 4 2 2 2 2 2 2 3 3 3 3 2 2 2 1 1 1 1 1 1 2 2 2 2 2 2 1 1 1 1 1 1 1 1 1 1 1 2 2 3 4 3 2 1 1 1 1 0 0 0 0 0 1 2 2 1 1 1 1 2 3 2 1 1 0 1 1 1 1 2 2 2 2 1 1 1 1 1 1 2 2 2 2 1 1 1 1 1 1 0 1 1 1 2 2 2 2 1 1 1 1 1 1 1 1 1 1 1 1 2 2 2 1 1 1 1 1 1 1 0 1 1 1 1 1 1 1 1 1 1 1 1 1 1 1 1 1 1 1 1 2 2 2 2 2 2 2 2 2 2 2 2 1 1 1 1 2 1 2 2 2 2 2 2 2 2 3 3 3 2 2 2 2 2 2 2 3 3 3 2 2 2 3 3 4 4 4 3 3 2 2 2 1 1 1 2 2 1 0 
0 1 2 2 2 3 3 3 3 3 3 3 2 1 1 2 3 3 2 1 1 2 2 2 1 2 1 2 1 2 2 3 4 3 2 2 2 2 3 2 3 1 3 3 4 3 2 2 2 3 2 2 3 4 5 6 5 3 2 2 2 2 2 3 3 2 2 2 2 2 2 1 2 2 2 2 2 2 3 3 2 2 1 1 0 0 0 0 1 1 1 1 1 2 2 3 3 3 3 2 1 1 1 0 0 0 0 0 0 1 2 2 1 1 2 2 3 3 2 1 0 0 0 0 1 1 2 2 2 2 1 1 1 1 1 1 1 2 2 2 2 1 1 1 2 2 2 2 2 2 2 2 2 1 1 1 1 1 1 1 1 1 1 1 1 1 1 2 2 2 1 1 1 1 1 1 1 1 2 2 1 1 1 1 1 1 1 1 1 1 1 1 1 1 1 1 1 1 1 1 2 2 2 2 2 2 2 2 2 1 2 1 1 2 1 2 2 2 2 1 1 1 2 3 3 2 1 1 2 2 2 1 2 3 3 3 2 2 2 2 2 2 3 3 3 3 2 2 2 2 1 2 2 2 2 0 
0 1 2 2 3 4 3 3 2 2 3 3 3 2 2 3 3 3 2 1 1 2 2 2 1 2 2 2 2 2 2 3 3 3 3 2 2 3 3 3 3 2 4 4 4 4 2 3 3 3 2 2 3 4 5 5 4 2 1 2 2 2 2 2 2 2 2 2 2 2 2 2 3 3 4 3 3 3 4 4 3 2 1 1 1 1 1 1 1 1 2 2 1 2 2 3 3 4 3 2 1 1 0 0 0 1 1 1 2 2 2 3 2 2 3 3 3 2 1 1 0 0 0 0 0 1 2 2 2 2 1 2 2 1 1 1 1 1 1 1 1 1 1 2 2 2 3 3 2 3 3 2 2 1 1 1 1 1 1 1 1 1 1 1 1 1 1 2 2 2 1 1 1 2 2 2 1 2 2 2 2 2 1 1 1 1 1 1 1 1 2 2 1 1 1 1 1 1 1 1 1 1 1 1 1 1 2 2 2 2 1 1 2 2 2 3 2 3 2 2 2 2 2 2 3 2 2 2 2 2 1 1 2 2 3 3 3 2 2 2 2 2 2 3 3 3 2 2 2 2 2 2 2 2 1 0 
0 2 3 3 4 4 4 2 2 2 3 4 4 4 3 4 3 3 2 1 1 2 2 3 2 3 3 3 2 2 2 3 3 3 3 2 3 3 3 3 3 2 4 4 4 3 2 3 3 3 2 1 2 2 4 4 3 2 1 2 2 2 2 2 2 2 2 2 2 2 2 3 4 4 5 4 4 4 5 4 4 3 2 2 2 2 2 2 1 1 2 1 1 1 2 2 3 3 2 1 1 0 0 0 1 2 3 3 3 3 3 3 3 3 3 3 3 2 1 1 1 1 0 0 1 1 2 2 1 1 1 2 2 2 1 1 1 1 1 1 1 1 1 1 2 2 2 2 2 2 2 2 1 1 0 0 0 0 0 0 0 0 0 0 0 0 1 1 2 1 1 1 2 2 2 2 1 1 1 2 2 2 2 1 1 1 1 1 2 2 2 2 1 1 1 1 1 1 0 0 0 0 0 0 0 0 1 1 2 2 1 1 1 2 1 2 2 3 3 3 2 2 2 2 2 2 1 2 2 2 1 1 1 2 3 3 4 3 3 3 2 1 1 3 3 3 2 2 2 2 2 2 2 2 2 0 
0 1 2 2 3 3 3 2 2 2 4 5 5 5 3 4 4 4 3 2 2 3 3 3 2 2 3 3 2 2 2 2 3 4 3 3 3 3 3 3 3 3 3 3 3 3 3 3 3 3 2 1 2 2 4 4 3 2 1 2 2 2 2 1 1 1 2 2 2 2 2 2 3 4 4 4 4 4 4 4 3 3 3 2 2 3 3 3 2 2 2 1 1 1 1 2 2 3 2 1 1 0 1 1 2 3 4 4 3 3 3 3 3 3 3 3 3 2 1 1 1 1 1 0 0 1 1 1 1 1 1 2 2 2 2 1 1 1 1 1 1 1 1 1 1 1 0 1 1 2 2 2 1 0 0 0 0 0 0 0 0 0 0 0 0 0 0 1 2 2 2 2 2 2 2 2 1 1 1 1 1 1 1 1 1 1 1 1 2 2 2 2 1 0 1 1 1 1 1 0 0 0 0 0 0 0 0 1 2 2 1 1 1 1 1 1 2 2 3 2 2 2 2 2 2 2 1 2 2 2 2 1 1 2 2 3 3 3 3 3 3 2 2 2 3 3 3 2 1 2 1 2 2 2 1 0 
0 1 2 2 3 3 3 2 2 2 4 5 5 4 3 3 4 4 4 3 3 3 3 3 2 2 3 3 2 2 2 3 4 4 4 3 3 3 3 3 2 3 3 3 3 3 3 3 2 2 2 1 2 2 3 4 3 2 1 2 2 2 2 1 2 2 2 2 2 2 2 2 2 3 3 3 3 3 3 3 3 2 2 2 3 2 2 1 1 1 2 1 2 1 1 1 2 2 2 1 1 1 1 1 3 3 4 3 2 2 2 3 3 2 2 2 2 2 1 1 1 2 1 0 0 0 0 1 1 1 2 2 2 2 2 2 2 1 1 1 2 2 2 2 1 1 0 0 1 1 2 2 1 1 1 1 1 1 0 0 0 0 0 0 0 0 1 1 2 2 2 2 2 2 2 2 1 1 1 1 1 1 1 1 1 1 1 1 1 1 2 2 1 1 1 1 1 1 1 1 1 1 0 0 0 0 1 2 2 2 2 1 1 0 1 1 1 2 2 2 2 2 2 2 2 2 2 2 2 2 2 2 1 2 2 2 3 2 3 3 3 3 2 2 3 3 3 2 1 1 1 2 2 2 1 0 
0 1 1 1 2 3 2 2 2 3 4 4 3 2 3 3 4 4 4 3 2 3 3 3 2 2 2 2 2 2 2 3 4 4 3 2 2 2 2 2 2 2 2 3 3 3 3 2 2 2 2 2 2 3 4 4 3 3 1 2 1 1 2 1 2 2 3 2 2 1 2 2 1 1 1 1 2 2 2 2 1 1 1 1 1 1 1 1 1 1 2 2 3 2 2 1 2 1 1 1 1 1 1 2 3 3 3 2 1 1 2 2 2 1 2 2 1 2 2 2 1 1 1 1 0 0 0 1 1 1 2 1 2 2 2 2 2 2 2 2 2 2 2 2 2 1 1 1 1 1 2 1 2 1 1 1 1 1 1 1 1 1 1 1 1 1 1 2 2 2 2 1 1 2 2 2 2 1 1 1 1 1 1 1 1 1 1 0 0 1 1 1 1 1 1 1 1 1 2 1 1 1 1 1 1 1 1 2 2 2 2 1 1 0 0 1 1 1 2 2 2 1 2 2 2 2 1 2 2 2 2 2 2 1 1 2 2 1 2 3 4 3 1 1 2 3 3 3 1 1 1 2 2 2 1 0 
0 1 2 1 2 2 2 2 2 3 3 3 2 2 3 3 3 4 3 2 2 3 3 3 2 2 2 3 3 3 2 3 4 4 3 2 2 2 2 2 2 2 2 2 3 3 3 2 2 2 2 2 2 3 3 3 3 2 2 2 1 1 2 2 2 2 3 3 2 1 2 2 2 1 1 1 2 2 2 2 1 0 1 2 2 2 1 1 2 2 2 3 2 2 2 1 1 1 1 1 1 1 2 2 3 3 3 2 1 2 2 2 2 1 1 1 1 2 2 2 1 1 1 1 1 1 1 1 1 1 2 1 1 1 1 1 2 2 2 2 2 1 1 1 1 1 1 1 1 1 2 2 2 2 2 2 2 2 1 1 1 1 1 1 1 1 1 1 2 1 1 1 1 1 2 2 2 2 2 2 1 1 1 1 1 1 1 1 1 1 1 1 1 2 2 1 1 1 2 2 1 1 1 1 1 1 1 2 2 2 2 1 1 1 1 1 1 1 1 2 2 1 2 2 2 1 1 1 2 2 2 2 2 2 2 2 2 2 3 3 3 3 1 1 2 3 3 3 2 1 1 1 2 2 1 0 
0 1 2 2 2 3 2 2 3 3 3 2 2 4 4 3 3 3 3 2 2 3 3 3 2 2 3 3 3 3 2 3 4 3 3 2 1 2 2 1 1 1 1 2 2 3 2 2 2 2 1 1 2 2 3 3 3 3 2 2 1 1 2 2 3 3 3 3 2 1 2 2 2 2 1 1 1 2 2 1 1 1 1 3 3 3 2 2 4 4 4 4 3 3 2 2 1 1 1 1 1 1 1 2 3 2 2 1 1 2 2 2 2 1 1 1 1 2 2 2 1 1 1 1 1 1 1 1 2 2 2 2 1 1 0 1 1 1 1 2 2 1 1 0 1 1 1 1 1 1 2 2 2 2 2 1 1 2 2 1 1 1 0 0 0 0 1 1 1 1 0 0 0 0 1 1 2 2 2 2 2 1 1 1 1 1 1 1 1 1 1 1 2 2 2 2 1 1 1 1 2 1 1 1 1 1 1 2 2 2 1 1 1 1 1 1 1 1 1 1 1 1 1 2 2 1 0 1 1 2 2 2 2 2 2 2 2 2 3 3 3 2 1 1 2 3 3 3 3 2 1 1 1 2 1 0 
0 1 2 1 2 2 3 3 3 3 3 2 3 4 4 4 3 3 3 2 2 3 3 3 2 2 2 2 2 2 2 2 3 3 2 2 1 1 1 1 1 0 1 1 2 2 2 2 2 1 1 0 1 1 2 3 3 2 2 1 1 1 1 1 2 3 3 3 2 1 2 2 2 2 1 1 2 2 2 1 1 1 2 3 4 4 4 4 5 6 5 4 3 3 2 2 1 1 1 1 1 1 2 2 2 2 2 1 2 2 2 2 2 1 1 1 1 2 2 2 1 1 0 0 0 0 1 1 2 2 2 2 1 1 0 1 0 1 1 1 1 1 0 0 0 0 0 1 1 1 2 2 2 2 1 1 1 1 1 1 1 1 0 0 0 0 0 0 0 0 0 0 0 0 0 1 1 1 1 1 2 1 1 0 0 0 0 1 1 1 1 1 1 1 1 2 1 1 1 1 1 1 1 1 1 1 1 1 1 1 2 2 2 2 1 1 0 0 0 1 1 1 1 1 1 0 0 0 1 1 1 1 1 1 2 2 2 1 3 3 3 2 1 1 2 2 3 3 3 2 2 1 1 1 1 0 
0 1 2 1 2 3 4 3 3 3 3 3 4 4 4 3 3 2 2 2 3 4 3 3 2 2 2 3 3 2 2 2 3 2 2 1 0 1 1 1 1 1 1 2 2 2 2 2 1 1 0 0 1 2 3 3 3 2 2 2 1 1 0 1 2 3 3 3 2 2 2 2 1 1 1 1 1 1 1 1 2 2 3 4 5 5 5 5 5 6 6 5 3 2 2 2 2 2 1 1 2 1 2 2 2 1 1 1 1 2 2 2 2 1 2 2 1 2 2 2 1 0 0 0 0 0 1 1 2 2 2 2 1 0 0 0 0 0 0 1 1 1 1 1 1 1 1 1 1 1 1 1 1 1 1 1 1 1 1 1 1 1 1 1 1 1 1 1 0 0 0 0 0 0 0 0 1 1 1 1 1 1 1 0 0 1 1 1 1 2 2 1 1 2 2 2 1 1 1 1 2 1 1 1 1 1 1 1 1 1 1 1 1 2 2 1 1 0 1 1 1 1 1 2 2 1 0 1 1 2 1 1 1 1 2 2 1 1 2 3 3 2 1 1 2 2 2 2 2 3 3 2 2 1 1 0 
0 0 1 2 3 4 4 4 3 2 3 4 4 4 3 3 3 3 2 2 2 3 3 3 2 2 2 3 2 2 2 2 2 2 2 1 1 1 1 1 2 2 2 3 3 2 2 2 1 0 0 1 2 3 3 3 3 2 1 1 1 0 0 1 2 3 4 3 3 2 1 1 1 1 1 1 2 1 2 2 2 2 3 4 5 5 6 6 7 7 6 5 3 2 2 2 2 1 1 1 2 2 2 2 2 2 1 1 1 2 2 2 2 1 1 1 1 2 2 2 1 0 0 0 0 1 1 1 1 2 1 2 1 0 0 0 0 0 0 0 1 1 1 1 1 1 1 1 1 1 1 0 1 0 0 0 0 0 1 1 1 1 1 2 2 1 1 1 1 1 1 1 1 1 0 0 1 1 1 1 1 1 1 1 2 1 1 1 1 1 1 1 1 1 2 2 2 2 1 1 1 1 1 1 1 1 1 1 0 1 1 1 1 1 1 1 1 1 1 2 2 1 2 2 2 2 1 2 2 2 1 1 1 1 2 2 1 1 2 4 3 2 0 1 2 2 2 1 2 3 3 3 2 2 1 0 
0 1 2 2 3 4 5 4 2 2 3 4 4 3 2 3 3 3 2 2 2 3 3 3 2 2 2 2 2 2 2 2 3 2 1 1 1 1 1 2 3 3 3 3 3 2 2 2 1 0 1 2 3 3 2 2 2 2 2 2 1 1 1 2 3 4 3 3 2 2 1 1 1 1 1 1 1 1 2 2 3 3 3 3 4 5 5 5 5 5 5 5 4 3 3 3 2 1 0 1 2 2 2 2 2 2 1 1 1 1 1 1 1 0 0 1 1 1 2 2 1 0 0 1 1 1 1 1 1 1 0 0 0 0 0 0 0 0 0 0 0 1 1 1 1 1 1 1 1 0 0 0 0 0 0 0 0 0 0 0 0 1 1 1 1 1 2 1 1 1 1 1 1 1 1 1 1 1 1 1 1 2 2 2 2 2 2 1 1 1 1 1 1 1 2 2 2 2 1 1 1 1 0 0 0 1 0 0 0 0 1 1 1 1 1 1 1 1 2 2 2 1 2 2 2 2 1 2 2 2 2 1 1 2 2 2 1 1 3 4 3 2 1 1 2 2 1 0 1 2 3 3 3 3 2 0 
0 1 2 3 4 5 4 4 2 3 3 4 3 3 2 3 3 3 2 2 2 2 3 3 3 3 2 2 2 2 2 2 3 2 2 1 1 1 2 2 3 3 2 2 2 2 2 1 1 0 2 3 3 2 2 2 2 2 2 2 1 1 2 3 4 4 3 3 2 1 1 1 1 1 1 2 1 1 2 2 3 3 2 2 3 4 5 6 6 6 5 5 4 4 4 3 2 1 1 1 2 2 1 2 2 2 1 1 1 2 1 1 0 0 0 1 1 1 1 1 1 1 1 1 1 1 1 0 0 0 0 0 0 0 0 0 0 0 0 0 0 0 1 1 1 1 1 0 0 0 0 0 0 0 0 0 0 0 0 0 0 0 1 2 2 1 1 1 2 2 1 1 1 1 2 1 1 1 1 0 1 1 2 2 3 1 1 1 1 1 2 2 2 1 2 2 2 1 1 1 2 1 1 1 1 2 1 0 0 0 0 1 1 1 1 0 0 1 1 1 1 1 1 2 2 1 0 1 2 2 1 1 1 2 1 1 1 1 3 4 4 3 1 1 2 2 1 0 0 1 3 3 4 4 2 0 
0 1 2 3 4 4 3 3 2 3 3 4 3 3 2 3 3 4 3 2 2 3 4 4 4 3 2 2 1 1 2 2 3 2 2 1 1 1 2 2 3 2 1 1 2 2 2 2 2 2 2 3 2 1 1 1 1 1 1 1 1 1 2 3 3 3 2 2 1 0 1 1 1 1 1 1 1 1 1 1 2 2 1 1 2 3 4 4 4 5 5 4 4 4 3 3 2 1 1 1 2 2 1 1 1 1 1 1 1 2 1 1 0 0 0 1 1 1 1 1 1 1 1 1 1 0 0 0 0 0 0 0 0 0 0 0 0 0 0 0 0 0 0 0 1 0 0 0 0 0 0 1 0 0 0 0 0 0 0 0 0 0 1 2 2 1 1 1 2 2 1 0 0 1 2 2 2 2 2 1 1 2 2 2 2 1 1 0 0 1 2 2 2 1 1 1 1 1 0 1 1 1 1 1 1 2 1 1 0 0 1 1 1 1 0 0 0 0 1 1 1 0 1 1 1 0 0 0 1 1 1 0 1 1 1 1 0 1 2 3 4 3 2 2 2 2 1 1 1 1 2 2 3 4 3 0 
0 0 1 2 3 4 3 2 2 2 3 3 3 3 2 3 3 4 3 2 2 3 4 4 4 3 1 1 1 1 2 2 3 2 1 1 1 1 2 2 2 1 1 1 2 3 2 3 2 2 3 3 2 1 1 1 1 0 0 1 1 1 2 3 3 3 2 1 1 1 1 2 1 1 1 1 1 0 1 1 2 2 1 1 1 2 3 3 3 4 3 3 3 3 2 2 1 1 1 1 1 1 1 1 1 1 1 1 1 2 1 1 0 0 1 1 1 0 0 0 1 1 1 1 1 1 0 0 0 0 0 0 0 0 0 0 0 0 0 0 0 0 1 1 2 1 1 0 0 1 1 2 1 1 0 0 0 0 0 0 0 0 0 1 1 0 0 1 1 1 1 1 1 1 1 2 2 2 2 1 1 1 1 2 2 1 1 1 1 2 2 2 2 1 1 1 1 1 0 1 2 2 2 1 1 2 1 1 1 1 1 2 2 1 1 0 0 0 0 1 1 1 1 1 1 0 0 0 1 1 1 0 0 1 1 1 0 0 1 3 4 3 3 3 2 2 1 1 2 2 2 2 3 4 3 0 
0 0 1 2 3 3 3 2 2 2 3 3 3 3 2 2 3 3 3 2 2 3 4 4 3 2 1 2 1 2 2 2 2 2 1 1 1 1 1 2 2 1 1 2 3 3 3 3 3 3 3 3 2 2 1 1 1 0 0 0 1 1 2 3 2 2 2 1 1 1 2 2 1 1 1 1 1 0 1 1 1 1 1 1 1 2 3 3 3 3 2 2 2 1 1 2 2 1 1 1 1 1 1 1 2 1 1 1 1 1 1 1 1 1 1 1 1 0 0 0 0 0 1 1 1 1 1 1 1 1 1 1 1 1 1 1 1 1 1 1 1 1 1 1 2 1 1 0 0 1 1 2 1 1 1 1 1 1 1 1 1 0 0 0 0 0 0 1 1 1 1 1 1 1 2 2 2 3 2 2 2 2 2 1 2 1 2 2 2 2 2 2 1 1 1 1 1 1 1 2 2 2 2 1 1 2 2 1 1 1 1 1 1 1 1 1 0 0 0 1 1 1 1 1 1 1 0 0 1 1 1 0 0 1 1 1 0 0 1 2 3 3 3 3 3 3 2 2 3 2 2 2 2 3 2 0 
0 1 2 3 3 3 3 3 3 2 3 3 4 3 2 3 3 3 2 2 2 2 4 3 3 2 1 2 2 3 2 2 2 1 1 1 1 1 1 1 1 1 2 2 4 4 4 4 3 3 2 2 2 2 2 2 1 0 0 1 2 2 3 3 2 2 2 1 1 2 2 2 1 1 1 1 0 0 1 2 2 2 2 2 2 3 3 3 2 2 1 1 1 1 1 2 1 1 1 0 0 1 1 1 1 1 1 1 1 1 1 1 1 1 1 1 0 0 0 0 0 0 0 1 1 1 1 1 1 1 1 1 1 1 1 1 1 1 1 1 1 1 1 1 1 1 1 1 1 1 1 1 1 1 1 1 1 1 1 1 1 1 0 0 0 0 0 1 1 1 1 1 1 1 1 2 2 2 2 2 2 2 2 2 2 2 2 2 2 2 1 1 1 0 1 1 1 1 1 2 2 2 2 1 1 2 2 2 2 1 1 0 0 1 1 1 1 0 0 0 1 1 2 1 1 1 1 0 1 1 1 1 0 1 1 1 0 0 0 1 2 3 3 3 4 3 3 3 3 3 2 1 2 3 2 0 
0 1 2 3 3 3 4 3 3 2 3 4 4 3 2 2 3 3 2 2 1 2 3 3 2 2 1 2 2 3 2 2 1 2 1 2 2 1 2 1 1 2 2 3 4 4 3 3 2 3 2 2 2 1 2 2 2 2 2 2 2 3 3 2 2 2 1 1 1 2 2 1 1 1 1 1 0 1 1 2 2 2 2 2 2 2 3 3 2 2 2 2 2 2 2 2 1 1 0 1 1 0 0 1 1 1 2 1 1 1 1 1 1 1 0 0 0 0 0 0 0 1 1 1 1 1 1 1 1 1 1 1 1 1 1 1 1 1 0 0 0 0 0 0 0 1 1 2 2 1 1 0 0 1 1 1 1 1 1 1 1 1 1 0 0 1 0 1 1 1 1 1 1 1 1 2 1 1 1 2 2 2 2 2 2 2 2 2 2 2 1 1 0 0 1 1 2 2 1 2 2 1 1 1 2 2 2 2 2 1 1 0 0 1 1 1 1 1 1 0 1 1 2 2 2 2 1 1 2 2 2 1 1 1 2 1 1 0 1 1 1 1 2 2 3 3 4 4 3 3 1 1 1 2 1 0 
0 1 2 2 3 3 3 3 3 2 3 3 3 3 2 2 3 3 2 2 2 2 3 3 2 2 2 3 3 3 2 2 1 2 2 2 2 2 2 1 2 2 3 4 4 4 3 3 2 2 2 1 1 1 2 3 3 3 3 2 2 2 2 2 2 2 2 1 2 2 2 2 1 1 1 0 0 1 1 2 2 3 2 2 2 2 2 2 2 1 2 2 2 2 2 3 2 1 0 1 1 0 0 0 1 1 1 1 1 1 1 1 0 0 0 0 0 0 0 0 0 1 1 2 1 1 1 1 1 1 0 0 0 0 1 1 0 0 0 0 0 0 0 0 0 1 1 1 1 1 1 0 0 0 0 1 0 0 0 1 1 1 1 1 1 1 1 1 1 1 1 0 0 1 1 1 2 2 2 2 1 2 2 2 1 1 2 1 2 1 1 0 0 0 1 1 2 2 1 2 2 1 1 1 1 2 2 1 1 0 0 0 0 0 0 1 1 1 1 1 1 1 2 2 2 2 2 1 2 2 2 2 2 2 2 2 1 1 1 2 2 1 1 2 3 3 4 4 3 2 1 0 1 1 1 0 
0 1 1 2 2 2 3 3 3 2 2 3 3 2 2 2 2 3 2 2 1 2 3 3 3 2 2 2 3 2 2 1 2 2 2 2 2 2 2 2 2 2 3 4 4 3 2 2 2 2 2 1 1 0 2 3 4 3 2 2 2 2 2 2 1 1 1 1 1 1 1 2 1 1 1 0 0 1 1 2 2 2 2 1 1 1 1 1 1 1 2 2 2 3 3 4 2 1 0 1 1 0 0 1 1 1 1 1 1 1 1 0 0 0 0 0 0 0 0 0 1 1 1 1 2 2 1 1 2 2 1 0 0 1 2 2 1 0 0 0 0 0 0 0 1 1 1 1 1 1 1 1 1 1 1 1 0 1 0 1 1 1 1 1 1 1 1 1 1 1 0 0 0 0 0 1 1 1 1 1 1 2 2 1 1 1 1 1 2 1 1 1 1 0 1 1 1 1 1 1 1 1 1 1 1 1 1 1 1 0 0 0 0 0 0 1 1 1 1 1 1 0 1 2 2 2 1 1 1 2 2 1 1 1 2 2 1 2 2 2 2 1 1 2 2 3 3 4 3 2 1 0 1 1 1 0 
0 0 1 1 2 2 3 3 3 2 2 2 2 2 2 2 2 2 2 1 1 2 3 3 3 2 2 2 2 1 1 1 2 3 3 2 2 2 2 2 2 3 3 4 4 3 2 2 2 2 1 1 0 0 2 3 3 2 1 1 2 2 2 2 1 2 1 1 1 1 1 2 1 1 0 0 0 1 1 2 2 3 2 2 1 1 1 1 1 1 1 2 2 3 3 3 2 1 0 0 0 0 1 1 1 1 0 0 0 0 0 0 0 0 0 0 0 0 0 0 1 1 1 1 2 2 2 2 2 2 1 0 0 1 2 2 1 0 0 0 0 0 0 0 1 1 1 0 0 1 1 1 1 1 1 1 0 1 0 1 0 1 0 0 1 1 1 1 1 0 0 0 0 0 0 0 0 0 1 1 1 2 2 2 1 1 1 2 2 2 2 1 1 1 1 1 0 0 0 1 1 1 1 1 1 0 0 0 0 0 0 0 0 0 0 0 1 1 1 1 0 0 0 1 1 1 1 1 1 1 2 1 1 1 2 2 1 2 2 2 2 2 2 2 3 3 3 3 3 2 1 0 1 2 2 0 
0 0 1 1 2 2 3 3 3 2 1 2 2 2 2 2 2 2 2 1 1 2 3 3 3 2 1 1 1 1 1 2 3 3 3 2 2 2 3 3 3 3 4 5 4 3 2 2 2 1 1 0 0 1 2 3 2 1 0 1 1 1 1 1 1 2 1 1 0 0 0 1 0 1 0 1 0 1 1 1 1 2 2 1 1 0 1 1 1 1 1 2 2 3 2 2 1 0 0 0 0 0 1 1 1 0 0 0 0 0 0 0 0 0 0 0 0 0 0 0 1 1 1 1 2 2 2 2 2 2 1 0 0 1 2 2 1 0 0 0 0 0 0 1 2 1 1 0 0 1 1 2 1 1 0 1 0 1 0 1 0 0 0 0 0 0 0 1 0 0 0 0 0 0 0 0 0 0 0 0 1 1 2 1 1 1 1 1 2 2 2 1 1 1 1 1 0 0 0 0 0 1 1 1 1 0 0 0 0 0 0 0 0 0 1 1 1 1 2 1 1 0 0 0 0 1 1 1 1 1 1 1 1 2 2 1 1 2 2 2 2 1 2 2 3 3 2 3 3 2 2 1 2 3 2 0 
0 1 1 2 2 2 3 3 2 1 1 1 2 2 1 2 2 2 2 2 2 2 4 4 3 2 1 2 2 1 1 2 3 3 3 2 2 3 3 4 4 4 4 4 3 2 2 2 2 1 1 1 1 1 2 2 2 1 0 1 1 1 1 1 2 2 1 1 0 0 0 1 0 0 0 0 0 1 1 1 1 1 1 1 1 1 1 1 1 1 1 2 2 2 2 2 1 0 0 0 0 0 1 1 1 0 0 0 0 0 0 0 0 0 0 0 0 0 0 1 1 1 1 1 2 2 2 2 2 2 1 0 0 1 2 2 1 0 0 0 0 0 0 0 1 1 1 0 0 1 1 1 0 1 0 1 0 0 0 1 1 1 0 0 0 0 0 0 0 0 0 0 0 0 0 0 0 0 0 0 0 0 1 1 2 1 2 1 2 2 1 1 1 1 1 1 0 0 0 1 0 0 1 1 1 0 0 0 1 1 1 1 1 1 1 1 2 2 2 1 1 0 0 0 0 1 1 1 1 1 1 1 2 2 2 2 2 2 2 2 2 1 2 3 3 3 3 3 2 2 1 1 2 3 3 0 
0 0 1 1 2 2 3 3 2 1 1 1 2 2 1 2 2 2 2 1 2 3 4 4 3 2 1 2 2 1 1 2 2 3 3 2 3 3 4 4 4 4 4 4 2 1 1 1 1 1 1 1 1 1 1 2 1 1 1 1 1 0 1 1 2 2 1 1 0 0 0 1 1 1 1 1 1 2 2 2 1 1 1 1 1 1 1 1 1 2 2 2 2 1 1 1 1 1 1 1 1 1 1 1 1 0 0 0 0 0 0 0 1 1 1 1 1 1 1 1 1 1 1 1 2 2 2 2 2 2 1 0 0 1 2 2 1 0 0 0 0 0 0 0 1 1 1 0 0 1 1 1 1 0 0 0 1 0 1 1 1 1 1 0 0 0 0 0 0 0 0 0 0 0 0 0 0 0 0 0 0 1 2 1 2 1 2 1 2 1 1 0 0 0 1 1 1 0 0 0 0 0 0 1 1 1 1 1 1 1 1 1 1 1 1 1 1 1 2 2 1 1 1 1 0 1 1 1 1 0 0 1 2 2 2 1 1 2 2 2 2 1 1 2 3 3 3 3 2 2 1 1 2 3 2 0 
0 0 1 1 2 2 2 2 2 1 1 2 2 2 2 2 2 2 2 1 2 3 4 3 2 2 1 1 1 1 1 1 2 2 2 2 2 3 3 3 3 3 3 3 2 1 0 1 1 1 1 1 1 0 1 1 2 2 1 1 1 0 0 1 2 2 1 0 0 0 0 1 1 1 1 1 2 2 2 2 1 1 1 1 1 1 1 2 2 2 2 2 1 2 1 1 1 1 1 1 1 1 2 2 1 0 0 0 0 0 0 1 1 1 1 1 1 1 1 1 2 0 1 1 2 2 2 2 2 2 1 0 0 1 2 2 1 0 0 0 0 0 0 0 0 1 1 1 1 1 1 1 1 0 1 0 1 0 1 1 1 1 1 1 0 0 0 0 0 0 0 0 0 0 0 0 0 0 0 1 2 2 2 2 1 1 1 1 1 2 1 1 0 0 1 1 1 1 1 1 0 0 0 1 1 1 1 1 1 1 0 0 0 0 0 0 1 1 2 2 1 1 1 1 1 1 1 1 1 0 0 0 1 2 2 1 1 2 3 2 2 1 1 2 3 3 3 2 2 1 1 1 2 3 2 0 
0 0 1 1 2 2 3 3 2 2 1 2 2 2 2 2 3 3 2 2 2 3 4 3 2 2 2 2 1 1 1 1 2 2 2 2 2 3 3 2 2 2 2 2 1 0 0 0 1 1 1 1 1 1 1 2 2 2 1 1 0 0 0 1 2 2 1 0 0 0 0 1 1 1 1 1 2 2 2 2 1 1 1 1 1 1 1 2 2 3 2 2 1 2 1 1 1 2 1 1 1 1 2 2 1 0 0 0 0 0 1 1 1 1 0 0 0 1 1 1 1 0 1 1 2 2 2 2 2 2 1 1 1 1 2 2 1 0 0 0 0 0 0 0 1 1 1 1 1 1 2 1 2 0 1 1 2 1 2 1 1 1 1 1 1 1 1 1 1 1 1 1 1 1 1 1 0 0 0 2 3 3 3 2 2 2 2 2 2 1 1 1 0 0 0 1 1 1 1 1 0 0 0 0 1 1 1 2 1 0 0 0 0 0 0 0 1 1 1 1 1 1 1 1 1 1 1 1 1 0 0 0 1 2 2 1 1 2 3 2 2 1 1 1 2 2 3 2 2 1 1 1 2 4 2 0 
0 0 1 1 2 3 3 3 2 1 1 1 2 3 3 3 3 3 2 2 3 3 3 2 2 2 2 2 1 1 1 2 2 2 2 1 2 2 2 1 1 1 2 2 1 1 0 0 1 1 1 1 1 1 2 2 2 2 1 0 0 0 0 1 1 1 1 0 0 0 0 1 1 1 1 1 2 2 2 2 1 1 1 1 1 0 1 2 2 3 2 2 1 2 1 1 1 1 1 0 0 1 2 2 1 0 0 0 0 0 1 1 1 0 0 0 0 0 0 1 1 0 1 1 2 2 2 2 2 1 1 1 1 1 2 2 1 0 0 0 0 0 0 1 2 2 1 1 1 1 2 2 2 1 1 1 1 1 1 1 1 1 1 1 1 0 1 1 2 2 2 2 2 2 2 1 1 1 1 3 3 4 3 3 2 2 2 2 2 2 2 2 1 0 0 0 1 1 1 1 1 0 0 0 0 1 1 1 1 0 0 0 0 0 0 0 1 1 1 1 0 0 1 1 2 2 2 2 2 1 1 1 2 2 2 1 1 2 3 2 2 0 0 0 1 1 2 1 2 1 1 2 2 3 2 0 
0 1 1 2 2 3 3 2 2 1 1 1 2 3 3 3 2 2 2 3 3 3 2 2 3 3 3 2 1 1 2 2 2 2 1 2 2 3 2 1 1 1 2 2 1 1 0 0 0 1 1 1 1 1 2 2 2 1 0 0 0 0 0 0 1 1 0 0 0 0 0 1 1 1 1 1 2 2 2 2 1 2 1 1 0 0 1 2 2 2 1 1 1 1 1 1 1 1 0 0 0 0 1 1 0 0 0 0 0 1 1 1 1 0 0 0 0 0 0 1 1 1 1 1 2 2 2 2 1 1 1 1 1 1 1 1 1 0 0 0 0 0 0 1 2 2 1 1 1 2 2 2 2 1 1 1 1 2 2 2 2 1 1 2 2 1 2 3 3 4 3 4 4 4 3 3 2 2 2 3 3 4 3 3 3 3 3 2 2 2 3 2 1 1 0 0 0 0 1 1 1 0 0 0 0 0 0 1 0 0 0 0 0 0 0 1 1 1 0 0 0 0 0 1 3 3 3 2 2 2 2 1 2 2 2 1 1 1 2 2 1 0 0 0 1 1 2 2 2 2 2 2 2 3 2 0 
0 1 1 2 2 2 3 2 1 0 0 1 2 3 3 2 2 2 2 3 3 3 2 2 2 3 3 2 1 2 2 2 2 2 1 2 2 2 1 1 2 2 2 1 1 1 1 1 1 1 1 1 0 0 1 2 1 1 0 0 0 0 0 1 1 1 1 0 0 0 0 1 1 1 1 1 1 1 1 2 1 2 1 1 0 0 1 2 1 1 0 0 0 0 1 1 1 1 0 0 0 0 0 0 0 0 0 0 0 1 2 2 1 1 0 0 0 0 0 1 1 1 1 2 1 1 1 1 1 0 1 1 1 1 1 1 1 0 0 0 0 0 0 1 1 1 1 1 1 1 2 2 1 1 0 1 1 1 1 1 1 2 2 2 1 1 2 3 4 5 5 6 5 5 4 4 4 5 4 4 2 4 5 6 5 3 2 2 2 2 3 3 1 0 0 0 0 0 1 1 1 0 0 0 0 0 0 0 0 0 0 0 0 0 0 1 1 1 0 0 0 0 0 2 3 4 4 3 3 3 2 2 2 2 1 1 1 2 2 1 1 0 0 0 0 1 2 2 2 2 1 2 2 2 1 0 
0 1 1 2 2 2 2 1 0 0 0 1 2 3 3 2 2 1 2 2 2 2 2 2 2 2 2 2 1 1 2 2 2 2 1 1 2 1 2 2 2 2 1 1 1 1 1 0 1 1 1 1 0 0 1 1 1 1 0 0 0 0 0 1 1 1 1 1 0 0 1 1 2 1 1 1 1 1 1 1 1 2 1 1 1 1 1 1 0 0 0 0 0 0 0 1 1 0 0 0 0 0 0 0 0 0 0 0 0 1 2 2 2 1 1 0 0 0 0 1 1 1 2 2 2 1 1 1 0 0 0 1 1 0 0 1 1 0 0 0 0 0 0 0 1 0 0 0 1 1 2 2 1 0 0 0 1 1 1 2 2 2 2 2 2 2 3 3 4 5 5 6 6 5 5 5 4 5 6 7 7 7 6 5 5 4 2 2 2 3 3 2 1 0 0 0 1 1 1 1 1 0 0 0 0 0 0 0 0 0 0 0 0 0 0 1 1 0 0 0 0 0 0 2 4 4 4 4 3 4 3 3 3 2 2 1 1 2 2 1 0 0 0 0 0 1 1 2 2 2 2 2 2 2 1 0 
0 1 1 1 2 2 1 1 0 0 1 2 2 2 3 3 2 2 2 2 2 2 2 2 2 2 1 1 1 1 1 2 2 2 2 1 1 2 3 3 3 2 1 1 1 1 1 0 0 1 1 1 0 0 1 2 1 1 0 0 0 0 0 1 2 2 1 1 1 0 1 2 2 2 1 1 1 1 0 0 1 1 1 1 1 1 1 1 0 0 0 0 0 0 0 1 1 0 0 0 0 0 0 0 0 0 0 0 0 1 2 2 2 2 1 0 0 1 1 1 1 1 1 1 1 1 1 1 1 0 0 1 1 0 0 1 1 0 0 0 0 0 0 0 0 0 0 0 1 1 2 2 1 1 0 0 1 1 1 1 1 2 2 2 2 2 2 4 4 5 7 7 8 7 7 9 13 17 21 21 18 15 12 9 6 3 2 2 2 3 3 3 1 0 0 1 1 1 1 1 0 0 0 0 0 0 0 0 0 0 0 0 0 0 0 1 1 0 0 0 0 0 0 2 3 3 3 3 3 4 3 4 3 2 2 2 2 2 2 2 1 0 0 0 0 1 1 2 1 2 1 1 2 2 1 0 
0 0 1 1 2 2 1 1 0 1 1 2 2 2 2 3 3 2 2 2 2 2 2 2 2 2 1 1 1 1 0 1 2 2 2 1 1 2 4 4 3 2 1 1 1 1 1 0 0 1 1 1 1 1 2 3 2 1 0 0 0 0 1 1 2 2 1 1 1 0 1 2 3 2 1 1 1 1 1 0 1 2 2 2 1 1 0 0 0 0 0 0 0 0 0 1 1 0 0 0 0 0 0 0 0 0 0 0 0 1 2 1 1 1 1 1 1 2 2 2 2 2 2 1 2 1 2 2 1 0 0 1 1 0 0 1 1 0 0 0 0 0 0 0 0 0 0 0 1 1 2 2 1 1 1 1 1 1 1 1 1 1 1 1 1 1 1 3 4 6 7 8 9 9 15 28 46 66 82 89 85 69 49 30 17 8 4 2 2 4 4 3 1 0 0 1 1 1 0 0 0 0 0 0 0 0 0 0 0 0 0 0 0 0 0 1 1 0 0 0 0 0 1 2 3 3 3 4 3 5 4 4 3 3 2 2 2 2 2 2 1 1 1 1 1 1 1 1 1 1 1 1 2 2 2 0 
0 0 1 1 1 1 1 1 1 1 1 2 2 1 2 3 3 3 2 2 2 2 2 2 3 2 2 2 1 1 0 1 2 3 3 2 2 4 4 4 3 2 1 1 1 1 1 1 1 1 1 1 1 1 2 3 2 2 0 0 0 0 1 2 3 2 2 2 1 1 1 2 3 2 1 2 2 2 1 1 1 2 2 2 1 1 0 0 0 0 0 0 0 0 0 1 1 0 0 0 0 0 0 0 0 0 0 0 0 1 2 2 2 2 1 2 3 4 4 5 4 4 3 2 2 2 2 2 1 0 0 1 1 0 0 1 1 0 0 0 0 0 0 0 1 0 0 0 1 1 2 2 1 1 1 1 1 2 2 2 3 3 3 3 3 3 4 5 6 8 9 10 11 23 50 90 128 153 163 166 162 151 126 88 50 22 9 4 3 4 3 3 1 1 1 1 1 0 0 0 1 1 1 1 1 1 1 1 0 0 0 0 0 0 0 1 1 0 0 0 0 0 1 2 2 3 2 4 3 5 4 4 3 2 2 1 1 2 2 2 2 1 1 1 1 1 1 1 1 1 1 1 2 2 2 0 
0 0 1 1 1 2 1 1 1 1 2 2 1 1 2 3 3 3 2 3 2 2 3 3 3 2 2 2 1 1 0 1 2 3 3 2 2 4 5 4 2 1 1 1 1 2 2 2 1 1 2 2 2 2 3 3 3 2 2 2 2 1 2 2 3 2 2 2 2 2 1 2 2 2 2 2 3 2 1 1 1 2 2 1 0 0 0 1 1 1 1 1 1 0 1 1 1 1 0 0 1 1 1 0 0 0 1 1 2 2 2 2 2 2 3 4 5 7 8 9 9 8 7 5 4 3 2 2 2 1 1 1 1 1 1 2 2 2 1 0 0 0 1 1 2 1 1 0 1 1 2 2 2 1 1 1 1 1 2 2 3 3 3 3 3 3 4 6 6 7 10 13 29 68 121 174 200 200 187 175 172 179 183 161 115 59 22 8 4 4 3 2 1 1 1 2 1 1 2 2 3 4 3 3 2 2 2 2 1 0 0 0 0 0 1 2 1 1 0 0 0 0 1 2 3 3 2 4 4 6 4 4 3 2 1 0 1 1 2 2 2 2 2 2 1 1 1 0 1 1 1 1 2 2 1 0 
0 1 2 2 2 2 1 1 1 1 2 1 1 1 1 2 3 3 2 3 3 2 3 3 3 2 2 2 2 1 0 1 2 2 2 1 2 4 4 4 2 1 0 1 1 2 2 2 1 1 2 2 2 2 2 3 3 3 4 4 4 3 4 4 4 4 3 3 2 2 1 2 2 2 2 3 4 3 2 1 1 1 1 1 0 0 1 2 2 2 2 2 2 2 2 2 3 3 3 3 3 3 3 3 2 2 2 2 2 2 2 3 3 4 6 10 18 27 35 39 39 35 28 21 13 9 4 3 2 2 2 2 3 3 2 3 3 3 2 2 2 1 2 2 3 2 2 1 2 2 3 2 2 1 1 1 1 1 2 3 4 4 4 4 5 5 6 7 7 6 12 29 73 136 194 224 213 187 158 142 144 163 192 201 178 116 50 15 4 3 3 2 2 2 2 2 2 2 3 4 6 6 6 5 3 3 3 3 2 1 1 1 1 1 2 2 2 2 1 1 1 1 1 2 2 2 2 3 3 4 3 4 2 1 0 0 0 1 2 2 3 2 2 2 1 1 1 1 2 2 2 2 2 2 1 0 
0 1 2 2 2 2 2 1 1 1 2 2 1 0 1 2 3 3 2 3 3 3 3 3 3 2 2 2 1 1 0 1 1 2 2 1 2 3 4 3 2 1 1 2 2 3 2 2 1 2 2 2 3 3 3 3 3 4 4 5 5 5 4 4 4 4 4 4 4 4 3 2 2 2 3 4 4 3 2 1 1 1 1 1 0 1 2 3 3 2 3 3 5 5 6 7 9 10 9 7 5 6 5 5 4 4 3 3 3 4 4 4 5 8 18 41 72 102 123 132 131 122 104 79 50 28 12 6 4 3 3 3 4 4 5 5 4 4 4 3 3 3 4 4 5 3 2 2 3 3 4 3 3 2 2 2 3 2 3 3 3 3 3 3 4 4 5 6 6 7 24 67 140 206 233 213 171 128 90 69 71 102 163 206 216 169 90 29 6 3 3 2 2 3 3 3 3 6 10 16 20 21 20 16 11 7 5 4 4 2 2 2 3 3 3 3 3 2 2 2 1 2 1 1 1 1 1 1 2 2 2 2 1 1 0 0 0 0 1 2 2 2 2 2 1 1 1 1 2 2 1 2 2 2 1 0 
0 2 2 2 2 3 2 1 1 2 2 2 1 0 1 1 2 2 2 3 3 3 3 3 3 2 2 2 1 1 0 1 1 2 2 1 1 2 3 2 2 1 2 2 3 3 2 2 2 2 2 2 2 2 3 3 3 4 4 5 5 6 6 5 5 5 5 4 3 3 3 3 2 3 3 4 4 4 3 2 1 2 2 2 2 2 2 3 4 4 5 6 9 10 18 27 38 45 43 37 24 15 8 7 6 6 5 6 6 7 6 6 8 26 64 114 160 190 203 205 205 199 186 163 122 77 36 14 5 4 4 5 5 5 5 4 4 6 8 12 12 11 9 8 7 6 4 4 5 6 5 4 3 3 2 3 3 3 3 3 3 2 2 2 3 3 4 4 6 15 53 125 201 236 208 142 92 67 63 58 61 69 113 174 222 207 131 48 8 4 4 3 3 5 4 5 10 22 37 49 55 56 53 47 38 27 17 9 5 3 3 4 4 4 3 3 3 2 2 2 1 2 1 1 0 0 0 0 0 0 1 1 1 1 0 0 0 1 1 1 2 2 2 2 1 1 1 1 2 2 1 1 2 2 1 0 
0 1 1 1 2 2 2 1 1 2 2 2 1 0 0 1 2 2 2 3 3 3 3 3 3 2 2 2 1 1 0 1 1 2 2 1 1 2 2 2 1 1 2 2 3 3 2 3 3 2 2 2 2 2 2 3 4 5 4 5 7 9 9 8 7 6 5 4 3 4 4 3 3 3 3 4 5 4 3 2 2 3 3 4 3 4 4 5 5 8 7 11 21 40 72 102 126 138 134 118 87 53 26 12 8 6 6 6 7 7 7 8 26 72 137 194 223 224 215 206 203 207 213 213 193 146 84 33 9 4 4 6 6 6 6 7 14 26 40 51 56 53 43 32 20 13 6 5 4 5 6 5 3 3 3 4 4 4 4 4 3 3 2 3 3 4 4 6 15 34 97 181 233 221 146 75 56 72 95 102 103 90 94 139 204 222 162 71 15 7 5 4 3 6 6 16 34 56 76 83 84 81 78 75 68 57 43 27 15 7 4 4 4 4 4 3 3 2 2 2 1 1 1 1 0 0 0 0 0 0 0 1 1 1 1 1 2 2 2 1 1 1 1 1 1 1 1 1 1 0 0 1 1 1 1 0 
0 1 1 2 1 2 2 1 1 2 2 2 1 0 0 1 1 2 2 3 3 3 3 3 3 2 2 2 1 1 0 1 2 2 2 1 1 1 2 1 1 0 1 2 2 3 3 4 4 3 2 2 2 2 2 3 3 7 13 24 36 43 44 38 30 21 13 8 6 5 4 3 2 3 3 4 4 4 3 3 3 4 4 5 5 6 6 7 7 11 13 35 71 117 162 188 202 204 199 187 159 119 72 35 15 7 7 7 7 7 7 17 65 141 208 235 214 177 147 133 132 140 162 191 218 200 141 68 18 6 7 7 7 5 9 22 48 77 100 110 107 101 93 82 62 39 17 8 5 7 6 5 4 3 3 3 3 3 3 4 3 3 2 3 3 4 5 11 28 64 146 218 232 178 87 42 54 102 138 148 145 118 93 113 185 225 180 89 20 9 6 5 4 8 16 40 71 95 104 95 85 77 74 76 77 75 66 50 31 15 6 4 4 4 4 3 3 2 2 1 1 1 1 1 0 0 0 0 0 0 0 1 1 1 2 2 2 3 3 2 2 1 0 1 1 1 2 1 1 0 0 1 1 2 1 0 
0 1 1 2 1 2 2 1 2 2 2 2 1 1 1 2 1 2 1 2 3 3 3 2 2 2 2 2 1 1 1 1 2 2 2 1 1 1 2 1 1 1 1 2 3 3 4 4 5 4 3 3 2 2 2 4 13 29 54 81 103 116 119 112 99 81 59 36 19 10 6 4 3 3 3 4 4 4 3 3 3 4 5 5 5 6 7 7 7 13 35 86 144 194 217 217 208 196 195 201 199 183 144 90 43 14 6 5 5 4 12 44 123 206 242 215 144 92 67 72 85 94 106 132 192 221 187 108 33 9 8 8 8 10 30 66 109 137 146 140 128 119 115 114 106 82 46 19 6 5 5 4 3 2 3 3 2 2 2 4 3 4 3 4 4 5 9 23 50 100 180 224 204 127 46 34 75 131 164 191 186 147 102 101 176 225 189 99 25 11 6 5 4 12 36 77 111 119 103 78 61 51 49 52 60 69 76 71 54 31 12 4 4 4 5 3 4 2 2 1 1 1 2 1 1 0 0 0 0 0 0 1 2 2 2 3 3 3 3 2 2 1 0 0 1 1 2 2 1 1 1 1 2 2 1 0 
0 1 1 1 1 1 1 1 2 2 2 2 2 1 2 2 2 2 1 2 3 3 2 2 2 2 2 2 2 2 1 1 2 2 2 0 0 1 2 2 1 2 2 2 3 4 5 5 4 4 3 3 3 3 4 13 37 76 117 146 158 161 160 157 152 142 124 98 67 37 17 6 3 3 3 3 3 3 3 3 4 4 4 4 4 5 6 7 8 21 74 149 211 231 206 170 140 125 127 145 171 197 197 158 95 39 11 5 4 8 26 85 180 241 227 151 69 42 54 84 104 107 85 94 147 213 211 142 51 13 7 9 9 27 71 122 158 162 147 127 108 98 100 118 133 125 90 45 15 6 5 3 3 3 3 2 2 2 3 5 5 6 5 5 4 7 16 40 78 130 190 208 168 91 32 34 87 149 199 230 205 155 101 96 174 224 191 103 31 17 13 10 11 25 67 114 133 119 81 49 32 23 22 26 35 45 60 71 69 50 23 6 4 4 5 4 4 2 2 1 1 2 2 2 1 0 0 0 0 0 0 1 2 2 3 3 3 2 2 2 1 1 0 0 1 1 2 2 1 1 1 1 2 2 1 0 
0 0 1 1 1 1 1 1 1 2 2 2 2 1 2 3 2 2 1 2 3 3 2 1 1 1 2 2 2 2 1 1 2 2 2 1 1 2 2 3 3 3 4 4 4 5 5 4 4 4 3 3 3 3 8 35 84 136 168 172 162 151 147 150 158 162 158 146 121 85 46 18 5 4 3 2 2 3 3 4 4 4 5 4 3 3 3 5 9 40 125 205 240 205 135 85 61 66 83 107 128 168 205 208 157 80 26 8 8 20 51 132 218 239 185 87 32 38 78 116 145 158 112 97 120 200 218 160 63 13 5 9 17 59 120 165 173 140 108 85 67 60 66 90 128 144 130 80 32 7 4 3 4 3 3 2 2 2 3 5 7 7 7 5 4 8 25 59 103 145 178 177 134 73 24 27 71 120 153 169 156 121 81 95 176 215 190 116 60 48 40 33 32 53 104 141 140 107 59 37 29 25 27 32 36 38 46 61 74 66 40 12 3 4 5 3 4 2 2 2 1 2 2 2 1 0 0 0 0 0 0 1 1 2 3 3 3 2 1 2 2 2 1 1 1 2 2 2 1 2 2 2 2 2 1 0 
0 0 1 1 0 1 0 1 2 2 2 2 2 2 2 2 2 2 2 2 3 3 2 1 1 1 2 2 2 2 1 1 2 2 2 2 2 2 3 3 3 4 4 3 4 5 5 4 4 4 3 3 3 4 18 68 132 176 176 142 108 87 82 88 103 123 141 155 154 132 90 46 16 6 3 2 2 3 4 4 4 5 5 5 5 4 5 10 21 74 171 233 224 144 63 34 47 80 103 121 114 142 180 217 204 130 50 12 16 39 84 170 228 213 138 45 24 43 92 132 169 180 122 102 115 199 221 164 66 11 4 11 35 99 160 181 150 91 60 54 49 42 37 49 97 136 152 115 57 15 5 4 5 4 4 4 6 9 10 10 10 10 9 5 6 11 35 76 120 144 152 142 110 74 33 25 44 79 112 128 110 78 66 102 171 192 169 112 80 74 69 64 64 87 132 148 134 90 54 43 33 33 42 46 49 39 35 46 69 75 55 21 3 4 4 3 4 2 2 2 1 2 2 2 1 1 1 1 1 0 0 0 1 2 3 3 3 2 2 2 2 2 2 2 2 2 2 1 1 2 2 1 2 2 1 0 
0 1 1 1 1 1 1 1 1 1 2 2 2 2 2 2 2 2 2 3 3 3 2 1 1 2 2 2 2 2 2 2 3 3 3 2 2 3 3 3 4 4 4 3 5 5 5 5 5 5 4 4 4 8 34 106 167 185 146 82 46 28 26 31 42 62 86 113 141 151 132 85 38 13 5 4 4 5 7 11 16 22 24 21 15 9 10 20 44 112 202 235 190 93 28 27 64 115 146 168 126 112 140 196 225 172 82 21 28 62 112 184 214 178 103 25 18 39 79 112 135 134 99 90 124 206 220 157 58 10 9 24 66 139 181 171 110 52 41 55 63 74 74 66 83 117 152 139 83 26 6 5 5 7 11 22 35 44 46 43 36 26 18 10 7 12 42 87 129 137 126 113 98 80 50 32 30 38 48 53 45 49 69 117 157 155 126 89 78 76 74 74 78 101 138 138 123 80 59 50 38 42 57 62 74 53 37 37 60 78 64 32 4 3 4 3 3 2 2 2 1 2 2 1 1 1 1 1 1 1 0 0 0 1 2 3 2 2 1 2 2 2 2 2 2 2 2 1 1 1 2 1 2 2 1 0 
0 1 1 2 1 1 1 1 1 1 2 2 2 2 2 2 2 2 2 3 3 2 1 1 1 2 2 2 2 2 1 2 4 5 4 3 2 3 3 3 4 4 4 3 5 5 7 5 4 4 4 4 8 20 58 136 181 171 107 39 20 15 16 17 30 49 70 90 113 139 149 123 68 26 8 6 8 17 36 61 83 98 99 89 68 43 31 40 75 140 210 214 153 63 13 23 65 123 159 192 152 108 108 167 228 199 110 32 40 83 129 178 188 149 88 26 15 27 52 79 98 95 78 85 152 221 214 138 45 12 22 48 100 166 183 148 78 35 36 60 76 80 81 70 73 103 140 151 105 39 8 6 11 25 48 76 96 107 108 103 91 70 47 26 15 15 43 88 131 136 115 95 85 80 68 53 41 30 26 21 27 53 93 131 135 111 78 57 53 52 53 55 64 90 124 119 109 76 65 58 45 47 63 67 76 57 39 34 56 78 69 39 7 3 4 3 3 2 2 1 1 1 2 1 2 1 1 1 1 1 0 0 0 1 2 3 2 1 1 2 2 2 2 2 2 1 2 1 2 1 2 1 2 3 2 0 
0 1 1 1 1 1 1 1 2 2 2 2 3 2 2 2 2 2 3 3 3 2 1 1 1 2 3 3 2 2 1 2 3 4 3 4 5 6 5 4 4 4 4 4 5 7 6 6 4 3 4 8 21 42 88 154 178 148 80 26 17 17 15 17 39 59 67 67 71 113 143 147 101 45 13 11 26 59 107 149 176 189 189 179 156 119 86 78 101 148 193 181 125 52 9 16 46 94 125 144 122 84 77 149 223 210 128 41 50 97 133 158 157 128 89 44 26 27 36 46 52 55 69 114 191 226 190 106 32 19 39 74 127 172 166 120 56 27 35 64 95 113 135 106 78 96 128 154 119 50 11 15 36 73 111 137 148 152 150 147 143 128 104 69 39 23 38 81 128 144 128 100 80 71 66 63 60 52 40 28 39 71 111 130 112 76 45 29 25 23 25 28 41 65 101 106 95 73 62 63 51 47 57 63 66 52 34 31 55 78 70 40 9 2 5 3 4 2 2 2 2 1 2 1 2 1 1 0 1 1 0 0 0 0 2 3 2 1 0 2 1 1 1 1 2 1 1 0 1 0 1 1 2 3 2 0 
0 0 1 1 1 1 1 1 1 2 2 3 3 3 2 2 1 2 3 3 3 2 2 1 1 2 2 2 1 1 0 1 3 4 4 5 5 7 7 5 4 4 5 5 4 6 7 5 3 3 5 15 38 69 112 155 160 123 64 28 20 20 16 19 45 74 98 99 64 92 129 156 129 66 22 25 69 130 187 217 221 218 218 219 215 192 157 132 122 138 163 150 111 60 19 13 25 54 85 103 92 65 60 138 211 210 142 52 56 100 132 140 134 114 94 67 50 45 43 45 52 73 115 174 221 210 148 68 21 26 57 94 133 158 140 96 44 21 32 56 90 105 123 107 75 89 125 156 125 56 20 42 86 131 159 163 153 140 135 142 151 155 148 124 86 48 36 61 108 141 149 133 108 85 69 63 66 68 59 46 54 85 114 117 91 59 39 29 28 26 24 19 26 43 82 96 88 75 56 59 54 48 49 52 51 41 29 34 60 79 68 37 9 3 5 3 4 2 2 2 2 2 2 2 2 1 1 0 1 1 0 0 0 0 2 3 2 1 0 1 1 1 1 1 1 1 2 0 1 0 1 1 2 3 2 0 
0 0 0 0 1 1 1 1 2 2 2 3 3 3 2 2 1 2 2 3 3 3 2 1 1 2 2 2 1 0 0 1 2 4 6 9 11 15 15 14 11 7 5 5 5 7 6 4 3 3 8 24 57 93 122 140 131 99 56 31 22 24 16 16 40 62 78 80 54 67 115 157 148 86 37 59 133 200 231 219 189 170 167 181 203 216 204 176 142 120 125 124 108 78 46 28 20 22 35 44 44 44 54 131 205 228 185 100 79 97 127 137 128 106 91 77 68 71 75 82 100 132 177 213 212 163 94 41 29 45 72 99 121 137 123 86 50 21 29 43 72 93 102 89 63 86 132 159 123 58 42 90 145 173 167 137 106 86 80 88 107 135 157 162 136 87 48 43 77 118 148 159 154 138 121 112 113 116 108 90 84 93 105 99 76 55 43 38 40 40 41 35 35 41 70 88 81 66 52 52 48 46 43 41 37 30 28 42 68 79 61 29 6 3 4 3 3 2 2 2 2 2 2 2 2 1 1 0 1 1 0 0 0 0 2 3 2 1 0 1 0 0 0 1 1 1 2 1 1 0 1 1 2 3 2 0 
0 0 0 0 1 1 2 2 2 2 2 3 3 3 2 2 2 2 3 3 3 3 2 2 2 2 3 2 2 1 1 2 3 9 22 42 62 76 74 61 41 23 12 6 5 6 6 4 2 3 11 32 69 106 120 118 100 78 54 37 22 23 18 16 28 47 64 66 49 51 105 158 157 103 61 107 192 235 217 155 100 74 74 91 125 163 186 181 148 113 99 107 106 86 66 49 38 28 19 21 26 38 55 116 182 226 221 174 136 117 121 138 144 128 109 95 85 88 100 121 150 185 209 205 164 106 66 54 64 75 84 90 95 110 118 101 72 32 24 29 44 59 66 59 53 95 146 158 113 65 82 143 181 171 126 78 51 46 49 57 65 86 119 159 166 128 72 31 40 74 113 148 170 176 172 166 169 173 164 134 108 87 84 80 68 60 51 51 54 49 51 42 42 41 57 75 75 58 42 45 45 42 38 35 31 30 38 59 77 75 51 20 4 3 4 4 3 3 2 2 1 1 1 1 2 1 1 0 1 1 0 0 0 1 2 3 2 1 0 1 0 0 0 1 1 2 1 1 2 0 1 1 2 3 2 0 
0 0 0 0 1 1 2 2 2 2 2 3 3 3 2 1 1 2 3 3 4 4 4 3 3 4 5 5 4 4 4 6 18 46 88 130 156 168 167 152 120 76 36 13 7 7 6 3 1 3 12 34 73 110 117 102 79 64 50 40 22 18 13 12 14 21 32 38 35 41 101 159 157 112 87 157 229 229 163 79 36 22 26 36 60 89 123 146 141 126 110 110 120 101 82 66 56 48 33 21 17 28 46 84 136 191 226 226 197 163 138 133 153 162 155 144 137 140 150 168 186 198 187 150 103 75 74 87 93 87 76 64 65 80 110 117 99 68 40 33 33 33 34 42 70 124 161 147 99 79 127 178 180 131 70 37 37 51 64 71 64 67 78 129 166 153 98 36 18 33 61 97 134 161 176 180 182 188 189 159 119 72 57 61 63 66 60 62 68 65 73 57 49 39 48 68 73 62 43 42 48 55 52 45 42 47 61 78 81 64 37 13 4 4 4 4 4 4 3 2 2 3 4 4 3 1 1 1 2 2 2 0 0 1 2 2 2 1 1 2 0 1 0 0 1 1 1 1 1 1 2 1 2 3 2 0 
0 0 1 1 2 2 2 2 2 2 2 3 3 3 2 2 2 3 4 4 4 4 5 5 6 7 7 7 6 6 9 24 63 120 173 206 218 220 219 213 195 152 90 39 12 7 6 3 2 3 11 32 70 109 122 105 78 60 46 38 24 20 18 20 21 19 24 28 34 54 117 162 148 112 115 195 236 199 108 38 19 19 32 44 57 61 75 104 133 142 153 137 152 144 126 113 103 93 70 42 24 22 31 50 81 122 167 209 226 204 170 138 137 160 173 175 174 174 176 177 173 157 124 87 71 83 102 109 96 75 56 38 39 52 88 117 114 94 63 48 43 44 51 75 113 153 159 121 87 102 161 185 147 80 31 26 45 72 81 90 70 67 53 99 149 162 113 43 10 12 22 39 65 91 114 131 147 172 193 168 119 57 33 46 60 72 68 68 73 68 68 54 43 37 50 80 91 87 75 72 76 77 76 69 65 70 81 86 72 47 22 8 4 5 6 4 5 6 7 7 7 5 5 5 5 4 2 1 3 2 3 1 1 2 2 2 2 2 1 2 1 1 0 0 1 1 1 1 1 1 1 1 2 2 2 0 
0 0 1 1 2 2 2 3 2 2 2 3 3 3 2 3 3 4 5 5 5 5 6 6 8 8 8 8 8 9 23 67 137 199 228 224 203 188 190 207 224 210 154 83 28 10 9 7 5 5 9 25 58 98 125 122 99 73 49 34 22 23 27 30 31 31 36 43 59 92 142 155 132 108 140 210 221 162 70 23 15 27 59 89 113 101 75 81 133 168 191 167 162 178 175 171 168 162 133 85 40 17 16 24 33 52 82 133 198 227 203 154 115 119 144 158 163 161 154 141 120 94 64 56 78 109 120 101 72 49 38 28 28 35 58 93 110 107 82 62 56 64 84 116 145 153 127 88 77 124 172 165 104 37 13 25 53 89 96 115 84 80 49 90 137 162 118 48 8 7 8 12 18 27 39 50 71 114 160 155 113 51 23 39 59 75 76 70 71 71 67 53 40 42 56 90 105 106 100 92 95 94 90 83 80 83 86 76 53 28 12 7 6 6 6 6 9 13 19 25 28 27 24 16 11 7 5 4 4 4 4 2 2 2 3 2 2 2 2 3 1 1 0 0 1 1 0 0 0 1 2 2 2 2 1 0 
0 0 0 1 2 2 2 2 2 3 2 3 3 3 3 3 4 5 5 5 5 5 6 8 9 9 9 8 9 17 59 133 207 236 214 162 115 92 98 135 191 226 204 134 55 15 8 6 7 7 9 16 40 76 113 133 131 110 80 53 33 28 31 38 44 48 55 69 97 132 154 137 116 101 154 204 193 131 50 18 16 39 93 130 162 149 112 87 133 187 206 189 146 169 183 187 189 198 181 130 65 19 9 15 22 29 39 65 131 209 230 178 102 58 71 89 100 102 96 82 62 42 30 59 107 129 120 75 44 33 35 36 37 34 39 61 89 111 114 106 98 101 117 136 140 121 83 57 66 130 166 149 86 24 10 21 45 81 82 87 65 72 46 93 135 161 117 48 10 8 6 6 7 6 10 15 43 102 164 170 128 68 37 44 61 77 83 76 65 59 52 40 40 55 67 93 99 102 96 83 83 80 79 75 73 75 72 56 33 14 7 7 7 8 7 14 27 52 81 106 119 116 102 76 49 25 12 6 5 4 3 2 1 2 2 2 2 2 2 4 2 1 0 0 1 1 0 0 0 1 2 2 2 2 1 0 
0 0 0 0 1 2 2 2 2 2 2 2 2 3 2 3 4 5 5 5 4 5 5 7 8 8 8 8 16 38 113 195 240 216 144 80 49 40 40 62 122 204 226 177 88 20 9 9 10 10 12 15 26 48 82 116 140 146 132 109 86 74 68 69 71 78 93 113 138 152 138 108 97 106 154 178 161 111 51 21 16 42 116 163 210 191 137 99 131 194 207 167 100 109 134 156 182 224 218 162 83 19 8 20 37 52 58 51 88 171 233 207 120 35 19 26 32 33 30 23 18 20 37 90 131 130 106 52 45 44 45 44 45 37 33 39 67 105 130 135 126 121 122 120 102 70 37 33 61 125 162 155 103 46 20 17 32 65 81 89 76 68 49 101 136 163 132 78 51 40 25 13 9 7 13 29 80 154 207 197 144 85 59 58 67 80 85 80 61 47 36 31 51 74 77 88 75 78 71 58 52 45 45 47 48 50 47 36 23 12 8 8 6 9 18 46 87 135 171 193 202 200 190 167 129 81 38 15 7 4 3 2 2 2 2 2 2 2 3 4 2 1 0 0 1 1 0 0 0 1 2 3 2 2 0 0 
0 0 0 0 1 2 2 2 2 2 2 2 2 2 2 3 4 5 5 4 4 5 5 7 6 8 8 11 26 73 167 231 230 157 74 52 60 78 70 63 82 170 227 201 117 28 9 10 12 13 16 20 25 35 54 79 110 137 152 151 143 134 127 123 121 125 133 140 142 129 103 89 92 114 139 143 129 99 57 23 14 35 106 153 194 181 133 117 149 206 205 147 63 43 65 100 145 206 214 164 85 18 15 38 76 102 116 82 83 143 221 221 145 46 17 21 22 21 21 22 23 35 62 114 134 120 87 49 51 50 54 57 58 43 32 32 62 101 129 133 120 107 94 83 60 36 19 22 44 91 140 159 140 96 50 23 18 38 57 69 71 66 58 105 148 195 190 159 145 127 98 60 29 13 28 76 149 213 234 195 134 85 66 63 68 85 92 90 68 45 38 46 74 85 86 84 61 58 36 25 20 17 18 21 22 24 26 25 22 17 12 9 9 22 59 119 178 215 227 225 221 221 225 223 202 157 95 42 13 5 3 3 1 1 2 2 2 3 3 4 2 1 0 0 1 1 0 0 0 1 2 3 3 2 0 0 
0 0 0 0 2 2 2 2 2 2 2 2 2 2 2 3 4 5 5 5 4 5 5 7 5 7 9 20 46 116 203 234 193 97 39 66 95 134 114 86 76 148 223 212 132 36 10 12 21 40 63 85 98 103 104 107 117 123 133 143 151 152 149 147 144 140 136 128 126 124 120 115 127 133 124 113 106 92 67 33 15 23 77 127 158 164 158 160 181 212 184 123 48 23 40 82 136 198 201 148 73 14 20 61 112 136 160 110 97 130 206 222 161 64 29 29 27 25 23 23 24 41 74 121 125 107 70 53 53 51 53 53 49 37 29 35 62 86 114 114 98 87 63 53 35 19 11 13 28 60 107 147 161 142 96 49 19 20 39 55 63 62 64 102 149 197 210 209 210 203 181 137 82 48 73 150 223 250 220 155 96 62 51 51 57 82 102 103 82 56 57 73 87 86 93 80 77 63 40 26 16 14 13 14 13 14 17 21 24 22 16 10 18 62 131 198 234 228 202 173 155 152 170 202 223 215 164 91 34 8 3 3 2 1 2 2 2 3 3 4 2 1 0 0 1 1 1 0 0 1 2 3 2 2 1 0 
0 0 0 0 2 3 3 2 2 2 3 3 3 3 3 3 4 5 5 5 5 5 5 6 5 8 15 35 73 150 214 212 148 57 28 87 125 193 159 113 89 144 222 217 133 41 18 42 77 119 154 177 189 191 186 175 163 152 146 130 123 124 127 126 121 114 114 124 142 139 143 144 142 127 100 83 82 82 70 44 24 24 66 125 170 185 172 172 182 177 135 84 34 25 52 103 151 192 177 123 64 18 26 77 136 173 204 131 107 125 193 214 162 66 31 27 25 22 21 22 25 44 76 121 126 103 69 51 56 50 48 50 51 50 45 52 69 68 76 67 55 56 35 36 24 14 10 9 15 29 59 102 144 163 143 93 44 19 27 45 60 68 72 92 124 158 179 188 198 215 226 209 152 115 140 212 254 226 155 87 46 32 31 35 42 71 107 124 117 93 89 91 89 88 96 81 92 62 50 31 19 16 14 13 11 9 9 13 21 24 21 21 49 123 201 241 228 173 117 80 71 81 98 132 178 221 212 147 69 13 4 2 1 1 2 2 2 3 3 4 2 1 0 0 1 1 1 0 1 1 2 3 3 2 1 0 
0 0 1 1 2 3 3 2 2 3 3 4 4 4 4 4 4 5 6 6 5 5 5 6 5 12 24 56 102 167 204 179 111 39 23 85 122 187 151 112 95 157 224 211 122 50 58 114 163 199 217 224 225 224 223 221 214 199 178 148 112 79 63 63 64 74 103 129 151 157 157 141 119 95 69 56 62 73 72 56 44 56 102 151 175 176 163 157 143 115 76 44 22 26 58 112 153 178 155 107 61 20 25 70 125 159 175 121 100 124 184 200 149 64 32 22 16 12 11 11 12 28 55 100 124 111 94 58 55 53 50 54 56 55 52 58 63 52 55 52 52 51 29 28 16 10 9 11 11 15 24 53 99 146 165 139 89 46 33 43 54 63 65 68 82 98 112 121 127 154 195 231 209 194 210 243 237 157 72 29 18 23 28 34 37 61 107 147 159 136 105 91 88 85 92 79 87 60 60 38 23 18 16 15 13 12 9 10 15 22 23 36 93 181 239 232 165 90 49 52 75 101 102 100 123 188 226 190 107 26 5 2 2 2 2 2 2 3 3 4 2 1 0 0 1 1 1 0 1 1 2 2 3 2 1 0 
0 0 1 1 2 3 3 3 3 3 3 4 4 4 4 3 4 6 6 6 5 4 4 5 6 15 33 77 124 167 179 145 88 37 20 59 91 125 104 89 101 182 228 192 111 81 133 194 223 223 208 189 176 172 176 184 195 209 218 203 159 98 44 22 30 70 124 160 169 144 114 88 68 51 36 31 43 60 68 62 65 101 153 188 191 165 126 94 67 46 28 17 11 20 50 107 149 170 149 106 67 28 19 46 88 121 129 95 87 128 183 183 125 51 23 13 10 9 9 10 10 21 37 76 116 123 109 82 59 60 62 63 62 59 55 51 44 33 39 44 51 45 28 23 14 11 9 12 13 15 12 21 52 105 154 165 134 88 57 55 57 58 52 44 45 59 83 106 106 109 136 195 219 236 248 230 190 94 29 14 16 36 55 74 61 64 103 167 195 171 110 80 81 87 90 66 64 57 65 47 29 21 19 18 15 13 9 9 10 18 29 60 141 216 238 185 92 38 31 74 115 151 146 112 104 151 215 212 135 40 6 3 2 2 2 2 2 3 3 4 2 1 0 0 1 1 1 1 1 1 2 2 3 3 1 0 
0 0 2 1 2 2 3 3 3 3 3 4 4 4 4 3 4 5 6 5 4 4 4 4 6 17 42 92 136 157 150 116 78 44 23 33 54 72 68 75 125 208 223 168 116 133 205 237 216 168 124 93 78 72 76 88 110 142 187 219 213 163 88 41 53 115 166 174 139 84 47 28 17 13 11 16 31 48 62 75 100 144 181 185 153 103 61 36 21 14 10 9 8 14 37 91 140 168 157 117 77 43 22 27 49 71 76 60 86 142 184 166 99 42 22 14 11 12 12 12 10 12 19 43 86 126 124 102 73 75 87 82 68 53 41 32 24 16 21 29 37 34 24 18 13 13 12 15 16 16 12 10 22 59 119 162 168 142 104 81 62 45 32 24 40 86 126 154 145 115 109 141 186 218 237 189 142 56 14 13 20 60 82 115 94 82 101 173 216 187 109 66 84 94 79 45 40 52 64 56 37 25 23 22 19 17 11 10 8 17 39 87 172 220 207 133 53 30 38 99 150 201 200 141 107 133 200 216 151 52 9 4 3 2 2 2 2 2 3 4 2 1 0 0 1 1 1 1 1 1 1 2 2 3 1 0 
0 0 2 1 2 1 3 3 3 3 3 3 4 4 3 2 3 4 6 5 5 4 4 3 6 17 47 99 140 148 130 98 76 54 34 28 33 40 55 98 174 227 204 138 129 187 241 223 147 83 49 34 31 30 33 40 57 78 116 174 219 211 148 87 96 155 179 147 82 34 17 13 11 10 10 11 20 36 57 83 119 155 166 140 92 52 31 19 12 9 8 8 6 10 23 67 126 163 164 128 85 58 38 24 21 22 24 34 94 157 185 149 79 36 22 15 12 14 15 14 14 9 11 19 50 106 127 117 105 93 103 87 60 37 23 15 10 8 13 20 26 26 21 20 20 20 19 19 20 18 13 9 11 27 74 129 167 173 150 114 74 37 17 17 53 119 165 210 202 152 108 95 130 156 184 137 105 41 10 14 23 75 103 154 124 97 101 172 222 187 114 62 93 96 72 32 25 44 58 59 44 30 27 26 21 20 13 10 9 24 56 111 181 201 168 94 31 21 34 97 147 194 200 145 111 129 197 214 154 56 9 4 3 2 2 2 2 2 3 4 2 1 0 0 1 1 1 2 1 1 1 2 2 3 2 0 
0 0 1 0 1 1 2 3 3 3 3 4 4 4 2 2 3 4 5 5 5 5 4 3 5 15 45 96 138 147 126 94 74 60 49 45 50 67 102 161 218 219 166 114 153 221 237 170 75 36 22 20 20 22 33 57 85 102 105 134 187 223 194 148 144 175 167 109 43 21 23 27 27 23 19 14 14 29 53 81 117 136 129 92 53 31 22 16 11 10 9 7 4 7 13 43 103 151 166 142 98 72 54 38 29 21 23 44 108 165 178 131 66 34 23 16 13 15 17 16 16 9 10 12 30 80 116 126 122 102 100 77 47 26 17 11 7 5 9 10 15 20 22 25 26 28 28 27 26 22 18 12 10 15 40 86 138 178 180 146 92 43 19 18 57 129 182 235 221 170 109 70 85 98 132 98 89 46 19 17 24 72 103 150 126 95 93 168 222 189 117 61 93 97 74 35 21 36 50 54 47 35 30 28 23 20 13 10 12 35 73 125 174 172 134 72 26 22 28 72 116 147 144 109 96 132 202 209 145 53 7 4 2 2 2 2 2 2 3 4 2 1 0 0 1 2 2 2 2 2 2 2 2 3 2 0 
0 0 1 0 1 1 2 3 3 3 3 3 4 4 3 2 3 4 5 5 5 6 5 4 5 13 36 83 129 152 143 115 90 71 60 63 83 118 164 209 217 180 122 101 173 227 211 123 41 27 30 34 29 31 48 82 101 118 99 106 145 201 210 203 183 179 146 78 31 29 39 44 48 45 38 24 14 23 49 83 113 113 96 63 35 24 20 16 13 11 10 6 5 6 11 28 74 129 165 164 129 95 68 45 29 17 18 45 109 161 167 122 65 37 26 19 14 14 16 16 16 10 9 11 20 54 89 108 109 94 80 58 36 22 16 10 7 6 8 8 12 21 29 34 33 31 34 35 33 27 22 17 12 12 21 56 113 170 188 159 102 49 25 18 46 100 146 182 175 141 85 55 65 68 99 83 96 79 61 49 40 61 82 107 91 75 90 175 221 183 110 52 82 95 84 60 38 38 43 45 42 36 32 29 24 19 13 10 15 44 84 127 156 147 115 70 30 20 20 39 71 97 103 90 94 150 210 199 128 43 7 4 3 2 2 2 2 2 3 3 2 2 1 1 1 2 2 2 2 2 2 2 2 3 2 0 
0 0 1 0 1 1 2 3 3 3 3 3 4 4 3 3 3 4 5 5 6 7 6 6 7 11 25 60 106 147 163 156 142 129 123 130 152 180 205 208 173 126 92 111 183 213 178 98 36 26 29 30 26 31 57 106 144 191 147 107 111 160 193 220 195 161 120 53 34 41 58 67 75 73 61 40 18 21 44 71 98 97 78 51 29 20 19 18 16 12 9 7 7 7 10 20 47 98 150 174 160 124 84 53 34 23 23 46 99 147 160 128 80 50 33 23 16 15 16 18 17 13 8 11 16 35 63 80 81 71 53 43 30 20 13 10 8 7 8 7 12 23 34 37 34 29 33 38 40 36 30 24 17 16 17 45 96 152 175 153 101 52 25 13 26 60 103 135 132 98 59 51 67 67 80 72 89 90 85 80 70 70 69 70 62 68 110 190 211 165 94 44 64 81 88 82 65 54 46 40 36 33 31 28 23 18 13 10 16 46 86 123 140 132 110 79 47 27 19 22 35 47 53 66 109 180 214 179 102 29 7 4 4 3 2 2 1 1 2 2 2 2 1 1 1 1 2 2 2 2 2 2 2 3 2 0 
0 0 1 0 1 1 2 3 3 3 2 3 4 4 4 3 4 4 4 5 5 6 7 7 7 9 14 35 70 115 152 172 179 179 181 187 196 200 189 155 108 83 90 129 171 179 144 89 40 25 23 25 23 25 47 87 111 135 122 91 76 118 157 198 176 130 95 43 44 58 80 91 99 99 81 57 26 19 46 78 105 101 74 47 27 19 20 20 19 18 13 10 9 8 10 15 30 63 124 178 196 160 98 47 22 13 15 33 77 127 156 145 108 73 47 32 22 19 18 21 19 17 11 11 14 22 41 49 48 45 36 35 27 19 15 12 11 9 10 8 12 23 38 42 38 29 29 36 43 45 39 33 23 20 21 50 100 148 165 146 109 73 43 21 16 27 48 62 60 48 44 54 72 67 64 58 69 78 83 86 85 82 72 58 53 89 152 199 185 131 61 33 41 55 73 81 76 66 52 39 32 27 27 24 20 16 12 12 18 50 89 124 136 127 110 90 66 42 26 22 30 47 69 107 159 205 201 144 70 17 6 4 4 4 3 2 1 0 1 1 2 2 1 1 1 1 1 1 2 2 2 2 2 3 2 0 
0 0 1 0 1 1 2 3 3 2 2 3 3 3 3 3 3 3 4 4 5 5 5 6 6 7 7 14 35 69 108 142 167 180 187 187 180 163 131 89 62 69 106 137 144 137 115 90 55 33 22 19 17 19 33 62 93 108 96 64 44 82 115 153 135 94 72 42 54 73 98 99 108 108 97 71 35 21 46 80 109 108 76 48 29 20 19 20 21 18 13 11 9 9 12 15 25 44 118 190 220 179 101 42 21 17 20 26 54 99 143 158 140 106 74 52 37 32 29 28 24 19 12 10 13 22 38 41 42 35 30 31 25 19 19 14 14 12 10 8 11 21 39 48 44 34 33 42 50 56 54 49 38 31 27 53 95 134 158 159 154 141 113 76 46 28 24 26 26 34 49 64 69 55 39 30 33 41 48 61 75 83 80 81 106 148 184 181 137 85 43 29 26 30 46 59 63 60 52 40 29 23 23 22 17 14 14 21 26 49 87 125 142 134 117 105 95 80 64 57 66 90 120 161 194 201 164 98 39 9 5 4 3 3 3 2 1 0 1 1 2 2 1 0 0 0 0 1 2 2 1 1 2 3 1 0 
0 1 2 1 2 1 2 2 2 2 3 3 3 3 2 3 3 3 3 3 4 4 4 5 4 4 3 5 12 28 51 77 102 121 132 131 118 94 63 39 41 76 119 131 118 105 106 112 99 75 46 24 13 10 16 27 41 50 46 33 31 70 91 113 100 67 64 43 60 84 113 121 143 123 105 73 37 23 45 77 111 111 82 54 33 24 19 18 19 16 13 10 9 11 14 19 24 54 126 200 220 166 83 29 22 35 48 50 52 75 114 150 152 129 99 80 68 59 48 40 31 23 14 10 12 20 36 43 44 35 27 26 24 20 21 16 17 12 10 8 12 19 38 54 65 72 73 85 93 94 84 71 55 43 33 50 78 115 144 163 186 200 193 164 122 80 47 28 25 40 60 67 56 37 21 15 13 12 15 26 42 63 75 99 144 171 172 139 88 53 34 22 17 13 19 25 32 38 41 39 32 26 22 23 21 19 23 30 32 43 74 114 142 135 114 103 104 101 88 82 93 123 160 190 193 165 109 52 18 6 5 3 3 3 3 2 2 2 2 1 2 2 1 0 0 0 0 1 1 1 1 1 2 2 2 0 
0 1 2 2 1 1 1 2 2 3 3 3 3 2 1 2 3 3 2 2 3 4 3 3 2 2 2 3 4 8 14 22 31 40 43 42 36 26 19 18 40 86 121 117 96 82 100 126 137 130 107 73 42 20 12 13 14 15 17 25 49 88 97 94 77 54 59 43 56 82 110 121 133 112 93 60 35 27 44 68 103 113 95 67 43 31 23 21 19 15 12 9 8 11 14 23 25 88 160 224 209 130 55 21 40 68 88 84 62 62 81 124 142 133 112 101 97 88 75 57 39 24 13 9 9 18 33 43 43 36 25 23 24 22 24 19 18 14 12 8 10 15 35 70 105 132 136 141 147 147 137 117 87 59 36 39 52 78 103 131 164 193 215 217 195 150 97 58 47 56 65 59 38 21 12 12 14 14 15 18 20 32 51 99 152 169 149 100 60 48 33 21 17 10 7 6 9 17 26 34 34 38 33 34 32 32 35 36 33 34 58 107 149 142 115 87 93 100 90 83 101 143 179 185 157 107 55 21 7 5 4 3 2 2 2 2 3 3 2 2 1 1 1 0 0 0 0 1 1 1 0 0 1 2 1 0 
0 1 2 2 1 1 1 1 2 3 3 3 2 2 1 2 2 3 3 2 3 4 4 3 2 2 2 2 4 4 4 4 5 8 9 10 9 7 9 19 57 104 125 103 75 59 81 109 135 152 151 128 89 47 20 11 10 18 30 60 99 124 117 93 69 51 46 38 43 66 91 108 115 96 68 39 27 28 39 57 86 105 106 85 60 42 32 29 24 18 12 8 9 13 16 23 30 112 180 220 178 87 35 19 56 88 123 120 84 61 57 96 117 117 106 104 111 111 96 74 47 27 16 11 10 13 22 36 40 37 31 25 29 28 27 22 19 15 12 10 10 16 49 120 171 190 178 165 166 173 175 165 135 94 52 37 37 55 67 81 99 125 162 197 219 206 164 114 82 68 56 41 21 13 12 12 20 28 33 35 27 23 29 78 126 147 116 81 61 59 36 23 17 11 7 4 4 8 16 29 36 47 53 58 56 50 43 34 24 24 55 116 159 144 111 77 80 77 67 63 87 138 171 161 111 55 21 8 4 5 3 3 1 1 2 2 3 3 3 2 1 1 1 1 1 0 1 1 1 1 0 0 1 2 1 0 
0 1 2 1 0 0 1 1 2 3 3 3 2 1 1 2 2 3 2 2 2 3 3 3 2 2 2 2 3 2 2 2 3 7 7 8 6 6 12 38 87 124 121 87 54 41 56 76 102 131 152 158 136 96 54 32 26 40 59 96 121 128 115 81 63 50 37 32 31 45 62 72 72 58 38 27 30 40 45 49 66 86 103 100 82 62 47 38 30 22 15 11 9 12 14 18 37 118 188 214 162 72 32 22 62 97 144 134 91 59 49 86 105 102 82 75 94 112 110 90 56 30 19 14 13 13 14 25 36 39 42 39 45 48 47 41 34 25 20 19 16 36 95 170 212 203 162 131 131 147 166 181 177 140 92 52 37 37 34 32 31 41 72 123 179 209 202 160 112 73 42 23 12 11 13 18 36 55 68 69 53 39 26 58 87 114 103 98 79 69 40 23 17 14 10 7 6 8 11 21 32 48 53 56 51 45 36 24 18 33 82 144 172 140 93 52 54 60 63 58 76 122 160 151 95 37 12 5 4 5 3 3 1 1 1 1 2 2 2 2 1 1 1 1 1 1 1 1 1 0 0 0 0 1 1 0 
0 1 1 1 0 0 1 2 3 3 3 3 2 1 1 2 3 3 2 2 2 3 3 3 2 2 2 2 3 3 3 3 5 9 8 8 5 6 20 68 120 138 113 66 34 28 30 37 52 82 117 151 153 132 89 59 52 59 76 105 124 130 113 76 60 44 29 23 24 30 36 37 33 29 28 35 45 51 52 45 45 59 82 101 99 83 64 49 38 29 18 12 8 10 13 15 39 110 186 215 178 99 47 27 49 72 100 95 70 46 52 87 98 86 59 54 77 102 115 103 63 34 24 19 17 15 12 19 35 50 63 69 73 82 84 81 74 63 50 37 33 79 152 215 220 164 101 65 63 82 114 158 194 180 147 87 61 48 35 24 14 10 19 52 108 162 190 176 129 76 34 12 7 10 14 26 57 84 103 101 80 61 31 42 59 84 96 104 95 78 46 29 19 17 13 11 8 9 9 12 23 40 50 52 44 34 24 19 23 57 121 171 171 121 69 47 63 75 79 69 78 111 150 155 106 42 11 5 4 5 4 3 2 2 2 1 1 1 2 2 1 2 1 2 2 1 2 1 1 0 0 0 0 1 1 0 
0 1 1 1 1 1 2 3 4 4 3 3 2 2 1 2 3 3 2 2 2 2 3 3 3 2 2 3 3 4 4 4 6 9 8 7 5 12 42 105 144 143 98 49 32 31 31 35 43 55 77 115 140 145 131 102 80 70 72 82 80 68 58 51 47 38 29 22 22 23 25 22 19 26 42 56 67 64 61 49 36 37 53 82 99 96 81 58 41 30 19 13 8 8 10 11 27 78 152 206 207 155 85 37 35 50 66 62 42 28 51 88 111 109 75 51 64 99 122 115 74 40 28 23 19 16 12 17 39 67 86 94 92 101 108 111 109 100 86 67 72 137 196 221 173 95 45 26 25 36 54 100 165 186 182 132 94 67 43 26 16 12 11 23 54 107 155 167 133 77 32 13 7 9 14 31 73 106 123 125 95 82 41 27 30 48 75 97 106 87 54 35 23 20 17 15 12 11 9 8 18 28 32 28 16 13 13 21 41 88 149 175 147 86 35 35 61 79 111 94 77 96 140 163 127 58 13 6 5 6 4 3 3 2 2 1 1 1 2 2 2 2 1 1 1 1 2 2 1 0 0 0 0 1 1 0 
0 1 2 2 2 3 3 4 4 4 3 3 2 2 2 3 4 4 3 2 2 2 4 4 4 3 3 3 4 4 4 5 7 7 7 6 13 30 74 136 151 135 75 45 39 35 39 43 49 55 60 80 108 133 149 136 102 73 51 49 49 49 47 38 35 35 29 26 20 21 20 18 18 34 65 83 95 77 68 54 37 26 27 54 85 99 92 68 46 32 21 14 8 7 6 8 17 48 105 176 217 201 138 64 26 23 23 23 23 23 44 74 94 95 83 74 75 108 130 130 91 50 33 26 21 18 13 21 50 88 108 109 95 93 100 106 113 113 111 100 126 184 215 197 114 46 22 18 25 32 38 60 113 151 176 161 123 89 53 28 18 12 9 15 25 64 117 147 136 89 41 20 9 7 12 28 74 112 130 147 108 89 44 20 13 22 56 89 111 100 69 45 31 24 21 20 17 15 10 7 16 25 27 22 10 11 18 36 66 113 157 159 114 52 13 26 62 87 120 97 72 80 126 160 136 71 19 8 4 4 3 3 2 2 2 1 1 1 2 2 2 1 1 0 0 1 1 2 1 0 0 0 0 1 1 0 
0 1 2 2 2 3 3 4 4 4 3 3 2 2 2 3 4 3 2 2 2 3 5 4 4 3 3 4 5 5 4 4 6 5 8 10 28 59 108 153 142 119 62 50 45 41 46 51 59 70 67 63 80 97 137 141 110 62 27 32 36 36 35 29 32 37 30 28 17 19 17 19 21 42 82 94 107 82 81 64 42 24 14 33 67 93 97 77 51 34 23 15 9 8 7 7 8 20 49 117 192 219 184 106 39 19 23 29 35 37 45 60 76 88 85 74 71 104 135 144 114 68 41 29 21 17 17 34 73 113 124 105 74 59 60 65 75 87 104 112 166 204 205 152 65 23 22 29 55 70 74 61 78 100 145 167 150 114 65 34 21 16 11 15 18 46 100 140 141 102 53 29 15 9 12 22 59 96 113 124 98 78 39 16 12 16 42 78 105 109 88 62 43 32 26 24 22 18 14 9 17 24 27 24 17 19 28 51 84 123 148 134 87 36 9 20 49 73 94 84 69 78 129 174 169 114 53 24 10 5 3 2 1 1 1 1 2 1 2 1 2 1 1 1 1 1 1 1 1 0 0 0 0 1 1 0 
0 1 1 2 3 3 4 4 4 3 2 2 1 1 2 3 4 4 3 2 3 3 4 4 4 4 5 5 5 5 4 4 6 5 10 19 50 92 131 150 117 88 49 49 49 47 48 51 54 57 57 51 68 79 153 142 116 62 27 43 59 69 68 55 49 43 31 27 13 19 16 18 21 44 88 108 135 107 90 66 39 22 14 24 52 84 97 83 57 37 24 15 10 9 8 9 8 11 20 61 139 207 209 148 68 30 39 47 56 53 51 46 49 51 55 55 59 88 129 150 138 97 57 35 24 22 31 61 107 137 128 88 48 30 30 32 35 46 73 100 163 187 168 104 35 15 23 51 94 122 136 94 75 60 107 152 164 134 82 45 26 21 13 14 17 36 89 132 141 110 62 41 28 18 14 16 41 69 92 98 77 53 25 14 13 16 32 61 91 106 101 83 62 45 35 30 27 24 20 16 20 26 32 31 27 25 30 56 89 122 138 116 76 34 7 14 34 61 82 87 82 96 144 193 210 183 131 80 36 12 5 3 1 1 1 2 2 2 2 1 1 1 1 0 0 1 1 1 0 0 0 0 0 1 1 0 
0 1 1 1 2 2 3 4 4 3 2 1 1 1 2 3 3 4 2 2 3 3 4 4 5 6 6 6 5 4 3 3 5 5 13 31 70 115 137 129 85 58 40 42 44 48 49 48 49 54 56 49 62 70 136 119 105 47 30 57 73 85 87 75 66 49 33 27 13 19 16 18 19 35 73 93 113 97 81 56 29 17 17 23 45 74 91 87 65 41 27 16 11 10 10 12 11 13 14 33 88 177 212 178 101 48 52 59 60 57 58 48 46 41 47 45 45 61 107 141 150 127 84 53 35 36 60 103 139 143 111 63 34 29 36 40 35 34 47 78 131 147 121 65 19 16 26 76 128 160 186 123 96 46 82 132 161 144 101 60 36 27 17 19 18 30 76 121 136 112 69 48 42 33 27 16 27 41 53 54 41 29 17 15 16 19 32 51 78 98 105 98 81 63 50 45 41 37 34 31 32 33 33 30 27 24 26 49 82 116 131 114 79 44 17 17 30 51 68 75 78 90 125 170 208 223 205 158 95 39 12 5 2 1 1 2 2 2 1 1 1 1 1 1 1 1 1 1 1 0 0 0 0 1 1 0 
0 0 1 2 2 3 3 4 3 2 1 1 1 1 2 3 3 4 3 2 2 3 4 5 7 8 7 7 4 4 5 6 10 20 40 69 105 135 131 101 58 30 24 29 36 42 43 38 31 33 33 42 52 92 128 116 88 33 36 66 91 119 116 90 74 51 34 26 16 21 17 16 16 25 50 72 90 81 59 36 20 18 25 29 44 66 83 86 70 47 29 18 12 10 11 15 15 18 13 23 55 140 197 195 135 67 55 59 66 66 59 55 63 74 90 80 61 49 76 118 143 136 104 72 56 66 101 139 151 124 80 40 31 47 63 73 62 50 41 59 97 107 84 39 10 15 27 88 146 190 223 139 107 48 69 113 144 137 113 75 47 34 22 22 19 27 62 108 130 116 82 64 65 61 53 37 27 26 26 23 16 17 19 24 30 36 48 59 75 89 99 99 91 77 65 60 59 57 53 48 42 35 32 30 25 19 16 32 66 106 129 122 90 55 33 32 40 56 64 65 67 71 91 119 157 197 225 216 164 88 30 8 3 1 1 2 3 2 1 1 1 1 0 0 0 0 0 0 1 1 1 0 1 2 1 0 
0 1 2 2 3 3 3 4 3 2 1 1 2 2 2 3 3 4 3 2 2 3 5 5 6 7 6 6 3 4 7 18 41 74 108 132 147 149 120 75 42 24 28 24 31 41 45 41 34 41 47 61 58 106 109 99 60 23 34 53 66 78 75 68 62 48 35 30 19 23 20 16 14 17 29 40 48 43 32 23 27 41 61 72 81 92 100 93 74 50 30 18 11 11 12 16 17 20 17 21 38 105 169 192 157 91 69 60 66 65 54 59 82 110 139 124 89 60 55 96 128 128 104 78 74 97 130 148 130 87 46 25 36 65 78 94 81 69 50 54 81 89 68 31 9 16 24 78 131 169 192 124 94 51 70 102 124 119 111 85 59 41 29 26 22 26 49 89 114 113 94 83 93 100 96 80 59 42 26 19 15 22 33 43 51 56 63 71 80 87 90 89 85 76 69 65 66 65 60 55 49 41 32 25 17 11 9 18 49 93 127 132 108 74 50 50 53 59 55 44 44 50 74 99 121 143 189 225 214 146 63 15 4 2 2 3 3 2 1 1 1 1 0 0 0 0 0 0 1 1 1 1 1 2 1 0 
0 1 2 2 2 3 3 3 3 2 2 2 2 3 3 3 3 4 3 2 3 4 6 5 6 8 7 6 4 10 28 65 109 144 162 163 150 128 94 54 28 14 18 23 30 40 47 46 46 59 70 77 86 104 97 83 49 35 49 65 84 95 87 71 57 47 36 28 18 21 17 15 14 14 18 21 23 23 29 43 68 93 110 117 117 115 111 97 75 51 29 17 10 10 13 14 16 15 15 20 30 76 134 172 163 111 77 56 56 54 45 57 100 136 181 160 109 69 48 83 110 110 88 69 72 100 127 126 93 50 25 23 39 72 88 114 94 74 54 53 79 89 69 34 10 14 18 52 94 126 138 93 70 59 86 107 113 104 99 80 63 46 36 32 30 33 48 78 94 98 88 84 95 110 121 117 97 72 45 31 30 39 52 60 62 63 65 74 86 94 92 88 89 85 76 61 57 58 60 58 51 43 30 23 16 11 7 11 33 72 114 137 133 108 77 70 65 58 43 24 27 56 93 119 120 108 142 194 232 193 105 30 4 2 2 3 3 2 1 2 1 1 0 0 0 0 0 0 1 1 2 1 2 3 1 0 
0 1 2 1 1 2 2 3 3 2 2 2 3 3 3 3 3 4 3 2 3 4 6 5 5 5 7 7 10 31 74 127 164 177 167 145 118 89 60 34 22 27 39 47 53 60 68 73 83 94 102 108 118 113 99 73 60 61 70 72 78 83 81 76 71 61 46 32 23 27 24 18 15 13 15 16 19 30 57 86 111 124 128 126 120 112 100 82 62 43 27 16 10 9 12 14 15 14 12 17 25 59 110 155 163 128 85 56 47 40 35 50 102 137 180 161 109 78 68 108 129 119 90 79 92 119 136 117 74 34 19 22 33 58 70 83 75 61 46 46 72 89 77 45 18 11 12 26 51 72 77 59 58 87 124 140 132 114 102 80 58 42 36 37 42 47 54 67 67 70 62 65 73 89 110 125 118 95 63 43 45 56 65 65 59 51 44 53 72 93 101 103 108 109 93 72 55 46 49 56 54 47 32 23 15 10 5 7 21 48 89 126 147 142 118 97 75 57 33 19 30 84 132 174 172 119 119 153 223 218 142 51 7 3 2 3 3 3 1 2 1 1 0 0 0 0 0 1 1 1 2 1 2 3 1 0 
0 1 2 1 1 1 2 3 3 2 2 2 3 3 3 3 3 4 3 2 3 5 6 5 5 6 9 8 25 69 130 174 179 153 114 78 53 38 27 19 18 36 64 94 111 114 112 109 107 104 105 123 133 127 101 67 64 73 81 81 81 83 84 90 95 89 70 48 31 28 29 29 28 24 24 24 35 59 94 120 129 122 109 97 86 76 67 56 43 31 21 14 10 9 11 14 13 13 10 14 22 54 96 134 150 130 92 49 23 16 21 41 86 120 145 127 100 98 121 154 160 137 103 87 93 120 144 133 96 53 23 19 23 40 54 60 54 43 37 43 69 91 92 69 38 17 9 11 18 28 37 57 93 143 170 168 142 113 94 76 58 43 36 39 48 55 58 55 43 38 28 33 37 47 67 92 109 110 95 81 80 82 78 63 43 29 22 32 53 76 90 94 105 126 125 99 62 42 55 61 63 50 32 23 16 11 7 7 15 30 56 97 139 153 147 121 88 65 30 20 30 90 143 197 205 134 110 126 208 227 166 68 10 3 2 3 4 3 2 2 2 1 0 0 0 1 1 1 1 1 1 1 1 2 1 0 
0 1 2 2 1 1 2 3 3 2 2 2 2 2 2 3 3 3 3 2 4 5 6 5 5 4 6 14 51 115 171 184 146 90 47 25 16 12 12 12 21 60 101 132 137 130 125 114 101 87 82 107 138 139 105 68 61 72 72 65 60 63 71 86 103 109 100 80 58 45 37 33 34 35 41 47 59 86 116 128 114 84 58 42 32 26 23 21 20 18 15 13 11 10 10 13 13 12 10 13 25 61 100 129 140 124 97 63 32 18 21 31 59 88 107 108 123 137 165 174 155 121 92 81 87 109 142 155 133 88 38 17 17 26 39 53 64 73 82 92 110 128 130 111 75 43 19 9 13 28 57 104 152 185 184 158 123 95 78 62 50 44 39 40 48 54 54 43 30 19 10 12 10 14 26 49 76 102 117 124 129 120 95 62 31 15 9 18 37 60 82 94 99 127 145 141 119 63 77 71 75 51 32 25 19 15 9 6 11 17 29 68 124 155 163 134 99 71 32 19 23 69 115 150 155 109 91 110 197 225 173 76 12 2 3 3 4 3 2 2 2 2 1 1 1 2 2 3 2 2 1 1 1 2 1 0 
0 1 3 3 2 2 3 3 3 2 2 2 2 2 2 3 3 3 3 3 4 6 5 4 3 4 10 27 84 154 184 158 90 40 19 14 14 13 15 12 23 72 127 164 158 123 103 87 68 51 50 80 133 145 114 71 47 54 48 39 30 27 35 53 79 102 113 113 103 92 80 73 73 79 88 92 92 106 114 110 80 45 28 21 16 10 9 9 11 10 10 11 11 12 10 11 12 14 17 19 33 71 106 124 125 113 99 77 48 27 20 20 33 50 75 109 146 169 176 152 118 85 63 53 58 75 114 150 156 121 64 25 23 41 64 82 95 108 121 131 145 162 171 163 129 88 52 28 26 52 105 158 187 185 154 112 76 54 46 43 44 47 44 52 52 51 45 30 20 13 9 10 9 10 12 24 47 80 110 139 154 148 115 71 33 13 9 16 30 59 86 106 99 124 145 152 147 85 97 83 87 54 34 27 22 19 10 9 11 11 19 52 102 137 147 125 100 75 40 24 18 41 77 106 108 82 77 117 200 220 165 72 12 2 3 3 3 2 2 2 2 2 1 1 1 1 2 2 2 2 2 1 1 2 1 0 
0 1 3 3 3 3 3 3 2 2 2 2 1 1 2 3 4 3 3 3 4 5 4 3 3 8 20 51 118 174 175 123 50 20 15 17 25 29 32 23 28 74 134 159 135 82 52 40 28 20 26 63 130 149 124 77 41 47 39 31 26 20 21 28 46 68 92 114 130 137 137 133 131 134 137 130 109 106 94 88 60 32 21 16 12 8 8 9 10 9 9 9 11 12 10 10 14 19 26 27 41 76 109 123 117 105 100 91 68 42 25 15 19 35 79 138 179 179 140 90 54 33 22 16 18 26 58 110 151 144 93 47 47 81 107 119 123 126 130 135 144 162 181 193 178 138 89 52 54 98 156 189 181 142 95 55 29 17 14 19 29 43 50 68 59 58 38 28 18 14 10 11 14 16 14 16 31 58 101 149 167 169 130 82 41 12 8 18 34 81 108 139 116 111 128 138 145 111 113 100 99 57 37 28 25 23 13 12 9 10 22 60 108 138 133 111 93 78 55 34 19 20 31 46 54 58 80 142 209 208 144 58 9 2 2 3 3 2 2 2 2 2 2 2 2 2 2 2 2 2 2 1 1 2 1 0 
0 1 3 3 3 3 3 3 2 2 2 2 1 1 2 3 4 4 3 3 4 5 3 4 8 20 43 81 143 175 152 92 29 15 16 25 39 44 49 31 32 67 135 160 126 56 13 8 9 13 26 69 135 151 130 79 45 49 41 36 35 32 32 26 26 36 65 98 130 147 153 152 147 142 133 131 107 107 84 79 54 30 19 15 12 11 12 11 12 10 11 10 9 9 9 13 21 29 35 32 42 70 107 125 118 101 93 90 80 62 39 22 20 43 106 167 188 149 85 42 25 19 14 12 12 13 27 71 132 151 123 91 85 120 129 120 106 95 90 89 97 117 145 178 193 177 133 91 95 143 182 180 136 82 48 28 15 9 8 8 16 33 58 86 72 71 34 33 20 15 13 19 27 30 25 20 23 32 66 117 146 165 131 91 53 20 10 15 38 101 135 188 158 115 109 104 114 107 114 113 111 64 37 26 23 20 14 12 9 13 25 68 111 137 123 99 84 77 66 48 29 19 18 29 44 68 115 178 213 185 112 38 5 2 2 2 2 2 2 2 1 1 0 0 0 0 1 1 2 1 1 1 1 2 1 0 
0 1 2 3 3 3 2 2 2 2 2 1 1 1 2 3 4 4 3 3 3 4 3 5 14 37 70 109 152 160 123 68 20 14 16 31 50 57 67 41 39 59 129 161 133 63 10 5 11 22 46 93 148 152 128 76 52 53 46 46 50 49 50 40 31 21 38 67 104 122 124 124 122 117 119 135 106 110 85 81 59 34 23 18 15 15 16 16 16 13 12 11 8 7 8 18 28 35 34 26 32 56 96 124 128 112 95 87 82 74 58 37 27 61 130 180 175 114 55 27 19 19 15 13 9 10 16 46 114 146 144 132 120 136 118 86 58 39 30 26 32 49 82 128 172 189 173 143 142 169 176 143 84 46 33 25 14 9 10 7 12 25 61 94 85 79 35 37 23 19 21 31 37 39 33 26 26 33 62 116 144 162 130 97 67 39 21 18 36 96 131 177 158 107 82 73 84 94 110 117 119 73 39 25 21 17 13 10 11 16 28 71 111 141 129 101 82 75 74 65 51 39 37 51 76 113 163 203 201 148 74 20 3 2 2 1 1 1 1 1 1 1 0 0 0 0 0 1 1 1 0 0 0 2 1 0 
0 1 2 2 3 2 2 2 2 2 2 2 2 2 3 4 4 4 4 3 3 3 2 8 23 57 96 126 143 131 94 51 19 13 16 31 52 61 71 44 41 55 127 162 137 68 10 6 16 38 74 119 155 141 114 70 60 58 52 58 66 64 66 52 46 29 36 57 76 82 79 81 89 88 95 118 105 121 93 91 68 41 27 20 18 18 20 20 19 16 15 11 8 5 8 21 32 35 26 16 18 38 76 112 134 131 110 89 76 71 64 51 42 80 143 177 158 91 44 24 19 20 17 16 8 11 13 32 94 128 150 144 127 119 81 45 25 16 12 8 11 15 31 69 124 166 182 169 165 164 145 98 49 31 28 26 17 11 12 7 12 21 66 103 98 88 45 48 34 29 32 44 51 55 46 37 34 44 60 118 142 162 133 99 75 58 43 33 33 70 104 130 121 81 62 63 77 88 106 115 118 78 40 23 16 15 12 11 17 22 30 63 102 141 144 121 94 75 70 70 71 73 81 100 129 166 199 204 165 100 40 8 3 2 2 1 1 1 1 1 1 0 0 0 0 0 0 0 1 1 0 0 0 2 1 0 
0 1 2 2 2 2 2 2 1 1 1 2 3 2 3 3 4 4 4 3 3 3 3 10 30 72 112 131 124 99 68 40 20 11 15 26 44 52 57 40 37 59 132 164 137 67 10 8 25 56 99 130 146 119 94 67 63 65 59 66 77 74 79 63 54 36 34 58 85 109 118 126 137 139 144 148 119 119 96 101 81 52 33 24 20 20 21 22 22 19 16 11 8 4 9 23 31 31 18 7 9 22 52 90 126 138 122 91 67 61 63 59 57 91 143 165 142 80 41 24 19 20 18 17 10 11 13 26 75 101 134 124 108 85 49 25 15 11 10 8 9 8 12 29 71 116 148 148 142 125 99 60 28 24 26 28 19 12 13 9 12 22 68 110 108 97 55 57 47 40 43 54 60 63 55 44 44 53 59 110 131 159 141 110 89 75 63 51 41 45 64 80 76 52 52 76 98 108 116 120 114 77 40 20 13 13 13 18 24 26 27 48 81 126 152 151 130 102 80 73 73 83 101 129 166 195 200 169 110 53 17 4 3 2 2 1 0 0 1 1 0 0 0 0 0 0 0 0 1 1 0 0 0 2 1 0 
0 1 2 1 2 2 2 2 1 1 1 2 3 3 3 3 4 5 4 4 3 3 3 12 36 82 123 132 107 74 50 33 22 9 14 19 31 39 42 34 34 73 142 168 132 60 11 11 33 72 115 129 125 94 69 62 59 69 66 69 78 75 76 67 55 43 44 80 126 170 188 199 200 192 180 158 116 104 96 108 95 65 41 28 21 20 20 21 20 17 13 10 7 5 10 24 30 27 14 4 8 17 43 89 139 159 137 92 55 44 52 57 61 89 129 148 130 80 45 25 18 18 18 17 13 12 13 24 59 72 97 81 73 50 28 17 14 11 11 10 8 8 8 12 34 69 104 110 99 79 63 40 21 20 25 30 23 17 14 13 14 25 69 113 113 95 56 55 57 55 55 61 66 69 66 57 62 69 78 109 117 140 139 126 112 96 81 67 56 49 42 37 32 39 71 115 137 137 125 115 100 65 33 15 9 12 19 28 30 26 20 28 52 95 135 161 164 146 118 98 91 101 123 150 177 184 159 111 56 20 6 3 3 2 2 1 1 1 1 1 0 0 0 0 0 0 0 0 1 1 0 0 0 2 1 0 
0 1 2 2 2 1 2 2 2 1 1 2 3 3 3 3 4 5 5 4 3 3 3 13 38 85 127 134 102 62 40 28 23 10 13 14 20 22 22 23 38 95 157 167 117 47 13 17 43 84 123 127 107 76 49 54 55 71 74 72 75 74 71 67 61 68 85 122 162 195 209 211 199 185 165 136 99 85 90 106 105 81 55 36 24 20 18 18 17 13 11 8 7 7 14 28 31 27 13 4 9 23 60 109 145 147 115 75 43 32 37 44 51 76 104 126 122 87 54 30 20 17 17 14 12 10 13 28 52 57 69 50 47 31 20 13 12 14 16 17 12 11 8 9 18 42 63 67 60 49 45 33 20 18 23 28 24 18 14 16 17 30 72 111 110 82 47 42 48 54 59 65 72 78 78 71 73 76 77 77 80 99 113 125 129 118 97 76 61 56 51 50 54 89 132 158 158 140 116 98 74 46 24 11 9 16 25 32 30 22 12 13 26 56 94 132 156 154 133 110 97 100 114 132 151 146 109 60 20 5 3 2 2 2 2 1 1 1 2 2 1 0 0 0 0 0 0 1 1 1 0 0 0 2 1 0 
0 1 2 2 2 1 2 2 2 2 2 2 3 3 3 3 4 5 5 4 3 2 2 11 34 80 126 141 110 64 34 24 22 13 14 12 14 13 13 22 57 124 168 156 99 50 46 69 102 138 157 145 111 78 52 49 57 75 87 82 75 69 67 72 86 109 132 149 162 165 157 142 124 114 106 95 77 71 79 94 104 93 69 47 32 25 21 19 17 13 11 10 10 10 20 33 33 25 8 5 17 48 99 140 153 132 88 49 26 20 24 29 33 50 73 102 114 98 70 39 25 18 16 12 11 10 16 38 53 56 52 38 37 25 16 12 11 15 16 15 11 12 10 11 21 52 67 69 51 41 42 36 22 17 20 26 26 22 20 25 34 55 92 114 103 67 30 29 40 45 47 55 67 77 79 76 76 76 73 63 55 59 75 103 125 130 117 96 79 74 73 85 116 159 175 163 141 109 90 70 45 29 16 9 7 16 27 33 28 14 6 7 12 31 62 105 140 147 130 106 90 87 88 99 113 109 83 48 19 8 3 2 3 2 2 1 1 1 2 2 1 1 0 0 0 0 0 1 1 1 0 0 1 2 1 0 
0 2 2 2 2 2 1 2 2 2 3 3 3 3 3 3 4 5 5 4 3 3 3 9 28 69 119 146 128 81 39 21 19 18 19 16 13 11 17 39 94 151 163 145 114 116 139 162 181 194 188 158 115 79 58 49 57 74 95 97 88 76 77 94 122 144 152 140 120 95 72 53 41 39 45 55 62 67 71 81 89 91 81 60 41 29 22 20 19 14 11 9 10 16 29 39 33 23 6 9 32 83 130 149 131 91 52 28 15 11 10 12 17 27 47 76 102 105 86 55 34 21 17 12 10 11 23 53 63 69 53 45 38 27 15 11 10 13 15 14 12 13 13 16 31 65 73 74 52 46 48 43 30 22 20 24 26 28 36 54 75 98 119 121 99 64 36 26 24 26 34 48 57 63 62 69 71 70 59 46 38 40 47 68 96 121 135 136 129 128 132 149 179 188 175 136 104 68 57 38 21 17 11 9 9 18 27 32 26 12 6 6 15 36 65 91 103 96 81 70 65 65 59 62 72 82 81 64 39 20 6 3 3 2 2 2 2 2 2 2 2 1 0 0 0 0 1 1 1 1 0 0 1 2 1 0 
0 1 2 2 1 2 1 1 2 2 3 3 3 2 3 4 5 6 5 4 3 3 3 7 21 54 104 144 147 110 60 27 17 19 23 23 21 22 41 78 131 154 162 173 174 193 209 215 211 197 170 134 97 70 54 46 50 64 86 101 102 98 105 122 140 142 123 92 59 36 23 16 14 17 22 34 53 68 70 73 74 77 78 69 56 43 31 25 22 18 15 14 16 24 35 40 31 19 8 19 59 116 146 136 92 53 32 19 11 9 8 8 11 15 28 52 82 101 94 71 48 31 22 14 11 17 38 70 72 76 54 55 45 34 19 14 11 13 12 11 11 13 16 22 40 70 74 70 44 44 50 51 41 31 25 26 31 46 71 99 121 132 128 111 81 54 38 36 35 27 30 44 61 67 55 58 57 63 50 44 41 44 40 40 57 87 127 156 169 174 177 183 180 166 137 88 63 51 43 28 16 12 9 8 8 13 23 29 27 17 9 13 35 66 96 105 92 66 41 29 26 26 22 25 40 62 80 81 63 36 13 5 3 2 1 1 2 2 2 2 2 1 1 0 0 1 1 1 1 0 0 0 1 1 1 0 
0 1 1 1 1 2 1 1 1 2 3 3 3 2 3 4 6 7 5 4 4 4 4 7 15 37 80 127 155 147 107 65 35 23 22 26 32 49 81 117 140 162 192 197 210 220 212 195 174 150 120 87 59 44 37 32 34 47 66 88 101 111 121 124 119 102 74 47 25 15 13 14 17 19 20 28 46 71 78 71 60 57 61 61 57 49 37 30 25 22 18 16 20 27 36 37 28 16 16 38 93 141 148 112 60 36 27 19 13 11 13 10 13 11 19 35 61 86 89 78 59 42 29 18 15 26 53 79 74 72 50 58 52 43 28 19 14 13 12 11 13 17 21 26 44 69 70 60 35 35 46 52 51 43 35 38 55 82 111 130 135 125 105 81 57 43 39 38 41 44 63 80 87 75 48 56 55 67 56 54 53 62 55 38 34 57 103 146 165 169 165 156 144 132 84 73 55 56 39 25 16 11 9 8 8 9 19 27 29 23 16 29 66 102 119 105 74 43 23 15 16 16 14 15 22 37 61 81 80 56 29 7 3 2 2 2 2 2 2 2 1 1 1 1 1 1 1 1 0 0 0 1 1 1 0 0 
0 1 2 2 2 2 2 1 1 2 3 3 3 3 3 4 6 7 6 6 5 5 6 7 10 21 51 95 139 162 155 128 98 75 63 66 79 104 129 138 157 187 195 201 200 172 140 110 84 62 45 31 22 18 16 18 21 31 45 66 82 99 107 101 85 62 43 33 22 16 18 30 38 38 29 28 40 72 91 82 60 40 43 54 61 60 50 38 29 23 18 16 18 25 31 30 26 20 30 66 124 155 142 93 48 32 24 21 20 22 24 15 17 10 20 29 47 67 74 75 64 49 35 20 19 32 61 80 71 60 41 52 52 48 37 26 18 17 17 20 26 32 36 37 48 61 60 50 30 24 35 44 53 54 55 67 89 114 131 127 106 79 55 37 26 23 27 35 56 74 91 99 97 97 68 68 62 72 63 59 57 63 55 41 28 45 71 115 142 153 153 144 123 97 73 80 59 60 38 24 19 13 12 12 10 9 12 22 28 27 29 56 100 125 114 80 45 25 18 16 19 20 21 19 17 20 39 66 84 70 41 12 3 2 1 1 2 2 2 1 1 1 1 1 1 1 1 0 0 0 0 1 1 1 0 0 
0 1 2 2 2 3 2 2 2 2 3 4 4 4 4 5 6 7 7 6 6 6 6 6 6 10 25 55 98 140 166 171 160 146 136 136 143 151 148 159 183 189 190 172 124 79 53 37 29 25 23 19 18 18 16 16 17 24 31 41 54 67 72 68 50 40 37 35 27 30 52 80 90 78 52 33 42 85 118 121 93 59 48 52 61 62 51 38 30 23 17 14 13 16 20 22 25 28 49 95 145 156 126 73 39 28 28 36 50 56 52 33 26 14 30 43 54 62 66 73 70 57 41 26 26 38 67 84 75 59 39 41 45 46 41 34 30 32 38 44 51 53 52 48 49 51 48 38 24 18 23 32 49 63 78 97 115 125 116 89 57 31 18 14 14 15 17 25 53 95 119 140 122 116 84 72 68 75 74 63 58 58 48 39 30 56 82 120 133 137 137 131 116 98 83 74 68 63 43 26 20 16 15 14 11 9 8 16 24 30 46 86 123 127 95 53 29 23 22 22 29 34 39 35 26 15 24 51 80 78 50 18 2 1 1 2 2 2 2 1 1 1 1 1 1 1 0 0 0 0 1 1 1 0 0 0 
0 1 3 3 3 3 3 2 2 2 3 4 4 4 4 4 5 6 6 5 5 5 6 6 5 5 10 23 51 88 126 155 170 173 171 168 163 153 162 189 198 189 152 93 50 32 23 18 19 24 37 52 62 61 47 32 21 21 26 26 37 40 45 50 46 60 57 46 41 58 98 123 134 109 76 44 51 110 152 161 125 88 73 66 63 58 46 34 27 20 13 8 7 8 11 15 21 35 65 114 149 145 104 56 33 29 45 67 89 97 86 58 36 28 55 77 86 79 77 74 69 54 37 24 22 33 58 79 80 66 45 32 33 37 39 42 48 57 66 71 70 64 55 45 38 34 34 30 23 17 17 29 49 71 91 107 113 102 76 45 21 12 11 12 13 13 10 16 42 96 112 135 113 105 89 64 66 69 80 70 62 56 51 50 54 79 109 138 149 151 146 139 119 93 73 74 79 70 48 30 23 20 18 18 12 9 6 12 22 37 64 109 130 116 73 34 25 26 27 31 43 47 55 48 37 19 19 43 74 79 55 21 2 1 0 1 2 2 2 2 1 1 1 1 1 1 0 0 0 0 1 1 1 0 0 0 
0 2 3 3 3 3 2 2 1 1 2 3 4 4 4 5 5 6 5 4 4 4 4 4 3 2 4 7 17 36 62 91 118 136 144 140 131 138 180 210 210 164 87 41 25 19 15 16 26 51 89 120 129 119 91 58 28 16 21 20 37 29 35 41 46 62 53 46 52 86 126 152 172 134 93 50 61 142 185 188 140 95 80 68 57 48 33 25 23 19 14 9 7 6 6 10 18 41 74 120 143 125 82 40 26 33 64 97 110 125 106 84 49 49 86 112 113 85 81 71 66 48 31 21 18 25 43 66 80 76 58 36 25 29 40 53 66 78 84 80 71 58 47 39 35 32 27 24 21 21 26 37 53 73 86 90 81 61 39 22 17 24 32 34 30 23 15 17 30 88 109 134 121 102 89 52 57 59 72 70 64 62 65 71 80 94 112 128 134 132 123 111 90 71 65 81 88 81 56 35 25 20 17 17 11 10 9 13 24 45 77 120 122 101 57 33 29 29 31 39 56 58 72 58 46 24 17 39 70 77 55 22 2 1 0 1 2 2 2 2 2 1 1 2 2 1 1 0 0 0 1 1 1 0 0 0 
0 1 2 2 2 3 2 2 1 1 1 2 3 3 3 4 5 5 4 3 3 3 3 3 3 4 3 4 5 9 18 29 43 56 65 71 81 122 193 226 194 108 38 19 16 15 15 20 43 86 128 143 153 148 128 82 35 13 18 18 39 27 31 27 35 47 45 47 59 103 142 180 180 136 92 47 78 170 202 185 132 89 82 62 44 34 20 18 21 20 18 14 12 10 7 7 14 44 78 119 133 107 67 29 20 36 76 116 136 163 124 96 56 71 116 130 124 77 81 60 55 34 21 14 11 14 23 40 61 73 67 51 30 23 33 52 71 80 78 68 55 41 32 30 30 34 32 28 22 26 42 67 86 95 85 68 48 30 21 18 33 54 72 74 58 38 21 15 20 74 104 127 126 93 81 40 35 42 54 61 67 78 90 93 91 90 88 85 76 67 60 54 47 43 55 84 96 91 64 40 28 20 16 13 9 9 11 15 30 54 84 115 104 85 49 39 33 32 33 41 58 61 77 60 47 25 18 40 70 76 53 22 2 1 1 1 2 2 2 2 2 2 2 2 2 2 2 1 0 1 1 1 1 1 0 0 
0 2 3 2 2 2 2 1 1 1 1 2 2 2 3 3 5 5 4 3 2 3 3 3 2 3 3 4 4 3 4 5 8 11 17 32 67 146 216 221 156 65 16 11 10 12 17 27 60 114 165 195 220 186 150 91 39 15 17 18 34 24 26 13 19 24 26 32 56 100 132 156 146 116 73 41 107 190 199 164 97 66 66 42 33 24 15 16 20 21 22 17 13 9 8 9 16 48 82 118 126 98 61 25 19 34 74 109 129 140 112 85 54 87 132 135 120 60 68 46 41 23 15 11 8 7 8 16 34 56 66 66 57 54 58 67 73 69 61 49 39 31 30 38 41 48 43 34 26 34 50 81 99 111 89 58 28 15 15 22 56 86 106 108 84 61 30 19 21 70 102 129 136 98 81 42 28 31 37 48 64 81 94 93 82 65 48 38 33 37 39 32 25 24 43 78 99 98 72 45 30 21 16 12 9 10 12 18 34 57 82 104 90 72 47 40 38 34 33 39 53 55 61 50 37 20 20 45 72 73 49 19 2 2 1 1 2 2 2 2 2 2 2 1 1 2 2 2 1 1 0 1 1 2 1 0 
0 1 2 1 1 2 2 2 1 1 1 2 2 2 2 3 4 4 3 2 2 3 4 3 3 3 3 3 3 3 3 4 4 10 25 57 108 179 215 188 115 38 9 7 7 10 15 28 62 116 165 178 176 153 125 71 27 12 15 19 31 19 17 4 6 5 10 21 44 73 100 117 108 80 49 60 148 202 191 154 89 83 73 45 34 22 15 15 17 20 21 21 20 15 11 11 19 51 87 120 124 95 59 26 20 29 56 85 111 117 96 64 55 102 133 132 90 57 56 45 35 20 14 12 10 8 6 7 15 33 51 65 69 70 75 82 79 63 51 36 38 33 35 48 54 65 60 43 32 41 53 100 122 139 110 64 24 13 15 28 72 107 138 144 105 79 35 19 19 66 101 143 140 101 72 32 20 19 21 29 51 67 79 70 52 37 26 31 48 65 70 52 34 19 34 69 96 100 78 50 33 23 17 15 12 13 12 17 34 60 87 107 99 77 58 42 42 37 33 34 42 46 48 38 26 19 28 54 75 69 42 15 2 2 1 1 1 1 2 2 2 2 2 1 1 2 2 2 1 0 0 1 1 2 1 0 
0 2 2 1 1 1 2 2 1 1 2 2 2 2 2 3 5 4 3 2 2 3 4 3 3 3 3 3 3 4 4 5 6 19 43 89 139 184 190 148 84 29 9 5 6 8 12 24 49 86 123 150 157 133 92 48 23 17 20 20 30 22 20 7 6 5 8 14 29 45 60 65 60 49 57 112 188 196 170 125 91 99 72 59 42 27 19 14 16 18 18 18 17 16 15 15 23 56 90 118 119 95 62 32 19 23 36 55 73 74 58 42 65 114 128 136 85 83 61 53 34 21 16 14 11 8 6 6 8 16 31 50 65 78 92 102 95 66 53 33 39 35 36 50 59 67 62 44 33 46 47 94 119 146 116 65 21 13 15 31 74 110 141 144 105 78 33 16 17 54 87 125 116 88 54 29 28 31 32 32 43 48 52 43 32 27 19 37 66 83 97 71 52 22 26 59 88 96 78 53 40 32 26 22 19 16 13 15 27 51 77 103 116 104 83 56 43 39 34 29 31 29 26 23 19 22 41 65 75 61 32 10 1 2 1 1 1 1 2 2 2 2 1 0 0 1 2 2 1 0 0 0 1 2 1 0 
0 1 2 1 1 2 2 2 1 1 2 3 3 2 2 3 4 4 3 2 2 3 4 3 3 3 3 4 4 5 5 5 10 29 66 119 157 171 153 111 66 31 13 6 4 7 12 18 32 55 81 96 92 68 45 27 25 29 33 33 36 31 29 17 11 7 7 10 16 19 23 29 38 62 111 177 210 184 155 108 95 101 70 73 55 39 27 17 14 15 17 19 18 17 14 13 24 56 88 111 113 96 70 43 22 21 27 34 39 37 31 45 86 114 124 116 85 91 70 60 36 23 17 15 12 10 9 10 8 8 16 29 49 75 103 122 112 71 51 31 41 39 39 48 58 63 57 41 32 47 51 97 117 143 107 58 14 10 13 25 58 90 115 115 88 60 27 16 18 39 63 84 77 56 37 40 52 59 51 43 41 39 32 29 21 23 24 51 86 112 135 88 64 31 27 55 79 88 78 61 53 46 38 30 24 19 13 13 19 38 60 90 118 128 114 87 57 41 35 28 24 23 21 22 24 35 57 72 71 49 21 7 2 2 0 0 1 1 2 2 2 2 1 0 0 1 2 2 1 0 0 0 1 2 1 0 
0 1 2 2 2 2 2 2 2 2 3 3 3 2 2 2 3 4 4 3 3 3 4 3 3 3 3 4 4 5 4 5 13 37 84 133 156 145 113 82 59 38 22 12 5 6 9 13 17 22 29 34 34 32 37 49 71 82 79 66 50 37 34 27 20 11 8 10 14 15 20 36 71 120 177 214 196 155 119 102 93 81 64 78 70 56 40 26 20 18 18 18 16 14 13 14 26 55 87 108 112 102 82 57 34 25 30 37 39 39 40 70 104 119 127 88 95 95 86 69 41 28 20 17 13 11 10 9 7 8 13 19 38 78 115 132 112 68 46 35 45 47 46 47 48 49 43 33 38 47 62 94 116 131 91 48 10 9 13 21 37 60 78 77 61 38 22 20 20 27 37 43 39 27 31 60 78 93 80 66 44 37 26 27 20 22 23 44 72 87 95 69 55 37 42 63 72 76 75 70 66 59 48 34 25 19 14 14 13 23 34 59 90 121 130 113 85 57 41 32 25 24 23 28 37 52 70 73 60 35 12 5 2 2 0 0 1 1 2 2 2 2 1 0 0 1 2 2 1 0 0 0 1 2 1 0 
0 1 2 2 2 3 3 2 2 2 3 3 3 3 2 2 3 4 4 3 3 4 4 4 3 2 3 4 4 5 5 6 15 41 94 139 153 127 88 65 56 46 34 24 16 11 10 11 11 12 14 17 24 40 63 92 116 125 117 94 64 41 35 32 29 21 19 19 23 29 46 80 131 183 216 206 155 124 108 111 88 61 54 74 80 75 63 47 34 26 21 19 15 12 10 10 20 45 76 104 117 115 100 73 51 40 40 48 53 55 60 97 128 140 125 81 95 92 99 82 50 33 23 18 14 12 10 8 9 11 15 27 63 111 143 140 103 61 40 35 43 49 50 50 46 43 42 47 64 60 84 91 113 112 76 43 11 7 8 14 20 29 35 33 29 22 19 21 21 23 21 19 17 21 39 81 97 123 99 83 50 35 25 27 20 21 22 33 53 68 73 61 56 66 85 99 93 76 61 59 68 67 55 37 24 18 15 16 11 14 13 26 48 83 115 120 98 69 43 35 30 31 36 43 54 67 74 64 43 20 7 4 2 2 0 0 1 1 2 2 2 2 1 0 0 1 2 2 1 0 0 0 1 2 1 0 
0 1 1 2 2 3 3 2 2 3 3 3 3 3 2 2 3 3 3 3 4 5 5 4 3 2 3 4 5 5 5 7 15 40 92 139 154 126 83 57 50 48 44 39 33 29 24 19 16 15 19 30 45 61 81 112 136 159 154 122 79 43 29 28 31 33 38 43 53 67 97 141 187 213 201 152 98 84 106 119 93 59 47 65 82 88 85 69 49 36 29 22 16 12 9 9 14 32 60 93 120 127 120 95 70 59 52 54 56 57 64 97 124 140 126 92 87 94 108 100 66 42 26 19 13 11 9 8 9 14 21 46 97 140 154 124 78 44 31 30 36 41 46 51 52 59 69 80 88 80 100 97 111 96 67 43 18 10 8 10 13 14 15 13 14 15 17 23 22 21 18 20 18 24 44 86 106 133 103 81 46 31 25 32 25 23 20 22 35 47 56 62 83 114 135 136 117 98 81 66 66 65 57 38 25 19 16 16 13 15 13 14 20 40 76 106 103 83 51 39 38 36 43 54 66 72 65 47 25 10 6 3 3 1 0 0 1 1 2 2 2 2 1 0 0 1 2 2 1 1 0 1 1 2 1 0 
0 1 1 1 1 2 2 2 2 3 3 4 3 2 2 3 3 4 3 3 4 5 6 5 4 3 4 4 5 5 5 6 12 33 79 129 157 143 105 69 50 44 41 41 43 45 45 43 41 42 42 42 47 63 93 135 165 186 174 139 93 50 28 25 29 38 51 64 83 110 150 192 210 193 145 85 50 58 99 122 108 75 51 53 71 87 95 86 69 46 30 21 15 11 9 8 9 17 37 71 109 133 139 126 98 75 54 46 43 44 52 74 100 120 116 93 84 97 114 116 88 56 33 21 13 10 9 11 16 23 37 76 125 151 136 87 46 31 29 31 31 33 36 47 65 89 104 107 96 93 105 112 113 88 61 44 24 12 7 10 13 13 12 11 14 18 20 24 22 20 17 19 20 25 42 75 94 105 87 65 35 24 24 33 29 34 37 41 49 58 74 98 130 153 155 145 123 105 82 64 60 58 57 40 26 20 17 17 17 16 15 13 13 18 40 76 92 87 65 45 48 52 61 66 69 63 46 27 11 5 6 4 3 1 0 0 1 1 2 2 2 2 1 0 0 1 2 2 2 1 0 1 1 2 1 0 
0 1 1 1 1 2 2 1 1 2 3 4 3 2 2 3 4 4 3 4 4 5 6 6 5 4 3 5 7 7 6 5 9 22 58 108 151 162 145 113 83 63 50 44 44 47 51 52 50 45 45 53 65 77 85 100 116 129 125 106 74 45 27 26 41 64 89 112 137 167 194 202 180 134 79 41 33 55 90 111 109 89 72 63 61 74 94 96 80 52 32 21 12 9 7 7 6 8 17 43 83 127 157 156 125 82 48 31 23 23 28 38 56 74 87 84 79 91 110 124 110 77 45 24 15 12 13 18 29 36 58 105 139 142 101 50 26 26 34 49 55 54 46 49 77 119 136 122 85 83 102 126 123 94 62 44 27 17 9 11 16 17 17 15 15 18 23 28 28 25 20 18 17 20 31 52 74 81 67 43 22 17 18 29 30 39 47 60 77 97 118 139 154 148 127 108 104 116 101 73 57 51 54 40 27 21 19 19 22 22 25 20 17 12 20 50 80 96 99 91 90 84 80 72 61 45 25 11 3 3 4 4 3 2 1 1 1 1 2 2 2 2 1 0 0 1 2 3 3 2 1 1 2 2 1 0 
0 1 1 1 1 1 1 1 1 2 3 3 3 2 2 4 5 5 5 4 4 5 5 7 7 8 9 10 12 13 13 10 9 16 36 74 123 158 171 163 145 126 109 99 94 96 100 100 91 79 69 60 52 51 59 76 92 101 94 73 50 34 28 43 75 115 151 172 186 195 189 164 120 74 47 53 75 103 127 137 127 94 72 65 71 83 95 98 86 52 30 18 11 9 8 8 6 6 10 25 61 124 178 182 142 78 34 15 10 14 19 22 27 35 50 65 71 81 99 118 120 96 60 31 17 12 16 27 40 49 82 125 139 119 64 28 22 40 69 96 105 99 75 62 86 134 152 121 63 57 89 128 138 118 81 54 31 20 16 16 19 20 18 15 15 17 21 26 30 28 23 23 19 16 22 32 43 46 38 26 15 14 12 21 29 51 73 94 113 130 141 144 132 104 73 58 75 102 96 71 48 44 49 40 28 20 17 18 21 23 23 19 15 11 13 34 65 92 102 98 93 84 73 58 42 25 12 5 2 3 3 3 3 2 2 2 1 1 2 2 2 2 1 0 0 1 2 3 2 1 1 1 2 2 1 0 
0 1 1 1 2 2 2 1 1 2 3 3 3 2 2 4 5 5 5 5 5 6 7 10 14 21 30 39 46 50 48 41 32 25 28 44 78 120 155 175 181 181 176 171 166 166 164 152 132 101 67 45 40 42 41 41 37 35 33 28 22 18 23 63 120 170 194 190 185 169 141 102 65 52 76 110 138 150 147 139 125 109 98 76 62 71 92 96 85 48 27 17 13 12 11 8 6 7 7 20 58 132 193 192 138 64 21 10 10 19 30 38 41 37 36 48 62 71 87 106 120 109 74 38 20 14 21 35 47 62 101 130 126 88 35 19 28 65 105 126 133 130 106 76 90 138 162 125 57 37 68 112 143 147 122 88 52 27 20 17 22 23 22 21 16 14 17 22 26 27 26 24 21 17 16 21 26 28 25 21 14 12 8 15 31 64 97 125 138 139 131 112 84 54 32 37 69 97 87 62 33 39 44 39 29 20 15 16 18 20 21 17 13 10 10 22 45 71 88 92 86 72 55 37 22 11 6 2 2 2 3 3 3 2 2 2 1 1 1 1 2 2 1 0 0 1 2 2 2 1 1 1 2 2 1 0 
0 1 1 1 2 2 2 2 2 3 3 3 3 3 2 3 4 5 7 6 6 7 11 24 47 75 98 113 121 124 121 112 96 73 50 37 43 66 101 137 164 183 195 199 199 194 189 194 187 144 90 45 24 20 20 25 36 48 54 43 28 16 25 75 156 213 226 181 141 113 81 50 48 82 132 163 169 156 139 121 100 83 81 91 90 85 97 91 79 43 26 19 16 15 12 10 8 6 6 21 74 152 202 185 117 49 15 10 14 34 63 90 105 91 63 47 56 73 87 107 120 115 80 40 18 11 20 38 55 82 114 126 107 60 20 17 36 86 129 143 153 144 125 84 84 132 166 134 60 23 42 82 125 154 156 127 82 40 22 18 25 29 35 36 30 22 14 13 18 21 25 25 24 23 19 17 20 21 22 20 14 11 8 15 41 85 121 138 128 110 90 65 38 22 16 38 77 103 86 59 27 38 40 38 29 20 14 12 12 13 12 10 8 8 12 20 30 40 45 43 38 28 20 11 7 4 4 4 4 3 3 3 3 3 2 1 0 0 1 1 2 2 1 0 0 1 2 2 1 1 0 1 1 2 1 0 
0 1 2 3 3 3 3 3 4 4 4 4 5 4 4 5 7 7 7 6 8 15 37 72 110 140 155 160 160 160 161 160 153 139 111 75 43 34 46 71 97 121 139 151 157 168 202 241 226 162 84 26 9 11 23 49 85 110 118 93 61 26 29 70 165 216 210 145 72 43 29 32 76 135 174 172 140 105 86 75 69 71 75 79 82 88 99 90 76 43 28 22 19 18 13 11 8 8 9 28 98 171 202 167 91 41 18 12 22 54 102 136 162 144 103 66 56 81 101 118 118 107 72 36 17 13 19 36 56 94 131 134 101 43 10 12 37 91 134 147 154 135 119 75 71 127 166 140 67 16 22 47 85 129 167 160 116 58 23 19 32 46 63 73 71 56 32 15 12 18 27 34 35 30 24 18 16 18 19 19 14 10 10 17 46 99 145 160 129 82 49 28 13 10 11 38 78 106 90 61 30 36 38 36 29 22 17 13 11 10 7 5 6 9 17 24 26 22 17 12 10 7 4 2 3 3 3 3 3 3 3 3 3 3 1 1 0 0 0 1 2 2 1 0 0 1 2 2 1 0 0 1 1 2 1 0 
0 1 3 3 3 4 4 4 5 5 5 5 5 5 5 5 7 8 10 9 15 40 88 135 162 168 161 152 145 141 142 148 158 164 158 131 84 42 22 26 37 47 57 65 74 113 178 227 214 145 61 16 9 16 34 75 119 143 160 127 94 38 28 55 155 219 210 134 42 16 23 57 125 175 176 132 74 46 43 46 44 46 57 70 79 95 103 97 77 45 30 24 21 20 17 17 12 10 13 36 116 180 194 148 72 37 21 11 28 72 137 171 211 184 137 82 59 90 120 134 120 98 60 29 15 11 13 27 52 95 139 144 107 48 15 12 33 79 118 139 141 125 101 59 57 124 164 142 72 13 13 24 52 106 172 181 135 65 20 22 42 67 93 108 113 95 62 25 17 34 56 70 70 56 37 23 15 17 19 18 14 10 11 15 39 89 139 157 121 63 22 9 5 7 9 30 68 102 100 73 43 34 38 35 29 22 18 14 12 11 8 8 9 14 24 28 25 17 8 6 5 4 3 2 2 3 3 5 5 4 3 2 2 3 1 1 0 0 1 2 2 2 1 0 0 1 2 2 1 0 0 0 1 1 1 0 
0 2 3 3 3 3 3 4 4 4 4 5 6 6 7 7 9 9 11 13 38 90 146 175 168 139 110 90 78 76 80 90 108 133 161 167 136 83 34 14 13 12 16 22 45 116 201 239 195 103 32 14 16 22 41 94 150 189 216 155 112 44 23 42 137 215 221 148 49 17 37 96 164 182 146 76 31 40 57 73 68 53 43 45 66 95 110 109 80 50 32 25 22 21 18 18 14 14 20 47 125 182 183 134 64 34 22 10 28 76 144 180 225 193 147 84 62 96 135 145 117 86 49 24 14 11 10 16 36 76 132 154 130 73 24 12 24 57 89 113 116 100 68 40 53 128 164 140 71 12 11 17 43 106 171 180 131 60 19 25 49 87 116 127 138 119 92 39 30 58 93 116 110 93 58 31 18 16 18 18 15 12 13 12 24 66 127 163 140 79 24 5 4 5 7 20 52 89 106 90 65 41 37 34 28 22 18 16 14 13 11 12 16 22 29 28 21 12 4 4 3 3 3 3 2 3 3 4 4 4 3 3 3 3 2 1 0 1 2 2 2 2 1 1 1 2 2 2 1 1 0 0 1 1 1 0 
0 1 2 2 3 3 3 3 3 4 4 4 5 6 6 5 7 7 14 31 83 146 183 174 128 74 43 36 43 54 61 63 65 80 119 162 166 125 62 18 7 6 14 31 78 165 228 221 144 54 15 12 12 18 35 82 131 162 180 138 98 38 20 37 131 215 225 151 56 30 67 136 182 169 109 38 25 56 78 105 97 72 49 27 46 83 109 115 87 58 37 26 21 21 20 20 18 19 30 66 133 179 172 121 61 29 17 8 20 59 115 149 175 155 119 65 57 99 143 151 117 80 45 24 15 12 10 9 18 48 107 152 149 102 41 14 18 35 56 70 69 57 37 28 62 137 166 135 63 12 14 29 66 136 184 171 109 39 14 23 46 92 126 138 163 132 107 51 46 87 118 148 127 120 78 42 26 14 17 19 17 16 16 14 15 40 100 157 159 107 41 8 4 4 5 12 33 67 97 97 82 59 47 38 29 20 15 14 15 15 15 19 24 28 29 23 14 6 2 2 2 2 2 3 3 3 2 3 4 3 3 2 2 3 1 1 1 1 2 2 2 3 2 2 2 2 3 2 2 1 0 0 1 1 1 0 
0 1 2 2 2 2 2 3 4 4 4 4 5 6 6 5 6 9 22 64 134 184 181 130 67 28 25 36 62 88 102 98 76 56 69 130 171 155 93 29 13 17 30 58 119 197 225 182 93 24 10 10 11 13 23 54 94 124 132 102 66 31 28 53 149 222 220 143 59 51 101 162 176 139 72 23 29 65 89 124 111 79 51 25 37 74 100 114 93 68 45 31 22 20 21 24 30 43 65 106 151 174 156 105 59 28 14 7 11 36 75 112 131 114 79 41 48 98 146 155 123 80 46 26 15 13 11 8 10 26 75 136 156 124 61 17 14 20 30 35 32 25 20 30 83 151 167 126 51 15 26 54 100 162 180 144 75 18 10 18 39 84 124 139 159 131 101 51 58 108 121 160 121 132 92 49 31 13 16 20 19 22 24 26 24 30 74 138 165 130 62 14 5 5 6 10 20 45 75 86 79 62 53 46 34 23 17 17 20 23 26 30 33 31 25 15 7 3 1 1 1 1 2 3 3 3 2 2 3 3 3 3 2 2 1 2 2 2 2 2 3 3 2 2 2 3 3 3 2 1 0 0 1 1 1 0 
0 1 2 3 3 3 3 4 4 5 4 4 6 6 6 5 7 16 42 107 171 188 147 76 31 19 29 53 92 115 129 125 104 69 49 96 158 166 130 74 66 78 91 114 162 207 200 137 56 10 7 5 4 4 10 26 49 68 73 64 57 56 70 103 182 225 200 123 58 78 130 168 154 106 47 19 27 56 74 93 84 63 40 22 29 63 87 105 95 76 57 43 31 26 29 42 64 94 125 157 172 165 134 88 53 27 12 6 5 15 33 52 63 53 35 22 42 94 144 155 129 82 49 29 17 15 14 11 10 16 51 117 154 139 83 28 15 15 20 20 17 15 23 52 114 166 160 105 37 21 44 83 128 167 157 110 47 12 11 14 27 60 98 120 134 112 77 43 71 119 120 147 101 123 91 54 37 15 17 20 22 33 45 56 55 43 65 119 161 143 80 21 6 5 4 11 23 45 65 69 65 53 47 42 34 28 27 31 35 37 37 36 32 26 17 8 4 2 1 1 1 1 1 2 3 3 1 1 2 2 3 3 3 3 2 2 2 1 1 2 2 2 1 1 2 3 4 3 2 1 0 0 1 1 1 0 
0 2 3 4 4 4 4 4 5 5 5 5 6 6 6 5 14 32 72 144 182 165 102 33 16 20 30 59 103 133 166 159 129 82 44 73 145 185 195 168 166 173 176 180 194 198 163 98 34 5 4 2 2 4 6 10 17 27 46 64 87 107 123 145 191 203 167 103 65 101 141 154 124 76 34 17 23 39 55 68 60 41 24 18 26 49 71 88 86 76 64 55 46 47 60 87 123 156 175 180 166 134 96 64 43 26 14 6 4 6 12 18 22 19 17 23 43 87 133 148 133 89 56 34 21 19 16 14 12 14 36 97 144 145 101 47 28 25 23 22 23 28 48 92 147 170 138 77 26 30 66 108 140 152 125 80 32 9 9 13 20 37 61 80 89 74 47 40 90 127 134 140 103 119 87 55 38 16 20 22 29 53 75 93 93 65 67 106 155 150 93 28 6 7 7 22 39 55 55 45 38 34 34 33 27 23 25 31 36 38 36 31 25 19 11 5 3 1 1 1 1 1 2 2 3 3 2 2 2 2 2 2 2 2 2 2 3 3 3 3 3 2 1 0 1 3 4 3 1 1 0 0 0 1 1 0 
0 2 4 4 4 4 4 5 5 5 5 5 6 5 6 9 27 58 106 163 170 128 63 13 14 19 25 49 84 106 126 121 107 77 52 74 139 190 219 216 217 215 206 195 186 165 121 67 22 5 4 4 4 4 4 9 23 44 76 108 133 144 144 144 158 157 130 89 81 112 137 134 97 57 31 15 21 28 33 36 29 23 19 21 28 42 57 69 71 66 63 64 68 83 110 144 172 184 174 147 116 86 63 45 34 25 18 13 10 6 6 10 16 19 21 32 46 75 113 133 133 100 66 41 25 23 20 22 18 15 28 80 130 139 107 57 39 38 37 38 45 61 94 137 165 153 101 46 18 40 85 121 136 126 95 62 30 12 8 11 15 20 28 36 39 35 34 61 120 137 148 131 114 115 82 55 39 15 20 23 36 72 97 115 118 82 76 100 149 152 100 31 7 10 17 41 62 72 62 41 24 17 16 16 17 20 26 33 38 38 31 22 14 9 7 6 4 2 1 1 1 1 2 2 3 3 2 2 2 3 3 3 3 2 2 3 2 2 2 2 3 2 1 0 1 3 3 3 1 0 0 0 0 1 1 0 
0 2 3 3 3 4 4 4 5 4 5 5 5 5 7 16 44 86 131 161 142 91 40 10 13 15 20 34 61 88 109 109 97 78 64 74 112 153 185 192 188 177 167 154 139 114 77 42 16 8 7 8 8 8 8 16 39 76 117 141 146 134 116 100 96 93 87 77 88 111 123 117 81 51 37 21 20 22 23 21 18 18 20 26 34 45 52 54 54 56 61 72 91 120 151 174 175 155 126 104 93 77 63 45 33 25 26 28 31 30 27 26 29 31 35 44 47 61 88 112 129 111 81 52 31 27 23 27 22 19 26 68 114 130 107 66 49 50 55 60 76 100 133 158 152 115 60 22 17 47 97 125 125 101 74 55 35 23 24 33 40 44 44 42 40 42 55 103 151 146 151 125 124 112 79 52 40 16 21 23 40 82 114 139 140 93 80 98 148 153 102 33 11 18 35 64 78 79 60 35 24 16 13 10 10 11 13 19 25 28 21 12 6 7 6 5 4 3 1 1 1 1 2 2 2 2 3 4 4 4 4 3 3 3 2 2 2 3 3 2 3 2 2 0 1 3 3 3 1 0 0 0 0 1 1 0 
0 1 2 2 3 3 3 3 4 4 4 4 3 4 8 25 62 112 142 144 110 63 32 12 12 13 13 17 31 48 69 78 80 76 70 70 80 96 109 108 95 83 79 77 73 59 41 26 19 17 17 16 14 12 10 27 64 109 139 138 115 85 59 43 40 45 57 61 68 95 106 112 88 57 40 27 26 25 25 22 19 21 25 33 43 55 62 62 50 42 45 65 97 133 157 158 133 98 83 78 92 98 97 74 49 29 32 38 44 41 35 32 30 31 31 37 38 47 65 90 117 117 98 67 41 31 27 28 23 18 21 53 98 123 115 84 67 66 74 88 110 133 150 145 113 68 27 8 18 50 102 126 119 89 62 54 50 53 61 72 80 83 81 78 75 82 107 150 165 142 136 125 132 110 79 53 40 19 19 23 37 74 102 123 119 84 75 100 152 153 99 34 18 35 61 87 86 82 56 40 29 16 12 10 9 9 9 14 22 27 23 14 5 5 5 7 4 3 1 0 1 1 2 2 2 2 2 4 5 6 6 6 5 5 4 2 2 2 2 2 2 2 2 0 1 3 4 3 1 1 0 0 0 1 1 0 
0 1 2 2 2 3 3 3 3 4 3 4 2 4 9 32 76 126 141 122 80 44 29 16 12 11 11 13 18 30 49 65 74 72 62 50 42 45 54 61 56 44 35 28 28 22 21 23 30 35 35 29 23 17 18 45 86 124 133 110 72 41 21 15 14 18 28 37 43 70 94 115 114 88 64 41 34 28 25 19 19 22 24 35 52 71 84 85 83 80 77 85 106 122 129 113 81 55 70 103 139 149 147 122 82 43 43 51 62 55 48 44 38 38 34 34 33 41 52 73 101 116 115 89 57 39 32 30 25 19 18 40 79 114 126 115 105 104 111 123 134 140 131 104 64 29 8 3 16 46 99 126 123 91 61 60 66 76 87 95 99 98 96 96 98 110 134 154 142 117 111 128 139 110 78 55 42 28 19 22 30 54 78 97 91 67 68 111 160 149 92 33 32 58 84 95 81 77 55 49 33 19 15 13 12 10 8 10 19 26 26 17 7 4 3 3 2 2 1 1 1 2 3 3 3 4 7 10 14 17 18 18 15 11 7 4 3 2 2 1 2 2 2 0 1 3 4 3 2 1 0 0 1 1 1 0 
0 1 2 2 3 3 3 3 3 3 4 4 3 4 10 35 83 131 140 111 64 33 25 18 15 11 9 13 22 39 57 69 69 56 40 28 28 52 86 114 119 95 64 30 16 10 16 28 39 44 43 38 32 24 30 61 99 124 114 82 48 25 13 11 12 12 13 17 26 47 88 120 139 135 113 79 51 28 20 16 17 19 22 33 60 90 114 113 107 106 104 110 123 113 105 78 53 51 81 133 163 172 171 156 116 66 61 70 83 62 48 32 24 23 23 24 28 40 49 63 85 107 122 109 80 56 43 36 30 25 22 33 59 91 115 124 125 127 130 130 126 114 90 58 28 9 3 2 12 37 86 123 134 107 76 65 68 79 85 85 85 80 77 79 84 96 119 130 112 88 90 125 144 116 78 55 42 34 23 21 24 33 46 56 54 51 76 134 167 137 76 32 50 78 95 88 66 63 53 55 37 23 18 15 13 11 9 8 16 23 28 19 9 2 2 2 2 3 2 2 2 3 4 4 5 9 21 41 63 83 91 89 76 58 36 18 8 3 3 2 3 2 2 0 1 3 4 3 2 2 1 1 1 1 1 0 
0 1 2 3 3 4 4 3 3 3 4 5 4 4 9 32 79 128 144 119 73 38 24 14 13 11 16 23 34 50 59 60 47 30 17 17 36 87 135 162 168 139 102 47 16 12 27 48 62 64 57 49 42 34 46 73 104 115 93 65 42 26 19 13 12 12 11 10 22 44 76 115 137 153 145 112 71 35 17 13 15 19 18 27 61 103 133 138 120 119 126 132 141 109 98 71 51 59 82 144 169 180 184 174 139 96 80 90 103 71 56 31 26 27 29 30 32 43 51 57 72 91 113 116 99 77 60 51 41 34 29 33 55 88 118 130 130 121 111 102 91 72 47 25 9 3 2 2 7 25 65 109 136 120 89 61 56 60 56 50 46 40 39 41 48 58 76 87 79 66 79 116 143 129 85 57 45 38 30 20 21 24 27 30 35 55 105 157 163 116 58 34 66 92 94 70 44 47 52 59 43 27 20 18 15 14 10 8 13 21 27 21 11 3 3 3 4 5 5 4 4 5 6 7 15 37 77 121 157 179 186 184 170 144 107 65 32 12 6 3 4 2 2 0 1 3 4 4 2 2 1 1 2 2 1 0 
0 1 2 3 4 5 5 4 3 3 5 6 5 5 7 24 64 115 146 143 111 75 50 29 21 17 23 32 42 53 53 45 27 14 9 19 46 114 169 217 235 184 128 57 15 23 57 98 124 126 116 105 90 69 69 81 99 100 77 56 43 34 29 22 17 17 13 12 22 53 72 100 111 147 166 142 89 37 13 15 21 25 26 26 54 111 143 141 112 101 125 146 161 126 108 71 49 52 70 135 168 190 205 184 142 110 94 127 136 91 64 26 17 18 22 25 26 35 46 55 66 77 95 103 96 82 67 58 50 44 52 79 115 142 163 172 174 162 136 98 64 37 21 10 4 3 2 3 5 16 42 88 130 126 97 57 40 36 29 24 22 21 19 21 24 27 35 49 60 61 70 102 133 141 103 65 47 40 35 25 20 22 28 37 55 88 135 161 140 86 36 40 76 96 83 50 23 34 49 59 49 31 23 22 19 19 12 8 10 19 26 24 13 4 3 3 4 6 7 7 7 7 9 16 43 95 156 203 225 228 226 224 223 214 189 142 85 37 14 4 4 3 2 1 1 3 3 4 2 2 2 1 2 3 2 0 
0 2 3 3 4 5 6 5 5 5 6 8 7 5 6 15 42 86 129 153 151 132 111 90 76 67 64 61 58 54 44 32 16 6 8 19 48 117 169 213 210 164 113 48 18 48 109 161 186 179 170 161 143 110 88 81 88 88 69 53 48 45 42 34 25 22 14 11 20 59 74 84 90 128 162 145 90 38 15 21 38 48 52 37 49 105 152 144 102 71 103 136 155 131 106 75 54 42 52 101 146 175 187 165 120 93 82 113 113 83 53 20 13 12 16 22 24 27 34 47 63 72 84 87 84 76 68 60 58 72 115 154 184 199 201 196 191 182 163 129 86 43 18 7 4 3 3 3 5 13 31 79 129 128 98 49 31 27 24 19 18 22 24 27 28 28 29 38 49 56 58 89 119 144 128 85 53 40 35 29 26 31 48 68 87 111 138 146 121 76 36 47 77 97 78 43 15 26 44 55 53 36 26 23 20 18 11 8 9 19 27 25 14 5 4 5 6 7 7 7 6 8 15 40 99 171 222 235 216 190 180 184 193 201 203 194 154 89 35 11 5 3 2 1 1 2 3 4 2 2 1 1 2 3 2 0 
0 2 3 3 4 5 5 5 5 5 7 8 8 6 5 7 22 52 92 129 154 163 162 154 144 135 125 106 81 61 43 29 14 5 7 17 38 89 133 170 168 131 79 32 30 89 168 212 219 191 180 181 172 136 99 78 76 80 66 54 55 56 51 44 32 28 17 12 19 61 75 89 95 128 157 134 78 29 16 31 58 65 77 50 56 97 154 151 111 72 106 138 146 133 116 107 88 73 72 82 106 130 142 122 83 61 62 83 82 62 34 14 7 7 13 18 19 19 24 38 58 77 91 88 84 78 66 64 90 132 173 200 212 208 197 194 200 211 217 201 157 95 42 12 5 3 3 4 7 18 39 90 132 123 92 41 33 27 22 18 18 25 31 38 41 42 37 32 36 45 48 65 100 132 148 122 81 54 41 35 41 57 79 97 101 105 112 113 98 74 53 57 78 94 80 49 18 23 39 49 53 42 30 25 21 17 11 8 10 22 28 25 14 5 4 4 5 5 7 7 9 15 32 83 164 225 235 195 146 118 122 142 173 204 204 204 184 150 78 25 6 3 2 1 1 2 2 3 2 2 1 1 2 3 2 0 
0 2 3 3 3 4 4 4 4 5 6 8 8 6 4 4 8 22 48 80 111 137 155 164 166 165 158 137 104 76 51 34 17 7 6 12 22 50 82 105 100 72 42 31 60 144 213 222 185 137 143 172 180 147 97 71 65 75 64 57 63 66 61 55 39 34 18 12 19 63 69 100 113 150 156 114 56 17 15 37 71 86 110 64 62 95 154 153 115 77 109 132 132 126 127 137 135 128 117 106 102 93 87 69 45 28 32 42 43 30 17 9 7 9 15 23 31 35 36 41 53 77 107 118 114 87 80 111 145 177 195 191 168 139 117 113 127 157 195 226 217 162 89 28 8 3 3 5 15 36 67 118 141 122 86 39 36 28 21 17 20 29 40 48 50 51 50 45 37 39 45 54 84 114 146 157 129 97 74 59 68 83 100 104 90 76 68 70 75 76 68 62 80 90 83 57 26 22 34 42 47 43 34 26 21 16 11 9 15 26 30 24 12 4 4 5 4 5 5 6 13 28 62 137 211 236 196 125 78 65 75 98 111 130 143 194 196 181 131 55 11 3 2 1 1 1 2 2 2 1 1 1 2 3 2 0 
0 2 2 2 3 3 3 3 3 4 5 6 6 5 4 2 3 8 19 34 55 76 98 115 135 160 176 162 123 85 57 41 23 10 6 8 14 22 33 42 41 36 36 55 113 196 227 192 117 66 88 132 154 131 83 61 57 70 63 58 66 71 69 63 44 34 16 10 24 61 65 110 123 156 136 83 34 11 16 37 71 85 99 64 66 106 157 150 109 76 108 118 109 96 111 133 144 148 147 139 123 101 73 46 29 18 19 18 16 12 12 8 10 13 22 42 67 85 90 73 64 78 126 157 145 118 134 162 184 185 158 119 82 57 44 42 50 76 124 189 232 212 144 58 14 4 4 11 30 62 100 138 135 108 67 41 37 29 22 18 23 34 48 56 53 49 46 51 44 36 40 50 66 101 126 159 165 150 124 98 93 95 100 86 61 42 35 40 50 58 62 59 67 81 80 66 42 27 34 39 41 40 34 27 21 16 12 13 21 30 29 20 9 5 5 5 4 5 5 11 28 57 104 179 225 212 148 74 55 68 99 148 175 193 156 141 197 199 176 95 23 4 2 1 1 1 1 2 1 1 1 1 2 3 2 0 
0 2 2 1 2 3 3 3 2 3 4 5 5 4 4 2 3 4 7 11 17 25 36 49 77 119 154 152 116 78 54 43 29 15 12 9 10 12 16 20 26 38 60 105 172 221 209 142 67 42 85 136 154 122 70 49 53 63 60 55 62 68 66 57 41 28 12 11 33 58 70 111 126 145 109 58 20 9 14 28 53 66 71 53 67 122 162 142 101 79 108 101 84 62 78 93 103 112 127 144 150 143 113 73 40 22 22 19 18 10 9 9 10 14 29 68 112 144 159 127 91 78 134 185 187 184 179 201 189 137 83 49 33 26 23 21 23 31 61 126 209 236 190 99 26 6 8 19 50 92 123 139 112 87 56 46 39 29 22 20 26 37 52 60 56 53 52 59 55 42 36 53 66 82 97 123 155 165 150 119 97 82 77 56 36 24 18 17 21 28 40 46 48 70 76 74 57 39 35 40 38 35 32 27 22 19 16 20 29 32 27 16 7 4 5 4 4 6 8 22 51 91 138 192 209 170 112 56 60 72 84 118 141 166 183 150 194 209 205 136 41 6 2 1 1 1 1 1 1 1 1 1 2 3 2 0 
0 1 2 1 2 2 3 3 3 3 4 4 5 3 4 3 4 5 5 7 7 8 13 22 56 109 154 154 112 68 47 43 38 25 20 18 18 20 25 35 51 74 109 161 205 208 159 84 36 44 98 144 149 107 57 34 44 53 55 52 53 56 56 49 33 20 12 21 47 59 83 108 129 129 85 42 17 9 11 18 32 41 43 44 80 140 163 134 101 94 109 84 57 32 38 39 43 50 67 98 133 157 150 116 72 43 36 28 24 10 9 10 12 17 39 99 156 190 211 173 135 93 133 190 215 236 206 208 141 69 30 19 21 25 32 31 29 24 35 73 167 233 218 139 43 9 11 29 69 113 130 122 83 63 50 48 44 32 24 23 26 36 50 61 62 61 61 68 63 48 32 53 74 77 74 69 108 148 155 123 88 55 52 37 26 19 16 13 11 12 19 31 36 52 72 82 79 62 43 41 41 37 31 27 24 23 26 30 33 30 21 11 6 4 5 3 4 7 13 36 77 121 152 181 177 134 93 53 57 69 74 109 139 156 161 134 166 215 222 169 64 9 3 1 1 1 1 1 1 1 1 1 2 3 1 0 
0 1 2 2 2 2 3 4 3 3 3 4 5 4 4 3 3 5 5 6 6 6 9 22 55 110 156 156 112 63 42 41 41 36 32 30 30 34 43 60 84 117 158 194 200 162 96 39 24 49 103 146 144 96 48 24 35 42 47 47 44 42 39 34 26 20 23 42 65 68 97 109 130 113 69 38 21 15 15 17 21 21 24 47 108 159 154 128 105 113 107 70 35 21 22 17 13 13 21 42 84 129 153 142 103 66 51 42 34 19 10 9 11 17 45 120 185 196 226 187 172 108 119 171 227 255 205 169 80 28 12 13 30 57 81 86 73 48 33 49 130 218 230 166 62 13 12 37 83 125 126 99 57 44 47 45 44 35 27 26 27 34 44 57 65 71 72 72 63 47 31 54 80 78 61 39 71 121 134 107 74 39 42 31 24 18 14 11 9 10 14 22 33 42 68 86 94 86 69 53 41 37 33 32 31 32 35 34 32 25 14 8 4 3 3 2 3 7 17 51 101 140 150 154 142 110 77 50 52 66 57 69 83 109 123 110 137 207 231 188 83 11 2 1 1 1 1 1 1 1 1 1 2 2 1 0 
0 1 2 2 2 2 4 4 3 3 3 4 4 4 4 4 4 4 5 5 5 4 6 18 48 100 149 161 129 79 46 36 36 38 43 47 51 57 72 95 126 160 185 187 156 100 44 15 20 50 102 145 143 95 49 22 30 38 43 44 38 32 28 26 26 30 44 66 80 76 99 112 129 104 65 42 31 27 26 26 26 28 45 88 145 161 140 132 121 126 97 55 30 25 23 17 14 10 10 17 43 85 127 141 121 86 61 51 42 28 14 8 12 17 46 124 196 188 227 187 192 123 95 128 185 208 158 106 36 13 9 20 54 100 129 142 117 84 44 41 107 208 234 181 76 14 13 42 91 130 123 84 42 30 40 41 41 34 29 26 28 33 39 48 57 65 68 65 55 41 33 61 85 81 61 42 77 121 126 99 62 36 40 30 26 23 21 18 14 14 18 21 32 41 58 81 94 100 90 79 69 59 49 46 44 42 39 33 25 16 8 5 4 4 3 2 2 6 20 61 116 148 142 129 116 98 70 45 39 45 36 34 35 49 60 64 107 198 236 195 91 13 2 1 1 1 1 1 1 1 1 1 2 2 1 0 
0 1 2 2 2 2 3 4 4 3 3 3 4 4 4 4 4 5 5 6 5 4 5 13 36 80 131 162 157 123 83 57 44 40 42 48 60 78 105 136 163 180 175 145 96 49 16 8 16 44 93 139 147 110 61 31 30 40 41 41 36 30 27 28 35 49 68 82 78 72 90 116 132 108 70 47 38 39 44 47 52 65 94 135 159 145 132 129 131 122 77 43 32 28 26 20 18 12 9 11 24 53 94 122 121 97 68 57 49 38 22 9 11 16 42 113 192 188 223 193 193 130 73 80 113 126 91 52 15 10 11 27 77 133 166 194 150 115 55 40 102 206 234 183 79 12 13 40 90 131 126 82 41 24 31 34 34 30 30 28 29 33 37 43 48 51 50 45 37 30 39 73 91 81 68 64 110 139 125 95 56 42 41 34 35 37 38 34 25 22 22 24 31 41 51 66 72 89 96 92 84 77 71 64 57 48 38 26 15 8 5 4 4 4 4 3 3 4 21 63 120 153 142 118 101 91 69 42 30 28 23 18 16 21 32 51 106 201 233 186 85 12 2 0 1 1 1 1 1 1 1 0 1 2 1 0 
0 1 1 1 1 2 3 4 4 3 3 3 3 4 4 5 5 6 7 7 7 6 7 11 24 54 101 144 168 164 143 119 102 94 94 101 115 133 155 172 176 163 130 89 47 20 6 6 12 34 77 125 150 133 91 58 41 43 49 49 42 35 32 36 49 70 82 79 62 53 71 109 134 126 99 75 63 62 68 78 91 111 137 151 143 124 127 137 134 106 57 42 37 33 37 35 33 24 16 12 17 34 64 99 113 103 75 59 53 44 31 14 12 17 35 90 169 190 225 204 178 123 57 43 54 56 38 21 7 10 12 30 85 145 189 219 159 118 57 49 121 215 231 172 70 11 12 34 81 127 135 98 52 25 25 25 23 22 25 31 36 41 44 45 43 39 32 26 25 35 61 91 92 80 75 92 135 140 115 83 51 47 43 41 48 49 53 47 35 34 25 24 30 42 50 51 47 55 72 81 81 76 68 60 51 38 25 14 8 4 3 3 4 5 5 4 4 3 18 56 115 155 151 121 97 86 73 48 28 16 12 10 14 23 40 67 134 215 224 165 68 10 2 0 0 1 1 1 1 1 1 0 0 1 1 0 
0 1 1 1 1 2 2 3 3 3 3 3 3 3 4 5 6 6 7 8 8 8 8 11 18 32 63 103 144 170 179 177 170 163 161 163 170 176 179 170 148 114 75 41 18 8 5 5 9 23 56 100 139 150 129 98 77 59 49 45 46 45 47 55 69 83 82 63 39 26 46 85 120 137 133 120 111 109 115 124 134 144 147 132 116 106 126 136 119 82 49 45 42 42 51 53 50 37 26 14 13 25 44 79 106 111 91 68 58 51 40 22 12 15 26 62 129 166 200 187 149 100 47 26 23 19 12 9 6 9 11 24 69 117 153 165 125 92 52 71 155 226 221 147 51 10 10 25 65 113 140 124 82 45 28 26 21 21 25 36 48 54 54 50 42 35 31 29 32 49 77 95 86 83 87 116 141 122 96 67 52 51 44 47 59 62 68 61 45 40 29 27 35 47 53 44 28 22 35 46 53 55 51 44 35 25 16 9 6 3 3 2 4 5 6 5 4 3 13 43 99 150 163 140 107 86 74 58 38 24 18 17 24 36 59 99 171 222 204 133 45 7 2 0 1 1 1 1 1 1 1 0 0 1 1 0 
0 1 1 0 1 1 2 2 2 3 3 3 3 2 3 4 5 6 6 6 7 8 8 9 10 15 29 55 91 127 156 175 184 186 184 180 175 167 150 125 93 60 33 17 10 8 6 7 10 15 34 67 110 142 153 142 125 112 105 93 89 86 86 88 88 83 66 40 18 10 24 53 88 118 135 140 140 139 141 142 138 129 112 95 94 103 131 121 95 61 48 48 47 54 65 66 62 43 33 16 9 17 30 64 102 121 113 82 63 57 49 35 20 17 20 37 81 119 149 141 106 67 35 24 22 19 15 10 8 10 10 16 42 77 110 114 89 65 57 106 189 228 196 110 32 8 8 16 44 87 129 144 123 90 54 31 23 26 32 42 49 53 54 53 47 39 33 29 35 57 86 95 85 82 102 127 127 95 72 58 52 54 46 50 64 69 74 67 50 40 31 29 42 55 56 42 20 8 10 13 16 19 19 16 13 8 5 3 4 3 3 2 4 5 6 5 4 3 7 28 75 132 168 164 130 99 78 67 53 38 29 27 39 58 91 142 201 217 172 93 25 5 2 0 1 2 1 1 1 1 1 0 0 2 1 0 
0 1 1 0 1 1 2 2 2 3 3 3 2 2 2 3 4 4 4 4 4 5 5 8 7 8 10 20 39 63 89 113 131 141 145 142 132 114 90 63 38 19 9 5 6 6 6 7 8 9 17 36 69 106 135 152 154 146 139 133 131 126 116 105 87 66 43 21 8 4 9 24 49 77 102 119 128 128 124 115 102 85 71 76 96 114 120 93 66 50 47 52 51 63 73 75 75 50 39 19 7 11 26 55 102 132 138 104 72 61 56 50 35 25 20 21 41 66 85 79 60 41 29 27 27 25 22 17 14 13 9 8 18 35 53 59 52 53 81 147 210 214 157 72 20 8 9 10 25 55 98 133 144 131 105 83 52 37 35 38 45 53 60 59 50 41 36 31 35 54 76 85 83 91 115 122 104 68 44 50 48 56 46 45 56 64 70 64 48 35 29 33 52 64 58 40 17 6 5 4 4 6 7 5 4 3 3 3 4 3 4 3 4 5 6 6 4 3 5 16 49 100 153 178 162 130 93 73 64 57 54 58 76 103 143 189 214 192 126 53 11 3 2 1 2 2 2 1 1 1 1 0 0 2 1 0 
0 1 1 1 1 2 2 2 2 3 2 2 2 2 1 2 3 3 3 1 1 2 2 4 3 4 4 7 12 19 30 40 49 54 55 51 44 35 25 16 9 4 4 4 4 5 5 7 7 7 8 15 34 60 89 115 135 146 148 143 135 124 108 88 62 39 21 9 6 3 4 8 16 30 47 62 73 77 74 64 51 43 49 77 111 114 95 64 40 43 41 53 54 64 71 69 61 44 33 16 9 13 34 56 103 138 155 130 89 64 58 57 49 37 26 21 25 33 46 49 48 39 34 31 32 33 33 30 25 20 15 11 14 23 31 40 50 75 122 181 209 179 109 40 11 6 6 7 11 26 56 95 128 145 139 128 113 102 85 65 55 53 58 59 52 42 34 27 25 34 52 67 74 92 111 107 83 51 28 45 44 53 47 39 46 54 61 59 47 35 32 42 62 69 58 38 19 12 9 6 5 4 4 3 2 1 1 1 3 3 4 4 5 6 7 6 6 5 5 9 28 63 117 165 182 171 136 103 83 76 81 97 125 158 191 212 196 145 76 23 5 2 1 1 3 2 2 2 1 1 1 0 0 2 1 0 
0 1 1 1 1 2 2 3 2 2 1 2 2 2 1 1 2 3 3 1 1 2 2 4 3 4 4 4 5 5 6 7 9 11 11 9 7 7 6 5 4 2 2 2 2 3 3 5 4 4 3 5 12 24 41 59 78 93 102 105 101 89 71 50 30 16 8 4 4 2 2 4 6 9 13 18 22 23 20 17 15 25 53 93 120 105 74 43 25 36 36 48 54 59 61 60 52 39 28 16 15 23 48 62 98 131 160 154 116 74 56 53 54 51 39 29 26 31 41 47 50 51 48 42 36 35 37 38 39 37 31 28 30 38 49 64 84 117 162 196 187 133 66 20 7 6 5 6 5 8 22 48 81 115 138 147 143 135 126 104 80 64 61 60 47 34 26 20 15 20 32 45 54 74 91 91 68 41 23 35 43 47 43 33 33 37 41 43 39 36 40 56 71 76 70 54 41 34 26 17 10 5 5 4 3 2 1 2 3 3 4 5 5 7 7 7 7 7 7 8 16 33 72 124 168 190 184 163 143 136 141 158 181 201 207 190 144 85 34 8 3 1 1 1 2 2 3 2 1 1 0 0 0 1 1 0 
0 1 1 1 1 2 3 3 2 1 1 1 2 2 2 1 2 2 3 1 1 2 2 3 2 3 3 4 3 3 3 3 3 3 2 2 3 4 5 4 3 2 1 1 1 2 2 3 3 3 2 2 4 7 13 19 25 31 36 39 36 29 20 12 7 4 3 3 3 2 2 3 2 3 3 5 6 5 4 6 12 30 63 103 120 96 59 28 20 25 34 43 52 52 48 43 33 25 21 18 24 38 61 67 83 107 146 166 147 101 64 45 45 50 49 45 43 46 57 69 80 86 80 67 51 39 36 37 42 48 50 53 58 69 82 99 123 155 182 182 144 84 33 9 5 4 4 4 3 3 6 16 33 58 86 115 134 145 152 132 102 72 53 48 35 25 21 18 15 16 19 26 32 50 69 77 64 40 26 30 41 44 38 28 26 27 32 36 39 43 54 71 88 95 88 78 71 65 57 44 30 16 8 4 3 3 2 2 3 3 4 4 5 6 6 7 8 8 8 8 10 15 34 72 121 164 188 194 192 192 195 200 202 195 169 127 76 35 12 4 2 1 0 0 2 2 2 2 1 1 1 0 1 1 1 0 
0 1 1 1 1 2 3 3 2 1 1 1 2 2 2 1 2 2 2 1 1 1 2 2 2 2 2 2 2 1 1 1 2 2 2 2 3 4 4 3 2 1 1 1 1 2 2 3 3 3 2 1 1 3 4 6 7 8 8 9 8 6 4 3 3 2 3 2 2 1 2 2 2 3 2 3 3 2 2 6 13 33 69 108 121 95 54 23 20 19 32 39 48 46 38 30 23 20 21 25 36 53 67 62 58 71 114 156 167 140 96 58 42 44 51 57 64 73 89 106 123 135 131 113 84 55 37 32 35 45 56 69 81 94 109 129 153 174 173 144 92 43 14 5 4 3 2 3 3 3 2 5 10 21 36 58 82 111 150 143 111 72 41 37 29 22 22 23 24 25 21 18 17 29 49 67 67 48 32 27 33 36 32 26 22 25 32 39 42 46 59 74 87 90 87 85 82 80 77 70 56 37 19 8 4 3 4 3 4 3 4 4 4 5 5 6 6 6 6 6 6 7 12 29 62 104 142 168 182 187 186 178 161 135 98 60 29 12 5 5 2 1 0 0 1 1 2 2 2 1 1 1 1 1 1 0 
0 0 1 1 1 2 3 2 2 1 1 1 2 2 1 1 1 1 1 1 1 1 2 2 2 1 1 1 2 1 1 1 2 2 2 2 2 3 3 2 2 1 1 1 1 1 2 3 3 3 2 1 1 2 3 3 3 2 2 2 2 3 3 3 3 2 2 2 2 2 2 2 3 3 2 3 2 2 2 6 14 33 70 108 123 99 57 28 21 22 30 39 43 41 34 27 23 22 25 33 47 62 65 51 37 40 76 124 162 169 143 101 67 49 48 56 71 89 115 140 156 168 170 160 135 96 61 42 31 40 50 65 83 103 126 149 164 161 134 91 47 18 7 5 3 3 1 3 3 4 3 4 3 8 12 26 49 84 128 125 99 59 35 33 27 22 28 36 41 44 38 29 20 22 37 58 72 66 51 35 31 30 23 19 20 29 35 38 36 36 48 62 75 77 74 70 65 65 70 76 74 61 39 18 7 4 5 3 4 3 4 4 3 3 3 3 4 4 4 4 4 4 6 11 22 42 70 99 120 130 127 113 92 67 41 21 9 5 4 3 2 1 0 0 0 1 2 2 2 2 1 1 1 1 1 0 
0 0 0 1 2 2 3 2 2 2 2 2 2 1 1 1 2 2 1 0 1 1 2 3 2 1 0 1 1 1 1 2 2 2 2 2 2 3 3 2 2 1 2 1 1 1 3 3 4 3 2 1 1 1 2 2 2 1 1 2 2 3 3 3 2 2 3 3 4 3 3 3 3 4 3 3 2 3 2 7 13 30 65 104 125 108 68 38 28 32 33 36 37 36 32 28 27 28 34 45 59 66 55 37 20 18 40 78 127 162 172 154 125 99 87 89 103 125 152 168 168 166 170 177 175 153 122 97 78 73 77 92 111 130 147 155 147 122 83 45 19 7 5 5 3 3 1 3 4 5 4 4 4 9 17 36 64 100 131 116 89 48 36 32 26 25 36 51 53 57 47 39 25 17 27 52 81 93 86 67 42 28 21 22 25 32 38 44 38 32 34 42 52 51 45 39 37 40 47 58 69 72 59 35 14 5 4 3 3 2 4 3 3 2 1 1 2 2 2 2 3 4 4 4 7 13 20 30 40 47 46 40 29 18 10 6 5 5 4 3 2 1 0 0 1 2 2 3 1 1 1 1 1 1 1 0 
0 0 0 0 2 3 2 2 1 2 2 2 1 1 1 1 2 2 1 1 1 1 3 3 2 1 0 0 1 2 2 2 2 2 3 2 1 2 2 2 2 2 2 1 1 2 3 3 3 3 2 2 1 1 2 2 2 2 1 2 3 4 4 4 4 4 4 4 4 4 3 4 4 5 5 5 5 4 4 6 11 25 55 95 124 122 93 59 43 38 45 43 37 34 32 33 33 36 46 58 66 60 41 25 14 12 21 40 77 120 155 172 168 156 145 141 147 158 166 158 135 117 121 145 171 180 175 163 152 145 146 149 152 153 148 133 108 74 41 19 8 5 5 5 3 2 2 3 4 4 3 4 5 15 32 62 94 120 126 93 69 35 37 31 26 27 42 63 66 74 56 48 30 15 25 50 86 114 119 110 89 74 60 53 56 60 65 57 40 29 30 31 39 36 32 29 29 31 35 43 54 67 70 52 27 9 3 2 2 2 3 3 3 2 0 0 1 2 2 4 4 4 5 5 6 7 9 10 10 8 8 7 5 5 6 6 5 4 4 3 2 1 1 0 1 2 2 3 1 1 0 0 1 1 1 0 
0 0 0 1 2 3 2 1 1 2 2 2 1 1 1 1 2 2 2 1 1 2 3 3 3 1 0 0 1 1 1 1 2 2 2 2 1 2 2 2 2 2 2 2 2 2 3 3 3 2 2 2 1 1 2 3 3 2 1 3 3 3 3 3 3 3 4 4 5 6 5 5 5 6 7 8 7 6 4 4 9 19 42 78 114 130 121 92 71 54 46 45 47 43 40 40 42 48 60 67 63 46 26 14 9 8 9 15 34 64 100 135 157 166 166 163 159 153 139 112 78 53 58 89 126 156 175 184 186 183 177 170 160 145 124 95 64 35 17 8 6 5 6 4 4 2 3 4 4 4 3 5 8 23 51 89 116 120 102 61 46 26 37 32 28 28 42 62 67 77 59 51 30 17 33 58 87 113 126 134 126 116 111 110 113 109 97 77 63 41 39 33 40 37 35 38 44 50 50 44 45 58 69 65 40 14 3 1 2 2 3 3 3 2 1 1 2 3 3 4 4 4 5 3 4 4 5 5 5 5 5 5 6 5 4 3 4 4 4 3 2 2 1 1 2 3 3 3 1 0 0 0 1 1 1 0 
0 0 1 1 2 3 2 1 1 2 2 2 1 1 1 1 3 3 3 2 1 2 3 3 2 1 0 1 1 1 1 1 2 2 2 2 1 1 2 2 3 2 2 2 2 2 2 2 2 2 2 2 2 2 2 3 3 3 1 2 2 3 3 3 4 4 5 6 6 8 11 16 21 22 21 17 12 9 6 5 6 13 27 55 92 122 136 128 110 96 84 65 54 48 51 56 61 67 70 66 49 29 12 7 7 7 6 6 10 23 44 72 100 120 131 133 127 112 89 60 33 18 22 39 67 96 121 140 151 155 154 145 128 105 76 49 27 12 7 5 5 4 5 4 3 2 3 3 3 3 2 6 12 32 68 109 124 105 70 34 28 23 34 33 31 29 37 54 62 69 54 43 23 20 46 71 84 93 96 116 127 131 131 130 129 125 115 99 83 52 52 37 45 38 37 48 62 67 67 55 44 54 64 71 51 21 4 1 2 2 2 2 2 2 2 2 3 3 3 4 4 4 4 4 5 4 4 3 2 1 2 2 4 4 5 4 3 3 3 3 2 2 1 1 2 3 3 3 1 1 0 0 1 1 1 0 
0 1 1 2 2 3 2 2 1 2 2 2 2 1 1 1 2 2 3 2 2 3 3 3 2 1 1 1 1 1 1 1 1 2 2 2 1 2 3 3 3 3 2 2 2 2 2 2 2 1 1 1 1 1 2 3 3 3 2 2 2 2 2 3 4 4 5 9 17 29 42 52 57 57 51 43 29 19 10 7 7 9 16 32 61 93 123 139 140 131 120 112 109 104 100 95 89 81 69 52 31 14 5 4 3 2 3 3 3 5 11 22 35 48 57 60 57 47 33 18 8 5 7 13 23 38 54 68 77 79 74 65 52 38 25 14 7 4 4 4 4 4 4 3 3 3 3 3 3 3 3 7 14 38 80 120 123 92 47 21 17 20 29 31 30 27 30 41 48 52 42 30 18 27 58 81 77 62 51 67 84 97 106 112 120 130 129 113 90 56 54 37 48 41 40 57 74 77 80 64 46 52 57 72 56 25 6 1 1 1 1 2 2 2 3 2 3 2 2 2 2 3 3 2 2 2 2 2 1 0 0 1 3 3 3 3 2 2 3 2 2 1 1 1 2 2 3 2 1 1 0 1 2 2 1 0 
0 2 2 2 1 3 2 2 1 1 2 2 2 2 1 1 2 2 2 2 2 3 3 3 2 1 2 2 1 1 1 1 2 2 2 2 1 1 2 4 4 3 2 2 2 2 2 1 1 1 2 2 2 2 3 4 3 3 2 1 1 1 2 3 5 6 12 26 48 69 83 90 91 89 82 74 58 40 22 12 8 7 8 14 31 56 85 113 133 145 145 136 127 121 114 104 90 73 53 33 15 6 3 2 2 2 2 1 1 1 2 4 7 11 13 14 13 10 7 4 3 2 3 5 8 12 16 19 21 21 20 18 13 9 6 4 3 3 3 3 2 2 3 3 3 2 2 2 2 2 2 6 15 42 87 125 122 86 39 17 13 16 23 28 29 26 26 28 29 30 25 18 18 40 72 86 69 40 21 26 34 41 46 57 76 105 117 108 86 51 49 38 46 42 41 61 79 80 82 64 46 49 53 69 57 28 7 1 1 1 1 2 2 2 2 1 2 1 2 1 2 1 2 2 1 1 1 1 1 0 0 1 2 2 2 2 2 2 2 2 1 0 0 0 1 2 2 2 1 1 1 2 2 2 1 0 
0 1 2 2 1 2 2 2 1 1 2 2 2 2 1 1 2 2 1 1 1 2 3 3 2 1 1 1 2 2 2 1 1 1 2 2 1 1 2 3 4 3 2 2 2 2 2 1 1 2 2 2 3 2 3 4 4 3 1 1 2 2 3 4 7 15 37 63 86 97 97 94 91 89 89 91 84 67 44 23 12 7 5 6 13 25 43 65 89 109 122 128 128 121 108 90 70 49 30 15 5 3 2 3 2 2 1 1 1 0 0 1 2 3 3 3 4 4 3 2 1 1 1 3 4 5 6 7 7 6 6 5 4 3 2 2 2 2 3 2 2 1 2 2 2 2 2 3 3 3 2 6 15 42 88 129 128 89 45 20 19 16 19 23 24 23 22 21 17 15 13 16 31 61 86 86 58 26 10 9 11 12 15 27 59 105 124 109 77 45 46 42 43 39 38 55 73 79 78 62 43 45 52 68 56 28 8 2 1 1 1 2 2 1 2 0 1 0 1 0 2 0 1 1 1 1 0 1 1 1 1 1 1 2 2 2 2 1 1 1 1 0 0 0 0 1 2 2 1 2 1 2 2 2 1 0 
0 1 1 1 1 2 2 2 1 1 1 1 1 1 1 1 2 2 1 1 1 2 3 3 2 2 1 1 2 1 1 1 1 1 1 1 1 1 2 3 4 3 2 2 2 2 2 2 2 2 3 2 3 2 3 3 3 3 2 3 3 3 4 7 18 43 74 97 102 94 81 71 63 61 65 78 87 86 67 39 18 7 4 3 5 9 16 26 38 51 64 72 75 70 60 46 31 19 10 4 2 2 2 2 2 2 1 1 0 0 0 0 1 1 2 2 2 2 2 2 1 2 1 1 2 2 3 3 3 3 3 2 1 1 1 1 2 2 2 2 1 1 1 2 2 2 2 3 3 3 2 5 14 38 83 127 136 102 61 31 28 25 21 21 21 20 20 17 13 11 15 31 56 84 92 74 40 13 6 6 6 6 10 27 67 114 123 101 66 47 51 50 45 40 36 45 56 65 65 51 37 43 56 68 53 26 8 2 1 2 2 2 2 1 1 0 1 0 1 0 1 0 1 1 1 0 0 1 1 1 1 2 1 1 1 2 2 2 2 2 1 0 0 0 0 1 2 2 2 2 1 2 2 2 1 0 
0 0 0 0 1 1 2 2 1 1 1 1 1 1 1 1 2 2 1 1 1 2 3 3 2 2 1 1 2 1 1 1 0 0 0 1 1 1 2 3 3 2 2 1 2 2 2 2 2 2 2 2 2 2 3 3 3 3 2 3 3 5 7 16 43 82 107 109 88 63 41 29 24 26 30 47 68 85 82 60 31 10 4 4 4 5 6 8 12 17 21 24 25 22 17 12 7 6 4 2 2 2 2 2 2 1 0 0 0 0 0 0 0 0 0 0 1 1 2 2 2 1 1 1 1 1 2 2 2 2 2 2 2 2 2 1 2 2 2 2 1 1 1 1 2 2 2 3 3 3 3 5 11 29 70 117 141 123 83 51 37 37 30 23 21 20 20 17 13 17 29 54 80 95 84 55 25 8 5 5 3 7 18 46 86 118 110 84 51 48 53 52 46 39 35 36 40 43 43 37 36 48 64 68 49 23 6 2 2 2 2 2 2 1 1 0 1 0 1 0 1 0 1 1 1 0 0 0 1 1 1 2 2 2 2 2 3 2 2 2 1 0 0 0 0 1 2 2 2 1 2 2 2 2 1 0 
0 0 0 0 0 1 1 2 2 2 2 2 2 2 1 1 2 2 2 1 1 2 3 3 2 2 1 1 2 2 1 1 0 0 0 1 1 2 3 3 3 1 1 1 2 2 2 2 2 2 1 1 1 1 2 2 3 3 3 3 4 6 14 38 81 116 120 98 57 28 14 13 11 12 12 21 40 69 84 75 47 17 5 3 2 3 3 4 3 3 3 4 5 6 5 6 4 4 3 2 2 2 2 1 1 0 0 0 0 0 0 0 0 0 0 0 1 1 1 2 2 2 2 1 1 1 2 2 2 2 2 1 1 1 2 2 2 2 2 2 1 1 1 2 2 2 3 3 4 4 4 5 8 19 51 96 136 144 117 86 57 44 39 34 26 22 23 23 25 36 56 81 94 87 62 32 11 4 4 5 8 22 45 78 106 111 87 62 37 40 40 40 37 33 29 26 25 26 27 30 39 57 70 64 41 18 4 1 1 1 2 2 2 1 1 0 1 0 1 0 1 0 1 1 1 0 0 0 0 0 1 2 2 1 2 2 2 2 1 1 1 0 0 0 0 1 2 1 2 1 2 1 1 2 0 0 
0 0 0 0 0 1 1 2 2 2 2 2 2 2 2 2 2 2 2 2 2 2 3 3 2 1 2 2 2 2 1 1 1 0 0 1 1 2 3 3 3 1 1 1 3 2 2 1 1 1 1 2 2 2 3 3 3 2 2 2 6 12 32 73 118 132 114 72 34 19 11 12 17 20 17 15 20 50 77 82 60 26 7 4 3 3 2 2 2 3 4 5 5 5 5 5 4 3 4 3 4 2 3 2 2 1 0 0 0 0 0 0 0 0 0 0 0 0 1 1 2 2 2 1 1 1 1 1 1 1 1 1 1 1 1 2 2 2 2 2 1 1 1 2 2 2 3 3 4 4 4 5 6 11 31 68 113 143 144 120 93 66 47 37 36 33 31 31 40 59 79 91 84 61 34 14 6 4 4 9 25 53 86 110 112 91 59 35 21 24 22 23 25 25 24 22 18 17 20 31 49 67 71 56 32 12 3 2 1 1 1 2 2 1 1 0 1 0 1 0 1 0 2 1 1 1 0 0 0 0 1 2 2 2 2 2 2 2 1 1 1 0 0 0 0 1 2 1 1 1 1 1 1 1 0 0 
0 0 1 1 1 1 1 1 2 2 2 2 2 2 1 2 2 2 2 2 2 2 3 2 2 1 1 2 2 2 1 1 1 1 1 1 1 2 3 3 3 1 1 1 3 3 2 1 1 1 2 2 2 2 2 2 3 2 2 4 12 26 60 108 137 127 96 53 36 23 16 24 33 41 33 26 16 36 69 83 68 34 10 4 2 1 1 1 1 2 2 2 3 3 4 4 3 3 3 4 4 3 3 2 2 2 1 0 0 0 0 0 0 0 1 1 1 0 0 1 1 1 1 1 1 1 1 2 2 1 1 0 0 0 1 1 1 1 1 2 2 2 2 2 2 2 3 3 4 4 5 5 5 7 17 39 76 115 144 146 131 109 93 71 55 47 47 55 67 81 87 80 58 33 15 6 4 5 9 25 57 94 117 116 93 61 34 19 13 12 10 11 13 15 17 17 16 16 21 38 60 71 66 44 23 8 3 2 1 1 1 2 2 1 1 0 1 0 1 0 1 1 2 1 1 0 0 0 0 1 1 2 1 1 2 2 2 1 1 1 0 0 0 0 0 1 1 1 0 1 1 2 2 2 0 0 
0 1 2 1 1 1 1 1 1 1 2 2 1 1 1 2 2 2 2 2 3 3 3 2 1 1 1 2 2 2 1 1 2 2 2 2 1 1 2 3 3 2 1 1 3 3 3 1 1 1 2 3 3 3 2 3 3 3 5 11 25 50 94 133 136 107 71 46 42 28 32 46 56 65 50 38 21 31 63 80 71 39 14 5 3 2 1 1 1 1 2 2 2 2 3 3 2 2 2 2 3 2 2 2 2 2 1 1 1 0 0 0 0 0 0 0 0 0 0 0 0 0 0 0 0 0 1 1 1 1 1 1 1 1 1 1 1 1 2 2 2 2 2 2 3 3 3 4 4 4 5 5 6 6 10 19 41 72 108 134 143 136 124 114 109 102 94 90 89 85 74 54 30 13 5 3 4 8 19 54 97 126 125 96 60 34 18 15 13 11 10 12 15 20 24 25 22 19 23 43 67 71 57 32 14 6 4 2 1 1 1 2 2 1 1 0 0 0 0 0 1 1 2 1 1 0 0 0 1 1 1 1 1 1 2 3 2 2 1 1 1 0 0 0 0 1 1 1 0 1 1 2 2 2 1 0 
0 1 3 2 2 2 1 0 1 1 2 2 1 1 1 2 2 2 2 2 2 2 3 2 1 1 1 2 2 2 1 1 2 2 2 2 1 1 3 3 3 2 2 2 2 3 2 2 1 1 2 2 2 2 2 3 3 5 9 23 46 81 123 139 116 82 47 42 40 35 50 63 70 78 60 48 29 29 60 77 70 41 14 4 3 1 0 0 0 0 1 1 1 1 1 2 1 1 1 2 2 1 1 1 2 2 2 1 1 1 1 1 1 1 1 1 1 1 0 0 0 0 0 0 0 0 0 1 1 1 1 1 1 1 1 1 1 1 1 1 1 1 1 2 3 3 4 4 5 4 5 5 6 5 6 7 17 33 59 89 113 130 134 128 119 111 105 97 84 68 48 28 12 5 3 5 10 17 41 89 128 135 107 64 34 21 17 18 17 14 14 17 27 37 44 45 39 28 29 46 70 73 53 24 9 5 4 2 2 1 0 1 1 0 0 0 0 0 0 0 1 1 1 1 0 0 0 0 1 1 2 1 1 1 2 2 3 2 1 2 1 0 0 0 0 1 1 0 0 1 2 3 2 2 1 0 
0 2 3 2 2 2 1 0 1 1 2 2 1 0 1 2 3 2 1 1 2 2 2 2 2 2 1 2 2 1 1 1 1 2 2 1 1 1 3 4 4 3 2 2 2 3 2 2 2 2 2 2 2 2 2 3 3 9 18 42 73 108 134 124 90 55 34 37 35 39 60 74 82 85 64 51 33 31 61 75 67 39 12 4 3 1 1 0 0 0 0 0 0 0 0 0 0 0 0 0 0 0 0 0 1 1 1 1 1 1 1 1 1 1 1 1 1 1 1 1 0 0 0 0 0 0 0 0 0 0 1 1 1 1 1 1 1 1 0 0 0 0 1 2 3 3 3 4 4 4 4 4 5 5 6 4 5 12 22 40 59 81 98 107 109 105 94 79 60 41 24 12 6 3 5 9 19 35 72 121 141 125 80 42 29 25 21 20 18 15 14 21 35 48 54 55 50 38 32 45 68 73 52 22 6 3 3 3 2 1 0 0 0 0 0 0 0 0 0 1 1 1 1 0 0 0 0 0 1 1 2 1 1 0 2 2 2 2 1 2 1 1 0 0 1 1 1 1 0 1 2 2 2 2 1 0 
0 1 2 2 2 2 2 1 1 1 2 2 1 0 1 2 3 2 1 1 2 2 2 2 2 2 1 1 1 1 1 1 2 2 2 1 1 2 4 4 4 3 2 2 2 3 3 2 2 2 2 2 1 1 1 2 4 12 30 64 99 125 128 98 67 36 30 31 30 39 59 72 79 76 57 46 30 36 63 73 62 35 10 3 2 2 1 0 0 0 0 0 0 0 0 0 0 0 0 0 0 0 0 0 0 0 0 0 0 0 1 1 1 1 1 1 1 1 1 1 1 0 0 0 0 0 0 0 0 0 0 0 0 1 1 1 1 1 0 0 0 0 1 1 2 2 2 2 3 3 3 3 4 3 4 3 2 5 7 12 20 31 42 50 53 53 47 37 25 16 10 6 5 4 9 19 37 64 103 137 132 103 56 39 36 31 25 21 17 15 15 27 44 55 59 62 60 48 35 42 66 76 57 26 7 3 3 2 1 1 0 0 0 0 0 0 0 0 0 1 1 1 0 0 0 0 0 0 1 1 2 1 1 0 2 2 2 2 2 2 2 1 0 0 1 1 1 1 1 1 1 2 2 2 1 0 
0 1 2 2 2 2 2 1 1 1 2 2 1 0 1 3 3 1 0 1 2 3 2 2 2 2 1 1 1 1 1 1 2 2 1 1 1 2 4 4 4 3 2 2 3 3 3 3 3 2 2 2 1 1 1 1 6 18 46 86 117 127 108 68 49 28 31 28 25 34 49 61 71 64 48 37 30 45 67 72 57 29 7 2 2 2 2 1 0 0 0 0 0 0 0 0 0 0 0 0 0 0 0 0 0 0 0 0 0 0 0 1 1 0 0 0 0 0 1 1 1 1 0 0 0 0 0 0 0 0 0 0 0 0 1 1 1 1 1 1 1 1 2 2 2 1 1 1 2 2 2 3 4 3 4 3 3 4 4 5 7 9 13 14 15 14 12 8 6 5 5 4 6 7 15 35 64 94 121 133 106 79 40 43 41 36 28 21 18 17 20 33 49 60 65 67 63 50 35 39 64 77 62 31 8 3 3 2 2 1 0 0 0 0 0 1 0 1 1 1 1 0 0 0 1 1 1 1 1 1 2 1 1 1 2 2 2 2 2 2 2 2 1 1 1 1 1 1 1 1 1 1 1 1 0 0 
0 1 1 1 1 2 2 2 2 2 2 2 1 0 1 3 3 1 0 2 2 3 2 2 2 1 1 1 1 1 1 2 2 2 1 1 1 2 4 4 4 2 2 2 3 3 4 4 3 2 1 1 1 1 0 1 9 26 62 106 127 118 84 43 36 27 32 27 22 27 35 43 49 43 33 27 34 54 71 70 49 22 5 2 3 3 2 1 1 1 0 0 0 0 0 0 0 0 0 0 0 0 0 0 1 1 1 1 1 1 1 1 0 0 0 0 0 0 0 1 1 1 1 1 1 1 1 1 1 1 1 1 1 1 1 1 2 2 2 2 2 2 2 2 2 1 1 1 1 2 2 2 3 3 3 3 3 3 3 4 5 5 6 4 5 5 5 4 5 5 5 3 6 10 26 56 91 115 118 108 75 57 34 44 45 41 31 20 21 19 27 37 50 58 63 64 59 46 33 39 64 77 63 33 9 4 3 2 2 1 1 0 0 1 1 2 1 1 1 1 1 0 0 1 1 1 1 1 1 2 2 1 1 1 2 2 2 2 2 2 3 2 1 1 1 1 1 1 2 1 1 1 2 2 1 0 
0 1 2 2 2 2 2 2 2 2 2 2 2 1 2 3 3 2 1 2 3 3 2 2 2 1 1 1 1 1 2 2 2 2 1 0 1 2 3 4 3 2 2 2 3 4 4 4 3 2 1 1 1 1 1 2 12 35 78 120 130 104 62 26 28 28 31 27 20 20 23 26 30 28 25 29 45 65 75 65 40 16 4 2 3 3 2 2 1 1 1 1 1 0 0 0 0 0 0 0 0 0 1 1 1 2 2 1 1 1 1 1 1 1 0 0 0 0 0 0 1 1 1 1 1 1 1 1 2 2 1 1 0 0 1 1 2 2 1 1 2 2 2 1 1 0 1 1 1 2 1 3 3 3 3 4 4 4 3 2 3 3 3 3 4 4 5 5 4 3 3 2 7 15 39 78 113 121 101 74 47 36 29 39 45 45 38 29 31 26 32 38 48 56 61 59 50 37 30 42 66 76 60 32 9 3 4 3 2 2 1 1 1 1 1 1 1 1 1 1 0 0 0 1 1 1 1 1 1 2 2 2 2 1 2 2 2 2 2 2 2 2 1 2 1 1 1 1 2 1 1 1 1 1 1 0 
0 2 3 2 2 2 2 2 2 3 3 3 2 1 2 2 3 2 1 2 3 3 2 2 2 2 2 2 1 1 1 1 2 2 1 1 1 2 3 3 3 2 2 2 3 4 5 5 3 2 0 1 1 2 2 4 15 44 89 129 129 91 45 18 22 27 29 26 20 16 17 19 23 24 27 39 59 75 74 55 28 9 2 2 2 2 2 2 2 1 1 1 1 1 1 1 1 1 1 1 1 1 1 1 2 2 2 1 1 0 1 1 1 1 1 1 0 0 0 0 0 0 0 0 0 0 1 1 2 2 2 2 1 1 1 2 2 2 2 2 2 2 1 1 1 0 0 1 1 1 1 2 2 2 2 3 3 3 2 2 2 2 2 2 3 4 4 4 3 2 2 1 8 20 51 94 123 115 80 45 32 26 28 32 39 46 45 39 39 31 30 31 37 43 43 37 30 25 29 48 70 73 54 27 9 4 3 2 2 2 1 1 1 1 2 1 2 1 1 0 0 0 1 1 1 1 0 1 1 1 1 1 1 1 1 1 1 1 1 2 1 2 1 2 1 2 2 2 3 3 2 1 1 1 1 0 
0 2 3 3 2 2 2 2 3 3 4 3 2 1 2 2 3 2 2 3 3 3 3 2 2 2 2 2 1 1 1 2 2 2 1 1 1 2 3 3 3 2 3 3 4 4 5 4 3 3 1 1 2 3 3 5 17 48 96 133 128 85 40 17 21 26 30 28 23 19 16 19 24 29 39 54 72 79 66 40 17 5 3 2 2 2 2 2 1 1 1 1 1 1 1 1 1 1 1 1 1 1 1 1 1 2 1 1 0 0 0 0 1 1 1 1 1 0 0 0 0 0 0 0 0 0 0 1 2 2 2 1 1 1 1 1 2 2 1 1 2 2 1 1 1 0 0 1 1 1 1 1 1 1 2 2 3 2 2 2 2 1 2 2 4 5 6 5 4 2 2 2 9 24 58 103 126 110 68 33 25 23 21 27 30 37 41 40 39 32 26 23 24 27 26 23 20 22 35 59 76 71 48 21 7 4 3 3 2 2 1 1 1 1 1 1 1 1 1 1 1 1 1 1 1 0 0 0 1 1 1 1 1 0 0 0 1 1 2 2 2 2 1 2 2 2 2 2 2 2 1 0 0 1 0 0 
0 2 3 3 2 2 2 2 2 3 4 3 2 1 1 2 2 2 2 2 3 3 3 3 2 2 1 2 1 1 1 1 2 2 2 2 2 2 2 2 2 2 2 3 4 4 4 4 3 2 2 2 3 3 3 6 18 48 96 134 131 87 45 21 28 32 35 34 31 26 21 22 29 39 54 71 80 74 51 25 9 3 2 2 1 1 2 2 1 0 0 0 0 0 0 0 0 0 0 0 0 0 1 1 2 2 1 1 0 0 0 0 0 0 1 1 1 0 0 0 0 0 0 0 0 0 1 2 2 2 2 2 2 2 2 2 2 2 2 2 2 2 2 1 1 1 1 1 1 1 1 0 0 0 1 1 2 2 2 2 2 2 2 2 3 3 3 2 2 2 2 2 8 24 58 105 127 111 69 37 26 31 22 23 24 27 30 32 31 24 16 13 15 18 19 18 19 28 48 71 80 65 38 14 7 6 5 3 2 1 0 0 0 0 0 0 1 1 1 1 1 1 1 1 1 0 0 0 1 1 1 1 1 1 1 1 2 2 3 3 2 2 2 2 2 2 2 2 3 3 2 1 0 0 0 0 
0 2 3 3 2 2 2 1 2 3 4 3 2 1 1 2 2 2 2 2 2 2 3 3 3 2 1 1 1 1 2 2 2 2 2 2 2 2 2 2 2 2 2 4 4 4 4 3 3 3 3 2 3 3 3 6 15 42 87 130 138 100 58 32 34 40 38 36 33 29 27 30 40 56 73 83 77 58 32 13 4 2 2 2 2 1 1 1 0 0 0 0 0 0 0 0 0 0 0 0 0 0 0 1 1 2 1 1 0 0 0 0 0 0 0 1 1 1 1 1 1 0 0 0 0 0 1 2 2 2 1 1 1 1 1 1 2 2 2 2 1 2 1 1 1 1 1 1 1 1 1 1 0 0 0 0 1 1 2 2 3 2 2 2 3 3 3 2 2 2 2 2 7 21 53 99 127 122 84 51 34 32 30 21 19 19 19 19 20 17 13 10 11 15 19 22 30 44 66 81 76 52 25 9 7 6 6 4 2 1 0 0 0 0 0 0 1 1 1 1 1 1 1 1 0 0 0 1 1 2 1 1 1 1 1 1 2 3 3 3 2 2 2 2 2 2 1 2 2 3 2 2 1 1 0 0 
0 2 3 2 2 2 2 1 2 2 3 3 2 1 1 2 2 2 1 2 2 2 3 3 3 2 1 2 2 1 1 2 2 2 2 2 2 2 2 2 1 1 2 3 4 4 3 3 3 3 3 2 2 2 2 5 11 33 73 119 142 123 82 51 42 51 54 50 43 33 29 37 56 76 87 82 62 37 17 6 2 2 2 2 1 1 0 0 0 0 0 0 0 0 0 0 0 0 0 0 0 0 0 0 1 2 2 1 1 1 0 0 0 0 0 1 1 1 1 1 2 1 1 0 0 1 1 2 1 1 0 0 0 0 1 1 2 1 2 1 1 2 1 2 1 1 1 1 1 1 1 1 1 1 1 1 1 1 1 2 2 2 1 2 2 3 3 2 2 2 2 2 5 16 42 85 121 132 109 72 52 39 41 34 23 18 18 17 15 12 10 11 13 18 25 33 48 65 81 81 62 34 13 4 5 6 6 4 2 0 0 0 0 0 0 0 1 1 1 1 0 0 0 0 0 0 0 1 1 2 2 1 1 1 2 2 2 2 3 2 2 1 1 2 2 2 2 2 2 3 2 2 1 1 1 0 
0 2 2 2 1 2 2 1 1 2 3 3 2 2 2 2 2 2 2 2 2 1 2 2 2 2 1 2 2 1 1 1 2 2 2 3 2 2 2 2 2 2 2 3 4 4 4 3 4 4 4 3 3 3 3 5 8 23 55 99 136 142 117 88 62 50 48 49 45 39 44 57 76 89 84 65 39 18 6 3 2 1 1 1 1 0 0 0 0 0 0 0 0 0 0 0 0 0 0 0 0 0 0 0 1 2 1 1 1 1 1 0 0 0 0 0 1 1 1 1 1 1 1 0 0 1 1 2 1 1 0 0 0 0 1 1 2 1 2 1 1 2 1 2 1 1 1 1 1 1 1 1 1 1 1 1 1 1 1 2 2 2 1 2 2 3 3 3 3 3 3 3 4 12 30 65 104 133 133 107 79 56 46 42 41 29 21 17 17 18 18 19 22 28 39 53 70 82 83 66 40 16 5 3 4 6 4 4 2 0 0 0 0 0 0 0 1 1 1 0 0 0 0 0 1 1 1 1 2 2 2 1 1 1 2 2 2 2 2 1 1 0 0 1 1 2 2 2 2 2 2 1 1 1 1 0 
0 2 2 2 1 2 2 1 1 2 3 3 3 2 2 2 3 3 2 2 2 2 2 2 2 2 1 1 1 1 1 1 2 3 3 3 3 3 3 3 3 2 2 3 4 4 4 5 5 6 6 5 5 5 5 7 10 16 36 70 111 139 143 128 110 102 92 85 78 72 74 80 89 85 65 41 19 8 4 3 2 2 2 1 1 0 0 0 0 0 0 0 0 0 0 0 0 0 0 0 0 0 0 1 1 1 1 1 1 1 1 0 0 0 0 0 0 0 0 1 1 1 1 1 1 1 1 1 1 1 1 1 1 1 1 1 2 1 2 1 2 2 2 2 1 1 1 1 1 1 1 0 0 1 1 1 1 1 1 2 2 1 1 2 2 3 3 3 3 4 4 4 3 8 19 41 77 116 140 140 117 94 73 50 43 43 42 35 26 22 20 23 29 40 56 72 84 84 68 43 20 7 3 3 3 4 4 4 2 1 0 0 0 0 0 0 1 1 1 0 0 0 0 1 1 1 1 1 2 2 2 2 1 1 2 2 2 1 1 1 1 1 0 1 1 2 2 3 2 2 1 0 0 1 0 0 
0 1 1 2 1 2 2 1 1 1 2 3 3 3 3 3 3 3 3 3 3 2 2 2 1 1 1 1 1 1 1 2 2 3 3 3 3 3 3 3 3 3 3 3 4 4 4 4 5 6 6 6 7 7 8 8 9 12 21 41 74 109 136 144 137 129 126 127 121 110 101 93 82 62 39 20 8 5 4 3 1 1 1 1 1 1 0 0 0 0 0 0 0 0 0 0 0 0 0 0 0 0 1 1 1 1 1 0 1 1 1 1 0 0 0 0 0 0 0 0 0 1 1 2 2 1 1 1 1 1 1 1 1 1 1 1 1 1 2 2 2 2 2 2 1 1 0 1 1 1 1 0 0 0 0 1 1 1 2 2 3 2 2 2 2 3 3 3 4 5 5 5 4 5 11 21 46 82 119 145 147 132 111 98 75 55 39 32 34 35 32 33 41 57 74 84 82 67 43 22 8 3 3 3 3 3 4 3 2 1 0 0 0 0 0 0 1 1 1 0 0 0 0 1 1 1 1 1 1 1 2 2 2 2 3 3 2 1 1 1 1 1 0 1 1 2 3 2 2 1 0 0 0 0 0 0 
0 1 1 2 2 3 3 2 1 1 2 2 2 2 2 3 3 3 3 3 3 2 2 2 2 2 2 2 2 2 2 2 2 2 2 2 2 2 3 3 3 3 3 3 4 4 3 4 4 5 5 6 6 7 7 8 8 9 12 20 38 63 93 118 135 141 139 132 123 111 96 77 56 34 18 7 5 5 4 3 1 1 1 1 1 1 1 1 1 1 1 1 1 1 1 1 1 1 1 1 1 1 1 1 1 1 0 0 1 1 1 1 1 1 0 0 0 0 1 1 0 1 1 2 2 1 0 0 0 0 0 0 0 0 1 1 1 1 2 2 1 2 1 2 1 1 1 0 1 1 1 1 1 1 0 0 0 1 2 3 3 3 2 2 2 3 3 3 4 5 5 5 5 5 7 10 22 45 79 114 141 152 143 130 118 109 97 80 69 61 57 60 67 78 84 79 62 41 20 9 4 3 3 3 2 2 2 3 2 1 0 0 0 0 0 0 1 2 2 1 0 0 1 1 1 1 0 0 1 1 2 2 2 2 3 3 2 2 1 2 1 1 0 1 1 2 2 2 1 0 0 0 0 0 0 0 
0 1 2 2 3 3 3 3 2 1 1 1 2 2 2 2 2 3 2 2 2 2 2 2 2 2 2 2 2 2 2 2 2 2 2 2 2 2 2 2 2 2 1 2 3 3 2 2 2 3 4 4 5 5 5 5 6 6 6 8 15 26 44 64 84 100 108 107 98 82 63 43 26 13 6 3 4 4 3 2 1 1 1 1 1 1 1 1 1 1 1 1 1 1 1 1 1 1 1 1 1 1 1 1 1 1 1 0 1 1 1 1 1 1 1 0 0 1 2 2 1 1 1 2 2 1 0 0 0 0 0 0 0 0 0 0 1 1 1 1 1 1 1 2 1 1 0 0 0 1 1 1 1 1 1 0 0 1 2 3 3 3 2 2 2 3 3 4 4 5 5 5 5 5 5 5 9 19 38 66 96 124 144 150 143 131 122 118 118 113 104 96 91 88 77 59 37 19 8 4 3 3 2 2 2 2 2 2 2 1 0 0 0 0 0 1 1 2 2 2 1 1 1 1 1 0 0 0 1 1 1 1 1 2 3 3 2 2 1 1 1 1 1 1 2 2 2 2 1 1 0 0 1 1 1 0 
0 1 3 2 3 3 4 3 2 1 1 1 2 2 2 2 2 2 2 2 2 2 2 2 1 2 2 2 2 2 2 2 2 2 2 2 2 2 2 2 2 2 1 2 2 3 2 2 2 2 3 2 3 2 3 3 4 4 4 4 5 9 15 23 32 40 45 45 40 31 22 14 8 4 2 3 3 2 2 1 1 1 0 0 0 0 1 1 2 2 1 1 0 1 1 1 1 1 0 0 0 0 1 1 1 1 1 1 1 1 1 1 1 1 1 1 1 1 2 2 1 1 1 2 2 1 0 0 0 0 0 0 0 0 0 0 1 0 0 0 0 0 1 1 1 1 1 0 0 0 0 0 1 1 1 1 1 1 1 2 2 2 2 2 3 3 4 4 4 4 5 5 5 5 5 5 5 7 13 26 46 71 97 118 131 137 137 133 126 117 108 98 88 74 55 35 18 8 4 3 2 2 2 2 1 1 1 2 2 1 1 1 1 1 1 1 2 2 3 2 1 1 1 1 1 0 0 0 1 1 1 1 1 2 2 2 2 1 1 1 1 1 1 1 2 2 2 2 1 1 1 1 1 1 1 0 
0 2 3 3 2 3 3 3 3 2 2 2 2 2 2 2 2 2 2 3 3 2 2 1 1 1 1 2 2 1 1 1 1 2 2 2 2 2 2 2 2 2 1 1 2 2 2 2 2 2 2 1 1 1 2 3 4 3 3 2 3 4 5 7 10 12 14 13 11 8 6 5 3 3 2 2 2 1 1 1 2 2 2 1 1 1 1 1 2 1 1 0 0 0 1 1 0 0 0 0 0 0 0 0 1 1 1 1 1 1 1 1 0 1 1 2 2 1 2 1 1 2 1 2 2 1 1 0 0 0 0 0 0 0 1 1 1 0 0 0 0 0 0 1 1 1 1 1 0 0 0 0 0 1 1 1 1 1 1 1 1 1 1 1 2 3 3 3 3 2 3 3 3 4 4 4 4 5 6 9 15 26 41 57 73 87 98 103 104 99 89 75 60 43 27 14 6 4 3 4 3 2 2 3 2 2 1 1 1 2 2 2 2 2 2 1 3 2 3 2 1 1 1 1 1 0 0 0 1 1 1 1 1 1 2 2 1 1 1 1 1 0 1 2 2 2 1 1 1 1 1 1 1 2 1 0 
0 2 3 3 2 2 3 3 3 3 2 2 2 2 2 2 3 2 2 3 3 2 2 2 1 1 0 1 1 1 0 0 1 1 2 2 1 1 1 2 2 2 2 2 2 2 2 2 2 1 1 1 1 1 2 2 3 3 2 2 3 4 4 3 3 3 4 3 3 3 3 3 3 3 2 2 2 1 1 1 2 2 2 2 1 0 0 1 1 1 0 0 0 1 1 1 1 1 0 0 0 0 1 1 2 1 1 1 1 2 1 0 0 0 1 1 1 1 1 1 2 2 1 1 1 1 1 1 1 1 1 1 1 1 1 1 1 0 0 0 0 0 0 1 1 1 1 1 1 0 0 0 0 1 1 1 1 1 1 1 0 0 0 1 2 2 3 2 2 1 1 1 2 2 3 3 3 4 5 4 5 8 13 19 26 33 38 42 42 40 35 29 21 15 9 5 4 4 3 2 2 2 2 2 2 2 1 2 2 2 2 2 2 2 2 1 3 2 3 2 1 2 1 1 0 0 0 0 1 1 1 1 2 2 2 2 1 1 1 1 1 0 1 2 2 2 1 0 1 1 1 1 1 1 1 0 
0 2 3 3 2 2 3 3 3 3 2 2 2 2 2 2 2 2 2 3 3 2 3 2 2 1 1 1 1 1 0 0 0 1 1 2 1 1 1 1 2 2 2 2 2 1 1 2 2 1 1 1 1 2 2 2 2 2 2 2 3 3 3 3 2 2 2 2 1 2 3 4 3 3 3 3 3 3 3 3 3 3 3 2 2 1 1 1 1 1 0 1 1 1 2 1 1 1 1 1 1 1 1 1 2 0 1 1 1 2 1 1 0 0 0 1 1 0 1 1 2 1 1 0 0 1 1 2 1 1 1 1 1 1 1 1 1 1 0 0 0 0 0 1 0 1 1 1 1 0 0 0 1 1 1 1 1 1 1 1 1 0 0 0 1 2 2 2 1 1 1 1 1 0 1 2 4 3 5 4 4 3 3 5 6 8 10 11 11 11 9 7 6 4 3 4 3 3 3 2 2 1 1 2 1 1 1 1 2 2 2 2 2 2 2 2 3 2 2 2 1 2 1 1 0 0 0 1 1 2 2 2 2 2 2 2 1 2 2 2 1 0 1 2 3 2 1 0 0 0 0 0 1 1 1 0 
0 2 3 3 2 2 2 3 3 3 2 2 2 2 2 2 2 2 2 2 3 2 2 2 2 2 1 1 1 1 1 1 1 2 2 2 2 2 1 1 1 2 2 2 1 1 1 1 2 1 2 2 2 2 2 3 3 2 2 2 3 3 3 3 2 2 1 1 2 2 3 4 3 2 2 2 2 2 3 3 3 2 2 2 1 1 1 1 2 1 1 1 1 2 1 2 1 1 1 1 1 1 1 1 1 1 1 1 1 2 1 1 0 0 0 0 0 0 1 1 2 1 1 0 0 1 1 2 1 1 0 0 0 0 1 1 1 1 1 0 0 1 1 1 1 0 0 1 1 1 1 1 2 2 1 0 0 1 1 1 1 1 1 1 1 1 1 1 1 1 1 1 1 0 1 1 4 3 5 3 3 2 3 3 3 3 3 3 3 3 3 4 4 3 3 3 3 3 3 2 1 0 0 0 0 0 0 1 2 2 2 2 2 2 2 2 2 2 2 1 1 2 1 1 0 0 0 1 1 2 2 2 2 2 2 1 1 2 2 1 1 1 2 2 3 2 1 0 0 0 0 0 1 1 1 0 
0 2 3 2 1 2 2 2 2 3 3 3 3 2 2 2 2 2 2 2 3 2 3 2 2 2 1 2 2 1 1 1 1 2 2 2 2 2 2 1 1 2 2 2 1 1 1 1 2 2 2 2 3 3 3 2 2 1 2 2 2 2 3 3 2 2 2 2 2 3 4 4 3 2 1 2 2 3 3 3 3 3 2 2 2 1 2 2 2 1 1 1 1 1 1 1 1 1 0 0 0 0 0 1 1 1 2 1 1 1 1 1 1 1 1 0 0 0 1 1 2 1 1 0 0 1 1 2 1 0 0 0 0 0 0 0 1 1 1 1 1 1 1 2 1 0 0 1 1 1 1 1 2 2 1 1 1 1 1 1 1 1 1 1 1 1 2 1 1 1 1 1 1 1 1 2 4 4 5 3 3 2 2 2 2 2 2 3 2 3 1 2 2 4 3 3 3 3 3 2 1 0 0 0 0 0 0 1 1 2 2 2 2 2 2 2 2 2 1 1 0 1 1 1 0 0 1 1 2 2 2 2 2 1 1 1 2 2 1 1 1 2 3 3 3 2 1 1 0 0 0 1 1 2 1 0 
0 2 2 2 2 2 2 2 2 3 3 4 4 3 3 2 2 2 2 2 3 2 3 2 2 2 1 1 1 1 1 2 2 2 2 2 2 2 2 2 1 1 2 2 2 1 1 1 2 2 3 2 3 3 2 2 1 1 2 2 2 2 2 3 3 3 3 3 3 2 2 2 2 1 0 0 1 1 2 2 3 2 1 1 1 1 1 2 2 2 1 1 1 1 0 1 0 0 0 0 0 0 0 0 1 1 2 1 1 1 1 1 1 1 1 1 1 1 1 1 2 1 1 1 1 1 1 2 1 0 0 0 0 0 0 0 0 1 1 1 1 1 1 2 1 1 0 0 1 1 1 1 1 1 1 1 1 1 1 1 1 2 2 1 1 1 1 1 1 1 0 1 1 1 1 1 2 3 3 3 2 2 2 2 1 1 2 3 3 2 1 2 2 3 2 3 2 3 3 2 1 0 0 0 0 1 0 1 1 2 2 2 2 2 2 2 2 2 1 1 0 0 0 1 1 1 1 1 1 2 2 2 2 1 0 1 2 2 1 2 2 3 4 4 3 2 1 1 1 1 1 1 2 2 1 0 
0 2 3 2 2 2 2 2 2 2 3 3 4 4 3 3 2 2 2 3 3 2 2 2 2 1 1 1 1 1 1 1 2 2 1 1 1 2 2 2 1 1 2 2 2 2 1 1 2 2 3 2 3 2 2 1 1 1 1 1 2 2 4 3 3 3 3 3 3 3 2 2 1 1 0 0 0 0 1 1 2 1 1 0 1 1 1 1 1 1 1 1 0 0 0 0 0 0 0 0 0 0 0 0 0 1 1 1 0 0 0 1 1 1 1 1 1 1 1 1 2 2 1 1 1 1 2 2 1 0 0 0 0 0 0 0 0 0 1 1 1 1 1 1 1 1 1 0 0 1 1 1 0 0 1 1 1 1 1 1 1 1 1 1 1 1 1 1 0 0 0 0 1 1 2 2 2 1 1 1 1 1 1 1 1 1 1 1 1 1 1 1 2 2 2 2 2 2 2 2 1 1 0 1 1 1 1 1 2 1 2 2 2 2 1 1 2 1 1 0 0 0 0 1 1 1 1 1 1 1 2 2 2 0 0 0 1 2 2 2 2 2 3 3 3 2 1 1 1 1 1 1 2 2 1 0 
0 2 3 2 2 2 3 3 2 1 2 3 3 3 3 3 2 2 2 2 2 2 2 2 2 2 1 1 1 1 1 1 2 2 1 1 1 2 2 2 1 1 1 2 2 2 1 1 2 2 2 2 2 2 1 0 0 1 1 1 2 2 3 4 3 3 3 3 2 2 1 1 1 1 1 1 0 0 1 1 1 1 0 0 0 0 0 0 1 1 1 1 1 0 0 0 0 0 0 0 0 0 0 0 0 0 0 0 0 0 0 0 0 0 0 1 1 1 1 1 1 1 1 2 2 1 2 1 1 1 1 1 1 1 0 0 0 1 1 1 1 1 1 1 1 1 1 1 1 1 0 0 0 0 0 0 0 0 0 1 2 2 2 1 1 0 0 0 0 0 0 0 0 1 2 1 1 0 0 0 1 1 1 1 0 0 0 1 1 0 0 1 1 2 2 2 2 2 2 2 1 1 1 1 1 1 1 1 2 2 2 2 2 2 1 1 1 1 1 0 0 0 0 1 1 1 0 0 0 1 2 2 2 1 0 1 1 2 2 2 2 3 3 3 2 1 1 1 1 1 1 1 1 1 1 0 
0 2 3 2 2 2 3 3 2 1 1 2 2 3 3 3 2 2 2 2 2 2 2 2 2 2 1 2 1 1 1 1 2 2 2 0 0 1 2 2 1 1 0 1 1 1 1 1 2 2 2 2 2 1 1 0 1 1 1 0 1 2 2 2 2 3 3 3 2 1 1 1 1 1 1 1 1 1 1 2 2 1 0 0 0 0 0 0 0 0 1 1 1 1 0 0 0 0 0 0 0 0 0 0 0 0 0 0 0 0 0 0 0 0 0 0 0 1 1 1 1 1 1 2 2 1 1 1 1 1 1 1 1 1 1 1 1 1 1 1 1 1 1 1 1 1 1 1 1 1 1 1 0 0 0 0 0 0 1 1 2 2 1 1 0 0 0 0 0 0 0 0 0 1 2 2 1 0 0 0 0 0 0 0 0 0 0 0 0 0 0 0 1 1 1 1 1 1 1 1 1 1 1 1 1 1 1 1 2 2 2 2 2 1 1 0 1 0 0 0 0 0 1 1 1 0 0 0 0 1 2 3 2 1 1 1 1 1 2 2 2 1 1 1 1 1 1 1 1 1 1 0 1 1 1 0 
0 1 2 2 2 1 3 3 2 1 0 1 2 3 3 2 2 2 2 2 2 2 2 2 2 2 1 2 2 1 2 1 2 2 2 1 1 1 2 2 1 0 0 1 1 1 0 0 1 1 2 2 2 1 1 0 0 1 0 0 0 0 1 1 1 2 2 2 2 1 0 0 1 1 1 1 1 1 1 2 2 2 1 1 1 0 0 0 0 0 1 1 1 1 0 0 0 0 0 0 0 0 0 0 0 0 1 1 1 1 0 0 0 0 0 0 0 0 1 1 1 0 0 1 1 0 1 1 2 2 1 1 1 1 1 1 1 1 1 1 1 1 1 1 1 1 1 1 1 1 1 1 1 1 1 1 1 1 1 2 2 2 1 1 0 0 0 0 0 0 0 0 0 1 2 2 1 0 0 0 0 0 0 0 0 0 0 0 0 0 0 0 0 0 0 0 0 0 0 0 0 0 0 0 0 0 0 1 1 1 2 2 2 1 0 0 0 0 0 0 0 0 1 1 1 0 0 0 0 1 2 3 3 2 1 1 2 2 2 2 2 1 1 0 0 1 1 1 1 1 1 0 1 1 1 0 
0 1 2 1 1 1 2 3 2 1 1 2 2 3 2 2 2 2 2 2 2 2 2 2 2 2 2 2 2 2 2 1 2 2 2 1 1 1 2 2 2 1 0 1 1 1 0 0 1 1 1 1 1 1 1 2 1 1 1 0 0 0 0 0 0 1 2 2 2 1 0 1 1 1 1 1 1 1 1 2 2 3 2 2 1 1 0 0 0 0 1 1 2 2 1 1 1 1 1 1 1 1 1 1 1 1 1 1 1 1 1 0 0 0 0 0 0 1 1 1 1 1 0 0 0 0 1 1 2 1 1 1 1 1 1 1 1 1 0 0 0 0 1 1 1 1 1 1 1 1 1 1 2 2 2 2 2 2 2 2 2 2 2 1 1 0 0 0 1 1 0 0 0 0 1 1 0 0 0 0 0 0 0 0 0 0 0 0 0 0 0 0 0 0 0 0 0 0 0 0 0 0 0 0 0 0 0 0 1 1 2 2 2 1 0 0 0 0 0 0 0 1 1 1 1 0 0 0 0 1 3 3 3 2 2 1 1 1 3 3 3 2 0 0 0 0 1 2 2 2 1 1 1 1 1 0 
0 1 2 1 1 1 2 3 3 2 1 2 3 3 3 2 2 1 2 2 2 2 2 2 2 2 2 2 2 2 1 1 2 2 2 1 1 2 2 2 2 1 1 1 1 1 1 0 1 1 1 1 1 1 1 2 2 2 1 0 0 0 0 0 0 1 2 2 2 1 1 1 1 2 1 1 0 0 1 2 2 3 3 3 2 1 1 1 1 1 1 1 2 2 1 1 1 1 1 1 1 1 1 1 1 2 2 2 2 2 2 1 1 0 0 0 0 1 1 2 1 1 0 0 0 0 0 1 1 1 1 1 1 1 1 1 0 0 0 0 0 0 0 0 1 1 1 1 0 0 1 1 2 2 2 2 2 2 2 2 2 2 2 1 1 1 1 1 1 1 1 1 1 1 1 0 0 0 0 0 0 0 0 0 0 0 0 0 0 0 0 0 0 0 0 0 0 0 0 0 0 0 0 0 0 0 0 0 1 1 2 2 2 2 0 0 0 0 0 0 1 1 1 1 1 0 0 0 1 1 3 3 3 3 1 1 2 2 3 3 3 2 1 0 0 1 1 2 2 2 1 1 1 1 1 0 
0 1 2 1 1 1 2 2 3 2 2 3 3 3 3 2 2 2 2 3 2 2 2 2 2 2 2 2 1 2 1 1 2 2 1 1 1 2 3 3 2 1 1 1 1 1 0 0 1 1 1 1 0 0 1 2 2 1 1 0 0 0 0 0 1 1 2 2 2 2 1 1 1 2 2 1 1 0 1 1 2 3 3 3 3 2 2 2 1 1 1 1 1 1 2 2 2 1 0 0 0 0 1 1 1 1 1 1 1 2 2 2 2 1 1 0 1 2 1 2 1 1 1 0 0 1 1 2 1 2 1 1 1 1 1 0 0 0 0 0 0 0 0 0 1 1 1 1 1 0 0 1 1 2 2 2 2 2 2 2 1 2 1 1 1 1 1 1 1 1 1 1 1 1 1 1 1 0 0 0 0 0 0 0 0 0 0 0 0 0 0 0 0 0 0 0 0 0 0 0 0 0 0 0 0 0 0 0 1 1 2 2 2 2 0 0 0 0 0 1 1 1 1 1 1 1 1 1 1 1 2 3 3 2 1 1 1 1 3 4 4 3 1 1 1 1 1 2 1 2 1 1 1 1 1 0 
0 1 2 2 2 1 2 2 2 2 3 4 4 3 2 2 2 3 3 3 3 2 1 1 2 2 2 2 1 2 1 2 2 2 1 0 1 2 3 3 2 1 1 1 1 1 1 1 1 1 2 1 0 0 1 1 2 1 1 1 1 1 1 1 1 1 2 2 2 2 2 1 1 1 1 1 1 1 1 1 2 3 2 2 2 2 2 2 1 1 0 0 1 1 2 2 2 1 0 0 0 0 0 0 0 1 1 2 2 2 2 2 2 2 1 2 2 2 1 2 1 2 1 1 1 1 1 1 1 1 1 1 2 1 1 1 1 1 0 0 0 0 1 1 0 0 1 1 1 1 1 1 2 2 2 2 2 2 2 2 1 1 1 1 0 1 1 1 0 0 0 1 1 1 1 1 1 1 1 1 1 1 1 1 1 1 1 1 1 1 1 1 1 1 1 1 1 1 0 0 0 0 0 0 0 0 0 0 1 1 2 2 2 2 1 0 0 0 1 1 1 1 1 1 2 1 1 1 1 1 2 2 3 2 2 1 1 1 3 4 4 3 1 1 1 1 1 1 1 1 1 1 1 1 0 0 
0 2 2 2 1 1 2 2 2 2 3 4 4 3 2 2 2 3 3 3 3 3 2 2 1 2 2 2 2 1 1 2 2 2 1 0 1 2 3 3 2 1 1 1 1 1 1 1 1 2 2 1 0 0 0 1 1 1 1 1 1 1 1 1 1 1 2 2 2 2 2 2 1 1 1 1 1 1 1 1 1 1 1 1 1 2 2 2 1 1 0 0 1 1 2 3 2 1 0 0 0 0 0 0 0 0 1 1 1 1 1 2 2 2 1 2 2 2 1 1 1 1 1 1 1 1 1 1 1 1 1 1 1 1 1 1 1 1 1 1 1 1 1 1 1 0 0 1 1 1 1 1 2 1 1 1 1 1 1 1 1 1 1 1 0 1 1 1 0 0 0 0 0 0 1 1 1 1 1 1 1 1 1 1 1 1 1 1 1 1 1 1 1 1 1 1 1 1 1 0 0 0 0 0 0 0 0 0 1 1 2 1 2 2 1 0 0 1 1 1 1 0 1 1 1 1 1 1 1 0 1 2 3 2 2 1 1 1 3 4 4 3 1 1 1 1 1 0 1 1 1 1 1 2 1 0 
0 2 2 2 1 0 2 2 2 1 3 4 4 3 1 2 2 3 3 3 3 3 2 2 1 1 2 2 2 2 2 2 2 2 1 0 0 2 3 3 2 1 2 2 2 2 2 1 1 1 2 2 1 1 1 1 2 1 1 1 1 2 1 1 1 1 2 1 1 2 2 3 2 1 1 1 1 1 1 1 1 0 0 0 1 1 2 2 1 1 1 1 1 2 2 3 2 1 0 0 0 0 0 0 0 0 1 1 1 1 1 1 1 1 1 2 2 1 0 0 0 0 0 0 0 0 0 0 0 0 0 0 1 1 2 2 1 2 1 1 1 1 2 1 1 0 0 0 1 1 1 1 2 1 1 1 1 1 1 2 1 2 1 1 1 1 1 1 1 1 0 0 0 1 1 1 1 1 1 1 1 1 1 0 0 0 0 0 0 0 1 1 2 1 1 1 1 1 1 1 0 0 0 0 0 0 0 0 1 0 1 1 2 2 1 1 0 1 1 1 0 0 0 1 1 1 0 0 0 0 1 1 2 2 1 1 1 1 3 4 4 2 0 0 0 0 0 0 1 1 2 2 2 3 1 0 
0 2 2 1 0 0 2 2 3 2 3 4 4 3 2 2 2 3 3 3 3 3 2 2 2 1 2 2 2 2 2 2 2 2 1 0 0 2 2 3 2 2 2 2 2 2 2 2 1 2 2 2 1 1 1 2 2 2 2 2 1 1 1 1 2 2 2 1 1 1 2 3 2 2 1 1 2 1 1 1 1 0 0 0 1 1 2 2 2 1 1 1 1 1 2 2 2 1 1 1 0 0 0 0 0 0 0 1 1 0 0 1 1 1 0 1 1 0 0 0 0 0 0 0 0 0 0 0 0 0 0 0 0 1 1 1 1 1 1 1 1 1 1 1 0 0 0 0 0 1 1 1 1 1 1 0 0 1 1 1 1 2 2 2 2 2 2 1 1 1 1 1 1 1 1 1 0 0 0 1 1 0 0 0 0 0 0 0 0 0 0 1 1 1 1 0 0 1 1 1 1 1 0 0 0 0 1 1 1 0 1 1 2 2 1 1 1 1 1 0 0 0 0 1 1 0 0 0 0 0 0 1 2 2 1 1 0 1 3 4 3 2 0 0 0 0 0 1 1 2 2 3 3 3 2 0 
0 1 2 1 1 0 1 2 3 2 3 3 3 2 1 1 2 2 3 3 3 2 2 2 2 1 1 2 2 2 2 2 2 2 1 0 0 2 2 2 1 2 2 2 1 1 2 2 2 2 2 2 1 1 1 2 2 2 2 2 1 1 1 1 2 2 2 1 1 1 2 3 3 2 1 1 1 1 1 1 1 1 1 1 1 1 2 2 2 2 1 1 1 1 1 1 2 1 1 1 0 0 0 0 0 0 0 1 1 0 0 1 1 1 0 1 1 0 0 0 0 0 0 0 0 0 0 0 0 0 0 0 0 1 1 1 1 1 1 1 1 1 1 1 1 0 0 0 0 0 0 0 1 1 1 1 1 1 1 1 1 2 2 2 2 2 2 2 2 1 1 1 1 1 1 1 1 1 1 1 1 1 0 0 0 0 0 0 0 0 0 0 1 0 0 0 0 0 1 1 1 1 1 1 1 1 1 1 2 1 1 1 1 2 1 1 1 1 1 0 0 0 0 1 1 0 0 0 0 0 0 1 2 2 1 1 0 0 2 4 3 2 0 0 0 0 0 1 1 2 3 3 3 3 1 0 
0 1 2 1 1 0 1 1 2 2 3 4 4 2 1 1 2 2 3 3 3 2 2 2 1 1 2 2 3 2 2 1 2 2 2 0 0 1 2 2 1 1 1 1 1 1 1 1 1 2 2 1 1 0 1 1 1 2 2 2 2 1 1 2 2 2 2 2 2 2 2 3 3 2 1 1 1 1 1 1 1 1 1 1 1 1 1 1 1 1 1 0 0 0 0 1 1 1 1 1 1 1 0 0 0 0 0 1 1 0 0 1 1 1 1 1 1 1 0 0 0 0 0 0 0 0 0 0 0 0 0 0 0 1 1 1 1 1 1 0 0 1 1 1 1 1 0 0 0 0 0 0 0 1 1 2 2 1 1 1 2 2 2 2 2 2 2 2 1 1 0 0 0 0 1 1 1 2 1 2 2 1 1 0 0 0 0 0 0 0 1 1 1 0 0 0 0 0 0 1 1 1 1 1 1 1 1 1 1 1 2 1 1 1 1 2 2 1 1 0 0 0 1 1 1 0 0 0 0 0 0 1 2 2 1 1 0 0 2 4 3 2 0 0 0 0 0 1 2 2 2 2 2 1 1 0 
0 1 2 2 1 1 1 2 2 2 3 4 4 3 2 2 2 3 3 3 3 3 2 2 2 2 2 2 2 2 1 1 3 2 2 0 0 1 1 1 0 1 1 1 0 0 1 1 1 2 2 1 1 0 0 0 1 2 2 2 2 2 2 2 2 2 1 1 2 2 3 3 2 1 1 1 1 1 1 1 1 1 0 0 0 0 0 1 1 1 1 1 0 0 0 1 1 1 1 1 1 1 0 0 0 0 0 1 1 0 0 1 1 1 1 1 1 1 1 0 0 0 0 0 0 0 0 0 0 0 0 0 0 1 2 2 1 1 0 0 0 0 1 1 1 1 1 0 0 0 0 0 0 0 1 1 1 1 1 1 2 2 2 2 2 2 2 2 1 0 0 0 0 0 0 1 2 2 1 1 1 1 1 1 1 1 1 1 1 1 1 1 1 0 0 0 0 0 0 1 1 1 0 0 0 0 0 0 1 1 2 2 1 1 1 2 2 1 1 0 1 0 1 1 1 0 0 0 0 0 0 1 1 2 2 1 1 0 2 4 3 2 0 0 0 0 0 1 1 2 2 3 2 1 0 0 
0 1 2 2 2 1 2 2 2 2 3 3 3 3 2 3 3 2 2 2 3 2 2 1 1 2 2 2 2 1 0 1 2 3 2 1 0 1 1 1 0 0 1 1 1 0 0 1 1 2 2 2 1 1 0 0 0 1 1 2 2 2 2 3 2 2 1 1 1 1 2 2 2 2 0 0 1 1 1 1 1 1 1 1 1 1 0 0 0 1 1 1 1 0 1 2 2 1 1 1 2 2 1 1 0 0 1 1 1 0 1 1 2 2 2 2 2 1 1 1 0 0 0 0 0 0 0 0 0 0 0 0 0 1 2 2 2 1 1 1 1 1 1 1 1 2 1 1 0 0 0 0 0 0 0 1 1 0 0 0 1 1 2 2 2 2 1 1 0 0 0 0 0 0 0 1 2 2 1 1 1 1 2 2 2 2 2 2 2 2 2 2 2 1 0 0 0 0 0 1 1 0 0 0 0 0 0 0 0 1 2 2 1 1 1 2 2 1 1 1 1 1 1 1 1 0 0 0 0 0 0 1 1 1 1 1 1 0 2 3 3 2 0 0 0 0 0 1 1 2 2 3 2 1 0 0 
0 1 2 2 2 1 2 3 3 3 3 3 3 2 2 4 4 3 1 1 2 2 2 2 2 2 3 2 1 1 0 1 2 3 2 1 0 1 1 1 0 0 1 1 1 0 0 1 1 2 2 2 1 1 1 1 0 0 1 2 2 2 2 2 2 2 1 1 1 2 2 2 2 1 0 0 1 1 1 1 1 1 1 2 2 2 2 1 1 1 1 1 1 1 1 2 2 2 2 2 2 2 2 1 1 1 1 1 1 0 1 1 2 2 2 2 1 1 1 1 1 1 1 0 0 0 1 1 1 1 0 0 0 1 2 2 1 1 1 2 2 1 1 1 1 1 1 1 1 1 0 0 0 0 0 0 0 0 0 0 1 1 2 2 2 2 1 1 0 0 0 0 0 0 0 1 1 2 1 1 1 1 2 2 1 1 1 1 1 1 1 1 1 1 0 0 0 0 0 1 1 1 0 0 0 0 0 0 1 1 1 1 1 1 1 1 1 1 1 1 2 1 2 2 1 0 0 0 0 0 1 1 1 1 1 1 1 0 1 2 3 2 0 0 0 0 1 1 1 2 2 2 2 1 0 0 
0 1 2 1 1 1 1 2 3 3 4 3 2 1 2 4 4 3 1 1 1 2 2 2 2 2 3 2 1 0 0 1 2 2 2 1 1 1 2 1 0 0 1 1 1 0 0 1 1 1 1 1 1 1 1 0 0 0 1 2 2 2 1 1 2 2 2 2 2 2 1 2 2 2 1 1 1 1 1 1 1 1 1 2 3 4 3 3 1 2 1 1 1 1 2 2 2 2 3 2 2 2 2 2 2 1 2 1 1 1 1 2 2 1 1 1 1 1 2 2 1 1 1 1 1 1 1 2 2 1 1 0 0 0 1 1 1 1 1 2 2 1 1 0 1 1 1 1 1 1 1 0 0 0 0 0 0 0 0 0 0 1 1 1 1 1 1 0 0 0 0 0 0 0 0 1 1 1 2 1 2 2 2 2 1 2 1 1 1 1 1 2 2 1 1 0 0 1 1 1 2 1 1 1 1 1 1 1 1 1 2 1 0 0 0 1 0 1 1 1 1 1 1 2 1 0 0 0 0 1 1 1 1 0 1 1 1 0 1 2 3 2 1 0 0 1 2 2 1 1 2 2 2 1 0 0 
0 1 2 1 1 0 1 2 3 3 4 3 2 0 1 3 4 3 1 0 1 2 2 2 2 2 3 2 1 0 0 1 1 2 2 1 1 2 2 1 1 0 1 1 1 0 0 1 1 1 1 1 1 1 1 1 0 0 1 2 3 2 1 1 1 2 2 2 2 2 1 2 2 2 1 1 1 1 1 0 0 1 1 2 3 4 3 4 2 2 2 2 1 1 1 2 2 2 3 2 2 2 2 2 2 1 2 1 1 1 1 2 2 1 1 1 1 1 1 2 1 1 1 1 1 0 1 1 1 1 0 0 0 0 0 0 0 0 0 1 1 0 0 0 0 0 0 0 1 1 1 1 0 0 0 0 0 0 0 0 0 1 1 1 1 1 1 1 0 0 0 0 0 0 0 1 1 2 2 2 2 2 2 2 1 1 0 0 0 0 0 1 1 1 1 1 1 1 1 1 1 1 2 1 1 1 1 1 1 1 1 1 0 0 0 0 0 1 1 1 1 1 1 2 1 0 0 0 0 1 1 1 0 0 1 1 1 0 1 2 3 2 0 0 1 1 2 2 1 1 2 2 2 1 0 0 
0 1 2 1 1 0 0 1 2 3 4 3 2 1 1 3 4 3 1 0 0 2 3 2 1 2 2 2 1 0 0 0 1 2 1 1 1 2 2 2 1 1 1 1 0 0 0 1 1 2 1 0 0 1 1 0 0 0 1 2 2 2 1 1 1 2 2 2 2 2 2 2 2 2 1 1 1 1 0 0 0 0 1 1 2 4 3 3 2 2 2 1 1 1 1 2 2 1 2 2 1 2 2 2 2 1 1 1 1 1 1 2 1 1 1 1 1 1 1 1 1 1 1 1 1 1 1 1 1 1 0 0 0 0 0 0 0 0 0 0 0 0 0 0 0 0 0 0 0 1 1 1 1 0 0 0 0 0 0 0 0 1 1 0 0 1 2 1 1 0 0 0 0 0 1 1 2 2 2 2 1 2 1 2 1 1 0 0 0 0 1 1 1 1 1 1 2 2 2 2 2 1 2 1 1 1 1 1 1 1 1 1 1 0 0 0 0 1 1 1 0 0 0 1 0 0 0 0 0 1 1 1 0 0 1 1 1 0 1 2 2 2 0 0 1 1 2 2 1 2 2 2 2 1 1 0 
0 1 2 1 1 0 1 2 2 3 3 3 2 1 1 2 4 3 1 0 0 2 2 2 1 2 2 2 1 1 0 1 1 1 1 0 1 2 2 2 1 1 1 1 0 0 0 1 1 2 1 0 0 1 1 0 0 0 0 1 2 2 1 1 1 1 1 2 2 2 2 2 2 2 1 1 1 1 0 0 0 1 1 1 2 3 3 3 2 2 1 1 0 1 1 2 2 2 2 2 2 2 2 2 2 1 1 1 1 2 2 2 2 1 1 1 1 1 1 1 1 1 1 1 1 1 1 1 1 1 0 0 0 0 0 0 0 0 0 0 0 0 0 0 0 0 0 0 0 0 1 1 1 1 0 0 0 0 0 0 1 1 1 0 0 1 2 1 2 1 1 0 0 1 1 2 2 2 2 1 1 2 1 2 1 0 0 0 0 0 0 0 0 0 1 1 2 2 1 1 2 1 2 2 2 2 1 1 1 0 1 1 1 1 0 0 0 1 1 1 0 0 0 1 0 0 0 0 1 1 1 0 0 1 1 1 1 1 2 2 2 1 0 1 1 2 1 1 2 2 3 2 2 1 1 0 
0 1 2 2 1 1 2 2 3 3 2 3 2 1 2 2 4 3 2 0 0 1 2 2 1 1 2 2 2 1 1 1 1 1 1 0 0 1 2 2 2 1 1 1 1 1 0 0 1 1 1 0 0 1 1 1 0 0 0 1 2 2 1 1 1 1 1 1 1 2 2 2 2 2 1 2 1 1 0 0 0 1 2 2 1 2 2 2 3 1 1 0 0 1 1 2 2 2 2 2 2 2 2 2 2 0 1 1 1 2 2 2 2 1 1 1 1 1 1 1 1 1 0 1 1 1 1 1 1 1 1 0 0 0 0 0 1 0 0 0 0 0 1 1 1 1 0 0 0 0 0 1 1 1 1 1 1 1 1 1 1 1 1 0 0 1 2 2 2 1 1 0 0 1 1 1 1 1 2 1 1 2 1 1 0 0 0 0 0 0 0 0 0 0 0 1 1 1 1 1 2 2 2 2 2 2 1 1 0 0 0 1 1 1 1 0 1 1 1 1 0 0 0 0 1 0 0 0 1 1 1 0 0 1 1 1 1 1 2 2 2 1 0 1 1 2 1 1 2 3 3 2 1 1 1 0 
0 2 3 2 2 1 2 3 3 3 2 2 2 1 2 2 4 3 2 0 0 1 2 2 1 1 1 2 2 2 1 1 1 1 0 0 0 1 2 2 2 2 2 2 1 1 1 0 1 1 1 0 0 1 1 1 1 0 1 1 1 1 1 0 0 1 1 1 1 1 2 2 2 2 1 2 2 1 0 0 1 1 2 2 1 2 2 2 2 2 1 1 0 1 1 2 2 2 2 2 2 2 2 2 2 1 1 1 1 2 1 2 1 0 0 1 1 1 1 2 2 1 0 0 1 1 1 1 1 1 1 1 0 0 0 1 2 1 1 0 0 1 1 2 1 1 1 1 0 0 0 0 1 1 1 1 1 1 1 1 2 2 1 0 0 1 2 2 2 2 1 1 1 1 1 1 1 1 2 1 2 2 1 1 0 0 0 0 0 0 0 0 1 0 1 1 2 2 1 1 2 2 2 2 2 2 1 1 0 0 0 0 1 1 1 1 1 1 1 0 0 0 0 0 1 0 0 0 1 1 1 0 1 1 1 1 1 1 2 2 1 1 0 1 1 1 1 2 3 3 2 1 0 1 0 0 
0 2 2 2 2 2 3 3 3 3 2 2 2 1 2 2 3 4 2 1 1 1 2 2 2 1 1 2 2 2 1 1 1 1 1 0 0 1 2 2 2 2 2 2 2 2 1 1 1 1 1 0 0 1 1 1 1 1 1 1 1 1 1 1 1 1 1 1 1 1 2 2 2 1 1 2 2 2 1 0 1 1 1 1 1 2 2 2 2 2 1 1 1 2 2 2 2 1 2 1 2 2 1 2 2 1 1 1 1 1 1 1 1 0 0 0 1 2 1 2 2 2 1 1 1 1 1 1 1 1 1 1 1 1 1 1 2 1 1 1 1 1 1 1 1 1 1 1 1 0 0 0 0 0 1 1 1 1 1 1 2 2 1 0 0 1 2 2 1 2 1 2 2 1 1 0 1 1 2 2 2 2 1 1 0 0 0 0 0 0 0 0 1 1 1 1 1 1 1 1 2 2 2 2 2 2 1 1 0 0 0 0 0 1 1 1 2 2 2 1 0 0 1 1 2 1 1 1 2 2 1 1 1 1 1 1 1 1 2 1 1 1 0 1 1 2 2 3 3 2 1 0 0 1 0 0 
0 2 2 2 2 1 2 3 3 3 2 2 2 1 1 2 3 4 3 2 1 2 3 3 2 1 1 2 2 2 1 1 1 1 1 0 0 1 2 2 2 2 2 2 1 2 2 1 1 1 1 1 0 1 1 1 1 1 1 0 1 1 1 1 1 1 1 1 0 1 2 2 2 1 1 2 2 2 1 1 1 1 1 1 1 2 1 2 2 2 2 2 2 2 1 2 2 1 1 1 1 2 1 2 1 1 1 1 1 1 1 1 1 0 0 0 1 2 2 2 1 2 1 1 1 1 0 0 0 0 1 1 1 1 1 1 1 1 1 1 1 1 1 1 0 0 1 1 1 0 0 0 0 0 0 0 0 0 0 1 2 1 1 0 0 1 1 2 1 1 1 1 1 1 1 0 1 1 2 2 2 1 1 0 0 0 0 0 0 0 0 1 1 1 1 1 1 1 1 1 1 2 2 2 1 1 1 2 1 0 0 0 0 0 1 1 2 2 2 1 1 1 1 1 2 1 1 2 2 2 2 1 1 1 1 1 1 1 2 1 1 1 1 1 1 2 3 3 2 1 0 0 1 1 1 0 
0 1 2 2 1 1 2 2 3 3 3 3 2 1 2 2 3 4 3 2 2 3 3 3 2 1 2 2 2 1 0 0 0 1 1 1 1 1 2 2 2 2 2 2 2 1 2 2 2 1 1 1 0 1 1 1 1 1 0 0 0 0 1 1 2 2 1 1 0 0 1 1 2 0 1 1 2 2 1 2 1 1 0 0 0 1 1 1 1 1 1 2 2 2 1 1 1 0 0 0 1 1 1 1 1 2 1 1 1 0 1 1 1 1 0 1 2 2 2 2 2 3 2 3 2 2 1 0 0 0 0 1 1 1 1 1 1 1 1 1 1 1 0 0 0 0 0 1 1 1 0 0 1 1 1 1 0 0 0 0 2 1 1 0 0 1 1 2 0 1 0 1 1 0 0 0 1 1 1 1 1 1 1 0 0 0 0 0 0 0 1 1 1 1 0 0 0 0 0 1 1 1 1 1 1 1 1 1 1 1 0 0 0 0 1 1 2 2 2 1 1 1 2 2 1 1 1 2 2 2 1 1 1 1 1 2 2 1 2 2 2 1 1 1 2 3 3 3 2 1 1 1 2 2 1 0 
0 1 1 1 1 1 1 2 2 3 3 3 3 1 1 2 3 3 2 2 2 3 4 3 2 2 2 2 1 1 0 0 0 1 1 1 1 1 2 2 2 2 1 1 1 1 2 2 2 2 1 1 1 1 1 2 1 1 0 0 0 0 1 1 2 2 2 1 0 0 1 1 2 0 1 1 2 2 2 3 2 2 0 0 0 0 0 0 0 0 1 1 1 1 1 1 1 0 0 0 0 0 1 1 1 1 1 1 0 0 0 1 1 1 1 1 2 3 3 3 3 3 3 3 3 3 2 1 0 0 0 0 0 0 0 0 0 0 0 0 0 0 0 0 0 0 0 1 1 1 1 1 2 1 1 1 0 0 0 0 1 0 1 0 0 1 0 1 0 1 0 0 0 0 0 0 1 0 0 0 1 1 1 1 1 1 1 1 1 1 1 1 1 1 0 0 0 0 0 0 1 1 1 1 0 0 1 1 1 1 1 1 1 1 1 1 2 2 1 1 1 1 2 2 1 1 1 2 2 1 0 0 1 1 2 2 2 2 2 2 2 2 1 2 2 3 3 2 1 1 1 2 2 2 1 0 
0 0 1 0 0 1 1 2 2 2 3 2 2 1 2 3 3 3 2 1 1 3 4 3 2 2 2 2 1 0 0 0 0 0 1 1 1 1 1 2 1 2 1 1 1 1 2 2 2 2 2 1 1 1 1 2 1 0 0 0 0 0 0 0 2 3 2 1 0 0 0 0 1 0 1 0 1 2 2 3 2 2 1 1 0 0 0 0 0 0 0 0 1 1 1 1 1 0 0 0 0 0 0 1 1 1 1 0 0 0 0 0 1 1 1 1 1 2 2 3 2 2 3 3 3 2 2 1 0 0 0 0 0 0 0 0 0 0 0 0 0 0 0 0 0 0 0 0 1 1 2 2 2 2 2 1 0 0 0 0 1 0 0 0 0 0 0 1 0 0 0 0 0 0 0 0 0 0 0 0 1 1 2 1 1 1 1 1 1 1 1 1 1 0 0 0 0 0 0 0 0 1 1 0 0 0 0 0 1 1 1 1 1 1 1 1 2 1 1 0 0 1 1 2 1 0 0 1 1 0 0 0 0 1 2 2 1 1 2 2 3 2 2 2 3 3 2 2 1 2 2 2 3 2 1 0 
0 0 1 0 1 1 2 2 2 2 3 2 1 1 2 3 4 3 1 1 1 2 4 3 3 2 2 2 1 0 0 0 0 0 1 1 1 1 1 2 1 1 1 1 1 1 2 2 2 2 2 2 1 2 2 2 1 0 0 0 0 0 0 0 1 2 3 2 0 0 0 0 0 0 0 0 1 2 2 2 2 2 1 1 0 0 0 0 0 0 0 0 0 0 1 1 1 0 0 0 0 0 0 0 1 0 0 0 0 0 0 0 1 1 1 0 1 1 1 1 1 1 1 2 2 2 2 1 1 0 0 0 0 0 0 0 0 0 0 0 0 0 0 0 0 0 0 0 0 1 1 2 2 2 2 1 0 0 0 0 1 0 0 0 0 0 0 1 0 0 0 0 0 0 0 0 0 0 0 0 0 1 2 2 1 1 0 0 0 0 1 1 1 0 0 0 0 0 0 0 0 1 1 0 0 0 0 0 0 0 0 0 0 0 1 1 2 1 1 0 0 1 1 2 1 0 0 1 1 0 0 0 0 1 2 2 1 1 1 2 3 3 2 3 2 3 2 2 2 2 2 2 3 3 2 0 
0 1 1 1 2 2 2 2 2 3 2 2 1 0 1 3 4 4 1 1 1 2 3 3 3 2 2 2 2 1 0 0 0 1 1 1 1 1 2 2 1 1 1 1 1 1 2 2 2 2 1 2 1 2 2 3 1 0 0 0 0 0 0 0 1 2 2 2 1 0 0 0 0 1 1 1 1 1 1 1 1 1 1 1 1 1 0 0 0 0 0 0 0 0 0 1 1 0 0 0 0 0 0 0 0 0 0 0 0 0 1 1 1 1 0 0 0 0 0 0 0 0 0 0 0 1 1 1 1 0 0 0 0 0 0 0 0 0 0 0 0 0 0 0 0 0 0 0 0 0 1 1 2 2 2 1 0 0 0 0 1 0 0 0 0 0 0 1 0 0 0 0 0 0 0 0 0 0 0 0 0 1 1 2 1 0 0 0 0 0 0 1 1 0 0 0 0 0 0 0 0 1 1 0 0 0 0 0 0 0 0 0 0 0 0 0 1 0 0 0 0 0 0 1 0 0 0 1 1 0 0 0 0 1 2 2 1 1 1 2 3 3 2 2 2 2 2 3 2 3 2 2 2 3 2 0 
0 1 1 1 2 2 3 3 3 3 3 2 0 0 1 3 4 3 2 1 1 3 3 3 2 2 2 2 2 1 1 1 0 1 1 1 1 1 2 2 1 2 1 1 1 1 2 2 2 2 1 1 1 3 3 3 1 0 0 0 0 0 0 0 1 1 2 2 1 0 0 0 1 1 2 2 2 1 1 0 0 0 1 1 1 1 0 0 0 0 0 0 0 0 0 1 1 0 0 0 0 0 0 0 0 0 0 0 0 1 1 1 1 1 1 0 0 0 0 0 0 0 0 0 0 1 1 1 1 0 0 0 0 0 0 0 1 1 1 1 1 1 1 1 1 1 0 0 0 0 0 1 1 2 2 1 0 0 0 0 1 0 0 0 0 0 0 1 0 0 0 0 0 0 0 0 0 0 0 0 0 1 1 2 0 0 0 0 0 0 0 1 1 0 0 0 0 0 0 0 0 1 1 0 0 0 0 0 0 0 0 0 0 0 0 0 0 0 0 0 0 0 0 0 0 0 0 1 1 0 0 0 0 1 2 2 1 1 2 2 3 3 1 2 1 2 2 3 2 2 1 2 2 3 1 0 
0 0 1 1 1 2 2 2 2 2 2 1 0 0 0 1 2 2 1 1 1 2 2 2 1 1 1 1 1 1 1 1 0 0 0 0 1 0 1 1 1 1 0 0 1 1 1 1 1 1 0 1 0 2 1 2 0 0 0 0 0 0 0 0 0 0 1 1 0 0 0 0 1 1 1 1 1 0 0 0 0 0 0 0 1 1 0 0 0 0 0 0 0 0 0 0 0 0 0 0 0 0 0 0 0 0 0 0 0 0 1 1 1 1 0 0 0 0 0 0 0 0 0 0 0 0 1 1 0 0 0 0 0 0 0 0 1 1 1 1 1 1 1 1 1 0 0 0 0 0 0 0 1 1 1 0 0 0 0 0 1 0 0 0 0 0 0 1 0 0 0 0 0 0 0 0 0 0 0 0 0 0 0 1 0 0 0 0 0 0 0 0 0 0 0 0 0 0 0 0 0 0 0 0 0 0 0 0 0 0 0 0 0 0 0 0 0 0 0 0 0 0 0 0 0 0 0 0 0 0 0 0 0 0 1 1 1 0 1 1 2 1 0 0 1 1 1 1 1 1 0 1 0 1 0 0 
0 0 0 0 0 0 0 0 0 0 0 0 0 0 0 0 0 0 0 0 0 0 0 0 0 0 0 0 0 0 0 0 0 0 0 0 0 0 0 0 0 0 0 0 0 0 0 0 0 0 0 0 0 0 0 0 0 0 0 0 0 0 0 0 0 0 0 0 0 0 0 0 0 0 0 0 0 0 0 0 0 0 0 0 0 0 0 0 0 0 0 0 0 0 0 0 0 0 0 0 0 0 0 0 0 0 0 0 0 0 0 0 0 0 0 0 0 0 0 0 0 0 0 0 0 0 0 0 0 0 0 0 0 0 0 0 0 0 0 0 0 0 0 0 0 0 0 0 0 0 0 0 0 0 0 0 0 0 0 0 0 0 0 0 0 0 0 0 0 0 0 0 0 0 0 0 0 0 0 0 0 0 0 0 0 0 0 0 0 0 0 0 0 0 0 0 0 0 0 0 0 0 0 0 0 0 0 0 0 0 0 0 0 0 0 0 0 0 0 0 0 0 0 0 0 0 0 0 0 0 0 0 0 0 0 0 0 0 0 0 0 0 0 0 0 0 0 0 0 0 0 0 0 0 0 0 
