P2
512 512 255
0 0 0 0 0 0 0 0 0 0 0 0 0 0 0 0 0 0 0 0 0 0 0 0 0 0 0 0 0 0 0 0 0 0 0 0 0 0 0 0 0 0 0 0 0 0 0 0 0 0 0 0 0 0 0 0 0 0 0 0 0 0 0 0 0 0 0 0 0 0 0 0 0 0 0 0 0 0 0 0 0 0 0 0 0 0 0 0 0 0 0 0 0 0 0 0 0 0 0 0 0 0 0 0 0 0 0 0 0 0 0 0 0 0 0 0 0 0 0 0 0 0 0 0 0 0 0 0 0 0 0 0 0 0 0 0 0 0 0 0 0 0 0 0 0 0 0 0 0 0 0 0 0 0 0 0 0 0 0 0 0 0 0 0 0 0 0 0 0 0 0 0 0 0 0 0 0 0 0 0 0 0 0 0 0 0 0 0 0 0 0 0 0 0 0 0 0 0 0 0 0 0 0 0 0 0 0 0 0 0 0 0 0 0 0 0 0 0 0 0 0 0 0 0 0 0 0 0 0 0 0 0 0 0 0 0 0 0 0 0 0 0 0 0 0 0 0 0 0 0 0 0 0 0 0 0 0 0 0 0 0 0 0 0 0 0 0 0 0 0 0 0 0 0 0 0 0 0 0 0 0 0 0 0 0 0 0 0 0 0 0 0 0 0 0 0 0 0 0 0 0 0 0 0 0 0 0 0 0 0 0 0 0 0 0 0 0 0 0 0 0 0 0 0 0 0 0 0 0 0 0 0 0 0 0 0 0 0 0 0 0 0 0 0 0 0 0 0 0 0 0 0 0 0 0 0 0 0 0 0 0 0 0 0 0 0 0 0 0 0 0 0 0 0 0 0 0 0 0 0 0 0 0 0 0 0 0 0 0 0 0 0 0 0 0 0 0 0 0 0 0 0 0 0 0 0 0 0 0 0 0 0 0 0 0 0 0 0 0 0 0 0 0 0 0 0 0 0 0 0 0 0 0 0 0 0 0 0 0 0 0 0 0 0 0 0 0 0 0 0 0 0 0 0 0 0 0 0 0 0 0 0 0 0 0 0 0 0 0 0 0 0 0 0 0 0 0 0 0 0 0 0 0 0 0 0 0 0 0 0 0 0 0 0 0 0 0 0 0 0 0 0 0 0 0 0 0 0 0 0 0 0 
0 2 3 2 2 1 1 1 1 1 1 1 1 1 1 1 1 1 1 1 0 0 0 1 2 2 2 2 2 2 2 2 2 2 1 1 1 1 1 1 1 1 0 1 1 1 1 1 1 1 1 1 1 1 0 0 0 0 0 1 1 1 1 0 0 0 0 0 1 2 2 1 1 1 1 1 1 1 1 1 0 0 0 0 0 0 1 1 1 1 2 1 1 2 1 2 1 1 1 1 0 0 0 0 1 1 1 1 1 1 1 1 2 2 2 2 2 2 2 2 2 1 0 0 0 0 0 0 0 0 1 2 2 2 2 2 2 2 1 2 2 3 2 2 2 2 2 2 0 0 0 0 1 1 1 1 1 1 1 1 1 1 1 1 1 1 1 2 2 1 1 1 1 1 1 1 1 1 1 1 2 2 1 1 1 2 2 3 3 3 2 2 2 2 2 2 2 3 3 2 2 2 1 2 2 2 2 2 2 3 2 2 1 1 1 1 2 3 3 4 3 2 3 4 6 7 6 4 5 4 5 5 7 5 7 5 5 4 3 3 4 4 3 3 3 3 3 3 3 3 2 1 1 1 1 1 1 1 1 1 1 1 1 1 1 1 2 2 2 2 2 3 4 4 3 3 3 4 4 4 3 1 1 1 1 1 0 0 0 0 1 1 1 1 1 2 1 1 0 0 0 0 0 0 0 0 0 0 0 0 0 0 1 1 1 1 1 1 1 1 1 1 1 0 0 1 1 1 1 1 1 0 1 0 1 1 1 1 1 1 1 1 1 2 2 3 2 2 2 1 1 2 2 3 3 3 2 2 2 2 2 2 1 1 1 0 1 1 1 1 1 1 1 1 1 1 0 0 0 1 1 1 1 1 1 1 2 2 2 2 2 1 1 1 0 0 1 1 1 1 1 1 2 2 3 3 2 2 1 1 1 1 1 1 1 1 1 2 1 1 1 1 2 2 2 2 1 1 0 0 1 1 2 1 1 1 1 1 1 1 2 2 2 2 3 3 2 2 2 2 3 3 3 3 2 1 2 1 1 1 2 2 1 1 0 0 0 0 0 0 1 1 1 2 2 3 3 3 3 2 2 2 2 1 1 1 1 1 1 1 1 1 1 2 2 1 1 1 1 0 1 1 2 2 2 1 1 2 2 1 0 0 
0 3 5 4 4 3 3 3 2 2 2 2 2 2 1 2 2 2 2 1 1 0 0 2 3 3 3 3 3 2 2 3 3 3 2 2 2 2 2 2 1 1 1 1 2 2 2 3 2 3 2 2 2 2 1 1 1 1 1 1 1 1 1 1 1 0 0 1 2 3 3 2 2 1 1 2 2 1 1 1 1 0 0 0 0 0 1 2 3 2 2 2 2 3 2 2 2 2 2 2 1 1 1 1 1 2 2 3 2 2 3 4 5 4 4 3 3 4 5 5 4 2 1 1 1 1 1 1 1 2 3 4 4 3 3 4 3 3 2 4 5 5 5 4 4 4 4 3 1 0 0 0 1 1 2 2 2 2 1 2 1 1 1 1 1 1 2 2 2 2 2 2 3 2 2 2 3 3 3 3 4 4 4 4 3 4 4 4 3 3 3 3 2 2 3 3 3 3 3 3 2 2 2 2 2 2 2 2 4 4 4 4 2 2 1 2 2 5 6 5 6 5 7 7 9 10 10 15 21 27 27 21 19 17 19 15 14 10 8 9 9 9 6 4 4 5 7 8 7 5 3 2 2 2 2 2 2 1 2 1 1 2 2 2 2 2 3 3 4 3 3 4 5 6 7 6 5 5 5 5 4 3 2 2 2 1 1 0 0 1 2 2 2 2 2 3 1 1 0 0 0 0 1 1 2 1 1 1 1 1 1 1 2 3 3 3 2 3 2 2 2 2 1 1 1 1 1 2 2 2 2 1 1 1 1 2 2 2 2 1 2 2 2 3 3 3 3 3 2 2 2 3 4 5 5 5 4 5 4 4 3 3 2 2 2 2 2 2 1 1 1 1 1 1 1 1 1 1 1 1 1 1 1 1 2 2 3 3 3 3 3 3 2 2 1 1 2 1 1 1 1 2 2 3 4 4 3 3 2 2 1 2 1 1 1 1 2 3 2 2 2 2 3 3 4 4 2 1 1 1 2 2 3 2 2 2 2 1 2 2 2 2 3 3 3 3 3 3 4 4 5 5 5 4 4 2 2 1 2 2 3 3 2 1 1 1 1 1 1 1 2 3 4 5 5 5 5 5 5 5 4 3 3 2 2 1 1 2 2 2 2 2 3 3 3 2 1 1 1 1 2 2 3 3 3 2 3 3 3 3 1 0 
0 3 5 4 4 3 2 2 2 2 2 2 1 1 1 2 2 1 2 1 0 0 0 2 3 3 3 3 3 3 3 3 5 6 6 6 5 5 5 4 3 1 1 1 2 2 2 3 3 3 2 2 2 1 1 0 0 0 1 1 1 2 1 1 1 1 1 2 2 2 3 2 2 1 1 1 1 1 1 1 1 1 0 0 0 1 1 2 2 2 2 1 2 3 2 2 2 2 2 2 1 1 1 1 1 2 2 2 3 2 2 3 4 5 3 3 2 3 4 4 4 3 2 1 1 1 2 2 3 3 3 4 4 3 3 3 2 2 2 3 3 4 3 2 3 3 3 2 1 0 0 0 1 2 2 2 1 1 1 2 1 1 1 1 1 1 1 2 2 3 2 3 3 3 2 2 1 2 2 2 3 5 5 4 4 4 4 4 4 4 3 3 2 2 2 2 3 3 3 2 1 1 1 1 1 1 2 2 3 4 3 3 2 3 2 2 2 4 6 8 9 7 6 10 12 19 23 32 30 29 23 21 23 28 36 37 35 32 23 20 12 9 6 7 8 9 8 6 5 4 3 2 2 2 2 2 2 1 1 1 1 1 2 3 3 4 4 3 4 5 5 6 6 5 5 4 5 6 5 5 4 3 2 2 1 2 1 1 1 1 1 1 1 1 1 2 1 1 1 1 1 1 1 1 1 1 1 1 0 0 1 1 2 2 2 2 2 2 2 3 2 3 2 1 1 1 2 2 2 2 2 1 1 1 2 2 2 2 2 2 1 1 1 1 2 2 2 2 2 1 1 3 3 4 3 4 3 4 3 4 3 3 3 2 2 1 1 2 2 2 2 2 2 2 2 1 1 1 1 1 1 1 2 1 2 2 2 3 3 3 3 3 2 2 2 2 2 2 1 2 2 2 2 2 3 3 3 3 2 2 1 1 1 2 2 2 2 2 2 2 2 2 2 3 4 4 3 2 1 1 2 2 3 3 2 2 2 1 1 2 4 4 5 5 5 5 5 4 4 4 5 5 5 4 3 2 2 1 2 2 3 2 2 1 1 1 1 0 1 1 1 2 2 3 4 4 4 4 5 5 4 3 2 2 1 1 1 1 2 2 1 2 3 3 3 2 1 1 1 1 1 2 2 3 2 2 2 3 3 3 1 0 
0 1 3 4 4 4 4 4 3 2 2 2 1 1 0 1 1 1 1 1 1 0 1 2 3 3 3 3 3 2 2 3 4 5 4 4 4 4 4 3 3 2 1 1 1 2 2 3 3 3 2 2 2 1 1 1 0 0 0 0 1 1 1 1 2 2 3 3 2 2 2 2 1 0 1 1 1 1 1 1 1 1 1 1 1 1 1 2 2 2 1 1 2 3 2 2 1 2 2 2 1 1 1 2 2 2 3 4 4 3 4 4 6 5 3 2 2 3 5 5 5 3 3 2 2 2 3 3 4 4 4 4 3 3 2 2 1 2 2 4 4 4 3 2 3 3 3 2 1 1 0 1 1 2 1 1 1 1 1 2 1 1 0 0 0 0 1 1 2 2 3 3 4 3 2 2 2 3 3 3 4 5 6 5 5 4 4 3 3 3 3 4 2 2 1 1 2 2 2 1 0 0 0 0 0 0 1 2 3 3 2 3 2 2 2 2 2 3 6 8 9 13 15 20 22 29 30 47 70 92 79 61 46 42 40 39 34 31 26 26 19 15 8 6 6 7 7 7 6 4 3 3 2 2 2 2 2 1 1 0 0 1 1 2 3 4 5 5 5 5 5 4 5 5 4 4 4 5 4 4 3 3 2 2 2 2 2 1 1 1 2 1 1 1 1 1 1 1 1 1 1 1 1 1 2 2 2 2 1 2 2 2 2 3 3 3 3 3 2 3 2 3 1 1 1 1 1 1 2 2 1 1 1 1 1 1 2 2 2 2 1 1 1 1 1 1 1 1 1 2 2 3 2 3 2 4 4 4 4 4 3 3 3 3 3 3 3 2 1 1 1 1 1 1 1 1 1 1 0 0 0 0 1 1 1 2 2 2 2 2 3 3 2 2 2 3 2 2 1 2 3 3 3 3 3 3 2 3 2 2 1 1 1 1 1 1 2 2 2 2 2 2 2 3 3 3 3 2 2 2 2 2 2 3 3 2 1 1 1 2 2 3 3 3 3 3 3 3 4 4 5 5 4 3 2 2 1 2 2 2 3 2 3 2 2 2 2 1 2 2 2 3 4 5 5 4 4 5 6 5 4 3 2 1 1 1 1 1 1 1 2 2 3 3 3 2 1 1 1 1 1 1 1 2 2 2 2 3 3 3 1 0 
0 1 3 3 3 3 3 3 2 2 1 1 1 1 1 1 2 2 2 2 2 2 2 2 3 3 3 3 3 3 2 3 5 6 7 6 6 6 6 5 3 2 1 1 1 1 1 2 2 3 2 1 1 1 1 1 1 0 0 0 0 1 1 2 3 3 4 4 3 3 2 2 1 1 1 1 1 1 1 1 2 2 2 2 2 2 2 2 2 2 1 2 2 2 2 1 1 2 2 2 1 1 1 1 2 3 4 5 5 4 4 4 5 4 3 2 2 2 4 3 4 3 3 2 2 2 3 3 4 4 4 4 4 3 3 3 2 3 3 5 5 5 4 3 3 3 3 2 1 1 0 2 2 2 1 0 0 1 2 2 2 1 0 0 0 0 1 2 2 2 2 2 3 3 2 2 2 2 2 3 4 5 5 5 4 4 4 3 3 4 3 4 2 2 1 1 2 2 2 1 0 0 0 0 0 0 1 2 3 3 2 3 3 3 2 2 2 3 6 10 13 19 27 34 31 35 58 104 123 126 107 91 84 97 116 125 117 101 72 48 29 23 17 11 11 9 8 5 4 3 3 3 3 2 1 1 1 1 0 0 0 0 1 3 5 6 7 7 6 6 5 4 4 3 4 5 5 5 4 4 2 3 2 2 2 2 2 2 2 2 2 2 1 1 1 1 1 1 0 0 0 0 1 1 2 2 2 2 2 2 2 3 2 2 3 3 3 2 2 3 2 3 1 1 0 1 2 2 2 2 1 1 1 1 1 1 1 2 2 2 1 1 1 1 1 1 1 1 1 2 2 3 2 2 2 3 3 3 3 3 3 2 2 1 1 1 1 1 1 1 0 1 1 1 1 1 1 0 0 0 0 0 1 1 1 1 1 2 2 2 2 2 2 1 2 3 3 2 2 3 3 4 4 3 3 3 3 3 1 1 0 0 0 0 1 1 1 1 1 2 2 2 2 2 3 3 3 2 2 2 2 1 2 3 3 2 1 0 1 2 3 3 4 4 4 4 3 3 3 4 5 5 3 2 1 1 2 3 3 4 4 3 3 2 2 2 2 2 2 2 2 2 2 3 4 4 4 4 5 5 4 3 2 1 1 1 1 1 1 1 2 3 3 3 2 2 2 1 1 1 0 1 1 2 2 2 2 3 3 3 1 0 
0 0 1 2 3 4 4 3 2 1 1 1 1 1 1 2 3 2 2 2 2 2 2 2 3 2 2 3 4 3 3 4 5 6 7 6 6 6 6 6 4 3 2 1 1 1 1 1 2 2 2 1 1 1 1 2 1 1 1 0 0 0 1 2 3 4 5 5 4 4 2 2 1 1 1 1 1 1 1 2 1 1 1 2 2 2 2 2 2 1 1 2 2 2 2 1 1 1 1 1 1 1 1 2 3 4 5 5 5 5 5 5 5 4 3 2 3 3 4 4 4 3 4 4 4 4 3 4 4 3 3 3 3 2 2 2 3 4 4 4 3 3 3 3 3 4 3 3 1 1 1 2 3 2 1 0 0 0 1 2 2 1 0 0 0 1 1 2 2 2 1 2 3 2 2 2 2 3 4 4 4 5 4 4 3 3 3 3 3 4 3 4 3 3 2 2 3 2 2 1 1 0 0 0 0 1 2 3 4 4 3 2 3 3 3 2 3 5 6 9 19 28 33 43 56 83 100 121 131 139 124 119 122 137 152 155 147 135 110 82 54 34 31 24 16 9 7 5 4 3 3 3 2 1 1 1 1 1 1 1 1 1 1 2 4 6 7 7 7 7 6 5 5 5 6 6 5 5 5 4 3 3 2 1 1 2 2 2 2 3 3 2 2 2 1 1 0 0 0 0 0 0 0 1 2 3 3 3 3 3 3 3 2 2 3 3 3 2 2 2 1 2 1 1 1 1 2 2 2 2 2 2 2 2 2 2 2 2 2 2 1 1 1 1 2 1 1 1 1 2 2 2 2 2 2 3 3 3 3 4 4 4 4 3 3 3 3 2 1 0 0 1 1 1 1 1 1 1 1 1 1 1 1 1 1 2 2 2 1 2 2 1 1 1 2 2 3 2 2 2 3 3 4 3 3 3 2 2 1 0 0 0 0 0 0 1 1 1 1 2 2 3 2 3 3 3 2 2 2 2 2 2 3 3 3 1 0 0 1 2 3 2 3 2 2 2 2 3 3 4 4 4 4 4 3 2 3 4 4 4 3 3 3 3 3 3 3 3 3 3 3 3 3 3 4 3 3 3 4 4 4 2 1 1 1 1 1 1 1 1 2 3 3 3 2 2 3 2 1 1 0 1 1 1 1 1 2 3 3 3 1 0 
0 0 2 3 3 3 2 2 1 0 0 1 1 2 3 3 3 2 1 1 1 2 2 2 2 2 2 3 3 3 3 3 4 6 6 6 5 5 5 5 4 3 2 1 1 1 1 1 1 2 2 2 2 2 2 2 2 2 2 1 1 1 1 2 3 4 5 5 5 3 2 2 1 1 1 0 0 1 1 1 1 1 2 2 2 2 2 1 1 1 1 2 2 2 2 1 1 2 2 2 2 2 2 2 3 4 5 6 5 5 6 5 5 3 3 2 3 4 4 3 4 4 5 4 4 4 3 3 3 4 4 4 4 4 4 4 4 4 5 5 5 4 3 4 4 4 4 3 2 1 1 2 3 2 1 0 0 0 1 2 2 1 0 0 0 1 1 2 2 2 2 2 3 3 2 3 4 7 7 8 7 6 4 4 3 3 3 2 3 4 3 4 2 3 2 3 3 2 2 1 1 0 0 0 0 1 1 4 5 5 4 2 4 3 4 3 5 6 10 21 32 38 53 83 107 124 130 133 123 121 103 114 140 161 179 175 164 161 153 121 88 47 35 27 22 19 13 7 7 6 5 4 3 2 1 1 1 1 1 1 2 2 2 3 4 6 6 6 6 5 5 4 5 5 6 6 5 5 4 4 3 2 1 1 1 1 1 2 3 3 3 2 2 2 1 1 0 0 0 0 0 0 1 2 3 3 3 2 2 2 2 1 1 1 2 3 3 3 2 2 1 1 1 1 1 2 2 2 2 2 2 2 3 2 3 3 3 3 3 2 1 1 1 2 2 2 1 1 0 1 1 2 1 2 3 4 3 3 3 4 4 4 3 2 2 1 2 1 1 1 1 1 1 1 1 1 3 2 2 2 2 1 1 1 2 2 2 2 2 2 2 1 1 0 1 2 2 2 2 2 2 2 3 2 2 2 2 2 1 0 0 0 0 0 1 1 2 2 2 2 2 2 2 3 3 2 2 1 1 1 2 2 3 3 2 2 1 1 1 2 2 2 2 2 2 2 2 2 3 3 3 4 3 4 3 3 4 4 4 3 2 2 2 2 3 3 3 3 3 3 2 2 2 2 3 4 4 4 4 4 3 2 1 1 1 1 1 1 1 1 2 3 3 2 2 3 3 2 2 1 1 1 1 1 2 1 2 3 3 3 1 0 
0 1 1 2 2 2 2 1 1 1 1 1 2 2 3 3 2 1 0 0 0 0 0 1 1 1 2 2 3 3 3 3 5 7 8 9 8 8 7 6 5 4 3 2 2 2 1 1 1 2 3 3 3 3 3 2 2 2 2 2 2 1 1 2 3 4 5 4 5 3 2 2 1 1 1 1 1 1 2 2 2 2 2 2 2 3 2 2 1 1 1 1 2 2 2 1 2 2 3 3 2 3 2 3 4 4 4 4 4 4 5 5 5 3 4 3 3 4 5 4 4 4 5 5 4 3 3 3 4 4 3 2 2 2 2 2 3 3 3 3 3 3 2 3 4 5 5 4 3 2 1 2 3 3 2 1 1 1 1 1 1 1 1 1 1 2 2 2 2 2 2 3 3 3 3 4 7 11 11 9 7 6 4 3 2 2 3 2 2 3 2 3 3 3 4 4 3 3 2 1 1 1 1 1 1 2 2 5 5 7 5 5 6 5 7 5 8 12 25 37 46 58 78 110 139 155 141 117 84 75 84 96 121 125 138 121 118 132 159 157 145 109 88 64 39 22 18 13 10 8 7 5 4 3 2 2 2 2 2 2 3 3 2 3 4 5 5 6 6 6 6 5 6 6 7 6 4 4 4 4 3 1 0 0 0 0 1 2 2 2 2 1 1 1 1 1 0 0 0 0 0 1 1 2 3 3 3 3 3 3 2 1 1 2 2 3 3 3 2 1 1 1 1 1 1 2 2 2 2 2 2 2 3 3 4 4 5 5 4 3 2 2 2 2 2 2 1 1 1 1 1 1 1 2 3 3 3 3 3 4 4 4 4 3 2 2 2 2 1 1 1 1 1 1 2 2 3 4 5 7 6 4 2 2 2 3 3 3 3 3 2 1 0 0 1 2 2 2 2 1 1 1 1 1 1 2 2 2 2 1 0 0 0 1 2 2 3 2 2 3 3 3 3 3 3 3 2 1 0 0 1 2 3 2 1 1 1 2 2 2 2 3 2 2 2 1 1 2 3 2 2 3 3 4 4 4 4 4 3 2 1 1 2 2 3 3 3 3 2 2 1 2 2 2 2 2 2 2 3 3 3 2 1 1 1 2 2 2 2 2 3 3 3 2 3 3 3 3 2 2 2 2 2 1 1 2 3 4 4 4 2 0 
0 1 2 3 4 3 3 2 1 1 1 1 2 2 2 2 1 0 0 0 0 0 0 0 1 1 2 3 3 3 2 3 3 4 4 4 3 3 3 3 4 4 3 2 2 2 2 2 1 2 3 3 4 4 3 3 2 2 3 2 2 2 2 3 4 4 5 4 4 3 2 2 1 1 1 1 1 2 2 2 3 3 3 4 3 4 4 3 2 1 1 1 2 2 2 1 2 2 3 3 2 3 2 3 3 3 4 4 3 3 5 5 5 4 4 3 3 4 4 4 4 5 4 4 3 2 2 2 3 3 3 3 3 3 2 2 2 3 3 4 4 4 3 4 4 4 5 3 3 2 2 3 3 3 2 2 2 1 1 1 1 1 1 1 1 1 1 2 2 2 3 4 5 4 4 6 10 13 14 11 11 8 6 4 3 2 3 2 2 2 2 2 2 3 3 4 4 4 3 2 2 2 2 2 2 2 3 3 6 6 7 8 11 10 9 10 14 20 37 44 73 102 128 155 157 145 114 95 99 90 92 80 93 76 86 59 65 91 138 169 179 151 132 105 74 36 22 18 17 12 8 5 5 4 3 2 2 1 2 2 2 3 2 3 4 4 4 4 3 3 3 3 4 5 5 3 3 3 4 4 3 1 0 0 0 0 1 2 2 2 1 1 0 1 1 1 1 0 0 0 1 1 2 2 2 2 2 2 2 2 2 2 2 2 2 2 2 3 2 2 2 2 2 2 2 2 2 2 2 2 2 2 3 3 4 4 5 5 4 3 2 2 2 2 2 2 1 1 1 1 1 1 1 2 3 3 3 3 4 4 3 3 2 2 2 1 1 1 1 1 1 1 1 1 2 3 4 6 9 11 10 7 5 3 3 3 3 4 4 4 2 1 0 0 1 2 2 2 2 2 1 1 0 1 1 2 3 3 3 2 2 2 1 1 2 2 2 3 2 2 2 2 2 2 2 2 1 1 0 0 1 2 2 1 1 1 1 1 2 3 3 3 3 2 1 1 1 2 2 2 2 2 2 3 3 3 3 3 2 2 2 2 1 2 2 2 2 2 2 2 1 2 3 3 3 3 4 4 4 4 3 2 2 2 2 2 2 2 3 3 3 2 3 3 3 3 3 3 2 2 2 2 2 2 2 2 2 3 3 4 2 0 
0 1 2 3 3 3 2 2 2 2 1 1 1 1 1 1 0 0 0 0 0 0 0 1 1 1 1 2 2 2 1 2 3 4 4 5 4 4 3 3 3 3 3 2 2 2 2 2 1 2 3 4 4 3 2 3 2 2 3 2 3 2 2 3 5 4 5 3 4 3 3 2 1 1 1 2 2 2 2 3 3 5 4 6 6 6 6 4 3 1 1 1 2 2 1 1 2 2 3 2 2 2 2 2 2 2 2 3 2 2 3 4 5 6 6 5 3 3 4 5 5 4 3 3 2 2 2 2 3 3 3 2 2 2 1 1 1 2 2 3 4 4 4 4 4 4 5 4 4 3 2 2 2 2 2 1 1 1 1 1 1 1 1 1 1 1 2 2 2 3 4 5 5 5 4 7 11 14 17 13 13 9 7 3 3 2 2 2 2 2 2 2 2 2 3 3 5 5 4 4 2 4 3 4 4 3 3 3 6 6 10 11 13 15 11 19 17 24 46 66 127 149 177 173 132 102 85 84 93 84 88 72 82 64 68 58 51 69 108 149 174 169 170 150 118 74 38 27 22 14 8 6 5 4 4 2 2 2 2 2 2 3 2 3 3 3 3 3 3 3 3 3 4 5 4 3 3 4 4 4 2 2 1 1 0 1 1 2 1 1 0 0 0 1 1 1 1 1 1 1 1 2 1 2 2 2 2 2 2 2 2 2 2 2 1 1 1 2 2 2 3 3 3 2 2 2 2 2 2 2 2 2 3 3 3 2 4 4 3 3 2 2 2 3 3 3 2 2 1 1 1 1 1 2 3 3 3 2 3 3 2 2 2 2 2 1 1 1 1 1 1 1 2 2 3 4 6 8 13 17 17 12 7 6 4 3 3 4 4 4 2 1 1 1 2 2 2 2 2 2 2 1 1 1 2 3 4 3 3 3 2 2 1 2 2 3 3 3 3 4 4 4 3 2 1 1 1 0 0 0 1 1 1 0 0 0 1 2 2 3 4 3 2 2 1 0 1 1 2 2 2 2 3 2 2 2 2 2 2 2 2 2 2 2 2 2 2 2 1 2 1 2 2 2 2 1 1 2 2 3 2 2 2 3 3 3 2 3 4 4 4 3 3 3 4 3 3 3 2 2 1 2 2 2 2 3 3 4 4 5 3 0 
0 2 3 4 4 4 3 3 2 2 1 1 2 2 1 0 0 0 0 0 0 0 0 1 1 1 1 1 1 1 1 1 1 2 1 1 1 2 2 3 3 3 2 1 1 2 2 2 2 3 4 4 4 4 3 3 2 2 3 2 3 2 2 2 6 4 5 2 3 3 3 3 1 1 2 2 3 3 3 3 3 6 5 8 8 8 8 4 4 2 1 1 2 1 1 1 2 1 2 2 1 2 2 2 1 2 2 2 2 2 2 4 6 8 8 7 4 3 4 5 5 4 3 2 3 3 2 2 2 2 2 2 1 2 1 1 1 2 3 4 4 5 4 4 5 5 5 4 4 3 3 3 2 2 2 2 1 1 1 1 1 1 1 1 1 1 2 2 2 3 5 6 5 5 3 6 9 12 14 13 12 9 7 4 3 2 2 2 2 1 1 1 1 1 3 3 5 5 5 5 3 5 4 5 5 4 4 4 6 6 11 12 14 18 17 29 26 36 59 94 157 183 189 146 96 68 58 75 95 99 89 66 64 73 61 75 62 72 81 104 125 130 144 161 158 114 62 29 30 17 11 6 5 3 3 2 2 2 2 2 3 3 3 4 4 4 4 4 3 3 3 3 4 4 3 3 3 3 4 3 2 1 1 1 1 1 1 2 1 1 0 0 1 1 2 2 2 2 2 1 2 2 2 2 2 2 2 1 2 2 2 2 1 1 1 1 1 2 2 3 3 4 4 3 2 2 3 3 2 1 2 2 3 3 3 2 3 2 2 2 1 2 2 3 3 2 2 1 1 0 0 1 1 2 3 3 3 2 3 3 2 2 2 3 2 1 2 2 2 2 2 1 2 2 2 4 6 9 15 15 16 14 9 8 5 3 2 3 3 3 2 1 1 1 2 2 2 2 2 2 2 2 1 1 2 3 3 3 2 2 2 3 2 2 2 2 3 3 3 3 3 3 2 1 1 1 1 1 1 0 1 1 1 0 0 0 1 2 3 4 4 3 3 2 1 1 1 1 2 2 3 2 2 2 3 2 2 2 2 2 3 3 2 3 2 2 1 2 1 2 2 3 3 4 3 3 3 3 4 4 3 2 2 3 3 3 2 2 4 4 4 4 3 3 3 3 3 3 2 1 1 1 2 2 2 2 2 2 3 3 2 0 
0 2 4 5 5 5 4 3 2 2 1 1 1 1 1 0 0 0 0 0 0 0 0 1 1 0 0 1 1 0 0 1 1 2 2 2 2 2 2 2 3 3 2 1 0 1 1 1 2 3 4 4 4 4 3 2 2 2 3 2 3 2 2 2 6 4 5 2 2 3 3 3 2 1 2 2 3 3 2 3 3 6 5 8 8 8 8 5 4 2 1 1 1 1 1 1 1 1 1 1 1 1 1 2 1 2 2 2 2 2 2 5 7 10 11 8 6 4 3 4 4 3 3 3 3 3 2 2 2 2 2 2 1 1 1 1 1 1 2 3 4 4 3 4 5 6 5 4 4 3 3 2 2 2 2 1 1 1 1 1 1 1 1 1 1 1 2 3 3 4 5 6 5 5 3 5 6 10 12 12 10 8 6 4 3 2 2 2 2 2 2 2 1 1 2 3 5 5 5 5 3 5 4 6 5 4 5 4 6 6 8 10 12 16 28 40 44 62 90 137 174 174 151 107 63 48 56 80 85 74 55 58 57 87 66 96 73 83 74 74 71 69 87 140 177 157 110 40 34 20 15 6 6 2 3 4 4 5 5 5 5 6 7 6 5 4 3 3 3 3 3 3 4 4 3 3 3 3 3 3 1 1 1 1 1 1 1 1 1 1 1 1 2 2 2 2 2 2 2 2 2 2 2 2 3 2 2 1 1 1 1 1 1 1 1 1 2 2 3 3 3 3 3 2 2 2 3 3 1 0 1 2 3 3 2 1 2 2 2 1 1 2 3 3 3 2 2 1 0 0 0 1 1 2 3 3 3 2 2 3 2 2 2 3 2 2 3 2 3 2 2 2 2 3 3 7 11 14 14 16 17 16 14 9 6 3 2 2 3 3 2 2 1 2 1 2 2 2 2 2 3 2 2 2 3 3 3 2 1 2 2 2 2 2 2 3 3 3 3 3 3 3 2 2 1 1 1 1 1 1 1 1 0 0 0 0 1 1 2 3 3 3 3 2 2 1 2 1 3 3 3 3 3 3 3 2 2 1 2 2 3 3 3 3 2 2 1 2 1 2 1 2 2 2 2 2 2 2 2 2 2 2 3 4 3 3 2 2 3 4 4 4 4 4 4 3 3 3 2 1 1 1 1 2 3 3 3 3 3 3 2 0 
0 2 4 5 5 5 4 3 3 3 2 2 2 2 1 1 0 0 0 0 0 0 0 1 1 1 1 1 1 0 0 0 1 2 2 2 2 2 2 3 3 2 1 0 0 0 0 1 3 3 4 4 4 3 3 2 2 2 3 2 3 2 2 2 5 4 5 2 2 2 3 3 3 2 3 3 3 3 2 3 3 5 4 7 6 7 7 4 4 2 1 1 0 1 1 2 2 1 1 1 2 2 3 3 2 2 1 2 1 2 1 5 8 10 13 9 8 4 3 3 3 2 3 3 3 3 2 2 2 2 2 2 1 1 0 1 1 2 2 3 3 3 2 4 5 6 5 4 4 4 3 3 2 2 2 2 3 3 3 2 2 1 1 1 1 1 2 3 3 4 5 5 5 4 3 3 4 6 7 9 5 5 5 4 3 2 2 2 2 2 2 2 1 1 2 3 5 5 4 4 3 4 4 5 5 4 4 5 6 8 7 10 11 20 43 50 72 111 145 163 151 121 90 56 47 50 64 69 72 78 60 61 43 76 72 102 81 96 69 69 48 38 42 98 162 176 139 67 37 24 18 6 6 3 3 4 6 6 6 6 5 6 6 5 4 3 3 2 2 2 2 3 4 4 4 3 3 4 4 3 1 0 0 0 0 0 0 1 1 1 1 1 2 2 2 2 2 3 3 2 2 2 2 2 3 3 2 1 1 1 1 1 1 1 1 1 2 2 2 2 3 3 3 2 2 3 3 3 1 0 1 2 3 2 1 1 2 2 2 2 2 2 3 3 2 1 1 1 1 1 1 1 2 2 3 3 3 2 2 3 2 2 2 2 2 1 2 2 3 2 2 2 3 3 4 7 10 15 17 18 16 13 13 9 6 3 2 2 3 3 3 3 1 2 1 2 2 3 2 2 2 2 2 2 2 3 3 2 1 2 2 3 3 2 2 3 3 3 2 1 2 2 2 2 1 1 1 1 1 1 1 1 0 0 0 0 1 2 2 2 3 3 3 3 3 2 2 2 3 4 3 3 2 3 3 2 2 1 1 1 3 3 3 3 2 2 1 2 1 2 1 1 2 2 2 2 2 2 2 2 3 3 2 3 3 2 2 2 3 4 4 4 3 3 3 3 3 3 2 2 1 1 2 2 3 3 4 4 4 4 3 0 
0 2 4 5 6 5 5 4 4 3 2 2 2 2 1 1 1 1 0 0 0 0 0 1 1 1 2 2 2 1 1 1 2 2 2 3 2 2 2 2 2 1 1 0 0 0 0 1 3 4 5 4 4 3 2 3 2 2 3 2 3 2 2 2 4 3 4 2 2 2 3 3 3 3 3 3 3 3 2 2 3 4 3 4 4 5 5 3 3 3 2 1 1 1 1 2 2 1 1 1 1 2 1 1 1 1 1 1 1 2 2 6 8 10 12 8 8 3 2 2 2 2 3 4 3 2 2 2 2 3 3 2 1 0 0 1 2 2 2 2 2 2 2 4 5 5 5 4 4 4 3 3 2 2 2 2 2 2 3 3 2 1 1 1 1 1 1 2 2 3 3 4 4 4 4 3 3 4 3 5 3 5 4 4 3 2 2 2 3 3 2 2 2 2 2 4 5 5 4 2 2 3 4 5 5 5 4 5 6 7 6 9 12 35 48 62 114 160 179 159 102 64 47 30 41 49 73 79 81 68 47 47 37 65 73 92 79 101 75 77 49 38 39 72 136 174 155 99 41 25 17 8 6 4 6 5 8 8 8 8 7 7 6 5 4 3 3 3 3 3 3 3 4 4 4 3 3 3 4 4 2 1 0 0 0 0 1 1 2 2 2 2 2 2 2 2 2 2 2 2 1 1 2 2 3 3 3 2 2 1 1 1 1 1 1 1 1 2 3 3 3 3 3 3 3 4 4 4 2 1 1 2 3 2 1 1 2 3 3 3 3 3 3 3 2 1 1 1 1 1 1 2 2 2 4 3 3 2 2 2 2 2 1 1 1 1 2 2 2 2 2 2 3 3 4 9 19 33 38 31 25 18 16 13 8 5 2 2 2 3 3 3 2 2 2 2 2 3 3 2 2 2 2 2 3 3 3 3 2 3 3 3 2 2 2 2 3 3 2 2 1 1 1 1 1 1 2 1 1 1 1 0 0 0 0 0 1 2 2 2 2 3 3 3 3 3 3 3 3 3 3 3 2 2 3 2 2 1 1 1 2 3 3 3 2 2 2 2 2 2 1 1 1 1 2 2 2 2 2 2 3 2 2 2 2 2 2 2 2 3 3 3 3 3 2 3 2 3 2 2 1 1 2 2 4 5 5 5 5 5 3 0 
0 2 4 6 7 6 6 5 4 3 2 2 2 2 2 1 1 1 0 0 0 0 0 1 2 2 2 2 2 1 1 2 2 2 1 2 2 2 2 2 2 1 1 0 0 0 0 1 2 3 5 4 4 4 2 3 2 2 2 2 2 2 2 2 3 3 3 2 1 2 3 3 3 3 3 3 3 3 2 2 2 3 3 3 3 4 3 3 3 3 3 2 2 2 2 2 2 2 3 3 3 4 3 3 2 1 1 1 1 2 2 5 8 9 11 7 6 2 2 1 2 2 3 3 3 2 2 2 2 3 3 2 1 1 1 2 2 2 2 2 2 2 2 3 4 4 4 4 4 4 3 3 2 2 2 2 3 3 4 3 3 2 1 1 1 2 1 2 2 2 2 2 3 3 3 4 3 4 3 4 3 3 2 3 3 2 2 2 2 3 2 2 1 2 3 4 4 4 3 2 2 3 4 6 6 5 4 6 7 10 8 13 23 43 60 98 151 188 181 134 58 34 31 30 47 64 87 94 95 83 76 50 39 50 59 69 62 85 82 81 56 34 30 38 93 147 154 116 59 28 20 11 6 5 7 6 8 6 7 7 6 5 4 4 3 3 2 2 2 2 2 3 4 4 4 4 3 4 5 4 3 1 0 0 0 0 1 1 2 2 2 2 2 2 2 2 2 2 2 2 1 1 1 2 4 3 4 2 1 1 1 1 2 1 1 1 1 2 2 3 3 4 5 5 5 5 5 4 3 1 2 3 3 3 2 2 2 2 3 3 3 2 2 2 2 2 2 2 2 2 2 2 2 3 4 3 3 2 2 2 1 1 1 1 1 0 1 1 1 2 2 2 3 4 4 10 25 34 48 37 33 20 15 16 8 8 2 2 3 3 3 2 2 2 2 2 2 2 2 2 1 1 2 2 2 3 3 3 3 3 3 2 2 1 1 2 3 3 3 2 2 2 2 1 1 1 1 1 1 1 1 0 0 0 0 1 1 2 2 2 2 3 3 3 2 2 2 2 2 2 2 3 2 3 3 2 2 1 1 2 2 3 2 2 2 2 2 2 2 2 2 1 2 2 2 2 2 2 3 3 3 2 2 1 2 2 1 1 2 2 3 3 2 2 1 2 2 3 2 2 1 2 2 3 4 5 5 6 6 7 4 0 
0 2 3 4 4 4 4 3 3 2 2 1 2 2 2 2 2 1 1 0 0 0 0 1 2 3 4 4 4 3 3 3 3 2 2 2 2 2 2 2 2 1 1 1 0 0 0 0 2 3 4 4 4 3 2 3 1 2 2 2 3 3 3 2 2 2 2 2 2 2 3 3 3 2 2 2 2 2 2 2 2 2 2 2 2 2 2 2 3 4 3 3 4 4 4 4 4 3 2 2 2 2 2 2 1 1 1 1 2 2 3 4 7 7 7 4 3 1 1 2 4 4 5 4 4 3 2 3 4 5 5 4 3 2 2 2 2 2 2 2 2 2 3 3 3 3 3 4 4 4 4 3 2 2 2 2 2 2 3 4 4 3 2 2 2 2 1 1 1 1 1 1 2 3 3 5 3 3 2 3 2 2 1 2 2 2 1 2 2 2 3 3 2 3 4 5 5 4 2 2 2 3 4 7 6 6 6 7 9 13 12 21 36 48 85 125 167 176 137 80 32 28 28 40 48 74 96 104 109 93 87 53 45 45 49 51 42 66 83 81 59 35 38 42 66 117 148 124 80 32 25 15 8 5 6 5 7 6 7 6 6 6 5 4 4 4 4 4 3 4 3 3 4 4 4 3 2 3 4 4 3 2 1 1 1 2 2 2 2 2 2 1 2 2 2 2 2 2 2 1 1 1 2 2 4 4 5 3 2 1 2 1 1 1 1 1 2 2 3 3 4 4 4 4 4 4 4 4 3 2 2 3 3 3 2 2 2 3 4 3 3 2 2 2 2 2 2 2 2 2 2 1 2 2 3 3 2 2 2 2 1 1 1 1 0 0 0 0 1 1 1 1 1 2 3 9 30 42 71 45 41 22 17 19 9 9 2 2 2 3 2 2 2 2 2 2 2 2 2 1 1 1 2 3 3 3 3 4 4 4 3 2 1 1 1 2 3 3 4 3 3 2 2 1 1 2 2 2 2 1 1 0 0 0 1 1 1 1 2 1 2 2 2 2 2 2 2 2 1 2 2 3 3 3 3 3 3 2 2 3 3 3 2 2 2 2 2 3 3 3 3 2 3 3 3 2 2 2 3 3 3 2 2 2 2 2 2 2 2 3 2 2 1 1 1 2 3 3 4 4 4 3 3 3 3 5 5 5 5 6 3 0 
0 3 5 6 7 7 6 5 3 2 1 2 2 3 3 2 2 1 1 0 0 0 1 2 3 4 5 5 4 3 3 3 3 2 2 1 2 2 3 3 2 2 2 1 1 0 0 0 1 1 3 3 3 3 3 2 1 1 2 3 4 5 4 3 2 2 2 2 2 2 2 3 2 2 2 2 2 2 2 2 1 2 2 2 2 1 2 3 3 4 3 3 3 4 5 5 4 3 3 3 3 3 3 2 2 1 2 2 2 2 3 4 5 6 5 3 1 1 2 3 3 4 4 4 4 4 4 4 4 5 5 5 5 3 3 2 2 2 2 2 3 3 3 3 3 2 2 3 3 3 2 2 2 2 2 2 2 2 3 4 4 3 2 2 2 2 1 2 2 2 2 2 2 3 3 4 3 3 3 3 2 2 1 1 1 1 1 1 1 2 2 3 2 2 3 4 4 3 2 2 2 3 3 5 5 6 5 7 9 14 17 31 41 58 117 149 169 139 97 61 44 37 38 49 53 78 103 120 140 110 96 63 50 49 55 51 41 66 81 83 64 40 35 38 54 105 147 132 97 42 32 20 9 5 6 7 7 7 7 6 5 5 5 4 5 3 3 2 1 2 2 3 4 4 4 3 3 3 4 3 2 1 1 1 1 1 1 2 2 1 1 1 2 2 3 3 3 2 2 1 1 1 3 2 5 5 5 3 2 1 1 2 2 1 1 1 2 2 2 3 4 4 4 3 3 3 3 3 3 2 2 2 3 2 2 2 2 2 3 3 2 2 2 2 2 2 2 2 2 2 2 1 1 2 3 3 3 2 2 2 2 2 1 1 1 1 1 0 0 0 1 1 1 2 2 8 26 33 52 34 36 17 15 13 6 6 2 2 3 3 2 2 1 2 2 2 2 2 2 1 1 1 1 2 3 4 4 5 4 3 1 1 1 1 2 2 3 3 3 3 3 3 3 2 2 2 2 2 2 2 1 1 1 1 2 2 2 2 1 2 2 2 2 2 2 2 2 2 2 2 2 3 3 4 4 4 2 2 2 2 2 2 2 1 2 2 2 3 2 3 2 3 4 3 4 2 2 2 2 2 2 2 2 2 2 1 2 2 2 2 2 1 1 1 1 2 3 3 4 4 3 3 3 4 5 5 5 4 5 5 4 0 
0 2 3 3 3 2 2 2 2 2 2 3 2 3 3 3 2 1 1 1 0 0 1 2 4 5 5 5 5 4 4 3 3 3 3 2 3 3 3 3 2 2 1 1 1 1 1 0 1 1 2 2 2 3 3 2 2 2 3 4 5 6 5 5 3 2 2 2 2 2 2 2 2 2 2 2 2 2 1 1 1 1 1 1 1 1 1 2 3 4 3 3 3 5 6 6 4 4 2 2 2 2 1 1 1 1 1 1 2 2 3 3 3 3 3 2 2 3 3 5 6 7 6 6 5 5 4 5 4 5 6 5 5 4 3 3 3 3 3 3 3 3 3 3 3 2 2 2 2 2 2 2 2 2 2 2 2 2 3 4 3 3 3 3 2 2 2 3 3 3 2 2 2 3 3 3 4 2 3 2 2 2 1 0 1 1 1 1 2 2 2 2 2 2 2 3 4 3 2 2 2 3 3 4 5 5 4 6 7 12 19 35 38 74 130 155 149 98 66 58 63 53 61 58 53 63 88 102 126 110 83 54 45 55 61 57 46 61 65 73 60 47 49 51 55 106 149 142 111 46 33 23 7 6 5 7 6 5 4 4 4 4 3 3 5 3 3 2 2 3 2 3 4 4 4 3 3 3 3 2 1 1 1 1 1 2 2 1 1 1 0 0 1 2 2 3 3 2 2 1 1 1 3 2 5 4 5 4 2 1 1 1 2 2 2 2 2 2 2 2 3 3 2 1 1 2 2 2 2 2 2 2 2 2 2 2 1 2 3 2 2 2 2 3 3 2 1 1 2 2 2 2 1 1 2 3 3 2 2 2 2 2 1 1 1 1 1 1 1 1 1 0 0 1 1 5 16 24 36 27 23 12 10 8 4 3 1 1 2 2 2 2 1 1 1 1 2 3 2 1 0 1 1 2 3 3 3 4 3 3 3 3 3 2 2 2 2 2 2 2 3 3 3 2 2 2 2 3 3 3 2 2 2 2 2 2 2 1 1 1 1 1 1 1 1 1 2 1 1 1 2 3 4 4 4 4 3 3 4 3 3 2 2 2 3 3 3 3 3 3 3 4 4 4 4 2 2 1 2 2 2 2 1 1 1 1 2 3 3 3 3 2 1 1 2 3 3 4 4 5 4 5 4 4 4 4 3 3 3 4 3 0 
0 2 4 4 5 5 4 4 2 3 3 3 3 4 3 3 2 1 2 1 1 1 2 3 3 4 4 4 4 4 3 2 2 2 3 3 4 5 5 4 3 2 1 1 1 1 1 1 1 1 2 2 2 2 2 2 1 2 3 4 5 7 6 5 4 1 2 2 2 2 2 1 1 1 2 2 2 2 0 1 0 1 1 1 1 1 1 2 3 4 3 3 3 4 5 5 4 3 2 3 4 3 2 2 1 1 1 1 1 1 2 2 3 3 4 3 3 3 4 5 5 6 6 5 5 5 4 4 4 4 5 4 5 3 3 3 3 3 3 3 3 3 3 3 3 2 2 2 1 1 1 2 2 2 1 2 2 3 3 3 2 3 3 3 3 2 2 3 4 4 3 3 3 3 3 3 3 2 3 2 1 1 1 1 1 0 0 1 1 2 2 2 1 1 2 2 3 3 3 3 2 3 3 4 4 4 4 4 4 11 17 35 35 85 141 158 133 82 63 80 90 79 80 60 49 43 58 73 94 91 75 63 48 63 70 68 50 56 58 73 75 63 59 57 53 111 154 151 120 47 34 25 7 9 6 10 7 7 6 5 4 3 2 2 4 3 4 2 2 2 2 3 3 4 3 3 3 3 3 2 1 1 1 1 1 1 1 1 1 0 0 0 1 1 1 2 2 3 2 2 1 1 2 2 4 4 5 4 2 1 1 1 2 2 2 2 2 2 2 3 4 3 3 1 2 2 2 2 2 2 1 1 1 1 1 1 2 2 3 2 2 2 3 3 3 1 1 1 1 2 2 2 2 2 2 3 3 3 2 3 2 2 1 1 2 1 1 1 1 1 0 1 0 0 1 3 8 13 16 14 10 8 5 3 2 1 0 0 1 1 2 2 1 1 1 2 3 3 2 1 1 1 1 1 2 3 3 3 2 2 2 2 2 2 2 2 1 2 2 2 3 3 3 3 3 2 2 3 3 3 3 4 3 3 2 1 1 1 1 1 2 2 1 1 1 1 1 1 1 1 2 3 3 3 3 4 3 3 2 2 2 2 3 2 3 3 3 3 3 3 2 3 4 4 4 1 2 1 2 1 2 1 1 1 1 1 3 3 4 4 3 2 2 2 3 4 4 4 4 4 4 4 5 5 5 4 3 2 3 3 2 0 
0 1 2 2 2 2 2 3 3 4 4 3 3 4 3 3 2 2 2 2 2 1 2 2 3 2 1 2 3 3 2 2 2 3 4 4 4 4 4 4 3 2 1 1 1 1 1 1 1 1 2 1 2 2 2 2 2 2 3 4 5 6 6 4 4 2 2 2 2 2 1 0 0 0 2 2 2 2 0 1 1 1 1 1 1 1 1 1 2 3 3 3 3 4 4 4 3 2 2 3 3 3 2 2 1 1 0 0 1 1 1 1 2 3 4 5 5 5 5 5 6 7 6 6 6 5 5 4 4 4 5 3 4 2 3 4 4 4 4 4 4 3 2 3 3 3 3 2 2 2 2 2 2 2 1 2 3 3 3 2 1 2 3 3 3 3 3 3 3 3 3 3 3 3 3 3 3 2 2 2 1 1 1 2 2 2 2 2 2 2 2 2 2 1 1 1 2 3 3 3 3 4 3 5 5 4 4 4 5 10 15 33 42 108 163 169 132 74 58 87 93 91 86 55 43 34 43 63 81 75 61 49 49 69 79 89 82 67 61 69 72 67 67 63 50 108 156 155 127 47 33 21 6 8 6 9 5 5 4 4 4 3 2 3 4 4 4 3 3 2 2 2 2 3 3 3 3 2 2 2 2 2 2 2 1 1 1 0 1 1 1 1 1 2 2 2 3 3 2 1 0 0 1 2 3 3 4 3 2 1 1 1 2 2 2 3 2 2 2 2 3 2 3 1 3 2 3 2 2 1 1 1 1 1 1 1 1 2 3 3 3 2 2 2 2 1 1 1 1 2 2 2 2 3 2 3 3 3 3 3 2 2 1 1 1 1 1 1 1 1 1 1 0 0 1 2 3 5 5 6 4 5 3 3 1 0 0 0 0 0 1 1 1 1 2 3 3 3 2 1 1 1 0 1 1 1 1 2 3 4 5 5 5 5 5 5 4 3 3 3 3 4 3 3 2 2 2 3 3 3 4 5 4 3 1 0 0 0 0 1 2 2 2 2 2 2 2 1 1 1 2 2 2 2 2 3 3 3 3 3 3 3 3 3 4 3 3 3 2 2 2 3 4 4 3 1 2 1 2 1 2 2 1 1 1 2 2 2 3 3 3 3 2 2 3 3 4 4 4 5 5 5 5 5 4 2 1 2 2 3 1 0 
0 1 2 2 2 2 2 2 4 4 5 3 3 3 2 3 1 1 2 2 1 1 1 2 2 2 1 1 2 3 2 2 2 2 3 4 4 4 4 4 3 2 1 0 0 0 0 1 1 1 2 1 1 2 2 1 1 1 2 3 5 5 5 3 3 2 2 2 2 2 1 0 0 0 1 2 3 2 1 1 1 1 1 1 1 1 1 1 2 2 2 2 2 3 3 3 3 3 3 3 4 3 3 3 2 1 1 0 1 1 1 1 2 3 4 5 4 4 3 4 5 6 6 5 5 5 5 4 4 3 4 2 3 2 4 4 4 4 4 4 4 4 3 2 3 3 3 3 2 1 1 2 2 2 1 2 3 3 3 2 1 2 3 3 3 3 3 4 4 3 3 3 3 2 2 2 3 2 2 1 1 2 2 2 2 2 2 2 3 3 3 3 3 3 2 1 2 2 3 3 2 4 3 5 4 4 4 5 7 10 21 44 48 125 182 187 140 64 49 77 90 98 91 51 45 55 58 71 69 61 53 42 46 59 75 78 79 61 61 71 81 86 72 55 46 105 160 158 132 46 34 19 5 7 5 7 5 6 4 4 4 3 2 3 3 5 5 3 3 1 1 2 3 3 3 3 3 2 2 3 3 3 2 1 1 0 1 0 1 1 1 1 1 2 2 2 2 3 2 1 0 0 1 2 3 3 4 3 2 2 1 2 2 2 2 3 3 2 2 2 3 2 3 2 3 2 3 2 2 1 1 1 1 0 0 1 2 2 3 3 3 2 1 1 1 0 0 1 1 1 1 2 2 2 2 2 3 3 3 3 2 2 1 1 1 1 1 1 1 1 1 1 0 0 0 1 3 4 4 4 4 4 3 2 1 0 0 0 0 0 0 0 1 2 2 3 3 2 1 1 1 1 1 1 2 1 2 2 3 3 3 3 3 4 4 5 5 4 4 4 4 4 3 3 2 2 3 3 3 3 4 5 4 2 0 0 0 0 0 1 2 2 2 2 2 2 2 2 2 2 2 2 1 1 2 3 3 3 3 3 3 4 3 3 3 3 3 3 3 3 3 3 4 4 4 2 2 2 2 1 2 1 2 2 2 2 2 3 3 3 3 3 3 3 3 3 4 4 4 4 4 5 4 4 3 2 2 2 2 2 1 0 
0 1 1 1 1 1 2 2 4 4 4 3 2 2 2 2 1 1 1 2 2 2 2 3 3 2 1 2 2 3 3 2 1 2 3 2 2 2 3 3 3 2 1 0 0 0 0 0 1 1 1 2 1 2 2 2 1 1 2 3 4 4 4 2 3 2 2 2 3 2 1 0 0 0 1 2 3 3 1 1 1 1 1 1 1 1 1 1 2 2 2 2 1 2 2 3 2 2 3 3 2 2 2 2 2 1 1 1 1 2 2 2 2 3 4 5 4 4 3 4 4 4 4 4 5 6 6 5 5 3 3 1 2 1 3 4 4 4 4 5 4 3 2 2 2 2 3 3 3 2 2 1 1 1 2 3 3 3 2 2 2 2 2 2 2 3 4 3 3 2 3 3 3 3 3 3 3 2 2 1 1 1 1 2 2 2 2 2 2 3 3 4 4 3 3 2 1 2 2 3 2 3 3 3 3 3 4 7 10 14 28 47 60 157 204 199 138 46 34 48 78 91 87 66 60 76 90 111 93 72 47 37 48 53 75 81 79 59 56 70 72 76 58 49 45 105 161 153 126 39 34 16 3 5 4 6 4 5 3 3 3 3 2 3 4 4 5 3 3 2 2 1 2 2 4 3 3 3 2 4 3 4 2 1 1 0 1 1 1 1 1 1 1 1 2 2 2 2 2 1 0 0 1 1 2 2 3 2 2 2 2 2 2 2 2 2 2 2 1 2 3 3 4 2 3 2 3 3 2 2 1 1 1 1 1 1 2 3 5 5 5 4 3 2 1 1 1 1 1 1 1 1 1 1 2 2 3 3 3 3 2 2 1 1 1 1 1 1 0 1 1 1 1 0 1 1 2 3 4 4 3 3 3 2 1 0 0 0 0 0 0 0 1 2 3 4 3 3 2 2 1 0 0 1 2 2 2 3 4 5 5 5 5 6 6 6 6 6 5 5 5 5 4 3 2 2 2 2 2 2 3 4 3 1 0 0 0 0 0 1 2 2 3 4 5 5 4 3 3 2 2 2 2 2 2 2 2 2 2 3 3 3 3 3 3 3 3 2 2 2 2 3 4 4 4 2 2 2 2 1 2 1 1 1 1 1 1 1 1 2 2 3 3 3 3 3 3 3 3 4 4 4 3 2 3 2 2 2 3 2 1 0 
0 1 2 2 1 1 2 2 4 4 5 3 2 2 2 2 1 1 2 2 2 2 3 3 3 2 1 2 3 3 3 2 2 2 3 3 3 2 4 4 4 3 2 1 0 0 0 0 2 2 2 1 1 2 1 1 1 1 2 2 3 3 3 2 2 2 3 3 3 3 1 1 0 0 0 2 3 3 2 1 1 1 1 2 1 1 1 1 2 2 2 1 1 1 1 2 2 2 2 2 1 1 1 1 1 0 1 1 1 1 2 2 2 2 3 4 4 3 3 3 5 4 4 3 4 5 6 5 5 3 3 1 2 1 3 3 3 3 4 4 4 3 2 2 2 1 2 2 2 2 2 2 2 2 3 3 3 2 2 2 2 3 2 2 2 3 3 3 3 2 2 2 2 2 3 3 3 3 2 1 1 1 1 2 2 2 2 2 2 3 3 4 4 4 3 2 1 2 2 2 3 3 3 3 2 2 3 6 11 15 38 47 74 152 201 191 123 31 27 42 91 119 117 92 82 99 107 131 114 119 87 62 59 65 81 79 70 61 47 67 70 77 56 44 38 108 164 151 120 37 34 16 3 5 3 5 3 4 2 3 3 3 2 2 3 3 4 3 3 3 2 1 2 3 4 3 3 2 2 3 3 4 3 1 1 1 1 2 2 1 0 0 0 0 1 1 2 2 1 0 0 0 1 2 2 2 2 2 2 2 2 2 2 2 3 3 2 2 2 2 3 3 3 3 3 2 2 2 2 2 2 2 1 2 1 2 3 4 5 5 5 3 2 2 1 1 1 1 2 2 2 1 2 2 2 2 2 3 3 3 2 2 2 1 1 1 1 1 1 1 1 1 1 1 1 1 2 2 3 3 3 3 3 2 1 0 0 0 0 0 0 1 1 2 3 3 3 3 3 2 2 1 1 1 2 2 2 3 4 4 4 4 4 4 4 4 5 5 5 5 5 4 3 2 1 1 2 2 2 2 3 3 2 1 0 0 0 0 0 0 1 2 2 3 4 4 3 3 2 2 2 2 2 1 1 2 2 2 3 3 3 4 4 3 3 3 3 2 3 3 4 4 4 3 3 2 2 2 1 1 1 1 1 1 1 1 1 2 2 2 2 2 3 3 3 3 3 3 3 3 3 3 2 2 2 2 2 2 2 2 1 0 
0 1 2 2 2 2 2 2 3 3 4 3 3 2 2 1 1 1 1 2 2 3 4 3 3 2 1 2 3 3 2 2 2 3 3 3 3 4 5 5 5 4 3 3 2 1 1 1 2 2 2 2 1 2 1 1 1 1 2 2 2 3 2 2 2 2 3 4 3 3 2 2 1 1 1 2 3 3 2 1 1 2 3 2 2 2 2 2 2 2 2 1 1 1 2 2 2 2 2 2 2 1 1 1 1 1 1 1 1 1 1 1 2 2 3 4 3 3 3 3 3 3 3 2 3 4 4 4 3 2 2 1 1 1 2 2 3 3 3 3 3 2 2 2 2 1 2 3 3 3 2 3 3 4 5 3 3 2 3 4 4 4 3 4 3 3 3 3 2 2 1 2 2 3 4 5 4 3 2 1 1 1 1 1 1 1 1 1 1 2 3 4 4 4 3 2 1 2 2 2 2 4 4 3 2 1 3 5 12 18 40 39 86 140 190 174 112 46 37 55 105 126 133 108 104 102 103 124 107 116 94 75 68 69 73 73 56 61 52 72 72 76 52 36 36 106 161 148 113 37 32 15 3 5 4 6 3 4 1 2 3 3 2 2 3 3 3 2 3 3 3 3 3 3 4 3 3 2 2 3 3 4 4 3 2 2 3 3 2 2 0 0 0 0 0 1 1 1 0 0 1 1 2 2 1 1 1 1 2 2 2 2 2 3 3 3 2 2 1 2 2 3 3 3 2 2 3 3 2 2 1 2 2 3 2 3 3 5 6 6 5 5 4 3 3 2 2 2 2 1 1 1 1 1 2 2 2 2 2 3 3 3 3 2 2 1 1 1 1 1 1 2 2 1 1 1 2 2 2 2 2 2 2 1 1 0 0 0 0 1 2 2 2 2 2 3 3 4 3 3 2 2 2 2 2 2 3 3 4 4 4 4 4 5 4 5 5 5 5 5 5 4 3 1 1 0 1 2 2 2 2 2 1 1 1 1 1 2 1 2 1 2 2 3 4 4 3 2 2 2 2 2 2 2 2 1 1 1 2 2 3 3 3 3 4 2 2 1 2 2 2 3 3 3 2 1 2 2 1 1 1 1 1 1 1 1 1 1 2 1 1 1 2 3 3 3 3 3 3 3 3 3 2 2 2 2 2 2 3 3 2 0 
0 1 3 3 3 2 2 2 3 3 4 4 3 2 2 1 0 0 1 1 2 2 3 3 3 2 1 2 3 3 2 1 2 3 4 3 3 5 6 6 5 4 4 3 3 2 1 1 2 2 2 3 3 3 2 1 1 1 1 2 2 2 2 1 2 2 3 4 4 4 2 3 2 2 1 2 2 3 2 2 2 2 3 2 2 2 2 2 2 1 1 1 1 1 2 2 2 1 1 1 1 2 2 2 1 1 1 1 1 1 1 1 2 2 3 3 3 3 3 3 4 3 4 3 4 5 4 3 3 2 2 1 1 1 1 1 2 3 3 3 3 2 2 2 1 1 2 3 3 3 3 3 4 4 4 3 3 2 2 3 3 5 4 4 3 3 3 2 2 1 1 1 1 2 2 4 3 3 2 2 1 1 1 2 2 2 2 2 2 3 4 4 4 2 2 1 2 2 2 2 2 3 4 4 3 2 3 3 7 14 36 33 88 120 163 148 98 60 52 80 127 147 155 104 102 95 91 99 98 116 125 112 110 95 103 92 75 66 59 74 83 78 60 38 36 102 158 150 118 39 30 15 4 6 5 6 4 4 2 2 3 3 3 2 2 2 2 1 2 2 3 3 3 2 3 2 1 1 1 2 3 4 4 3 3 3 3 4 2 2 0 0 0 0 0 1 1 1 0 1 1 2 2 2 2 2 1 1 1 1 2 2 2 2 3 3 3 2 2 3 2 3 2 3 2 3 3 4 3 3 2 3 2 3 2 3 2 4 4 5 4 4 3 3 2 2 1 1 1 1 1 1 2 1 2 1 2 3 3 4 4 4 4 2 2 1 1 1 1 1 1 2 2 2 1 1 1 1 1 1 1 1 1 1 0 0 0 0 1 2 3 3 3 3 3 3 4 5 4 3 3 2 2 2 2 2 2 4 5 5 5 5 5 6 6 6 5 5 4 4 4 4 3 1 0 0 1 1 2 2 1 1 1 1 1 2 2 3 2 2 2 2 2 2 3 3 2 2 1 2 2 2 2 1 1 1 2 2 2 2 3 4 4 4 4 3 3 2 2 3 2 2 2 2 1 1 1 1 1 1 1 1 1 1 1 1 1 2 2 1 2 2 3 2 2 2 2 2 2 3 3 3 2 1 2 2 2 2 3 3 2 0 
0 2 3 3 4 2 2 2 2 3 4 4 3 2 2 1 0 0 0 0 1 1 3 3 3 2 2 3 3 3 2 1 2 4 5 5 5 5 5 6 5 5 5 5 4 3 3 2 1 1 2 2 3 3 2 2 2 2 2 2 2 2 2 1 2 1 3 4 4 4 3 4 3 2 2 2 3 3 3 3 3 3 3 3 2 2 2 2 2 2 2 2 2 2 2 2 2 1 1 1 1 2 2 2 2 1 1 1 0 0 0 1 1 2 2 3 3 3 2 2 3 4 4 3 3 3 2 1 1 1 1 1 1 0 1 1 2 2 3 3 3 4 4 4 3 3 3 4 5 4 4 4 5 5 4 3 2 2 3 4 4 4 5 6 4 4 3 3 2 1 1 1 2 2 2 4 3 3 2 2 2 2 1 1 1 2 3 3 3 4 5 5 5 3 1 1 2 3 3 2 2 3 4 4 4 2 2 3 5 11 29 27 77 98 138 135 111 83 64 87 128 142 132 94 95 105 104 97 79 92 107 109 116 99 99 69 67 66 92 109 113 88 66 34 40 110 161 149 112 34 29 15 8 8 9 7 6 4 2 2 3 3 2 1 2 2 2 1 1 2 3 3 3 2 2 2 2 1 1 1 2 3 4 4 3 4 3 3 2 2 1 0 0 0 0 1 1 1 0 1 2 2 2 2 2 2 1 0 0 1 2 2 2 2 3 3 2 2 2 2 2 2 2 2 2 3 3 5 4 4 3 3 3 4 3 2 2 2 2 3 3 3 3 2 2 1 1 1 1 1 1 1 2 1 2 1 3 3 3 3 4 4 4 2 2 1 0 0 1 1 1 1 1 1 1 1 1 0 0 0 0 0 0 0 0 0 0 0 1 3 3 3 3 2 2 2 2 2 2 3 3 4 4 3 3 2 2 3 4 5 4 4 3 4 5 5 4 3 3 3 3 3 2 1 0 0 0 1 2 2 1 1 1 1 2 2 2 2 3 3 2 2 2 2 2 2 1 2 2 2 1 2 2 2 1 1 1 2 2 2 3 3 3 3 2 2 2 2 2 2 1 1 0 1 1 1 1 1 2 2 1 1 1 1 2 2 2 2 2 2 3 2 3 2 2 1 1 1 1 1 2 2 2 2 2 2 3 4 4 4 3 0 
0 2 3 3 3 2 2 1 2 2 3 3 3 2 2 1 1 0 1 0 1 1 3 3 3 3 3 4 3 2 1 1 2 3 3 3 3 4 5 5 4 3 3 3 3 3 3 3 3 3 4 5 5 5 4 3 2 2 1 2 2 2 1 1 2 1 3 3 4 4 3 4 3 2 3 2 3 3 3 3 3 3 2 1 1 1 2 2 3 2 2 2 2 2 2 2 2 1 1 1 1 2 3 3 3 2 2 1 1 1 1 2 2 2 2 2 3 3 3 2 3 4 5 4 4 3 2 2 2 1 1 1 1 0 0 0 1 1 2 2 3 3 3 3 3 3 4 4 5 4 4 4 4 4 3 2 1 1 2 2 3 4 5 5 4 3 3 3 2 2 1 1 1 1 2 3 2 2 2 2 3 3 2 1 1 2 4 4 4 4 4 5 4 2 1 1 2 2 3 3 2 2 3 4 4 3 2 3 3 7 23 22 58 77 121 141 130 99 68 78 115 136 119 101 83 100 104 111 95 114 111 121 110 92 98 86 72 90 114 121 110 74 53 42 73 142 170 146 98 30 26 13 9 8 10 6 6 4 3 3 3 3 2 1 1 1 2 1 1 2 3 3 2 2 2 2 1 1 1 2 2 2 2 3 3 3 3 2 1 1 0 0 0 0 0 1 1 1 1 1 2 2 2 1 1 1 0 0 0 1 2 2 2 2 2 2 2 2 2 2 2 2 2 2 3 3 3 5 5 4 5 3 4 3 3 2 1 1 1 2 2 2 1 1 1 1 1 1 1 1 1 1 2 2 2 2 3 3 3 3 3 3 3 2 2 1 1 1 1 1 1 1 1 1 1 1 0 0 0 0 0 0 0 0 1 1 1 1 2 3 3 4 3 4 3 3 3 3 3 3 4 5 5 4 3 2 2 3 4 4 4 3 3 3 4 3 3 2 2 3 3 2 2 1 1 0 0 1 2 2 1 2 1 2 2 1 2 2 2 3 3 2 2 2 2 2 1 2 2 2 1 1 1 1 1 1 1 1 2 2 2 2 2 1 1 1 2 2 2 2 1 1 0 1 1 1 1 1 2 2 2 1 1 1 2 1 1 1 2 3 4 3 3 2 2 2 1 0 0 1 2 2 2 2 2 3 3 4 4 4 2 0 
0 2 3 3 3 2 2 2 1 1 2 2 2 2 1 1 1 1 2 1 2 1 3 3 3 3 3 3 3 2 1 1 1 2 4 4 4 4 5 6 6 5 4 4 4 4 4 4 3 3 3 4 4 5 4 3 3 2 2 2 2 1 1 1 2 1 3 4 5 4 3 3 2 2 3 3 3 4 3 3 2 2 1 1 1 1 2 3 3 3 3 3 3 3 2 2 1 1 0 0 1 2 3 3 3 2 2 2 1 1 2 2 2 2 2 2 3 3 3 3 4 5 4 3 2 2 2 2 2 2 2 1 1 0 0 0 0 0 1 2 3 4 5 5 5 4 4 4 5 5 5 4 5 5 4 2 1 1 2 2 3 3 4 4 4 3 2 2 2 1 1 1 2 2 2 2 2 2 2 2 3 3 2 1 1 3 4 4 3 4 5 6 5 3 1 1 2 3 4 3 2 2 2 3 3 4 2 3 4 6 19 18 44 61 113 160 162 126 67 53 94 126 114 111 83 102 125 126 119 132 110 113 92 92 88 80 79 116 123 126 92 59 53 80 133 182 169 130 67 29 22 12 10 8 10 7 7 4 4 4 4 3 2 2 1 1 1 2 2 3 3 3 3 2 2 2 2 2 2 2 2 2 2 2 2 2 1 1 1 0 0 0 0 0 0 1 1 0 0 1 2 1 1 1 1 1 0 0 1 1 2 2 2 2 1 1 1 0 1 1 1 1 2 2 2 3 3 4 4 5 6 3 5 4 3 2 1 1 1 0 0 0 0 1 1 1 1 1 1 1 1 2 2 2 3 2 2 2 2 3 3 2 3 2 2 2 1 2 2 1 1 1 1 1 1 1 1 0 0 0 0 0 1 1 1 1 1 2 3 4 4 3 2 2 1 1 1 1 1 3 4 5 5 4 4 3 2 2 2 3 3 3 2 2 2 1 2 1 2 2 3 2 2 1 1 0 0 1 2 2 2 2 1 2 2 1 2 2 3 3 3 2 2 2 2 2 1 2 2 2 1 1 2 2 1 0 0 1 2 2 2 1 1 1 0 0 1 2 3 2 2 1 1 1 2 2 2 2 2 3 2 2 2 2 2 1 1 1 2 3 4 3 3 3 3 2 1 1 1 2 2 2 2 1 2 3 4 5 4 3 1 0 
0 2 3 2 2 2 2 2 1 1 1 2 2 2 1 1 1 1 2 2 2 2 3 3 3 3 3 2 2 1 1 1 1 2 3 3 4 4 5 5 5 4 4 4 4 4 4 4 5 5 5 5 5 5 4 4 3 2 2 2 2 1 1 1 2 2 4 4 5 5 3 3 2 2 2 3 3 4 3 3 2 1 1 0 0 0 2 3 3 3 2 2 3 3 2 2 1 1 0 1 2 3 4 4 3 3 2 2 2 2 2 2 3 2 2 2 3 3 3 3 3 4 4 4 3 3 2 2 3 2 2 2 1 0 0 0 0 0 1 2 3 4 5 6 5 5 4 4 5 5 5 4 7 6 5 3 1 1 2 3 3 3 5 6 5 4 3 2 2 1 2 1 1 1 1 2 2 2 2 3 3 4 3 2 2 3 4 5 5 4 4 4 4 3 2 2 2 2 2 2 3 3 3 4 3 4 3 4 5 6 16 17 36 45 118 180 191 146 65 43 83 108 113 117 84 89 117 116 134 135 112 107 72 71 73 85 93 110 113 105 54 35 64 121 175 184 140 102 45 29 14 8 7 6 8 6 5 3 3 3 3 3 3 2 1 1 2 2 2 3 3 3 3 3 3 2 2 2 2 3 2 2 2 2 2 3 2 1 0 0 0 0 0 0 0 1 1 0 0 1 2 2 1 1 1 1 1 1 1 1 1 1 2 2 1 0 0 0 0 0 1 1 2 2 2 2 2 4 4 5 6 3 5 3 3 3 2 2 1 0 0 0 0 0 0 1 1 1 1 1 1 2 2 2 2 2 2 2 1 2 3 2 4 2 3 2 2 3 2 2 1 1 1 1 2 2 1 1 1 1 1 0 1 2 2 1 1 1 3 3 4 3 3 2 2 2 2 2 3 3 4 4 4 4 4 3 3 2 1 2 2 2 2 1 2 1 2 1 2 2 2 1 2 2 1 1 0 1 2 2 2 2 2 2 2 2 3 3 4 3 3 2 1 1 1 1 1 1 2 2 1 0 1 1 1 1 1 1 1 1 1 1 1 1 1 1 1 2 3 2 2 2 2 1 2 2 2 2 2 3 3 3 2 2 2 1 1 0 2 3 3 3 3 3 2 2 1 0 1 1 2 2 2 1 2 3 4 4 3 2 1 0 
0 1 3 3 3 4 3 2 1 1 1 1 1 1 1 1 1 1 2 3 3 3 3 3 3 2 2 1 2 1 2 1 2 2 3 4 4 4 5 6 6 6 6 5 5 5 4 5 5 5 6 6 5 5 5 4 2 2 2 2 2 1 1 1 2 3 5 6 5 5 4 4 3 2 2 3 3 3 3 3 2 0 0 0 0 1 3 3 3 2 1 2 3 3 3 2 2 1 1 2 3 3 3 3 3 3 2 2 2 2 3 3 3 2 2 2 3 3 3 3 4 4 4 3 2 3 2 3 3 2 2 2 1 0 0 0 0 0 1 2 3 5 5 6 5 5 5 5 6 6 6 5 6 5 5 3 2 2 2 3 3 4 3 4 3 2 2 2 2 2 1 1 1 1 1 2 2 3 4 3 3 3 3 3 2 3 4 4 4 3 4 3 3 2 2 2 3 3 3 3 3 4 4 4 3 3 2 4 5 8 12 17 33 38 119 177 200 163 83 54 71 83 111 104 89 89 103 105 125 114 107 108 78 74 77 72 79 97 92 69 33 32 95 162 196 167 101 60 34 29 15 13 11 10 8 5 4 3 3 3 4 4 4 3 3 2 2 2 2 2 3 3 3 3 2 3 2 3 3 4 3 2 2 2 2 2 1 1 0 0 0 0 0 0 0 1 1 1 1 1 2 2 2 2 2 1 1 2 2 2 1 1 2 1 1 0 0 0 0 1 2 2 2 2 2 2 2 3 4 4 5 3 4 2 3 3 3 3 1 1 0 0 1 1 1 1 0 0 0 0 1 2 2 2 3 3 2 1 1 2 3 2 4 3 4 2 2 2 2 2 1 1 1 1 1 2 2 2 2 1 1 1 1 2 2 1 1 1 3 3 3 2 2 1 1 2 2 2 3 3 4 4 4 4 4 4 3 3 2 2 3 3 3 3 2 1 3 2 2 2 1 1 2 2 1 1 0 1 2 2 2 2 2 2 2 2 3 4 4 3 3 2 1 1 1 1 1 1 2 1 1 1 1 1 1 1 1 1 1 1 2 2 2 2 2 2 2 2 3 3 3 3 3 3 2 3 3 3 2 2 2 3 2 2 2 1 1 2 2 3 2 2 2 2 2 1 1 1 2 2 3 3 2 2 3 3 3 3 3 3 2 0 
0 1 2 3 3 4 3 3 1 1 1 1 1 1 1 2 1 1 2 3 3 2 2 2 2 2 2 2 2 2 2 3 3 3 3 4 3 3 3 3 4 4 5 6 6 5 4 4 5 6 6 5 4 3 3 3 2 2 2 2 2 2 1 1 2 3 5 6 5 5 3 4 3 2 3 2 2 2 3 2 2 0 0 0 1 2 2 2 2 1 1 2 3 3 3 2 2 1 1 2 3 3 3 3 3 3 3 2 2 2 2 3 3 3 3 3 3 2 3 3 3 3 3 3 2 3 2 3 2 1 2 1 0 0 0 0 1 1 1 2 4 6 7 7 6 4 4 5 6 6 6 5 5 5 5 4 3 3 3 4 4 4 5 5 4 3 2 2 2 2 2 1 1 1 1 2 2 4 4 4 4 4 4 3 2 2 3 3 3 3 3 2 2 3 2 2 2 2 2 3 4 4 5 4 4 3 3 3 6 8 10 18 30 33 104 156 186 159 94 71 73 67 101 84 89 74 93 95 98 95 91 96 82 75 67 62 65 72 68 63 56 60 133 184 178 120 53 44 42 29 19 17 16 14 13 10 6 4 3 3 4 4 5 5 4 3 2 2 2 2 2 3 3 3 3 3 3 3 3 3 3 2 2 2 2 2 2 2 1 1 1 0 0 0 0 1 1 1 1 1 2 2 2 2 2 2 1 1 1 1 1 1 1 1 1 0 0 0 1 2 2 2 3 3 2 2 2 2 3 3 3 2 2 2 3 3 3 3 2 1 0 1 1 1 1 1 0 0 0 1 1 1 2 3 3 3 2 1 1 2 3 3 4 3 4 2 2 2 2 1 1 0 0 0 1 1 2 2 2 2 1 1 1 2 2 2 2 2 3 3 2 2 1 1 1 2 2 2 2 3 4 4 4 4 5 5 4 3 2 3 3 3 3 2 2 2 2 2 2 1 1 1 2 2 2 2 1 2 2 2 2 2 2 2 2 2 2 3 3 2 2 1 1 0 0 0 1 1 2 1 1 1 0 1 1 1 2 2 1 1 1 1 1 1 1 1 2 2 3 4 4 4 4 3 3 3 3 3 2 2 2 2 2 1 1 1 1 1 2 2 2 2 2 2 2 2 2 2 2 2 3 3 2 2 2 2 3 3 4 4 3 0 
0 1 3 4 4 4 3 3 1 1 1 1 1 1 1 1 2 2 2 3 3 3 3 2 2 2 2 2 2 2 3 3 4 4 4 3 2 2 2 4 5 5 5 6 6 5 5 5 6 7 8 6 5 4 4 3 2 2 2 2 2 2 2 1 2 3 4 5 4 4 3 3 3 2 3 2 2 1 2 2 2 2 1 1 2 2 2 2 1 1 1 2 3 3 3 2 2 2 2 3 3 3 3 4 5 5 5 4 3 3 2 2 3 3 3 4 4 3 4 3 3 3 2 2 1 3 2 3 2 2 1 0 0 0 0 1 1 1 2 2 3 4 5 5 5 4 4 6 7 7 6 4 3 3 3 3 3 2 3 2 3 3 3 3 2 2 2 2 2 2 2 1 1 2 2 3 2 4 4 4 4 4 4 3 2 1 2 3 3 2 2 2 2 1 1 2 3 3 3 4 4 5 6 5 4 3 2 3 7 7 10 14 25 29 85 126 155 143 111 86 84 55 75 69 90 70 86 87 89 105 109 115 102 80 58 54 38 46 66 82 105 136 187 202 164 99 45 43 43 43 37 30 25 24 23 18 11 7 5 4 5 5 5 4 4 5 4 3 2 2 2 2 2 3 2 2 2 2 3 4 4 4 4 4 3 3 3 3 3 2 2 1 1 1 1 1 1 1 2 3 3 3 2 2 2 2 2 2 2 2 2 2 1 1 0 0 0 0 1 2 3 3 3 3 2 2 2 2 2 2 2 2 2 2 3 3 4 4 3 2 1 1 2 2 2 1 1 1 1 0 0 1 2 3 3 3 2 2 2 3 4 5 5 4 3 2 1 1 1 1 1 1 1 0 1 1 2 2 3 3 2 2 2 3 3 2 2 2 3 3 2 1 1 1 1 1 2 2 2 3 4 5 5 4 4 4 4 5 4 4 4 4 4 4 4 3 2 2 2 1 1 2 2 2 2 2 1 2 3 4 5 4 3 2 1 1 1 1 1 2 2 1 1 1 1 1 1 1 1 1 1 1 2 2 2 1 1 1 2 2 3 2 2 2 1 1 2 3 3 4 5 5 6 4 4 4 4 4 2 2 1 1 1 2 2 2 3 4 3 3 3 3 3 2 2 2 2 2 3 4 4 4 3 3 3 2 2 2 4 6 4 0 
0 1 3 3 4 4 3 2 2 1 1 1 1 1 1 2 2 3 4 4 3 2 2 2 2 2 2 2 2 2 3 4 5 5 4 2 1 2 2 3 2 3 3 4 4 4 3 4 6 6 6 4 3 3 2 2 2 2 2 2 2 2 2 1 1 3 4 5 3 4 2 3 2 2 3 2 1 1 1 2 2 2 2 2 3 2 2 1 1 1 1 2 3 3 3 2 1 1 2 3 3 3 3 4 4 4 4 4 4 2 1 1 2 3 3 4 4 3 2 2 2 2 2 2 1 3 2 4 2 3 3 3 2 2 2 2 2 2 1 2 2 3 5 5 4 3 3 5 6 7 5 4 2 1 2 2 3 2 2 2 2 3 3 3 3 2 2 2 2 2 2 2 2 3 2 3 3 4 4 4 4 3 4 3 3 3 3 2 2 2 2 2 2 2 2 2 2 2 2 3 5 5 6 5 4 3 2 3 7 6 11 12 22 22 59 93 122 126 130 102 96 55 53 58 64 62 75 81 94 112 109 102 82 62 49 43 38 50 83 122 155 182 197 175 127 78 74 100 105 98 77 62 48 34 27 24 20 16 11 7 5 5 6 6 6 5 4 3 2 3 2 3 2 2 2 2 2 2 2 3 3 4 4 4 3 4 4 4 4 3 3 2 2 1 1 1 1 2 2 3 3 2 2 2 2 2 2 2 2 2 2 2 1 1 1 1 1 1 1 2 2 2 2 2 2 3 2 2 2 2 1 2 2 2 3 3 3 3 3 2 1 1 1 2 1 1 1 1 1 0 1 1 2 3 2 2 1 1 2 3 3 4 3 3 2 1 1 1 1 1 1 1 1 1 2 1 2 2 3 3 2 2 2 3 3 3 3 3 2 2 2 2 1 1 1 1 0 0 1 3 4 5 5 4 4 5 4 4 4 4 4 5 5 4 4 3 3 2 2 2 2 3 3 2 2 3 5 6 6 6 5 5 3 2 1 1 0 0 1 1 1 1 1 1 1 1 1 1 1 1 1 1 1 2 2 2 2 2 2 2 2 2 1 1 1 1 2 3 4 4 4 4 4 3 4 4 4 4 2 2 1 1 1 2 2 3 3 3 3 4 4 4 3 3 3 3 3 2 3 3 3 3 2 1 1 1 2 2 3 4 3 0 
0 2 5 4 4 3 2 2 2 1 1 1 1 1 1 2 3 3 3 3 3 3 2 2 3 3 3 3 3 3 3 3 5 5 4 2 1 2 3 4 4 4 4 4 3 4 3 4 5 5 6 4 3 2 2 2 1 2 2 2 2 2 2 2 1 2 3 4 3 2 2 2 2 2 3 2 1 1 1 2 3 4 4 4 4 3 2 2 1 1 1 1 2 3 3 2 1 1 2 2 2 3 3 4 4 4 5 5 4 3 1 1 2 2 3 4 4 3 3 2 1 2 2 2 2 3 2 3 2 3 2 2 2 2 2 2 2 1 1 1 2 2 3 4 3 3 3 4 5 6 4 4 1 1 2 1 2 2 1 1 1 2 2 2 2 2 2 2 1 2 2 2 2 2 2 2 2 3 3 2 3 2 3 3 3 4 3 2 1 1 1 2 1 1 2 2 2 2 2 3 4 4 5 4 3 2 2 4 7 6 9 10 18 18 41 66 91 109 144 134 117 61 39 55 51 57 55 67 84 99 104 102 83 57 40 36 54 85 114 137 152 158 163 159 155 155 173 179 164 139 106 87 76 70 54 34 25 23 18 13 7 8 6 5 6 6 6 4 2 2 2 2 2 2 2 1 1 1 2 3 4 5 6 7 6 5 4 4 3 2 3 2 2 2 1 1 2 2 3 4 4 3 2 2 1 1 1 1 2 2 2 2 2 2 1 1 1 1 1 1 1 1 2 2 2 3 2 2 1 1 1 2 2 2 2 2 2 3 2 1 1 1 2 2 1 0 1 1 1 1 1 1 2 2 2 1 1 1 2 3 5 6 5 4 3 3 2 2 2 2 2 2 2 2 2 2 2 2 3 3 3 3 3 4 4 3 3 3 3 3 2 2 1 1 1 1 1 0 1 2 3 3 3 3 3 4 4 5 5 6 6 6 6 6 6 5 4 2 2 2 2 2 2 2 3 4 5 6 7 6 6 6 3 3 1 1 1 0 0 1 1 1 1 1 2 2 2 1 2 2 2 3 4 5 4 3 2 2 3 3 3 3 4 3 2 1 2 3 4 4 4 3 4 4 5 4 4 4 3 3 2 1 1 2 2 3 3 3 4 4 4 4 4 4 3 3 2 2 2 3 3 2 2 1 2 2 2 3 3 4 3 0 
0 3 5 4 3 2 1 2 1 1 1 1 1 1 1 2 3 4 5 5 4 4 3 3 3 3 3 3 3 2 3 3 4 3 3 2 1 2 2 2 2 2 2 2 1 2 1 2 3 4 4 2 2 1 1 1 1 1 1 1 2 2 2 1 1 2 3 4 3 2 2 2 2 3 3 2 2 2 2 2 3 4 4 4 4 3 3 2 2 1 1 1 2 2 3 2 2 2 2 2 2 2 2 2 2 3 4 4 4 3 2 2 2 3 2 3 3 3 2 2 2 2 2 2 3 3 3 4 4 6 6 7 7 6 6 5 3 2 1 1 2 2 2 3 3 2 2 3 5 5 3 2 1 1 1 1 2 2 2 1 1 2 1 2 2 2 2 1 1 1 2 2 1 1 1 2 2 2 2 2 2 2 2 3 4 4 3 2 1 0 0 1 1 1 1 1 1 1 2 3 5 4 5 4 3 3 3 4 6 6 7 7 14 15 27 41 59 86 145 161 149 99 58 59 58 60 48 51 63 74 87 76 54 46 63 93 116 123 127 130 129 130 132 143 162 189 213 212 193 166 136 116 100 90 77 61 44 34 22 19 8 8 6 7 8 6 5 3 1 1 2 2 2 1 1 1 2 1 2 2 3 4 6 7 6 5 4 3 2 2 2 1 2 2 2 2 2 2 3 3 4 3 3 2 1 1 0 0 1 1 2 2 2 2 2 2 2 1 1 0 0 1 2 3 3 4 4 3 2 2 1 2 2 2 1 2 1 1 1 0 0 0 1 1 1 1 1 2 2 2 2 2 2 2 1 1 1 0 1 2 3 3 3 3 2 3 2 2 2 2 3 2 2 3 2 3 2 2 2 2 2 2 2 3 4 3 4 3 3 3 3 3 2 2 1 1 1 1 1 1 2 3 4 4 4 4 4 5 4 4 4 5 5 4 4 4 3 2 2 2 2 2 2 2 3 6 9 10 8 6 5 4 3 2 1 1 0 0 0 1 1 1 1 2 2 2 2 2 3 2 4 4 5 5 4 3 2 3 3 2 2 2 2 2 2 1 2 3 4 4 3 2 3 3 3 3 3 3 2 2 2 2 1 1 1 2 2 3 3 4 4 4 3 3 3 2 2 2 2 2 2 2 2 1 1 1 2 2 3 3 1 0 
0 3 4 3 2 2 1 1 1 1 2 1 1 0 1 2 4 4 5 4 4 3 3 3 3 3 4 4 4 4 4 4 4 4 3 2 1 2 2 2 2 3 2 2 2 2 2 3 3 3 3 1 1 1 1 1 1 1 2 1 2 2 2 2 1 2 3 3 3 1 1 1 2 3 3 2 2 1 1 2 2 3 4 4 4 4 4 3 2 2 1 1 2 2 2 2 3 3 2 2 2 2 2 2 2 2 3 3 3 3 3 3 3 3 3 2 2 2 2 2 2 1 2 2 3 3 2 3 4 5 5 5 5 6 5 5 3 2 1 1 1 2 2 3 2 2 2 2 4 4 2 2 0 1 1 2 2 3 2 2 1 1 1 1 2 2 2 2 2 2 2 1 1 1 1 1 2 2 1 1 1 1 2 3 4 4 3 1 0 0 0 0 0 0 1 1 1 1 2 2 3 2 2 1 1 1 3 4 6 7 7 7 11 15 22 31 42 65 133 167 171 128 89 82 87 73 60 41 48 58 73 63 67 86 121 147 149 140 136 125 104 98 110 142 179 205 205 181 155 135 119 110 103 99 94 84 69 56 34 25 17 13 8 8 9 9 8 4 2 2 3 3 2 1 1 1 1 1 2 1 2 4 6 7 6 4 3 2 1 1 1 1 2 1 1 2 2 2 3 3 4 4 4 3 2 1 0 0 0 1 2 2 2 2 2 2 2 2 1 1 0 0 2 3 3 4 3 3 3 2 2 2 2 1 1 1 0 0 0 0 0 0 1 2 2 1 1 2 2 2 3 3 3 2 1 1 0 0 1 2 4 5 5 6 6 6 5 5 3 3 3 2 2 2 2 2 2 2 2 2 2 2 2 2 3 4 5 3 3 4 3 4 2 2 1 1 1 1 1 1 1 2 3 4 3 3 3 3 4 4 4 4 4 4 4 4 3 2 2 2 1 0 0 1 3 5 8 9 8 5 4 3 3 2 1 1 0 0 0 1 1 1 2 2 3 3 3 3 3 3 5 5 7 7 5 4 4 5 5 5 5 5 4 3 1 1 1 3 4 4 4 3 3 3 3 3 3 3 3 2 2 2 1 1 1 1 1 1 2 2 3 3 3 3 3 3 2 2 2 2 2 2 3 3 2 1 2 2 2 3 1 0 
0 3 4 3 2 1 1 1 1 1 1 1 1 0 0 2 4 5 5 5 5 4 4 4 4 3 4 4 4 4 4 3 3 3 2 2 2 2 2 2 3 3 3 3 2 3 3 3 3 2 2 2 2 2 2 2 1 1 1 1 2 2 2 2 1 1 2 3 3 2 1 2 3 3 3 2 2 1 1 1 2 3 3 4 4 4 4 3 2 2 2 2 2 1 2 2 3 3 2 2 2 2 2 2 2 3 2 2 3 3 4 4 4 3 3 2 1 1 2 3 3 2 2 2 2 2 2 3 4 6 7 7 7 7 7 5 3 2 1 1 1 1 1 1 2 1 1 2 2 2 2 1 1 1 1 2 3 3 2 1 1 0 0 1 2 2 2 1 2 2 2 1 1 1 1 2 2 2 1 1 1 2 1 2 2 2 2 1 1 1 2 2 1 1 1 1 2 1 2 3 3 3 4 4 4 4 5 5 6 6 5 7 9 15 18 19 23 31 89 136 170 155 132 116 128 113 100 74 77 91 114 103 119 139 157 168 160 153 131 124 133 141 141 143 150 144 128 99 83 90 94 94 87 83 91 104 103 85 59 37 33 26 15 11 11 10 9 4 3 3 3 3 2 1 1 1 2 1 2 1 2 3 5 6 5 3 2 2 2 2 1 1 1 1 1 2 2 3 3 3 4 4 4 3 2 1 0 0 1 1 2 2 2 2 1 2 2 2 1 1 1 1 2 3 4 4 4 3 3 2 2 1 1 1 1 1 0 0 0 0 0 1 1 2 2 2 2 2 3 3 3 3 3 2 1 1 1 1 1 1 2 2 3 4 4 5 4 4 3 3 2 3 2 2 3 3 3 3 2 2 2 2 2 2 3 3 4 3 3 3 3 4 3 1 1 1 1 1 1 1 2 2 3 3 3 3 3 3 2 2 2 2 3 2 2 1 1 1 2 2 1 0 0 1 3 5 7 7 6 5 3 2 1 1 1 1 1 1 1 1 1 2 2 2 3 3 3 3 3 3 5 6 7 8 5 4 3 4 5 4 4 4 4 2 1 1 2 3 4 4 4 3 3 3 2 2 2 2 1 2 2 2 1 1 1 1 1 1 2 2 3 3 3 3 3 3 2 2 2 2 2 3 3 3 3 2 2 2 2 2 2 0 
0 1 2 2 1 2 2 2 2 2 1 1 1 0 1 2 3 5 6 5 5 5 4 3 2 3 3 4 5 5 5 5 4 4 3 3 2 2 2 2 3 3 3 3 3 3 3 3 3 2 2 2 2 3 2 2 1 1 1 1 1 1 2 2 1 1 2 3 2 2 1 2 3 3 3 2 2 1 1 1 2 3 3 4 4 4 4 3 2 1 2 2 2 1 2 2 2 3 2 2 2 2 1 2 2 3 2 2 2 2 3 3 3 3 2 2 1 1 1 2 2 2 2 2 2 2 2 3 4 6 7 7 8 8 8 6 4 2 1 1 1 1 2 2 2 2 2 2 2 2 2 2 2 2 3 3 3 3 2 1 0 0 0 1 1 2 1 2 3 3 3 2 2 2 2 2 3 2 2 2 1 1 2 2 3 3 2 1 1 1 1 1 1 1 2 1 2 1 2 3 3 2 2 1 1 2 3 4 5 6 6 8 10 12 20 20 23 22 53 90 129 140 138 127 148 150 148 134 138 142 155 140 160 156 166 177 164 153 146 147 141 134 120 105 98 79 59 41 42 62 77 82 67 64 69 95 117 108 87 53 39 32 25 18 16 13 10 5 5 4 4 4 2 1 1 1 1 1 2 1 2 3 5 6 4 3 2 1 1 2 2 2 2 2 1 2 2 3 4 3 4 4 3 3 2 2 0 1 1 1 1 1 2 2 2 2 2 3 3 2 2 1 2 3 3 3 3 3 3 2 2 2 1 1 1 1 1 1 0 0 0 1 2 3 3 2 2 2 2 2 3 3 3 2 1 1 1 1 1 2 2 3 4 5 5 6 6 6 5 4 3 3 2 2 3 3 3 2 2 2 2 1 1 1 2 3 3 3 3 3 4 4 3 1 1 1 1 1 0 1 2 2 3 3 4 4 3 3 3 2 2 3 3 3 3 3 3 3 4 3 2 1 1 2 3 5 6 7 6 4 2 2 1 1 1 2 1 1 1 1 1 2 2 2 2 4 3 3 2 3 3 5 5 6 5 4 4 5 6 6 6 5 4 2 2 2 3 3 4 3 3 3 3 3 3 3 2 3 2 2 2 2 2 1 1 1 2 1 1 1 2 2 3 3 3 3 2 2 2 2 2 3 3 4 4 3 3 3 2 3 1 0 
0 1 2 1 1 1 2 2 3 3 2 1 1 1 1 2 2 3 3 3 3 3 3 3 4 4 5 6 6 6 6 5 4 3 3 2 2 2 3 3 3 3 3 3 3 3 3 2 2 2 2 2 2 3 2 2 1 1 1 1 1 1 1 2 2 2 2 3 3 2 2 2 3 3 3 2 2 1 2 2 2 3 3 4 4 4 4 3 2 1 2 2 2 2 2 2 2 2 2 2 2 2 1 2 2 2 2 2 3 2 2 2 2 2 2 2 1 1 0 1 2 2 1 1 1 1 1 2 3 4 4 5 5 6 5 5 3 2 1 1 1 1 1 1 1 2 2 3 3 3 3 3 3 3 4 3 3 2 2 1 1 0 0 1 1 1 1 2 2 2 2 2 2 2 3 3 3 3 2 2 2 2 2 2 1 1 1 1 1 1 2 2 2 2 3 3 3 2 3 4 5 5 5 5 5 6 6 5 5 4 7 8 13 11 14 14 16 16 25 49 75 94 102 97 121 141 164 169 171 153 147 131 143 141 151 132 143 159 151 141 120 107 88 72 63 53 46 38 39 48 54 68 72 82 65 84 107 116 112 100 93 70 41 25 21 18 13 6 6 4 5 4 3 3 2 1 2 2 2 2 2 3 4 4 3 2 1 1 1 2 2 2 1 1 1 1 2 2 3 3 3 3 3 3 2 2 1 1 1 1 1 1 2 2 3 3 3 3 3 3 2 2 3 3 3 3 3 3 2 2 2 1 1 2 2 2 1 2 1 1 1 1 2 2 2 2 2 2 2 2 2 2 2 1 1 2 2 2 1 2 2 4 5 5 5 4 4 4 4 3 3 2 2 3 3 3 4 2 1 1 1 1 1 1 2 2 3 3 3 3 4 4 3 2 1 1 1 1 0 1 2 3 4 4 5 4 4 4 3 3 3 3 3 3 3 3 3 3 3 3 2 1 2 2 2 3 4 4 3 2 2 1 1 1 1 2 2 1 1 1 1 2 1 2 2 3 3 3 2 3 3 4 6 7 4 3 2 3 3 3 3 3 3 2 2 3 3 3 3 3 2 2 2 2 2 2 3 3 3 3 3 2 2 2 2 2 2 1 1 1 2 2 2 2 3 3 3 1 2 2 2 2 2 3 4 4 4 4 3 3 1 0 
0 1 2 1 2 2 2 3 3 3 2 2 1 2 1 2 3 4 4 4 4 4 4 3 3 2 3 3 4 5 5 4 4 4 4 3 3 2 3 2 2 2 2 2 2 2 2 2 2 2 2 2 2 2 1 1 1 1 1 1 1 1 1 1 2 2 2 3 3 3 2 2 2 2 2 2 2 2 2 2 2 3 3 3 3 3 3 2 2 2 2 3 3 3 2 2 1 2 2 2 2 2 2 2 2 3 3 3 3 2 2 1 1 1 1 2 1 1 1 1 1 1 1 1 1 1 2 3 4 5 6 6 7 8 9 8 5 3 2 2 2 2 3 4 4 4 4 4 3 3 3 3 4 4 4 3 2 2 2 2 2 1 1 1 1 1 1 2 2 2 2 1 2 2 3 3 3 3 3 3 3 3 2 2 2 1 1 1 1 1 1 1 2 3 4 4 3 2 3 3 4 4 4 4 5 5 4 4 4 4 8 7 11 11 12 11 10 13 14 20 32 49 60 62 79 98 128 144 143 122 111 105 107 122 129 141 160 151 123 109 76 63 49 43 42 36 34 36 52 53 57 74 83 89 79 90 92 113 124 124 125 111 80 49 28 23 16 8 6 5 6 5 5 4 4 2 2 2 2 1 1 2 4 4 3 2 1 2 2 2 2 2 1 1 1 1 2 2 3 3 3 3 2 2 2 2 2 1 1 2 2 2 3 2 3 3 4 3 3 3 3 3 3 3 3 3 2 2 2 2 2 2 2 2 2 2 2 2 2 2 2 2 2 2 2 3 3 3 3 3 3 2 2 2 2 2 2 2 1 2 3 4 4 4 4 4 4 5 5 3 3 2 3 3 3 3 3 2 1 1 1 1 1 2 2 2 2 3 3 4 4 4 3 3 3 2 2 1 1 2 3 4 4 5 5 4 4 3 3 3 3 3 3 3 4 4 4 4 4 3 3 3 3 3 3 3 3 3 3 2 2 2 2 2 3 3 2 2 1 1 2 2 2 2 3 3 2 2 2 2 2 4 3 4 3 2 2 2 2 2 2 2 2 2 2 3 4 3 2 2 2 2 2 2 3 3 3 4 4 3 3 2 2 2 2 2 2 2 2 1 2 2 2 2 3 3 3 1 1 1 1 1 1 2 3 5 5 5 4 3 2 0 
0 1 2 1 1 1 2 2 3 3 2 2 1 2 1 1 2 2 2 2 2 2 2 2 2 2 3 4 4 4 4 4 4 4 4 2 3 2 2 2 1 1 1 1 1 1 1 2 2 2 2 2 1 1 1 1 1 1 1 1 2 1 1 1 2 2 3 3 3 2 1 1 2 3 3 3 3 2 2 2 2 3 3 3 3 3 2 2 2 2 3 3 3 3 2 2 1 2 2 2 2 2 2 2 2 2 3 3 3 3 2 2 1 2 1 2 2 1 1 1 2 2 1 1 1 2 2 2 2 2 2 2 3 4 4 5 4 2 2 2 3 3 4 4 4 4 4 4 3 2 2 3 4 4 4 3 2 2 1 2 2 2 2 1 1 1 2 2 2 1 1 1 2 2 3 3 3 3 4 4 4 4 3 2 2 1 1 1 1 1 1 2 2 3 4 4 3 2 3 3 4 5 5 6 6 5 5 5 5 5 6 6 8 8 9 7 7 8 10 9 11 16 19 18 22 40 66 82 81 66 55 61 70 112 135 152 138 119 93 94 68 65 47 30 27 26 31 44 64 65 75 66 83 86 83 93 103 118 123 130 145 136 111 77 49 27 20 11 6 5 6 5 6 4 5 3 2 2 1 1 1 1 2 2 2 2 2 2 2 2 2 1 1 1 1 1 1 2 2 2 2 2 1 2 2 2 2 1 2 2 2 2 3 3 3 2 3 3 3 3 3 3 3 3 3 2 2 2 2 2 2 2 2 2 2 2 2 3 3 2 2 2 2 2 2 1 1 1 1 1 1 1 1 1 2 2 2 2 2 3 5 6 7 6 5 4 4 4 4 3 2 2 3 3 4 3 3 2 2 1 1 2 2 2 2 2 2 3 3 4 4 4 4 3 4 3 3 2 2 2 4 5 5 4 3 3 3 4 3 3 3 3 3 3 3 3 3 3 3 3 3 3 3 3 2 2 2 2 2 3 3 3 2 2 2 2 2 1 1 1 2 2 3 3 3 3 3 2 3 3 3 3 3 4 2 2 1 0 0 0 0 1 2 2 2 3 3 2 1 2 2 2 1 2 2 3 4 4 4 3 2 2 2 2 2 3 3 2 2 2 2 2 2 2 3 3 3 2 2 2 2 2 2 2 3 5 5 5 4 3 1 0 
0 1 1 1 1 1 1 1 2 3 2 2 1 1 1 1 2 2 3 3 4 4 4 3 2 2 2 2 2 2 2 3 4 4 5 3 3 3 3 2 1 0 0 1 1 1 2 2 2 2 2 2 2 2 2 1 1 1 1 1 2 1 1 1 2 2 2 3 3 2 1 1 1 2 3 3 2 2 2 2 1 2 1 1 1 1 1 2 2 2 3 4 3 3 2 2 1 2 2 2 2 2 1 2 2 3 3 3 3 3 2 2 2 2 2 2 1 1 1 1 1 1 1 1 1 2 2 3 3 3 2 2 3 4 4 4 3 2 2 2 3 4 5 5 5 4 4 3 2 1 1 2 3 4 3 2 1 1 1 2 2 2 2 1 1 1 1 1 2 2 1 1 2 2 3 3 3 3 4 4 4 4 3 3 2 2 1 1 1 2 2 2 2 4 5 5 4 2 2 2 3 4 4 4 3 3 3 4 5 6 6 6 7 6 7 5 5 5 7 8 8 9 10 12 10 12 19 27 28 34 44 52 85 137 165 162 121 91 72 91 80 86 65 48 38 31 34 55 69 76 78 63 74 70 80 99 109 109 102 95 119 125 128 100 68 36 21 13 8 6 6 5 6 5 4 3 2 2 2 2 1 1 1 1 2 2 3 3 2 2 1 1 1 1 1 1 1 1 2 2 2 2 2 2 2 2 2 1 1 2 2 2 2 2 2 2 2 2 2 3 3 3 3 3 2 2 1 1 1 1 2 2 2 2 2 1 2 2 2 2 2 1 2 1 2 2 2 2 2 2 2 2 3 2 2 2 2 2 2 3 5 5 4 3 2 2 3 3 3 2 2 2 3 4 4 3 3 2 1 1 1 2 2 2 2 2 1 2 2 3 3 3 3 3 5 5 5 4 4 3 6 5 6 4 3 3 3 4 3 2 2 2 1 1 1 1 2 2 2 3 3 3 3 3 2 2 2 3 3 3 3 3 2 2 2 2 1 1 1 1 2 2 3 3 2 3 3 3 4 3 3 3 3 3 2 1 0 0 0 0 1 1 1 1 2 2 3 2 2 2 2 3 2 2 2 2 3 4 3 2 2 2 2 2 2 2 3 3 2 1 1 2 2 2 3 3 3 2 2 3 3 3 2 2 3 4 4 4 4 3 1 0 
0 0 1 1 1 1 1 1 2 2 2 1 1 1 1 1 1 1 1 2 2 2 2 2 2 2 2 2 2 2 2 3 4 5 5 3 4 3 3 2 1 0 0 1 1 1 2 2 3 3 3 2 2 1 1 1 1 0 1 1 2 1 1 2 2 2 2 3 2 2 0 0 1 2 2 3 3 2 2 2 1 1 1 0 1 1 1 1 1 2 2 3 2 2 1 2 1 2 1 2 1 1 0 1 2 2 3 3 3 3 2 2 2 2 2 2 2 1 1 1 1 1 1 1 1 1 1 2 1 1 1 1 2 2 2 2 2 2 3 2 4 4 4 4 3 2 2 2 1 0 1 1 2 3 3 3 1 1 0 1 2 2 2 1 1 1 1 1 2 2 2 2 3 3 3 3 3 2 2 2 3 3 3 3 2 2 1 2 2 2 2 2 2 2 3 3 3 2 2 1 3 3 3 2 1 1 2 4 6 8 9 8 7 6 7 6 6 5 6 6 7 7 7 8 8 9 12 14 23 35 52 82 148 190 198 162 102 70 68 92 93 107 85 77 66 47 42 52 59 68 64 63 57 55 58 84 99 101 83 56 67 88 117 109 78 47 24 17 12 6 7 7 6 5 4 2 2 2 2 2 2 1 1 1 1 2 3 3 2 2 1 1 1 1 0 0 0 1 2 2 2 2 2 3 2 2 1 1 1 1 2 2 2 3 2 2 2 2 2 2 3 3 3 3 3 2 1 1 0 1 1 2 2 2 1 1 1 1 2 2 2 1 1 1 1 1 1 1 1 1 1 2 2 2 3 3 2 3 3 4 5 5 5 4 3 3 4 3 3 2 2 3 3 3 4 3 3 2 1 0 1 2 2 2 1 1 1 2 1 3 3 3 2 2 4 5 5 5 4 4 6 5 6 4 3 3 3 3 3 2 1 1 0 0 0 1 1 1 2 2 2 3 3 4 4 4 4 3 3 3 3 3 2 1 1 1 1 0 0 1 1 2 3 2 2 3 3 3 4 3 3 2 2 2 1 1 0 0 0 0 1 1 1 0 1 2 3 2 2 3 2 3 2 2 2 2 3 3 2 2 1 1 1 1 1 2 2 2 2 1 1 1 2 2 2 2 3 2 3 3 3 3 3 3 4 4 4 4 4 3 1 0 
0 1 1 1 1 1 1 1 2 2 1 1 1 2 2 2 1 1 1 1 2 2 3 3 3 2 2 2 2 1 1 3 4 5 5 4 4 4 4 3 1 0 0 1 1 2 2 2 3 3 3 2 2 2 1 1 1 1 1 1 1 1 1 2 2 2 2 3 3 2 1 0 1 1 1 2 2 2 2 2 1 1 0 0 0 1 1 1 1 2 2 2 2 1 1 1 1 1 1 1 1 0 0 0 1 2 3 3 3 2 2 2 2 2 2 1 1 1 1 1 1 1 0 0 0 0 1 2 3 3 2 2 2 1 1 1 2 2 3 3 4 4 3 2 1 1 0 0 0 0 0 1 2 3 3 3 2 1 1 1 2 2 2 2 1 1 1 2 2 2 3 3 4 4 4 4 3 2 2 1 2 3 3 4 3 3 2 2 2 2 2 2 2 3 4 5 4 2 2 1 2 2 2 1 0 0 1 3 5 7 8 8 7 6 6 5 5 4 4 4 4 5 5 7 8 10 14 17 37 43 74 121 183 214 199 138 77 52 60 88 106 124 112 114 100 76 67 58 61 69 71 67 62 58 55 70 71 75 65 54 51 66 96 105 82 56 28 20 16 7 9 6 6 4 2 2 2 2 2 2 2 1 1 1 2 2 3 3 2 1 0 1 1 1 0 0 0 0 1 2 3 2 3 3 3 2 1 0 0 1 1 2 2 3 2 2 1 1 1 1 2 2 3 3 3 3 1 1 0 1 1 1 2 1 1 1 1 1 1 2 2 1 1 2 2 2 2 2 2 2 2 2 2 2 3 3 3 3 3 3 4 3 3 2 2 2 3 3 3 3 2 3 2 2 2 3 2 1 0 0 0 1 1 1 0 1 1 2 1 3 2 3 3 3 4 4 4 4 5 5 6 5 6 4 3 3 3 3 3 2 1 1 0 0 0 1 1 1 1 2 2 2 3 3 3 3 4 4 4 4 3 3 2 1 1 1 1 0 0 0 0 1 1 1 1 2 2 4 4 3 3 1 2 2 1 0 0 0 0 1 1 1 1 0 2 2 2 2 2 3 3 3 2 1 1 2 2 3 2 2 1 2 1 1 1 1 1 1 1 1 1 1 2 2 3 2 3 3 3 3 3 3 3 3 3 3 4 4 4 3 2 0 
0 0 1 1 1 0 1 1 2 1 1 1 1 2 2 2 1 1 0 0 0 1 1 2 2 2 2 1 1 1 1 3 4 4 4 4 4 4 4 3 1 0 0 1 1 2 2 2 3 3 4 3 2 1 2 1 1 1 2 2 2 2 1 2 3 2 2 3 3 2 1 1 1 1 1 2 2 2 2 3 2 1 0 0 1 1 1 1 1 1 1 1 1 1 1 1 1 1 1 1 1 0 0 0 1 1 2 2 2 2 2 2 1 1 1 1 1 1 1 1 1 1 1 0 0 0 1 1 2 2 2 2 1 1 1 2 2 3 3 3 4 3 2 2 1 0 0 0 0 0 0 0 1 2 3 4 4 3 1 1 1 2 2 2 2 2 2 2 3 2 3 4 4 4 4 4 3 2 1 1 1 2 3 4 3 2 2 2 2 2 1 1 2 3 4 4 4 3 3 3 3 3 2 2 1 1 1 2 5 7 9 9 7 6 6 6 6 4 4 3 3 3 4 6 10 12 15 24 37 50 98 150 206 206 162 95 55 41 56 93 119 126 131 130 125 100 72 60 62 76 89 89 91 64 55 39 43 58 63 69 67 67 84 99 83 62 32 24 19 8 10 6 8 4 3 2 2 3 3 2 1 1 2 2 2 3 3 3 2 1 1 1 1 0 0 0 0 0 2 2 3 2 3 3 3 3 1 0 0 1 2 2 2 2 2 1 1 0 0 1 2 2 3 3 3 3 2 1 0 0 0 1 1 1 2 1 1 0 1 1 1 1 1 3 3 3 2 2 2 2 2 3 4 4 4 4 4 4 3 3 3 3 3 3 2 3 3 4 4 3 2 2 2 2 2 2 2 2 1 0 1 1 2 1 1 1 1 3 2 3 2 3 3 3 3 3 3 4 5 5 6 5 4 4 3 4 3 3 2 2 1 1 0 0 1 1 1 1 1 2 2 2 3 4 4 4 4 4 4 4 3 3 2 2 2 2 1 1 1 1 1 1 1 1 1 2 2 4 3 3 2 1 1 1 1 0 0 0 0 1 1 1 1 0 2 2 2 2 3 3 3 2 1 1 1 2 2 3 2 2 1 1 1 1 1 1 1 1 1 1 1 1 1 1 2 2 2 3 3 3 2 3 3 4 4 3 3 4 4 3 1 0 
0 1 1 1 0 0 1 2 2 1 1 1 2 3 2 2 1 1 0 0 0 0 0 1 2 3 2 2 1 2 2 3 4 4 4 3 4 4 3 3 1 0 0 1 1 2 2 2 3 3 3 3 3 2 2 2 2 2 2 2 2 2 1 2 2 2 3 3 3 3 2 2 1 1 1 2 2 2 3 3 2 1 0 0 1 1 2 2 2 2 1 1 1 1 1 0 1 1 1 1 0 0 0 1 1 2 2 2 2 2 2 2 1 1 1 1 0 0 0 1 1 1 1 0 1 0 1 1 2 2 2 2 2 2 2 2 2 3 3 3 3 2 2 1 1 0 0 0 0 0 0 0 1 1 3 4 5 4 2 2 1 1 1 2 2 2 2 2 2 1 4 4 4 4 4 4 3 2 2 2 2 2 2 3 3 3 3 2 2 1 1 1 2 3 4 5 4 4 3 4 3 3 2 2 1 1 1 2 3 4 5 5 5 4 4 3 3 2 2 2 2 2 2 5 7 11 15 32 35 63 111 162 198 166 114 59 34 37 62 110 137 137 151 126 125 93 71 71 72 94 105 114 102 72 58 32 38 42 64 78 84 87 94 97 76 57 30 26 15 7 9 6 9 4 3 2 3 3 2 2 1 2 2 2 2 2 3 3 2 1 1 1 1 1 0 0 0 1 2 2 3 2 3 3 3 3 1 1 1 1 2 2 2 2 1 1 0 0 1 2 2 2 2 3 3 2 2 1 1 1 1 2 2 1 1 1 1 0 0 1 1 1 2 3 3 3 3 2 2 2 2 2 3 3 4 4 4 4 2 2 2 2 2 3 2 3 3 4 4 3 2 2 2 2 2 3 3 2 1 0 1 1 2 1 1 1 1 3 2 3 3 3 4 4 4 3 3 4 5 5 5 4 3 3 2 3 3 3 3 2 1 1 1 1 1 2 2 2 2 3 4 3 3 3 4 4 4 4 3 4 4 4 3 2 2 2 2 2 2 1 1 1 2 2 1 2 3 4 3 2 2 1 1 1 1 1 1 1 1 1 1 1 1 1 2 2 2 2 3 3 3 2 1 1 1 2 2 2 2 2 1 1 1 1 1 1 1 1 2 2 2 2 2 2 2 2 2 3 2 3 3 3 3 4 5 3 4 3 3 3 2 0 
0 0 1 0 0 0 1 2 3 3 2 2 4 4 3 2 1 1 0 0 0 0 1 2 4 4 4 3 3 3 3 2 3 3 3 4 4 4 3 3 1 0 0 1 1 2 1 2 3 4 4 4 4 3 3 2 2 2 2 2 2 2 2 2 3 2 3 3 3 3 2 1 1 1 1 2 2 2 2 2 1 1 0 0 0 1 1 2 2 2 1 0 1 1 1 1 1 1 1 0 0 0 1 1 1 2 2 2 2 2 2 2 2 1 1 1 1 0 0 1 2 2 1 1 1 0 1 1 2 2 2 2 2 2 2 2 2 2 2 3 3 2 2 1 1 1 0 0 0 0 0 0 1 1 3 5 5 4 3 1 1 0 0 1 1 1 2 1 2 2 3 3 4 4 4 4 3 2 2 2 2 2 2 2 2 2 3 4 3 2 1 2 2 3 4 5 4 4 4 4 3 3 2 2 1 1 2 2 3 4 4 4 4 3 4 4 4 3 3 2 1 1 1 5 5 13 14 35 32 75 119 155 166 120 77 58 41 59 91 129 144 142 135 106 113 96 70 69 74 103 112 120 102 90 58 27 29 39 63 74 91 107 113 109 82 62 32 27 16 9 9 6 7 4 3 2 3 3 2 2 1 2 2 2 2 2 3 2 2 1 1 1 1 1 1 1 1 1 2 2 3 3 3 3 3 2 1 1 1 1 2 2 2 2 1 1 0 0 1 2 2 3 2 3 2 2 1 1 1 1 1 1 1 2 2 1 1 1 1 1 1 2 2 3 3 3 3 3 3 2 2 3 3 3 4 4 3 3 2 3 2 3 3 3 2 3 4 5 4 3 2 2 2 2 2 3 3 3 2 2 2 2 2 1 1 2 2 3 2 3 3 4 4 3 4 3 4 5 6 6 4 3 2 2 2 3 3 3 2 3 2 1 0 0 1 2 2 2 2 2 2 2 3 3 4 4 4 3 3 3 3 3 3 3 3 2 2 2 2 2 2 1 2 2 2 3 3 3 2 1 1 2 2 2 1 2 1 1 1 1 1 1 1 1 2 2 2 1 3 3 3 2 1 1 2 2 2 2 2 2 1 1 1 1 1 1 1 1 1 2 2 2 2 2 1 1 1 2 2 3 2 3 3 4 4 3 4 4 4 4 2 0 
0 1 1 1 0 1 1 3 3 4 3 3 4 4 4 3 2 1 1 0 0 0 2 3 4 5 4 4 4 4 4 4 4 3 3 4 4 4 3 2 1 0 0 1 2 2 1 2 2 3 3 4 4 3 2 2 2 2 2 2 2 2 3 2 2 2 3 3 3 2 2 1 1 1 1 2 3 3 3 2 1 0 0 0 0 1 1 2 2 2 2 2 2 2 1 1 1 1 1 0 0 1 2 2 2 2 2 2 2 2 2 2 2 2 2 2 1 1 1 1 1 1 1 0 1 0 1 1 2 2 2 2 2 2 2 2 2 3 3 3 3 2 2 1 1 1 0 1 1 1 1 1 2 2 3 4 5 4 3 2 1 1 1 1 1 1 1 1 2 2 2 2 3 3 4 4 3 2 3 2 3 2 1 1 2 2 4 4 4 3 2 2 2 3 3 3 3 3 4 5 5 3 3 2 1 1 2 2 2 3 3 3 2 2 2 2 2 2 2 2 1 1 2 5 4 12 13 40 38 83 129 149 150 112 78 80 72 93 114 123 123 109 92 92 98 90 69 66 77 103 110 108 102 105 87 66 48 40 46 64 96 130 131 120 76 53 34 22 15 10 9 8 6 4 3 2 2 2 2 2 2 3 3 2 2 1 1 1 2 1 1 1 1 1 1 2 2 2 2 2 2 2 2 3 3 3 3 3 2 1 1 2 2 2 2 1 1 1 2 3 4 4 3 3 2 2 1 2 2 2 2 2 2 2 2 1 1 1 1 1 1 2 2 2 2 3 3 3 3 3 3 2 2 2 3 2 2 2 2 3 3 4 4 5 5 4 4 4 4 3 3 3 4 4 3 3 3 3 2 1 2 2 2 1 1 2 2 2 2 2 2 3 4 3 3 3 5 6 6 5 3 2 2 2 2 2 2 3 3 2 2 1 0 1 1 2 3 2 2 2 3 3 3 3 4 5 4 3 3 4 4 3 3 2 2 2 2 1 1 2 2 2 2 2 2 3 3 3 2 1 1 1 1 1 2 2 2 2 1 1 1 2 1 2 2 3 3 2 3 4 4 4 2 2 2 2 2 2 2 2 1 2 1 1 1 0 1 1 2 2 3 3 2 2 2 2 2 2 2 2 3 3 4 5 5 4 3 3 4 4 2 0 
0 1 1 1 1 2 2 3 4 4 4 3 3 5 4 3 2 1 1 1 1 1 2 4 4 5 5 5 4 4 3 2 2 2 3 4 4 3 2 2 1 0 0 1 2 2 2 3 3 4 4 4 4 3 3 2 2 3 3 3 2 3 3 2 2 2 3 3 3 2 2 1 1 1 2 3 4 4 3 2 0 0 0 0 0 0 1 2 2 3 3 2 2 2 1 1 1 1 1 1 1 2 2 3 3 2 3 2 1 1 2 2 3 2 3 2 2 2 2 2 2 1 0 0 0 1 1 2 1 1 1 1 1 1 1 1 2 2 2 2 3 2 2 1 1 1 1 2 2 2 2 2 2 2 3 3 4 4 4 3 2 2 1 1 1 1 1 1 1 2 1 1 1 2 3 3 4 3 4 2 3 1 1 1 2 3 5 5 5 4 4 4 4 4 4 3 2 3 4 4 5 4 3 2 1 1 2 2 2 2 2 2 2 2 2 2 2 2 2 2 1 1 2 4 5 12 16 43 43 89 137 153 142 98 77 94 96 101 106 99 97 82 70 95 109 111 93 63 76 100 113 115 116 110 99 90 64 56 60 57 97 141 138 122 77 57 47 23 20 19 10 8 4 3 2 2 2 1 1 1 2 3 3 2 2 1 1 1 1 1 1 1 1 1 1 2 2 2 1 1 1 1 1 2 3 3 3 3 2 2 1 2 2 2 2 1 1 2 2 3 3 3 3 3 2 2 1 1 2 2 3 3 2 2 2 2 2 1 1 1 1 2 2 2 2 3 3 3 3 3 3 2 2 1 1 1 1 1 2 3 3 4 4 4 4 3 4 4 3 3 3 4 4 4 3 3 3 3 3 2 2 2 1 1 1 1 2 2 2 1 2 3 3 4 3 3 4 5 5 5 4 3 2 2 2 2 2 2 3 2 1 0 0 0 1 2 2 1 1 1 1 1 2 2 3 3 3 3 3 3 3 3 2 2 1 1 1 1 1 2 2 2 2 2 3 3 2 2 1 1 1 1 2 2 2 2 2 2 1 2 1 2 1 1 2 2 3 3 4 5 5 5 4 4 4 4 4 4 4 4 3 3 2 1 1 1 1 1 1 1 2 2 2 2 2 2 2 2 2 3 4 4 4 5 5 5 5 4 5 5 4 0 
0 1 2 2 2 2 2 2 4 4 5 5 4 5 4 4 2 1 1 1 2 2 3 4 3 3 3 4 4 5 5 4 3 3 3 3 3 3 2 1 1 0 0 1 1 2 2 3 3 3 3 3 2 1 1 1 2 3 3 3 2 3 2 2 2 2 2 3 3 2 2 2 3 3 4 4 5 6 4 3 1 0 0 0 0 0 0 1 3 3 3 3 3 2 2 1 1 1 1 1 1 2 2 3 3 3 3 2 2 2 2 2 2 2 2 2 2 3 2 2 1 0 0 0 0 1 2 2 1 1 1 1 1 0 1 1 2 2 2 2 3 3 2 1 1 2 3 3 3 3 3 3 3 2 2 2 3 3 3 3 3 2 2 2 1 1 1 1 2 2 1 1 1 1 2 2 5 3 5 2 3 1 1 1 2 3 4 5 5 5 4 4 3 4 4 4 3 4 5 6 7 5 4 2 2 2 2 3 2 2 1 1 1 1 1 1 1 2 1 1 1 1 2 3 6 8 19 44 51 111 154 170 138 81 67 82 96 106 113 92 79 80 60 103 129 130 106 52 64 84 111 128 126 130 104 103 92 73 61 50 103 134 134 116 78 58 47 23 20 23 12 9 4 3 2 2 1 1 1 1 2 3 3 2 2 1 2 2 2 1 1 1 1 1 1 1 2 2 1 0 0 0 0 2 3 4 4 3 2 2 2 2 2 2 2 2 2 2 2 3 5 5 5 4 3 1 1 1 2 2 2 3 3 4 4 3 2 1 1 1 1 1 1 2 3 4 4 4 4 4 4 3 3 2 2 2 2 2 3 4 4 6 6 5 5 3 3 4 4 4 3 4 4 4 4 3 3 3 2 2 2 1 1 0 0 1 1 1 1 1 1 2 3 3 3 3 3 3 4 5 4 3 3 3 3 2 3 3 3 2 1 1 0 0 1 2 2 1 1 1 2 2 2 2 3 4 3 3 5 5 4 3 2 2 2 1 1 1 1 2 3 3 3 3 2 2 2 1 1 1 1 1 1 1 1 2 2 2 1 1 2 2 1 1 1 2 3 3 4 5 5 5 4 4 4 4 3 4 4 4 4 3 3 2 1 0 1 1 2 2 2 2 2 3 3 3 3 2 2 2 3 3 4 5 5 4 3 3 4 4 2 0 
0 2 2 4 3 3 3 2 3 4 5 5 5 5 4 3 2 1 1 2 3 3 3 3 3 4 4 4 4 5 5 4 4 3 3 3 2 1 0 0 0 0 0 0 0 1 2 2 3 3 2 2 1 1 1 1 3 3 3 3 3 3 2 2 2 2 3 3 3 3 3 3 4 4 5 6 7 7 6 4 1 0 0 0 0 0 0 1 3 4 4 3 3 3 2 1 2 2 2 2 1 2 2 3 4 4 4 4 3 2 2 3 3 2 2 2 2 2 2 2 1 0 0 0 0 1 2 2 1 1 1 1 0 0 0 1 2 2 2 2 2 2 2 2 2 3 3 3 3 3 4 3 3 2 1 1 2 2 2 2 2 2 2 2 2 2 2 2 2 2 2 1 1 1 3 2 5 3 4 2 2 2 2 2 2 3 4 4 4 4 4 4 3 4 4 4 4 4 5 6 6 5 3 2 2 2 3 3 2 2 2 2 2 2 2 1 1 1 1 1 0 0 1 2 7 9 27 42 61 126 161 168 118 59 53 70 94 88 76 74 83 97 82 129 147 141 109 45 48 61 90 134 133 128 101 101 105 88 71 59 95 117 125 110 85 65 48 26 21 24 12 9 3 3 2 2 1 1 1 1 2 2 3 2 1 2 2 2 2 2 1 1 1 1 1 1 2 1 0 0 0 0 0 1 2 3 3 2 2 2 3 3 3 2 2 2 2 2 3 3 4 5 5 4 3 1 1 1 2 3 3 3 4 4 4 3 2 1 0 1 1 1 1 2 3 4 4 4 4 4 4 3 3 3 3 3 3 3 3 4 5 5 5 5 4 3 3 3 3 3 3 3 3 3 3 4 3 3 3 2 2 1 1 0 0 0 1 1 2 2 2 2 3 3 3 2 2 2 3 3 4 4 3 3 2 2 3 3 4 3 2 1 0 0 1 1 1 1 0 0 1 1 1 2 3 3 3 4 5 5 5 4 4 3 2 2 2 2 2 2 3 3 3 2 2 2 1 1 1 1 1 1 1 1 1 1 1 1 1 1 2 2 1 1 0 2 2 3 3 3 4 5 5 6 6 6 5 5 5 4 4 3 3 2 1 1 1 1 1 1 1 2 2 2 2 2 3 5 5 7 7 7 8 7 7 7 5 4 3 4 3 0 
0 2 3 4 4 3 3 2 3 4 5 6 5 4 3 2 1 1 1 2 3 4 3 4 3 4 4 4 5 6 6 5 4 2 2 2 2 1 1 1 0 0 0 0 0 0 1 1 2 2 2 1 1 0 1 2 3 3 3 2 2 2 2 2 2 2 3 3 3 2 3 3 4 5 6 5 6 6 5 5 2 1 0 0 0 0 0 1 3 4 4 4 3 3 2 2 2 2 2 2 1 1 1 2 4 4 5 5 4 4 3 2 2 2 2 2 2 2 1 2 0 0 0 0 1 1 2 2 2 2 1 1 1 1 1 1 2 2 2 2 2 2 2 3 3 4 5 5 5 4 4 4 3 2 1 1 1 0 0 0 1 1 1 1 1 2 2 2 2 3 3 2 2 3 4 3 4 3 4 1 2 1 2 2 2 3 4 4 4 4 3 3 3 4 3 4 4 4 5 5 5 4 3 2 2 2 2 2 2 2 2 1 1 2 2 2 2 1 1 0 0 0 0 1 5 6 25 35 75 136 172 160 97 40 42 50 57 60 67 73 89 117 116 160 165 156 116 46 36 35 63 130 152 133 104 94 114 107 82 67 81 97 113 117 104 74 43 22 19 20 10 7 3 2 2 2 2 2 1 1 3 2 3 2 2 2 2 2 2 1 1 1 1 1 1 1 1 0 0 0 0 0 0 1 1 2 1 1 2 3 4 4 3 3 2 2 2 2 3 4 5 6 5 4 3 1 1 1 1 2 2 3 4 5 5 4 2 1 0 1 1 1 1 2 4 4 4 4 4 4 4 4 3 3 3 3 3 3 3 3 4 5 5 6 4 4 4 4 5 4 3 1 2 2 3 3 4 3 3 2 2 2 2 1 1 2 2 2 2 2 2 2 3 3 3 2 1 1 2 3 3 3 3 2 2 2 4 4 4 3 2 1 1 1 1 1 1 1 1 0 0 0 1 1 3 3 4 5 5 6 5 5 4 3 3 3 2 2 2 3 3 3 3 2 1 1 1 2 2 2 2 1 1 1 1 0 0 0 1 1 2 2 1 1 0 2 2 2 2 2 3 4 4 4 4 4 4 4 4 3 2 2 2 2 2 2 2 2 2 1 1 2 2 1 1 2 3 4 5 5 4 4 5 5 4 4 3 2 2 3 2 0 
0 3 4 5 4 4 4 3 4 4 5 5 4 3 2 2 1 1 1 2 3 4 3 4 5 6 6 6 7 7 7 6 4 3 2 2 1 1 0 0 0 0 0 0 0 0 0 1 2 2 2 2 1 1 1 2 3 3 3 2 2 3 3 3 2 2 3 3 3 3 2 2 3 4 4 4 5 5 5 4 2 2 0 0 0 0 0 0 3 4 5 4 3 3 2 2 2 3 2 2 1 1 1 2 3 4 5 5 5 4 3 3 3 2 2 1 1 2 1 2 1 0 0 0 1 1 2 2 2 2 1 2 1 1 1 2 2 3 2 2 2 2 2 3 3 4 5 5 5 5 5 4 4 3 2 1 1 1 1 0 0 0 1 1 2 2 3 3 3 4 4 4 4 4 5 4 4 3 3 1 2 2 3 2 3 3 4 4 4 3 3 3 3 3 3 4 4 5 5 5 4 3 2 2 1 2 2 2 2 2 2 2 2 2 2 2 2 1 1 0 0 0 0 1 4 7 26 31 80 136 170 143 80 29 46 67 86 86 71 58 95 146 149 186 171 163 120 57 52 47 67 120 146 127 104 97 117 101 65 47 58 78 117 134 121 76 36 19 18 15 7 6 3 2 2 2 2 2 2 2 3 3 4 3 2 2 2 2 2 1 1 1 1 1 2 1 1 0 0 0 0 0 0 1 1 1 1 2 2 4 5 5 4 3 2 2 2 2 3 4 5 5 4 4 3 1 0 0 1 1 2 2 3 4 4 4 2 1 0 1 1 1 1 2 2 3 4 3 3 4 4 3 3 3 4 4 3 3 3 3 4 5 6 6 5 4 4 5 6 5 3 2 1 1 2 3 4 3 3 2 2 2 2 2 3 3 3 3 2 2 2 2 3 3 2 2 1 1 1 2 2 2 2 2 2 3 4 4 4 3 2 1 1 1 0 0 0 0 0 0 0 0 0 1 3 3 5 5 6 7 5 5 4 4 4 3 3 2 2 2 2 2 1 1 0 1 1 2 2 2 2 1 2 1 1 0 0 0 0 1 2 2 1 1 1 2 2 1 1 2 3 4 5 5 6 5 5 4 3 2 2 2 2 3 3 3 4 3 2 1 1 1 1 0 1 2 5 7 8 8 8 8 9 8 7 5 3 3 3 3 2 0 
0 3 4 6 4 5 5 4 6 5 6 4 4 3 2 1 1 1 1 2 3 3 3 4 5 6 7 6 6 7 7 6 3 1 0 1 1 1 1 1 1 0 0 0 0 0 1 1 2 2 2 2 1 1 1 2 3 3 3 2 1 2 2 2 1 1 2 2 2 2 1 1 2 3 3 3 3 3 3 3 3 2 1 1 0 0 0 1 2 4 5 5 3 2 1 2 2 3 2 2 1 1 0 2 3 3 5 5 5 4 2 2 3 2 2 1 1 1 2 2 1 1 1 1 1 1 1 1 2 2 1 1 1 1 1 1 2 2 2 2 2 2 2 3 3 4 4 5 5 5 5 4 4 3 2 1 1 0 0 0 0 0 0 1 1 2 2 3 3 4 4 3 3 3 4 4 3 2 2 2 2 2 3 2 3 3 3 4 4 3 3 3 5 4 5 4 5 6 6 4 4 2 2 2 2 1 1 2 2 2 2 2 2 2 2 2 2 1 0 0 0 0 0 2 3 5 22 29 75 133 169 152 90 49 69 85 84 75 65 58 113 157 161 197 162 160 116 67 66 65 82 128 141 133 113 114 128 114 84 60 66 87 138 149 125 70 30 17 16 10 5 4 3 2 2 2 2 2 2 2 3 3 4 3 2 2 3 3 2 0 0 0 1 1 1 1 1 0 0 0 0 0 1 1 2 3 3 3 3 3 4 5 4 4 2 2 2 2 3 4 4 4 5 5 4 2 1 1 1 2 2 3 3 4 5 5 3 1 1 1 1 1 1 1 2 2 3 3 4 4 4 3 3 3 3 3 3 2 2 2 2 2 3 4 3 4 4 5 6 6 4 3 2 1 2 3 3 3 3 2 2 2 2 3 4 4 3 3 2 2 2 2 2 2 2 2 2 2 2 2 2 2 1 1 1 3 4 4 3 2 1 1 1 1 0 1 0 1 1 1 0 0 1 2 3 4 4 4 5 6 5 4 4 4 4 4 3 2 3 3 3 3 2 1 0 1 1 2 2 3 2 1 2 2 1 0 0 0 1 1 2 2 2 1 1 2 2 2 2 3 3 4 4 5 6 5 5 3 3 2 2 2 2 3 3 3 4 4 3 2 1 1 0 0 1 2 4 4 4 4 4 5 5 5 5 4 4 3 3 3 2 0 
0 3 4 6 4 5 6 5 7 6 7 5 4 3 2 2 1 1 2 2 3 3 2 3 5 7 7 7 7 7 7 6 4 2 2 2 2 2 2 2 1 1 1 1 1 1 1 2 3 3 2 1 1 1 1 1 2 3 2 2 2 2 2 1 1 1 1 2 1 1 1 1 2 3 4 3 3 2 3 3 3 2 1 1 1 1 1 1 2 3 4 4 3 2 2 2 2 3 2 2 1 1 1 2 3 3 5 5 5 3 2 2 2 1 1 1 1 2 2 2 2 1 1 2 2 1 1 1 2 2 1 1 0 1 1 2 2 2 2 2 3 3 3 3 2 3 3 3 3 3 3 3 3 3 2 1 1 1 1 1 1 1 1 1 2 2 2 3 4 4 4 4 4 4 4 3 2 2 2 2 2 2 2 2 3 3 3 4 4 3 3 4 6 6 6 6 7 7 8 6 5 3 2 2 2 1 1 1 2 2 2 2 2 1 1 1 0 0 0 0 0 0 0 2 4 9 18 29 55 117 156 169 129 99 86 94 107 107 88 82 126 154 163 175 136 136 98 76 79 86 85 129 117 122 99 107 113 88 51 36 75 124 170 152 111 51 29 17 14 7 5 4 2 1 1 1 1 1 1 2 2 3 3 3 2 2 3 3 2 0 0 0 1 1 1 1 1 0 1 0 1 1 1 2 2 3 3 3 3 3 4 5 5 4 2 2 2 3 2 3 3 4 5 5 4 2 1 1 2 2 2 2 3 4 5 5 4 2 1 1 2 1 1 1 2 3 3 4 4 3 3 3 3 3 3 4 3 2 2 2 3 3 3 4 3 3 3 5 5 6 5 4 3 3 3 2 3 2 2 1 1 1 2 3 3 3 3 2 2 2 1 2 2 2 2 2 2 2 2 2 1 1 1 1 2 3 4 3 2 1 1 1 1 1 1 1 1 1 1 1 1 1 1 2 3 4 4 4 4 4 4 4 4 4 4 3 3 3 4 5 5 4 3 1 1 1 2 2 2 2 2 2 2 1 1 1 0 0 1 1 2 2 2 2 2 2 1 2 2 3 3 3 4 5 6 5 4 3 2 2 2 2 2 2 2 2 3 3 3 2 1 1 0 0 1 2 3 4 4 4 4 5 5 5 6 4 4 4 4 4 2 0 
0 2 3 5 4 4 6 6 7 6 6 5 4 3 3 2 1 1 2 2 3 3 2 2 4 5 6 5 5 5 5 5 4 2 2 2 3 3 3 3 2 1 1 1 1 2 1 1 2 2 2 1 1 1 1 2 2 3 2 2 1 2 2 1 0 0 0 1 1 0 0 1 2 3 4 3 4 2 2 2 3 3 2 2 1 1 1 2 2 3 3 3 3 2 2 2 3 4 3 3 1 1 1 2 3 3 4 4 4 3 2 2 2 2 2 2 2 2 2 3 2 2 2 2 2 1 0 1 2 3 3 2 1 1 1 1 2 2 3 2 3 3 3 2 2 2 1 2 2 2 2 2 2 3 3 2 2 1 1 2 2 2 2 2 2 2 3 3 3 3 3 2 2 2 2 2 2 1 2 3 3 2 2 3 4 4 4 4 4 3 3 4 5 6 6 6 6 7 7 5 5 3 3 2 2 2 1 1 1 2 2 2 2 1 0 0 0 0 0 0 0 0 1 3 4 9 13 28 36 96 132 161 138 101 85 103 121 109 98 101 116 137 149 129 107 101 76 72 72 87 70 110 90 108 97 105 107 94 75 68 123 168 183 140 81 39 27 14 9 5 5 3 2 2 1 1 1 1 1 2 2 3 3 3 2 3 3 2 2 1 0 0 1 1 2 1 1 0 1 1 1 1 1 2 3 4 4 4 3 3 3 4 4 3 2 2 2 3 2 2 3 4 6 6 5 4 3 3 3 3 3 3 3 5 5 6 4 3 2 3 4 4 3 1 1 2 3 3 3 3 2 2 2 2 3 3 3 2 2 1 2 1 1 2 2 2 2 3 5 6 6 5 4 3 3 2 3 2 2 1 1 1 2 3 3 4 2 1 1 1 1 1 1 2 2 2 3 3 4 3 2 2 2 2 2 3 4 3 2 1 1 1 1 1 1 1 1 2 2 1 1 1 2 3 4 4 3 3 4 4 4 3 3 4 4 3 3 4 7 8 10 7 7 3 3 2 3 2 3 3 2 2 2 2 1 2 3 3 2 2 2 2 2 2 2 2 2 2 3 3 2 2 3 4 5 5 4 2 2 2 2 3 3 3 2 1 2 2 2 2 2 1 1 1 1 3 3 3 3 3 3 4 4 4 5 5 5 4 3 3 2 0 
0 2 3 4 3 5 6 6 7 5 5 4 3 3 3 2 1 2 2 2 3 2 2 2 2 3 3 3 3 3 3 4 3 4 3 4 4 4 4 3 2 1 1 1 2 2 1 1 2 2 2 2 1 1 1 2 2 2 2 2 2 2 2 2 1 1 1 0 0 0 0 1 2 3 5 3 4 2 2 2 2 2 1 1 1 1 1 1 2 2 2 3 2 2 2 2 3 4 4 4 2 2 3 3 3 3 3 3 3 2 2 2 2 1 2 2 3 2 3 3 3 1 1 2 2 1 1 2 2 2 2 2 2 2 2 2 3 2 2 2 3 3 3 2 1 1 1 1 1 1 1 2 2 3 3 2 2 2 2 3 3 2 2 2 3 4 4 4 4 4 3 3 3 3 2 2 2 2 3 3 4 3 3 4 5 6 6 5 5 4 4 4 5 6 6 6 5 6 6 5 5 3 3 3 2 2 1 2 2 2 2 2 1 0 0 0 0 0 1 1 1 1 1 3 5 9 10 24 22 63 101 136 136 108 95 93 101 103 106 99 118 137 136 125 107 80 59 57 61 78 62 94 80 101 96 83 77 63 59 72 147 185 181 121 46 34 23 12 7 5 5 3 3 2 2 1 1 1 1 1 2 2 3 3 3 3 3 2 2 1 1 1 1 2 2 1 1 1 1 1 1 1 1 2 3 3 3 3 3 3 3 3 3 2 2 2 1 3 2 3 3 4 5 5 4 4 3 3 3 3 3 3 3 4 4 5 4 3 4 3 5 4 4 2 3 2 2 2 2 3 2 2 2 2 3 3 3 2 1 1 1 1 2 2 2 2 1 2 3 5 5 5 3 2 3 2 3 2 1 1 1 1 2 3 3 3 2 2 1 1 1 1 2 2 2 2 2 2 2 2 3 2 2 2 3 4 4 3 1 1 1 1 2 2 2 2 2 1 2 1 1 1 2 2 3 3 3 3 3 3 3 3 3 3 3 3 5 7 11 12 16 12 11 4 4 3 4 2 3 2 2 3 3 2 3 3 4 4 3 2 1 1 1 1 2 2 2 2 3 3 2 2 2 3 5 5 5 4 3 2 2 3 3 3 2 1 1 2 2 2 2 2 2 2 2 2 2 3 2 3 3 4 4 4 4 3 4 3 3 3 2 0 
0 1 2 4 3 6 6 6 6 5 4 3 3 3 3 3 2 2 2 2 2 2 2 2 2 2 2 2 2 2 2 3 4 4 4 5 5 5 4 3 2 1 1 1 1 1 1 1 1 2 2 2 1 1 1 2 2 3 2 1 2 2 3 2 1 0 0 0 0 0 0 1 2 3 4 3 3 2 2 2 2 2 2 1 1 0 1 2 3 3 2 2 2 2 2 2 3 5 5 4 3 2 2 3 3 2 2 2 2 3 3 2 2 2 3 3 3 3 3 4 3 2 2 2 2 2 1 2 2 3 4 3 3 2 2 2 3 3 2 2 2 3 3 3 2 2 1 1 1 1 1 2 2 3 3 3 2 3 3 5 4 4 3 3 5 5 5 5 4 4 3 2 2 2 2 2 2 2 4 4 5 5 5 6 6 6 5 4 3 3 3 3 5 5 5 4 3 4 4 4 3 2 2 2 2 3 2 3 2 3 2 2 1 1 0 0 0 1 1 1 1 1 1 3 5 9 10 22 23 48 76 103 115 92 75 83 95 100 101 97 118 116 117 114 100 85 74 61 54 66 60 79 75 96 93 77 71 59 66 87 166 184 161 94 35 35 19 8 5 4 4 4 4 3 2 2 2 2 2 2 1 2 2 2 2 2 2 2 1 1 1 1 1 2 2 2 1 1 1 1 1 1 1 2 3 4 4 4 3 2 2 2 2 2 1 1 1 2 3 3 3 3 3 4 5 5 4 4 4 3 4 4 3 4 3 5 4 3 4 4 7 5 5 3 4 3 2 2 3 3 3 3 3 3 3 3 3 2 1 1 1 1 1 1 1 1 1 2 4 5 5 3 2 2 2 2 2 2 1 1 1 2 2 2 3 4 2 1 1 1 1 1 2 2 2 2 3 3 4 4 3 2 2 2 4 4 4 2 2 1 1 2 2 2 2 2 2 2 3 2 2 2 3 3 3 3 2 2 3 4 4 3 3 3 4 4 7 9 13 14 19 15 15 6 5 3 3 3 3 3 3 3 4 3 4 4 5 5 4 3 2 1 2 2 2 2 2 2 3 3 2 2 2 3 4 4 4 3 2 2 3 2 3 2 2 2 2 1 2 2 3 3 3 2 2 2 3 3 3 3 4 4 4 4 4 3 3 3 3 2 1 0 
0 2 3 5 4 5 5 5 5 5 4 3 3 2 3 3 3 3 2 1 1 1 1 1 1 0 0 0 0 1 1 2 3 4 4 4 4 4 4 3 2 1 1 1 2 1 1 1 1 1 1 2 1 2 2 2 2 2 2 2 2 2 3 3 3 2 2 1 1 0 0 1 2 3 4 3 3 2 2 2 3 2 2 1 1 1 2 3 4 3 2 2 2 2 2 3 4 5 5 4 3 2 2 3 3 3 2 2 2 2 3 3 3 2 3 3 4 3 4 4 3 2 2 2 2 2 2 2 3 4 4 5 5 5 5 4 4 3 2 2 3 4 4 4 3 2 2 2 1 1 1 2 3 3 3 2 2 4 4 6 5 4 4 4 5 5 4 5 4 4 3 2 2 2 2 2 2 2 4 4 5 6 5 6 6 6 5 4 4 4 4 4 5 5 5 3 3 3 3 3 2 2 1 2 2 3 3 3 2 3 2 2 2 1 1 1 1 1 1 1 1 1 1 4 5 11 11 20 24 38 66 92 116 103 79 70 63 64 79 82 97 96 97 95 94 91 79 57 49 71 78 86 76 82 83 74 61 53 60 97 169 174 144 76 33 29 16 7 4 3 4 4 4 4 2 2 2 2 2 2 1 1 1 1 1 1 1 1 1 1 1 1 2 2 2 2 1 1 1 1 1 1 2 2 3 3 4 4 3 3 2 2 1 2 1 1 0 1 2 3 2 2 2 3 4 5 4 4 3 3 4 4 3 5 3 4 3 3 4 5 6 6 6 4 4 3 2 2 3 4 4 3 3 3 3 3 2 2 1 1 2 2 2 1 1 1 1 2 4 5 4 3 1 2 2 2 2 2 1 1 1 2 2 3 4 4 3 2 1 1 2 1 1 1 2 3 3 3 4 4 3 2 2 3 3 3 3 2 2 2 2 2 2 2 3 2 2 2 3 3 2 3 3 3 3 3 2 3 3 3 3 3 2 3 4 5 8 11 15 18 21 15 13 4 4 3 3 3 2 2 3 4 4 4 4 5 5 5 4 3 1 1 2 2 2 2 2 3 4 4 2 2 2 3 4 5 5 5 3 2 2 2 2 2 2 1 1 1 2 3 3 3 3 3 3 2 3 3 3 4 5 6 7 6 5 3 2 2 2 2 1 0 
0 2 4 4 5 4 5 4 4 4 3 2 2 2 3 3 3 3 2 1 0 0 1 2 2 2 1 1 2 2 2 3 3 4 4 4 5 5 4 3 2 2 2 1 1 1 1 1 1 1 1 1 1 2 2 1 2 2 2 2 2 2 3 3 3 2 2 2 1 1 1 1 3 3 4 3 2 2 3 3 3 3 3 2 1 2 3 4 5 5 3 3 2 2 2 2 3 4 4 4 3 3 2 2 2 2 2 2 2 2 3 3 2 2 3 3 4 3 4 3 3 2 2 2 2 2 2 2 3 4 5 5 5 5 4 4 3 2 2 2 3 4 4 4 3 2 2 2 2 2 2 3 3 3 3 2 2 4 4 5 5 4 5 4 5 5 3 3 3 3 3 2 2 3 2 2 2 2 3 3 4 4 4 5 4 3 3 2 2 2 3 3 5 4 5 3 3 3 3 3 2 1 1 1 2 3 2 2 2 2 2 2 2 1 1 1 2 1 1 0 0 0 1 3 5 9 11 18 27 29 58 90 130 129 98 62 48 47 64 67 78 84 77 76 89 91 85 64 55 74 83 80 60 58 76 85 82 82 88 137 174 155 116 51 31 23 13 7 5 3 3 4 4 3 2 1 1 1 1 1 1 0 0 0 0 0 0 1 1 1 0 0 1 1 2 2 2 1 1 1 1 1 2 2 3 3 3 3 3 3 2 2 1 2 1 0 0 1 1 2 2 2 2 4 4 5 4 4 3 3 3 3 2 4 3 4 3 3 4 6 7 6 5 5 4 4 3 4 5 6 6 4 3 3 2 2 1 1 1 1 2 2 2 1 1 1 1 2 3 5 5 3 2 2 2 3 2 2 1 2 3 2 3 3 3 3 3 2 2 2 2 2 2 2 3 4 4 4 4 3 3 2 2 2 2 2 2 2 2 2 2 2 2 2 3 3 3 2 3 4 3 3 3 4 4 3 2 1 1 1 2 2 3 3 5 6 7 10 14 17 18 13 10 4 3 3 2 2 2 2 3 4 4 4 3 5 4 4 3 3 2 2 2 3 3 3 3 3 3 3 2 2 2 2 3 3 4 3 2 1 1 1 1 1 1 1 1 2 2 3 3 3 3 3 3 2 3 3 3 4 5 5 6 7 6 4 2 2 2 2 1 0 
0 2 5 5 6 4 3 3 3 4 3 2 1 1 2 3 3 2 1 0 0 0 1 1 2 1 0 1 1 1 2 3 4 4 3 3 3 4 3 3 3 2 2 2 1 0 0 0 1 1 1 1 2 2 2 2 1 2 2 3 3 3 3 3 3 2 2 2 1 1 1 2 4 4 5 3 3 3 3 3 3 3 2 1 1 2 4 5 5 5 4 3 3 2 2 2 3 4 4 4 4 3 4 3 4 3 3 2 2 3 2 3 2 2 2 2 3 3 3 3 3 2 2 2 2 2 1 2 3 5 6 6 7 7 6 5 4 2 2 3 3 4 4 4 3 2 2 2 3 3 3 3 3 4 3 3 3 3 3 4 4 2 3 3 4 3 2 2 2 2 3 3 3 3 2 1 1 1 2 2 2 3 3 4 3 3 2 2 2 2 2 3 4 4 5 3 5 5 5 4 2 1 1 2 2 2 2 1 2 2 2 3 2 2 2 2 2 1 1 1 1 1 2 3 5 8 11 14 23 22 43 78 127 147 124 75 55 52 63 68 69 67 71 60 78 85 82 59 50 72 86 78 50 35 63 91 109 118 127 154 153 121 82 36 28 16 9 6 5 4 3 4 3 3 1 0 0 0 1 1 1 0 0 0 0 0 0 0 1 1 0 0 1 1 2 2 2 1 1 1 1 1 2 2 3 3 4 4 4 4 2 3 2 2 1 1 0 0 0 1 2 2 2 2 4 5 5 5 4 3 3 2 2 3 3 4 4 4 5 6 8 7 5 4 3 4 4 4 5 6 5 4 2 2 2 1 1 1 1 1 2 2 2 1 1 1 2 2 3 4 4 4 3 3 2 3 2 2 2 2 2 2 2 2 3 3 2 2 3 3 3 3 2 3 4 4 4 3 3 2 2 2 2 2 1 1 1 2 2 3 3 3 2 2 3 3 4 3 4 4 3 3 4 5 5 4 2 2 1 1 2 2 2 2 4 5 6 9 10 13 12 10 6 4 4 3 2 2 2 3 3 3 3 3 2 4 3 4 3 2 2 2 2 3 3 3 3 3 2 2 2 3 3 3 4 5 4 3 2 1 2 2 2 2 1 1 1 2 2 2 2 2 3 2 3 3 3 4 4 5 6 7 7 6 6 5 3 2 1 1 1 0 
0 2 5 4 5 4 3 2 2 2 1 1 1 1 2 2 2 1 1 1 1 0 1 1 2 2 1 1 2 2 2 3 4 4 4 4 4 4 4 4 3 2 2 2 1 0 0 0 1 2 2 2 2 2 2 3 3 3 3 3 3 3 3 3 3 2 3 2 1 1 1 3 4 5 5 3 3 3 3 4 3 3 3 2 2 2 4 5 6 5 4 4 3 2 2 2 2 3 4 4 4 3 3 3 3 3 3 2 2 2 2 3 2 2 2 3 3 3 3 3 3 3 2 2 2 2 2 3 4 5 5 5 6 7 6 5 2 1 2 2 2 2 2 2 2 2 2 2 2 2 3 3 3 3 2 2 2 2 3 2 3 2 3 3 4 4 3 2 1 1 2 2 2 2 2 2 2 1 1 1 1 2 2 2 2 2 2 2 2 2 2 3 3 3 3 3 4 4 4 3 3 2 2 2 2 2 2 1 2 2 2 3 2 2 1 2 2 2 1 1 1 1 2 3 4 7 9 12 17 19 29 59 106 146 154 118 90 78 83 78 79 67 87 60 76 63 62 47 44 66 81 70 48 44 79 111 136 143 138 139 122 87 44 25 20 10 8 6 6 4 4 4 3 3 1 0 0 0 0 1 1 1 0 0 0 0 0 0 1 1 1 1 1 2 2 3 2 2 1 1 1 0 1 2 3 3 3 4 4 5 2 3 2 2 1 1 0 0 0 1 2 3 3 3 4 4 4 4 3 2 2 1 2 2 3 4 4 4 6 5 6 5 4 3 3 3 4 5 6 6 5 4 3 2 2 1 2 2 1 1 2 1 2 1 1 1 2 2 3 4 5 5 4 4 4 4 4 3 2 2 2 2 2 2 2 2 1 2 3 4 4 4 4 4 4 4 4 3 2 1 1 2 2 1 1 1 2 2 2 3 3 3 2 2 3 3 3 3 3 3 3 3 3 4 5 4 2 1 0 0 1 2 2 2 3 5 5 6 7 11 10 7 6 4 5 3 3 2 2 3 2 3 2 2 2 2 2 3 3 3 2 2 1 2 2 2 2 1 1 1 1 2 3 4 5 5 4 3 1 1 2 2 2 2 2 1 1 2 2 2 2 2 2 2 2 3 4 5 6 6 7 7 7 6 5 4 4 3 2 2 1 0 
0 2 4 3 3 3 3 3 3 2 2 2 1 1 1 2 2 2 1 1 1 1 2 2 2 1 1 1 1 1 2 3 4 4 4 4 4 3 3 3 3 3 4 3 2 1 0 0 1 2 2 2 2 2 2 3 3 3 3 3 2 2 2 2 2 2 2 2 1 1 1 3 4 4 4 3 3 3 3 4 3 3 2 2 1 2 4 4 5 5 4 3 2 2 1 1 2 3 3 4 3 3 3 3 4 3 3 3 2 2 1 2 2 3 3 2 2 2 3 3 3 3 3 2 2 1 2 2 3 4 5 4 5 5 6 5 3 1 1 2 2 2 2 2 1 1 1 1 2 2 2 2 2 2 2 2 2 2 2 1 2 2 2 3 4 4 3 2 2 1 2 2 2 2 2 1 1 1 1 1 1 2 2 2 2 1 2 2 2 2 2 2 2 3 3 4 6 8 8 6 5 3 2 3 2 2 2 2 2 2 3 3 2 2 2 1 1 1 1 2 2 2 2 3 2 6 8 10 12 14 22 38 78 126 152 148 128 105 108 93 91 58 80 46 79 55 60 37 34 60 84 85 71 62 89 125 145 141 119 105 71 48 28 22 14 7 8 5 6 4 3 3 3 3 1 0 0 0 0 1 1 0 0 0 0 0 0 1 1 1 1 1 1 2 2 3 3 2 1 1 1 1 1 2 3 3 3 3 3 3 2 2 1 1 1 1 1 0 0 1 3 3 3 2 3 4 4 5 4 3 3 1 2 3 3 4 4 4 5 5 5 4 3 3 3 4 4 4 5 6 5 4 2 1 2 1 2 2 2 1 1 1 1 1 1 1 2 2 2 2 3 3 4 3 4 4 4 4 3 2 2 1 1 1 0 0 1 2 2 3 4 5 4 4 3 3 4 3 2 1 1 1 1 1 1 2 2 2 2 2 2 2 2 2 3 3 4 4 5 5 4 3 4 6 6 5 3 1 1 1 2 2 2 2 2 3 4 4 4 4 4 4 5 4 4 3 3 3 2 2 2 2 1 1 1 2 2 2 2 2 2 2 1 1 1 1 1 1 1 1 1 2 2 4 5 6 5 3 2 2 2 2 2 1 1 1 1 1 2 2 2 2 3 2 2 3 5 6 6 6 6 6 6 4 3 3 3 3 1 1 0 0 
0 2 3 3 3 3 3 3 3 2 2 2 2 1 1 2 2 2 2 1 2 3 3 3 3 2 2 2 2 2 2 3 4 4 4 4 4 4 4 3 3 3 3 3 3 3 2 2 1 2 2 2 1 2 2 2 3 3 3 2 2 3 3 3 3 3 3 2 2 2 2 3 3 3 4 3 3 2 2 3 3 3 3 2 2 2 3 4 5 4 3 2 2 2 2 2 2 3 3 3 2 2 2 2 3 3 3 3 2 1 1 2 3 3 3 4 5 4 4 5 5 3 2 2 2 2 2 4 5 6 4 4 4 5 6 4 3 1 1 1 1 1 1 1 1 1 0 0 1 1 2 2 2 2 1 1 1 2 2 2 2 3 3 3 4 5 5 3 1 1 1 2 2 2 2 2 2 2 1 1 2 3 3 3 2 1 1 2 3 4 4 4 4 3 2 2 4 5 5 5 5 4 3 3 3 3 3 2 2 2 3 3 3 2 1 1 1 1 1 2 2 2 2 3 4 6 6 7 8 10 18 27 42 83 119 139 142 128 132 119 117 87 99 70 81 44 43 31 40 68 104 120 115 108 119 144 143 113 73 49 38 39 23 15 9 6 6 5 5 3 3 3 3 3 2 2 2 2 2 2 2 1 1 1 0 0 0 1 1 2 2 2 2 2 3 4 3 2 1 2 2 2 2 2 2 2 1 2 2 2 1 1 0 0 1 1 1 1 1 2 3 3 3 3 3 3 2 3 3 2 3 2 2 3 3 3 4 4 4 3 3 3 3 3 3 4 4 4 4 4 4 3 3 2 2 2 2 3 2 2 1 1 1 1 1 1 2 2 2 3 3 3 3 3 4 4 4 4 3 3 2 2 1 1 0 1 1 1 2 3 4 5 4 4 3 3 4 3 3 1 1 1 1 2 2 2 3 4 3 3 3 2 2 1 3 3 3 3 3 3 3 3 2 3 3 3 2 1 1 0 1 2 2 2 2 2 3 4 5 6 6 5 5 4 4 4 3 3 2 2 1 1 1 1 1 1 2 3 2 2 2 2 2 2 1 1 1 1 0 1 1 1 1 3 5 6 5 4 3 3 3 2 2 2 1 1 1 1 2 2 2 2 2 2 3 3 5 7 9 7 7 7 6 5 4 3 3 2 2 2 1 0 
0 1 2 2 2 3 3 3 3 3 4 3 3 3 2 2 2 2 2 2 2 3 4 3 3 2 2 2 3 3 2 2 3 4 4 4 3 3 3 3 4 4 5 5 5 5 4 3 2 2 2 1 1 1 1 1 1 1 2 2 2 2 3 3 3 2 3 2 2 2 3 3 2 2 3 3 2 2 1 2 2 2 2 2 2 2 3 3 4 3 2 1 2 2 2 2 2 3 3 4 3 3 3 2 2 3 3 3 3 1 2 2 3 3 4 4 4 5 5 5 4 4 4 3 2 2 3 3 4 4 4 3 2 2 3 3 2 2 1 1 1 1 1 1 2 1 1 1 1 1 2 2 1 1 1 1 2 2 2 2 3 3 3 3 4 5 4 3 1 1 1 2 2 2 3 3 3 2 2 2 2 3 2 2 1 1 1 2 2 3 2 2 2 2 2 3 5 7 8 8 6 5 4 4 4 4 3 2 2 2 3 3 3 3 2 1 1 1 2 2 2 2 2 3 3 4 5 6 5 7 11 20 23 41 73 96 109 113 124 131 136 131 138 125 110 76 45 40 63 101 141 159 156 154 150 151 125 83 48 33 30 27 15 9 6 5 4 4 4 2 2 3 3 2 3 3 2 2 1 1 1 1 1 1 0 0 0 0 1 1 1 2 2 2 3 3 3 2 1 1 2 2 2 2 1 1 0 0 0 1 0 0 0 0 1 1 1 1 2 3 3 3 2 2 2 2 2 3 3 3 3 2 2 3 2 3 3 3 3 2 2 2 3 4 5 6 5 5 5 6 5 3 2 2 2 2 2 3 2 2 1 1 1 1 1 1 1 1 2 2 3 3 3 3 3 3 3 3 3 3 3 2 1 1 0 0 1 2 2 3 3 4 4 3 3 3 4 3 3 1 1 1 1 2 2 3 3 4 3 3 2 1 2 1 2 3 3 4 4 4 3 3 2 3 4 4 3 2 1 1 1 2 3 2 2 2 2 3 4 4 4 3 3 3 4 4 3 3 3 2 1 1 1 1 1 2 2 2 2 2 2 2 2 2 1 1 1 1 1 1 1 1 1 2 4 5 5 4 4 3 3 2 2 1 1 1 1 2 2 2 3 2 3 3 3 4 5 5 7 6 6 5 5 4 3 2 3 3 2 2 1 0 
0 1 2 2 3 3 3 4 5 5 5 4 3 2 2 2 3 3 2 1 2 3 4 4 3 3 3 3 3 3 2 3 4 4 3 3 2 3 3 3 4 4 5 5 6 7 6 4 3 1 1 1 1 1 1 0 1 0 1 1 2 2 3 3 3 2 2 2 3 2 3 3 3 2 2 2 2 2 1 1 1 1 1 2 2 2 3 3 3 2 2 1 1 2 2 2 2 3 4 4 4 4 4 3 3 3 3 3 2 2 2 3 3 3 4 5 7 7 7 7 6 5 5 4 3 2 3 3 6 4 5 4 4 4 4 4 2 1 1 1 1 1 2 2 2 1 1 0 0 0 1 2 2 2 1 1 1 2 3 3 3 3 3 2 3 4 5 4 1 0 1 1 2 2 2 2 2 2 2 2 3 3 3 3 2 1 1 2 2 3 3 4 3 2 2 2 2 4 5 5 5 5 4 3 3 4 3 3 2 3 4 4 5 5 4 4 3 2 2 2 2 2 3 3 5 5 5 4 3 5 6 10 14 18 33 52 64 71 82 103 119 130 143 153 141 125 102 106 121 131 144 150 148 151 137 123 91 58 28 21 20 15 9 7 5 4 3 3 3 2 3 3 3 2 2 3 3 3 3 3 3 2 2 1 1 0 0 0 1 1 1 2 2 2 2 3 2 2 1 2 3 2 2 2 1 0 0 0 0 0 0 1 1 1 1 1 1 1 2 3 3 3 2 2 1 1 1 1 2 2 2 2 2 2 2 3 2 3 2 2 2 2 3 3 4 4 4 4 3 4 3 3 2 2 2 1 2 2 3 2 1 0 0 0 0 0 1 1 3 3 4 4 3 3 3 3 2 2 2 2 2 2 2 1 1 1 1 1 2 2 3 3 3 3 3 3 3 3 2 1 1 1 1 2 2 3 3 3 3 3 2 1 1 1 1 2 3 2 2 2 3 2 1 1 1 2 2 1 1 1 1 2 3 3 2 1 2 2 4 4 4 2 2 3 4 4 3 3 3 2 2 1 1 1 1 1 2 2 2 2 2 2 3 2 2 1 1 1 0 1 1 1 1 2 3 4 4 4 3 3 3 3 2 2 1 1 1 1 2 2 3 3 4 4 4 4 4 5 6 6 5 5 4 4 3 3 4 3 3 2 1 0 
0 1 1 1 2 3 2 3 4 4 5 4 4 4 4 4 4 3 2 1 2 3 4 3 3 2 3 3 3 3 2 3 3 4 3 3 2 2 3 4 4 4 5 5 7 8 7 5 3 1 1 1 1 1 1 1 1 0 1 1 2 2 3 3 3 2 2 2 2 2 3 3 3 2 2 2 2 2 2 2 2 2 2 2 2 3 3 3 2 2 2 2 1 2 2 2 3 3 4 5 6 5 4 4 3 3 3 2 2 1 2 3 4 4 4 4 6 7 7 7 6 6 7 5 3 3 3 3 4 3 5 6 6 5 5 3 2 1 1 1 1 1 2 2 2 2 2 1 0 0 0 1 1 2 1 1 1 2 3 3 4 3 3 2 3 3 4 3 2 1 1 1 2 2 2 2 2 2 2 2 2 2 2 2 1 2 2 2 2 3 3 3 2 2 2 2 3 5 6 6 5 5 4 5 4 4 3 3 2 2 3 4 4 4 4 3 3 2 2 2 2 2 3 3 5 4 6 4 4 4 5 5 7 10 13 19 24 33 42 61 81 97 116 136 142 141 129 131 138 126 118 108 105 111 103 91 58 33 22 19 15 10 5 5 3 3 3 2 3 3 3 3 3 4 3 4 3 3 3 2 1 1 1 1 0 0 0 0 0 1 1 1 2 2 1 2 2 2 1 1 1 1 2 1 1 0 0 0 0 0 1 1 2 2 2 1 1 2 2 3 2 2 1 1 0 0 0 1 2 1 1 1 1 1 1 2 2 2 2 1 1 1 2 2 3 5 5 5 5 6 4 3 2 2 2 2 2 2 3 2 2 1 1 1 1 1 2 2 4 4 5 4 4 4 3 3 2 1 2 1 2 2 2 2 2 1 1 1 2 2 3 3 2 2 2 2 2 2 1 1 1 2 1 2 2 3 3 3 2 2 2 2 2 1 1 2 2 2 2 2 2 2 2 1 2 2 2 2 1 0 1 1 3 3 3 2 1 1 3 3 2 1 1 2 4 4 3 3 2 2 2 2 2 1 2 1 2 2 3 2 2 2 2 2 2 1 1 1 1 1 0 1 1 1 2 2 3 3 3 3 2 2 2 2 2 2 2 2 2 2 4 3 4 5 5 4 3 3 4 4 4 4 3 3 2 3 4 4 3 2 1 0 
0 1 2 2 2 2 2 3 4 4 5 4 4 4 3 3 3 4 3 2 2 2 3 3 2 2 2 3 3 3 3 4 3 3 3 2 3 3 2 3 4 4 5 5 5 5 4 4 2 1 1 1 1 1 1 1 1 1 1 2 2 2 3 3 3 2 2 2 2 3 3 3 2 1 1 1 1 2 2 2 3 2 2 1 1 1 2 2 2 2 2 1 1 2 2 3 3 4 5 6 7 7 6 6 4 3 1 1 1 1 1 3 3 4 5 5 5 6 6 7 7 6 7 6 4 3 3 3 4 3 5 6 7 7 6 5 3 2 2 1 1 1 2 2 2 1 1 1 1 1 1 1 2 2 1 1 1 2 2 3 4 3 4 2 2 2 2 3 3 2 2 2 3 2 2 2 2 3 3 3 3 3 3 2 2 2 2 2 2 2 3 4 5 5 4 3 3 3 3 4 5 5 4 3 3 3 3 3 3 3 3 4 4 5 5 4 4 3 3 2 3 3 4 4 6 4 5 2 2 2 3 4 5 7 11 14 13 12 9 13 23 35 52 75 97 114 121 121 116 96 70 46 43 49 40 32 23 20 18 14 12 8 5 4 3 3 3 2 2 2 2 3 2 3 4 4 4 4 4 3 3 2 1 1 0 0 0 0 0 0 0 1 1 1 0 1 1 1 1 1 2 1 2 1 1 0 0 0 0 1 1 2 2 2 2 2 2 2 2 2 2 1 0 0 0 0 0 0 1 1 1 0 0 0 1 1 1 1 1 1 1 1 1 1 2 3 3 3 2 3 3 4 3 2 2 1 1 2 3 3 2 1 1 0 0 0 1 2 4 4 4 4 4 4 2 2 1 1 1 1 1 1 2 3 3 2 2 2 1 2 2 2 2 1 1 1 1 1 1 1 1 2 2 3 3 3 2 2 1 2 2 2 2 1 1 2 2 2 1 2 3 3 2 1 1 2 2 1 0 0 0 1 2 2 2 1 1 1 2 2 2 1 0 1 2 3 2 1 1 2 2 2 2 2 1 1 2 2 3 2 2 1 2 2 2 2 2 1 1 1 1 1 1 1 1 1 1 2 1 2 1 3 3 3 3 2 2 2 3 2 4 3 4 5 5 5 3 2 2 3 2 3 2 2 2 3 3 4 3 2 1 0 
0 1 1 1 1 2 1 1 2 2 3 3 4 4 4 5 6 6 5 4 3 2 3 3 2 2 2 3 3 4 4 4 3 3 3 2 2 2 2 2 3 3 4 4 4 4 4 3 2 1 1 1 1 1 1 1 1 1 2 2 3 3 3 3 3 2 2 2 2 2 3 2 2 1 0 0 0 1 2 2 3 3 3 2 1 1 1 2 2 2 2 1 1 1 2 3 4 5 6 7 6 5 5 5 4 3 1 1 1 1 1 2 3 4 5 5 5 5 5 6 6 6 6 4 4 3 3 2 3 3 5 7 8 7 6 5 4 3 3 2 2 1 1 1 1 1 1 1 1 1 1 1 1 1 1 1 1 1 2 3 4 3 3 2 1 1 1 2 3 3 3 3 3 3 3 2 2 3 3 3 3 3 3 3 2 2 2 3 3 4 4 4 5 5 5 3 3 4 5 5 5 5 4 3 3 3 3 4 4 4 4 4 4 4 3 3 3 2 3 2 3 4 5 5 5 3 3 2 1 2 2 3 5 7 9 11 13 14 14 15 19 24 29 37 52 61 69 69 62 46 34 27 22 17 15 19 17 14 11 9 9 7 7 4 4 3 3 2 2 2 2 2 3 4 4 4 4 4 3 2 2 2 2 1 1 0 0 0 0 0 0 0 0 0 0 0 0 1 1 1 1 1 1 1 1 1 0 0 0 1 2 2 2 2 2 2 3 3 3 2 1 0 0 0 0 0 0 0 1 0 1 0 0 1 1 1 1 0 0 0 0 0 0 1 1 2 2 3 3 3 4 4 3 3 2 2 2 2 3 3 3 2 2 1 1 1 2 3 4 4 4 4 3 3 1 2 1 1 1 1 2 2 3 3 3 3 2 2 1 1 2 2 2 1 0 0 1 1 1 1 2 2 3 3 3 3 2 2 1 2 2 2 1 1 1 2 2 2 2 2 3 3 2 2 2 3 2 2 0 0 0 1 2 3 2 1 1 1 2 2 1 0 0 1 2 3 2 1 1 1 2 2 2 2 1 1 2 2 2 2 2 2 2 2 2 2 2 1 1 1 1 1 1 1 1 1 1 2 1 2 2 3 3 3 3 3 4 3 4 3 3 3 3 4 4 4 3 3 3 3 3 3 3 2 2 2 3 4 3 3 2 0 
0 1 2 2 1 1 1 1 3 3 3 3 3 4 4 4 4 4 5 4 3 3 2 2 1 2 2 2 3 4 4 4 3 3 2 2 2 2 2 2 2 4 5 4 4 3 3 3 3 2 2 1 1 1 1 1 1 1 2 2 3 3 3 3 3 2 2 2 2 2 2 2 2 1 0 0 0 1 2 2 3 3 3 2 1 1 1 2 2 1 1 1 1 2 4 5 7 7 7 6 6 6 7 6 4 2 0 1 1 0 1 1 3 4 4 4 4 3 4 5 5 4 4 3 3 2 3 2 3 3 5 5 5 5 5 5 5 4 4 3 2 1 1 1 1 1 1 2 2 2 1 1 1 1 1 1 1 1 2 2 3 3 2 2 1 1 0 2 3 3 4 3 3 2 2 2 3 3 3 3 3 4 3 2 2 2 2 3 3 2 3 4 6 6 6 5 4 3 3 3 4 4 3 2 2 3 3 4 5 6 6 5 5 5 5 3 3 2 3 3 3 4 4 4 4 3 2 1 1 2 1 2 3 4 6 8 11 13 13 13 14 16 18 17 16 14 15 13 15 20 22 22 17 15 11 10 9 6 7 7 7 6 7 4 5 4 4 3 2 2 2 2 2 4 5 6 5 5 4 4 3 2 2 2 2 1 1 1 0 0 0 0 0 0 0 0 1 1 1 1 1 1 1 1 1 2 2 1 1 1 2 2 1 2 2 2 3 3 3 2 1 0 0 0 0 0 0 0 1 0 1 0 1 2 2 2 1 0 0 0 0 0 0 0 1 1 2 1 1 2 3 4 3 3 3 2 2 2 3 3 3 1 1 1 1 1 1 2 4 4 4 3 2 2 2 2 2 2 2 2 3 2 2 3 3 3 2 2 1 1 2 2 2 2 1 1 1 1 2 1 2 2 3 3 3 2 1 1 1 1 1 1 1 2 2 2 2 2 1 2 3 3 2 2 2 2 2 2 1 1 1 1 2 2 2 2 2 2 2 2 1 0 0 1 2 2 2 0 0 1 2 2 2 2 1 1 1 2 2 2 2 2 3 3 2 2 1 1 0 1 1 1 1 1 1 1 1 2 1 2 2 3 3 3 3 4 4 4 4 3 3 4 4 4 4 4 4 3 3 2 3 3 3 2 3 3 4 4 4 4 2 0 
0 1 1 1 1 1 1 1 2 2 3 4 4 4 4 4 5 5 6 4 3 3 4 4 3 3 2 2 2 3 3 3 2 3 2 2 1 1 1 2 2 3 5 5 5 5 5 5 4 2 1 1 2 2 1 2 1 2 2 1 2 2 3 2 2 1 2 2 1 2 2 2 2 1 1 1 1 2 2 3 3 2 2 2 1 1 1 1 1 1 1 1 2 3 4 5 5 6 7 6 5 4 5 5 4 3 1 1 1 1 1 2 2 3 5 6 5 4 4 4 4 3 2 2 2 2 2 2 2 2 4 5 4 4 5 5 5 4 4 3 2 2 1 1 1 1 2 2 2 2 1 1 1 1 2 2 2 2 2 2 2 2 2 2 1 1 0 1 2 3 3 3 2 2 2 2 2 2 3 3 3 4 4 3 2 1 2 3 4 5 4 4 4 4 4 3 2 3 3 4 4 4 4 3 3 3 3 4 5 6 6 6 6 5 4 3 3 2 2 2 2 3 4 3 3 1 1 1 1 1 1 2 2 3 4 5 7 10 11 13 14 16 20 18 17 13 11 12 14 16 18 21 17 14 9 9 7 9 8 8 7 7 6 5 4 5 4 5 4 3 3 3 3 4 6 8 9 10 11 11 8 5 3 3 3 3 2 2 1 1 1 1 1 1 1 1 1 1 1 1 1 1 1 1 2 2 3 2 2 1 2 2 2 2 2 2 3 3 3 2 1 0 0 0 0 0 0 0 1 0 1 1 1 2 2 2 1 0 0 0 0 0 0 0 1 1 1 2 2 3 3 4 3 3 3 3 2 2 2 2 2 2 2 2 2 2 2 2 3 4 4 3 2 1 2 2 3 3 3 3 2 2 2 2 2 2 2 2 2 1 1 2 2 2 1 0 1 1 1 1 2 2 3 3 3 2 1 1 2 2 2 1 1 2 2 2 2 2 1 2 2 3 2 2 2 2 3 3 2 1 1 1 2 3 3 2 2 3 3 2 1 0 0 1 3 3 2 1 0 1 2 2 2 2 2 2 2 2 3 3 3 3 3 3 3 1 0 0 0 0 0 1 1 1 1 1 1 2 2 2 3 3 3 3 3 4 5 4 3 3 4 4 4 4 3 3 4 3 3 2 3 3 3 2 2 3 3 4 5 5 3 0 
0 0 1 1 1 1 1 2 3 4 4 4 4 5 4 4 3 3 2 2 3 3 3 3 3 3 3 3 2 2 2 2 1 2 2 2 2 2 2 3 4 5 6 6 6 6 6 6 4 3 2 3 3 2 2 2 2 2 1 1 2 2 2 3 3 3 2 2 2 2 2 2 2 2 1 1 1 2 3 3 2 2 2 2 2 1 1 2 1 1 1 1 2 3 4 5 6 7 7 6 6 6 6 6 4 3 2 2 1 1 1 2 2 3 3 4 4 3 4 3 3 2 1 1 1 1 1 2 3 3 3 3 3 3 3 3 3 3 3 2 1 1 0 0 1 2 2 2 1 1 1 1 1 1 1 1 2 2 3 3 2 3 2 2 1 1 1 1 2 2 3 2 2 2 2 2 3 3 3 3 4 4 3 3 1 1 1 2 3 2 2 2 3 3 4 4 4 3 3 3 3 3 3 4 5 4 4 4 5 5 5 5 5 5 4 3 2 2 2 2 2 2 2 2 2 1 1 1 1 1 1 1 1 2 3 4 4 5 5 5 7 9 11 12 11 11 10 10 10 11 13 13 11 11 8 9 8 10 8 9 6 7 6 5 4 6 7 8 8 6 6 6 8 12 17 21 24 26 26 25 21 15 10 6 6 4 5 4 3 3 3 3 3 2 3 4 5 5 4 2 1 1 1 2 3 3 4 3 3 2 2 2 2 3 3 2 3 3 3 2 1 1 0 0 0 0 1 1 2 1 2 1 2 2 2 2 2 1 0 0 1 1 0 0 0 1 2 2 2 3 4 4 3 3 4 3 2 1 2 2 2 2 2 2 2 2 2 3 4 5 4 3 2 2 2 4 4 5 4 3 2 2 2 2 2 2 3 3 3 3 3 3 3 2 1 1 1 1 2 2 2 2 3 3 3 2 2 2 2 2 2 2 2 2 3 3 2 2 2 2 2 2 2 2 2 3 3 4 3 3 2 3 3 2 3 3 4 3 4 4 2 2 2 3 4 4 3 2 1 1 2 3 3 3 2 2 2 2 3 3 3 3 3 4 4 3 2 1 1 2 2 2 2 1 1 1 1 1 1 2 3 3 3 3 3 5 5 4 3 4 5 6 5 4 3 2 3 2 2 1 2 3 3 3 4 4 4 5 4 5 3 0 
0 0 1 1 1 1 1 2 2 3 4 5 5 4 3 3 3 3 2 2 2 2 3 3 3 3 3 3 3 3 3 2 2 2 3 3 3 3 4 4 4 5 5 5 5 4 5 6 6 5 4 4 4 3 3 2 2 2 2 1 1 1 2 2 2 3 2 2 1 1 1 2 2 2 2 2 2 3 4 4 3 3 3 2 2 1 0 0 0 1 1 1 2 3 3 3 3 4 5 6 7 7 7 6 5 3 3 2 1 2 1 2 1 3 4 5 5 5 5 4 3 1 0 0 0 0 1 1 2 3 3 3 2 2 2 3 3 3 2 1 0 0 0 0 0 2 2 2 2 1 2 2 1 1 1 2 2 3 3 3 3 3 2 2 1 1 1 1 2 2 2 2 2 2 3 4 5 5 4 4 3 3 3 3 2 1 1 2 3 3 3 2 1 2 2 2 3 3 4 3 3 3 4 5 5 5 4 3 3 3 3 3 3 3 3 2 2 2 1 2 1 2 2 2 1 1 1 1 1 1 1 0 0 1 2 3 4 4 5 5 6 9 10 13 9 11 9 11 11 11 11 12 11 10 9 8 9 9 7 7 7 8 6 5 5 6 12 10 16 13 15 21 29 31 29 25 23 24 23 26 26 26 25 20 18 11 8 5 3 3 3 4 3 3 3 3 4 3 3 3 2 2 2 2 3 3 4 3 3 2 2 3 3 3 3 2 3 3 3 2 1 1 1 1 1 1 1 1 2 2 2 2 2 2 2 2 2 1 1 1 2 2 1 1 1 1 2 2 3 4 4 4 4 4 4 3 2 1 1 1 2 2 2 2 2 2 2 3 3 4 3 3 2 2 2 4 4 4 4 3 2 2 2 2 2 2 3 3 4 4 3 3 3 2 1 2 1 2 2 2 2 2 3 3 3 2 2 2 2 2 2 2 2 2 3 2 2 2 2 2 2 1 1 1 1 2 3 4 3 4 4 4 4 3 2 2 2 3 3 3 3 3 3 4 5 4 3 2 2 2 2 3 3 4 3 2 1 2 3 4 4 3 2 3 4 4 4 3 3 4 4 3 3 2 1 1 1 1 2 2 3 3 3 2 3 4 4 3 2 4 5 5 4 4 2 2 2 2 2 1 1 2 2 3 3 4 3 3 3 3 2 0 
0 0 0 1 1 1 1 2 3 4 4 4 4 3 3 3 2 2 1 1 1 1 1 2 2 2 4 5 6 6 5 4 2 2 3 3 4 4 4 4 4 4 4 4 3 3 4 6 7 8 7 6 5 4 3 2 2 2 1 1 1 1 2 2 3 3 3 2 2 2 2 2 2 2 2 1 1 2 2 3 3 2 3 3 2 2 1 1 1 1 1 2 2 2 2 2 3 3 5 6 7 8 7 5 4 3 3 3 2 2 1 3 2 3 3 4 4 4 4 3 2 1 0 0 0 0 0 1 2 2 3 3 3 3 2 2 1 1 1 0 0 0 0 0 0 2 2 2 1 1 2 2 1 1 0 1 2 3 3 3 3 2 1 2 1 1 0 0 1 1 2 2 2 3 4 5 6 6 6 5 5 5 4 4 3 2 1 1 1 1 1 1 1 2 3 4 4 4 4 4 3 2 4 5 6 5 4 4 3 2 2 2 3 3 2 2 1 1 1 2 2 2 2 2 1 1 1 1 1 1 1 0 0 1 2 3 3 3 3 5 5 8 8 10 7 7 5 6 7 8 8 9 8 9 9 8 7 7 5 4 6 7 5 4 5 6 13 11 19 25 38 41 41 46 56 63 69 78 82 79 65 48 34 28 30 29 24 14 8 5 5 5 4 4 5 6 8 8 8 6 5 4 3 3 3 3 3 3 3 3 3 4 3 3 2 2 3 3 2 2 1 1 1 1 1 1 1 1 2 2 2 2 2 2 2 2 2 2 2 2 2 2 2 1 1 1 2 2 3 4 4 4 3 3 3 2 1 1 1 1 2 2 3 2 2 2 2 3 3 4 3 3 1 2 2 3 3 3 4 3 3 3 3 2 3 3 3 3 4 4 4 4 3 3 2 2 2 2 3 2 2 2 2 2 2 2 2 2 2 2 2 2 2 3 3 3 3 2 2 2 2 2 1 1 1 3 4 4 4 4 5 5 4 2 2 2 3 3 4 4 3 3 4 4 4 3 4 3 3 2 1 2 3 4 3 2 1 2 2 3 3 2 2 3 4 5 5 5 5 5 5 4 3 2 1 1 2 1 1 1 2 3 3 3 3 3 3 3 2 4 4 5 4 4 2 2 2 2 2 1 1 2 2 3 4 4 3 2 2 1 1 0 
0 0 1 1 1 2 1 2 3 3 3 3 3 2 3 2 2 2 2 2 2 2 3 2 2 3 5 7 8 8 7 6 4 2 2 3 4 5 4 4 3 2 2 3 3 4 5 7 8 9 8 7 5 4 3 3 3 2 2 1 1 1 2 2 2 2 2 2 2 2 2 2 1 1 1 1 1 2 2 3 3 3 3 2 2 1 1 1 1 1 1 1 2 2 2 2 3 4 4 5 7 8 7 5 3 2 3 3 2 2 2 3 3 4 4 3 3 3 4 3 2 0 0 0 0 0 0 1 1 2 2 2 3 2 2 1 1 1 1 0 0 0 0 0 0 2 2 2 1 1 2 2 1 1 1 2 2 2 2 2 2 1 1 1 1 1 0 0 0 1 1 2 2 3 5 5 5 4 4 4 4 3 2 3 2 2 2 1 1 1 1 1 1 2 3 3 4 4 4 4 3 2 3 4 6 6 4 4 3 2 2 2 2 2 1 1 1 0 1 2 2 3 2 1 1 0 0 1 1 1 1 1 1 2 3 3 3 3 3 5 5 5 4 5 3 4 5 4 8 7 9 7 7 9 7 7 6 5 4 4 5 5 5 4 6 6 11 18 36 51 52 65 94 118 113 102 101 113 127 131 127 116 99 75 48 33 29 25 17 7 4 4 4 4 5 6 6 6 5 5 4 4 4 4 3 3 2 2 2 3 3 3 3 3 2 2 2 2 2 1 0 0 0 0 0 0 1 1 2 1 2 1 1 2 2 3 3 2 2 2 2 2 2 1 1 1 1 1 2 2 3 3 3 3 2 2 1 1 1 1 2 2 3 3 2 1 2 2 2 3 2 2 2 2 2 2 2 2 3 3 3 3 3 3 2 2 3 3 3 3 4 4 3 3 2 3 2 2 3 3 2 1 1 1 1 1 2 2 3 3 3 3 3 3 2 2 2 1 2 2 2 2 2 1 2 3 4 4 4 5 7 7 5 2 1 2 2 3 4 4 3 3 3 4 4 3 4 4 3 2 1 2 3 4 3 2 1 2 2 2 2 2 1 3 4 6 6 6 6 6 6 5 3 2 1 1 1 1 2 2 3 2 2 2 2 2 2 2 2 3 4 4 4 4 3 3 2 2 2 1 1 1 2 3 3 3 3 2 2 1 1 0 
0 0 1 2 2 2 2 3 3 3 3 2 2 1 1 2 2 2 2 2 3 3 4 4 3 3 6 8 9 9 9 7 5 2 2 2 2 3 3 3 2 2 2 3 3 5 5 6 7 7 7 6 5 4 3 3 3 3 2 1 1 1 2 1 1 1 1 2 2 2 2 2 2 2 2 2 2 2 3 3 3 2 3 3 4 3 2 1 1 1 1 2 2 2 3 3 4 4 4 5 6 5 4 3 2 2 2 3 3 3 2 3 3 3 2 2 2 2 2 1 1 0 0 0 0 0 0 0 1 1 2 2 2 2 2 0 0 1 1 0 0 0 0 0 0 2 2 2 1 1 2 2 1 1 1 1 2 1 1 1 1 0 1 1 1 1 0 0 0 0 1 1 2 3 4 5 4 3 3 4 4 4 3 3 3 3 2 2 1 1 1 2 2 2 3 3 4 4 4 4 3 3 3 4 5 5 4 3 2 1 1 1 2 2 2 1 1 1 1 2 2 3 2 2 1 1 1 1 1 1 1 1 1 3 3 3 3 3 3 4 5 5 4 4 2 3 4 4 6 6 6 6 5 5 5 5 4 3 3 3 4 4 4 4 5 8 16 31 45 62 88 129 142 144 132 123 131 143 156 153 153 151 146 124 99 67 48 36 25 17 7 5 4 5 5 6 7 7 8 7 7 5 5 4 4 3 1 2 2 3 3 2 3 3 2 3 2 2 1 0 0 0 0 0 0 0 0 0 1 1 1 1 1 1 2 3 3 3 3 3 3 2 2 1 1 0 1 0 1 2 2 3 3 2 2 2 2 2 2 2 2 3 3 4 4 4 3 3 3 3 2 2 2 2 2 2 2 2 2 3 3 3 3 3 3 3 3 3 3 3 3 4 3 3 2 3 3 3 4 3 3 2 1 2 2 2 2 2 2 3 3 3 3 2 2 2 2 2 2 2 3 3 2 2 3 3 3 3 4 5 6 6 4 3 2 3 3 4 4 4 3 2 2 3 3 3 3 3 2 1 1 1 3 4 3 2 1 2 2 2 1 1 1 3 3 4 4 4 4 4 3 3 2 2 1 1 1 1 1 1 2 2 3 3 4 4 3 3 2 3 3 3 3 4 4 4 3 2 2 1 1 1 2 2 3 3 2 2 1 2 1 0 
0 0 2 2 3 2 2 3 3 2 2 2 1 1 1 2 2 3 2 2 3 4 5 5 3 5 7 9 10 10 9 8 5 2 2 1 2 3 2 2 2 2 2 3 4 5 5 5 5 5 5 6 5 5 3 3 3 3 2 2 2 2 2 1 1 1 1 2 2 2 2 2 2 1 1 1 2 3 3 4 4 3 4 4 5 5 4 3 1 0 1 1 2 2 2 3 4 5 5 5 4 4 3 3 2 2 3 4 4 4 3 3 3 3 2 2 2 2 2 2 1 0 0 0 0 0 0 0 1 2 2 2 2 2 1 0 1 1 1 0 0 0 0 0 0 2 2 2 1 1 2 2 1 1 0 1 1 0 0 0 0 0 1 1 1 1 1 1 0 0 1 2 2 3 4 4 4 3 2 2 2 2 1 2 3 3 3 2 2 2 2 2 3 3 4 4 4 4 3 4 4 3 3 4 5 5 4 3 2 2 1 1 1 1 1 2 2 2 2 2 2 2 2 2 1 0 0 0 0 0 1 1 2 3 3 3 3 2 3 4 4 5 3 4 2 4 3 4 5 5 6 5 5 5 6 4 3 3 3 4 4 4 3 5 7 18 26 40 59 106 141 165 164 159 139 131 134 131 134 126 138 150 171 159 139 101 73 56 31 23 12 9 5 4 5 5 5 4 5 4 5 5 6 5 5 3 2 2 2 2 3 2 3 3 2 2 1 1 0 0 0 0 0 0 0 0 0 0 1 1 1 1 1 1 3 4 4 3 3 3 3 2 2 1 1 0 1 0 1 1 2 3 3 3 2 2 2 2 2 2 3 3 4 4 4 3 4 4 3 3 2 3 3 3 3 2 2 2 2 2 3 2 2 2 2 2 3 3 3 3 3 4 3 2 2 2 3 4 4 5 4 2 2 2 3 3 2 2 2 3 3 3 3 2 1 1 2 2 2 2 2 2 2 2 3 4 5 5 4 5 7 7 5 3 3 3 4 4 4 4 3 1 2 3 3 3 3 3 2 1 1 1 3 4 3 2 2 2 2 2 1 1 1 2 3 3 3 3 3 3 3 2 2 1 1 0 1 1 1 2 2 3 3 3 3 3 3 3 3 3 3 3 3 3 3 4 3 3 3 2 2 1 2 2 3 3 3 2 2 2 1 0 
0 0 2 2 3 2 3 3 2 2 2 2 1 1 1 2 2 3 3 3 3 5 6 6 4 5 6 8 8 8 8 7 4 2 2 2 2 2 3 3 2 2 2 4 5 6 6 6 6 5 6 6 6 5 3 3 2 2 2 2 2 2 2 1 1 1 1 1 2 2 2 2 3 3 3 3 3 4 4 4 4 4 5 5 5 5 5 4 3 1 1 2 2 2 2 2 3 4 4 5 4 4 3 2 2 3 3 4 5 4 3 2 2 2 2 3 4 4 4 3 2 2 1 1 0 0 0 1 1 1 2 2 2 2 1 1 1 1 1 0 0 0 0 0 1 2 2 2 1 1 2 2 1 0 0 0 1 1 1 0 0 0 1 1 1 2 2 2 1 1 1 2 2 2 3 4 5 5 4 4 3 3 3 3 3 2 2 2 2 2 2 3 3 4 4 4 4 4 4 4 3 3 4 4 5 5 4 4 2 2 1 1 1 1 2 2 3 3 2 2 2 2 2 2 1 1 1 1 0 0 1 1 1 2 3 3 3 2 3 4 4 5 3 4 2 3 3 4 4 3 4 4 5 4 5 4 3 3 3 3 3 3 3 5 12 25 35 56 92 139 166 175 143 114 93 105 109 99 81 62 78 98 139 151 161 146 114 86 44 27 18 14 10 6 5 5 4 3 4 5 6 6 6 6 5 4 3 2 2 2 3 2 2 3 3 3 2 1 0 0 0 0 0 0 0 0 0 1 1 1 2 1 1 1 2 4 4 4 3 4 3 3 2 2 2 1 1 1 1 2 2 4 3 3 1 1 1 1 1 2 3 3 3 4 4 4 4 4 3 3 3 2 3 3 3 2 2 2 2 2 2 2 2 2 2 1 2 2 3 3 3 3 2 2 2 2 3 5 5 6 4 4 3 3 3 3 3 2 3 3 3 4 3 2 2 2 2 1 1 1 1 1 1 1 2 3 4 4 4 4 5 6 5 3 4 4 4 4 4 4 3 1 2 2 2 3 2 2 1 1 1 1 2 4 3 3 2 2 3 2 1 1 1 2 1 1 1 1 2 2 1 1 1 1 2 1 1 1 1 1 2 3 4 5 5 5 4 4 3 3 3 3 3 3 3 4 3 4 3 3 2 2 2 3 4 4 2 2 1 2 1 0 
0 1 2 2 2 2 2 3 2 2 2 2 2 2 2 2 3 4 4 4 5 5 5 5 3 4 5 6 7 7 7 6 4 2 2 2 2 3 3 3 3 2 3 4 5 6 6 7 7 7 7 7 6 5 3 2 2 2 2 2 2 2 2 2 2 1 1 1 2 2 2 2 2 2 2 3 3 3 3 2 3 4 6 6 6 6 7 6 4 2 2 2 1 1 1 2 3 3 3 4 4 4 3 2 2 3 4 4 4 4 3 3 2 2 2 3 3 4 3 3 3 2 1 1 0 0 1 2 2 2 2 2 2 2 1 1 1 1 1 1 1 1 1 0 1 2 2 2 1 1 2 2 1 0 0 0 0 0 0 1 1 0 1 1 1 2 2 2 2 2 2 2 3 3 3 4 5 6 5 4 4 5 5 4 3 2 2 2 2 2 1 2 3 3 4 4 4 4 3 3 3 4 5 4 4 4 4 4 3 2 1 1 1 1 2 3 2 2 2 2 2 1 1 2 1 1 2 1 1 1 1 1 2 2 3 3 3 3 2 3 3 3 3 4 2 3 3 3 3 3 3 4 4 5 6 6 4 3 3 3 4 3 3 8 22 31 55 82 122 163 167 146 88 67 72 87 87 78 57 45 41 41 68 96 129 153 146 118 72 39 24 22 15 9 6 5 6 4 5 5 5 4 4 4 3 3 3 2 2 2 3 3 3 3 2 2 2 1 1 1 1 1 1 1 1 1 1 1 2 1 2 1 2 2 3 4 4 4 3 3 3 3 2 2 3 2 2 2 2 2 2 3 2 2 1 0 0 0 1 1 2 2 3 2 3 3 2 2 2 2 2 1 2 2 2 2 2 2 2 2 2 1 2 2 2 1 1 1 2 2 2 3 2 2 1 2 3 5 4 6 4 5 4 3 3 3 2 2 3 3 3 4 3 3 2 1 1 1 0 0 0 0 0 1 2 4 5 4 4 5 6 6 4 3 3 3 4 4 4 3 2 1 1 1 2 2 2 2 1 1 1 1 2 3 3 3 3 3 3 2 1 2 2 1 1 1 2 2 2 2 1 1 1 1 1 1 1 1 1 1 2 3 4 5 5 5 5 4 3 3 3 3 3 3 2 3 3 3 4 3 3 3 3 3 3 3 2 2 1 2 1 0 
0 1 2 2 2 2 2 3 2 2 2 2 2 2 2 3 4 4 5 5 5 5 5 5 3 3 5 6 6 5 4 4 3 2 2 2 3 3 3 3 3 3 3 4 5 6 6 7 7 7 7 7 6 4 3 2 1 1 1 2 1 1 2 2 2 2 1 1 2 2 2 2 2 3 4 4 4 3 3 2 3 4 6 5 4 5 5 5 4 2 2 2 1 1 2 2 3 3 3 3 4 4 3 3 2 3 3 3 3 3 3 2 1 2 2 3 4 4 5 5 4 3 2 1 1 1 1 2 2 2 1 2 2 2 2 1 1 1 1 1 2 2 2 1 1 2 2 2 1 1 2 2 1 1 0 1 1 2 2 2 2 1 1 1 1 2 3 2 2 2 3 3 3 3 3 4 5 6 5 5 4 4 4 4 3 1 2 3 3 3 2 2 2 3 3 3 3 4 4 3 3 3 3 3 3 3 4 4 4 3 2 2 1 1 2 3 2 1 0 1 1 1 1 1 3 3 2 2 2 3 2 2 2 2 2 3 3 3 3 3 3 3 3 3 2 2 2 3 2 2 3 3 4 4 6 6 5 4 5 4 5 5 4 14 29 44 84 101 138 154 127 97 52 56 60 71 72 65 51 49 45 47 50 68 96 136 157 150 107 67 38 30 24 14 9 6 8 6 5 4 4 4 4 4 4 4 3 2 2 2 3 3 3 2 2 2 2 1 1 1 1 2 2 2 2 2 2 2 2 2 2 2 2 2 2 4 3 3 2 2 3 2 3 2 3 2 3 3 4 4 3 3 1 1 0 0 0 0 0 1 1 1 1 1 1 1 1 1 1 1 2 1 2 2 2 2 2 2 2 3 2 2 3 3 2 1 1 1 2 2 2 2 2 1 1 1 2 4 3 5 4 6 4 4 2 3 3 4 5 5 5 4 4 3 3 2 1 0 0 0 0 0 1 1 2 2 2 2 3 4 4 4 4 3 3 3 4 3 3 3 2 2 2 2 2 2 2 2 1 1 0 1 1 3 3 3 3 3 3 2 2 2 2 2 1 1 1 1 2 2 2 1 1 2 2 2 2 1 1 1 2 3 4 4 4 3 3 3 2 2 2 3 3 3 2 2 3 3 4 3 3 2 2 2 3 3 2 2 1 1 1 0 
0 1 2 2 2 2 2 2 3 2 2 2 2 2 2 3 3 3 5 5 5 6 4 4 3 4 5 6 5 4 4 4 3 2 1 2 3 2 2 2 3 3 4 4 4 5 5 5 6 6 6 5 4 3 2 1 1 2 2 2 1 1 2 2 2 2 1 1 2 3 3 3 3 4 4 4 3 3 3 2 4 4 5 4 4 5 5 5 3 2 2 2 1 1 1 2 3 3 3 2 3 3 3 3 2 2 3 2 2 2 3 2 2 1 1 2 2 3 3 2 2 2 1 1 1 1 1 2 2 2 1 1 2 2 2 2 2 1 1 2 2 2 2 1 1 2 2 2 1 1 2 2 2 1 1 1 2 2 2 2 2 2 1 1 1 2 2 2 2 2 3 3 3 3 3 4 4 4 4 4 4 4 4 3 3 2 3 3 3 3 2 1 1 1 2 2 2 2 3 2 1 2 2 3 2 2 4 4 4 3 3 2 2 2 2 3 2 1 0 0 0 0 1 1 2 3 3 3 3 3 3 3 2 2 2 3 3 3 3 3 3 3 3 2 2 2 2 2 2 2 3 2 3 3 5 5 6 5 5 6 7 8 7 24 35 66 105 121 143 124 91 70 47 53 51 56 45 45 46 42 37 41 44 52 67 100 134 162 148 107 65 35 34 22 14 7 6 5 5 4 4 3 2 2 2 2 2 2 2 2 3 3 3 3 2 2 2 1 1 1 1 2 2 2 3 3 3 2 2 1 2 2 2 3 3 4 3 3 3 2 2 2 2 2 3 3 4 4 4 3 3 2 1 1 0 0 0 0 0 1 1 1 0 1 0 0 0 1 1 1 1 1 2 2 2 2 2 2 2 2 2 3 3 3 2 1 1 1 1 1 1 1 1 1 1 2 2 3 3 4 4 5 5 4 2 3 3 3 5 5 5 4 4 3 3 2 1 1 0 0 0 1 1 1 1 2 2 2 3 4 5 5 4 3 2 2 2 2 2 2 2 2 3 2 2 2 2 2 1 1 0 1 1 2 3 3 3 3 2 2 2 2 2 1 1 1 2 2 2 2 2 2 1 1 2 2 2 2 2 2 2 3 3 3 3 3 2 2 1 2 2 3 3 3 2 3 3 3 3 3 3 3 2 2 2 2 2 2 2 2 1 0 
0 1 2 2 2 2 2 2 2 2 2 2 2 2 1 2 3 2 4 5 5 6 4 5 4 5 7 7 6 5 3 3 2 2 2 2 2 2 1 2 2 2 3 4 3 3 3 3 3 4 3 3 2 1 1 0 1 1 2 2 1 1 1 2 2 1 1 1 2 3 3 4 4 4 5 4 3 3 3 4 6 6 6 4 3 4 4 3 2 1 1 1 0 0 1 2 2 3 3 2 3 3 3 3 2 2 2 2 1 2 2 2 3 3 3 3 4 5 5 5 4 2 1 1 1 1 1 1 1 1 1 1 2 2 3 2 2 1 2 2 2 2 2 2 1 2 2 2 1 1 2 2 2 2 2 2 2 3 3 3 2 2 1 1 2 3 3 3 2 2 2 2 3 3 4 4 4 4 3 2 2 2 2 2 3 2 3 3 3 3 2 2 1 1 1 1 2 2 2 2 2 2 2 2 2 2 3 4 4 3 2 2 1 2 2 2 2 1 1 0 0 0 1 2 3 4 4 4 4 4 4 3 2 2 1 2 3 3 4 4 4 4 3 2 2 2 2 2 2 2 3 2 2 2 4 4 6 5 6 9 8 11 9 34 38 90 119 130 131 97 81 63 42 42 48 53 57 59 51 47 47 51 52 54 61 77 101 147 174 158 123 59 42 27 21 10 7 5 4 4 4 3 2 2 3 3 3 3 2 2 2 3 3 2 1 1 1 1 1 1 1 1 2 2 2 2 2 2 2 2 2 2 2 3 3 4 4 3 3 2 2 2 2 2 2 2 3 4 6 5 3 2 1 1 1 1 1 1 1 2 1 1 0 0 0 0 0 1 1 1 1 1 1 1 2 2 3 3 3 2 2 3 3 2 2 1 1 1 1 1 0 0 1 1 1 1 2 3 2 3 4 5 5 4 3 4 4 4 6 5 5 3 3 3 3 2 1 1 0 1 1 1 1 1 1 1 1 2 3 3 4 4 4 3 2 2 2 2 2 2 2 2 2 2 1 1 1 2 1 1 0 1 2 2 2 3 3 3 3 3 3 3 2 2 2 2 2 2 2 2 2 2 2 1 1 2 2 3 2 3 2 3 3 2 2 1 1 1 1 1 2 3 3 3 3 3 4 4 3 3 2 2 2 2 2 2 2 2 1 1 0 0 
0 1 2 2 2 2 1 1 1 2 2 3 3 2 1 1 2 2 4 5 6 6 4 5 5 5 6 7 6 5 3 3 2 2 2 2 2 2 1 1 1 2 2 2 3 2 2 2 2 2 1 1 0 0 0 0 1 1 2 2 1 1 1 1 1 0 1 1 2 3 3 4 4 4 5 4 3 3 3 5 7 7 7 5 4 3 2 2 2 2 1 0 0 0 0 1 1 1 2 2 2 3 2 2 1 1 2 2 2 1 2 3 4 3 3 4 5 5 5 4 3 2 1 1 1 1 1 1 2 1 2 1 2 2 3 3 3 2 2 2 2 2 1 1 1 2 2 2 1 1 2 2 2 3 3 2 2 2 3 3 2 2 1 1 2 3 3 3 2 2 2 2 3 3 2 2 3 3 2 2 2 2 3 3 4 3 3 3 3 3 2 2 1 1 1 1 1 1 1 2 1 1 1 2 3 3 3 3 4 3 2 2 1 2 2 2 2 1 1 1 1 1 1 2 3 4 5 5 5 4 4 3 2 1 2 2 3 4 5 5 5 3 3 2 2 2 2 2 2 2 2 2 2 2 4 4 6 6 7 9 8 10 13 39 41 109 129 144 132 95 87 63 36 35 50 66 78 76 66 58 51 51 50 53 54 58 69 108 164 188 178 115 74 36 28 16 8 5 3 3 3 3 3 2 2 2 2 2 2 1 2 2 2 2 1 0 0 0 1 1 1 1 1 2 2 2 2 1 1 1 2 2 2 3 4 4 3 3 3 3 2 2 2 2 3 3 4 5 6 6 5 3 1 1 1 1 1 1 1 2 1 2 0 0 0 0 0 1 1 1 0 0 0 0 1 2 3 3 3 2 2 2 2 2 1 1 0 0 0 0 0 0 0 0 2 2 3 3 3 3 4 4 4 4 3 3 4 4 5 4 4 2 3 2 3 2 2 2 1 1 1 1 1 1 1 1 2 2 3 3 4 4 3 2 2 2 1 1 2 2 3 2 2 2 2 2 2 1 1 1 1 1 2 2 2 2 2 2 2 2 3 2 2 2 2 2 2 2 3 3 3 3 2 2 2 2 2 3 3 3 3 3 3 3 2 2 1 1 1 1 2 3 3 3 3 4 4 4 3 2 2 3 2 2 2 2 2 2 1 1 0 0 
0 1 2 2 2 2 1 1 1 1 3 4 3 2 1 0 2 2 3 4 5 5 4 4 4 4 5 5 4 5 2 3 2 2 1 2 1 1 1 1 1 1 1 1 2 1 1 1 1 1 0 0 0 0 0 0 1 1 1 1 1 1 1 0 0 0 0 1 1 2 2 3 4 3 5 4 3 4 3 6 7 7 8 5 5 3 2 2 2 1 1 0 0 0 0 0 1 1 1 1 2 2 2 2 1 2 2 2 1 1 3 4 6 5 5 5 5 6 7 6 4 3 1 1 1 1 1 1 1 1 1 1 1 2 3 3 3 2 2 2 2 2 1 1 1 2 2 2 1 1 2 2 2 3 3 2 2 2 2 2 2 1 1 2 2 4 4 4 3 2 2 3 3 2 2 2 3 2 2 2 2 2 3 3 4 3 3 3 3 3 2 2 1 2 1 1 1 0 1 2 2 1 2 2 3 3 3 3 3 2 1 1 1 1 2 2 1 1 1 1 2 2 2 3 4 6 8 7 6 5 4 4 2 1 2 2 3 4 5 5 4 3 2 1 2 2 2 2 1 1 2 2 2 2 3 4 6 7 8 8 8 7 21 41 56 133 146 158 131 96 84 56 31 44 66 81 81 73 69 69 63 57 49 51 47 47 48 65 119 174 201 166 111 51 26 19 10 8 3 3 3 3 3 2 2 2 2 2 2 1 1 1 2 1 0 0 0 0 1 1 1 1 1 2 2 2 2 2 2 1 2 2 3 4 5 6 5 4 3 3 2 2 2 2 3 3 4 5 6 7 5 4 2 1 0 0 0 0 1 2 2 2 0 1 0 0 0 1 1 0 0 0 0 0 0 1 2 3 2 1 1 1 1 1 0 0 0 0 0 0 0 0 0 0 2 1 3 2 2 2 3 4 3 3 3 4 4 4 4 3 3 2 2 2 3 2 1 1 1 2 1 1 1 1 1 1 2 2 3 3 3 3 3 2 2 2 2 1 2 2 3 2 1 1 1 1 1 1 1 2 1 2 2 2 2 1 2 2 2 3 3 3 2 3 3 4 4 4 4 4 4 3 3 2 2 2 3 3 2 2 2 2 3 3 2 2 2 2 1 1 2 4 3 2 2 3 4 4 4 3 3 3 3 3 2 1 1 1 1 1 0 0 
0 1 2 2 2 2 2 1 2 2 3 4 4 3 1 0 1 2 3 4 5 5 5 4 3 3 4 4 4 4 2 3 2 2 1 2 2 1 1 1 1 1 1 1 1 1 0 1 0 0 0 0 0 0 0 1 1 1 1 1 0 0 0 0 0 0 0 1 1 2 1 2 3 3 4 4 3 4 3 6 7 6 7 4 5 3 2 2 2 1 1 0 0 0 0 0 0 0 1 1 2 2 1 1 1 2 3 2 1 1 3 4 5 5 4 5 6 7 7 6 4 3 2 2 1 1 1 1 2 2 1 1 1 2 3 3 3 2 3 3 2 2 1 1 1 2 2 2 1 1 1 2 2 2 2 2 2 2 2 2 1 1 1 2 3 4 4 4 3 3 3 3 3 2 2 1 2 2 2 2 2 3 3 2 4 3 3 2 3 2 2 1 1 1 1 0 0 0 0 2 2 1 1 2 3 3 3 3 3 2 1 1 1 2 2 2 1 1 1 1 2 3 2 3 4 6 7 7 6 5 4 4 3 2 2 2 3 4 4 4 3 2 2 1 2 2 2 2 1 1 1 1 2 1 3 5 7 9 9 7 6 6 26 39 76 147 166 165 116 84 75 62 48 67 81 82 79 77 78 74 64 59 56 60 55 46 41 45 74 131 194 199 153 86 30 27 14 9 2 2 2 3 3 4 3 2 1 1 1 0 0 1 1 1 1 1 1 1 1 1 1 1 1 2 2 2 2 3 3 2 2 3 4 6 7 7 6 5 4 3 2 1 1 2 3 3 4 5 6 8 5 5 1 0 0 0 0 0 0 2 2 2 1 1 0 0 0 1 1 0 0 0 0 0 1 2 2 3 2 2 2 2 2 2 0 0 0 0 0 0 0 0 1 1 2 1 2 2 2 2 2 4 4 4 3 4 4 4 3 2 2 2 2 2 3 3 2 1 1 2 1 1 0 1 1 1 1 2 2 3 3 3 2 2 2 1 1 1 1 2 2 2 2 2 2 2 2 2 2 2 2 2 2 2 1 1 1 2 2 3 3 3 2 3 3 4 4 4 4 4 3 3 2 1 2 2 2 2 2 2 2 2 3 3 2 2 2 2 1 1 3 4 4 2 2 3 4 3 3 3 3 3 3 2 1 0 0 1 1 1 0 0 
0 2 3 3 2 2 2 1 2 2 3 4 4 3 1 0 1 2 3 4 4 4 5 4 3 2 2 3 3 3 3 3 2 2 1 1 2 2 1 1 1 1 1 1 1 2 1 1 1 0 0 0 0 0 1 1 2 2 1 0 0 0 0 0 0 0 1 1 1 2 1 2 2 2 3 3 2 2 2 4 5 5 5 3 4 3 3 3 2 1 1 0 0 0 0 0 1 0 1 2 2 2 1 1 2 3 3 3 1 2 3 3 4 3 3 4 4 5 5 5 4 3 2 2 1 1 1 1 2 2 1 1 1 2 3 3 3 3 3 2 2 1 1 1 1 2 2 2 1 1 2 2 2 3 2 2 2 2 2 1 2 2 3 4 5 5 5 4 4 3 3 3 3 2 2 2 2 2 2 3 3 3 2 3 4 4 3 2 3 3 3 2 1 1 0 0 0 0 0 2 2 2 1 2 2 2 2 2 2 2 1 1 1 1 1 2 1 1 1 1 2 3 3 4 4 5 6 6 6 5 4 4 3 2 2 3 3 3 3 3 3 2 2 2 3 3 3 2 1 1 1 1 2 2 3 6 7 10 10 7 6 7 30 36 96 161 182 159 88 60 53 52 58 81 80 73 65 65 65 59 50 56 63 68 62 56 45 42 51 65 150 196 182 122 42 32 23 14 4 3 3 3 3 3 3 3 2 1 1 0 0 1 1 1 2 1 2 2 2 1 1 1 2 3 3 3 2 2 2 2 3 3 4 6 7 7 6 5 3 2 1 1 1 1 2 2 3 4 5 7 5 4 2 1 0 0 0 0 1 2 2 2 1 1 1 0 1 1 1 1 0 0 1 1 1 1 2 2 2 2 2 3 2 2 0 0 0 0 0 0 0 0 1 1 2 1 2 2 1 2 2 3 4 5 5 5 4 4 3 2 2 3 3 3 3 3 2 1 1 2 2 1 1 1 1 1 1 1 1 2 3 3 2 2 1 1 1 1 1 1 2 2 2 1 2 2 2 2 2 3 3 3 2 2 1 1 1 1 2 3 4 4 3 3 3 4 5 5 5 4 4 3 2 2 1 2 2 2 2 2 2 2 2 2 2 2 2 2 2 2 3 4 4 3 2 3 4 4 4 4 4 4 3 3 1 1 0 0 1 1 0 0 
0 2 3 3 2 2 1 1 1 1 2 3 3 3 2 1 0 2 3 3 4 5 5 4 3 1 2 2 3 3 2 3 2 1 1 1 2 2 1 1 1 1 1 0 1 1 1 1 0 0 0 0 0 1 2 2 2 1 1 1 0 0 0 0 0 1 1 1 2 2 2 2 2 2 2 2 1 1 1 3 4 3 4 2 3 3 2 2 1 1 1 0 1 0 1 0 1 0 1 2 2 2 1 1 1 3 3 3 1 1 2 2 2 2 3 3 3 3 3 3 2 2 2 1 1 1 1 1 1 2 2 2 1 2 3 3 3 3 3 2 1 1 1 1 1 2 2 2 2 1 2 2 2 3 2 2 1 2 2 2 3 3 4 4 5 5 5 4 3 3 2 2 2 2 2 2 2 2 3 3 3 3 3 4 5 4 3 2 2 2 2 2 1 1 0 0 0 0 0 2 2 2 2 2 3 3 2 3 2 2 1 1 1 1 2 2 2 1 1 1 2 3 3 3 3 5 6 6 5 4 5 5 3 2 2 3 3 3 2 2 2 2 2 2 3 3 3 2 1 1 1 1 2 2 3 6 8 8 9 6 6 7 29 34 104 170 187 150 64 39 35 52 70 87 76 66 54 61 60 61 56 57 64 75 69 58 53 46 54 42 108 177 197 156 74 39 31 20 8 5 4 3 3 4 4 3 2 2 1 1 1 1 2 2 2 2 3 2 2 1 1 2 2 3 2 2 2 2 3 3 2 3 4 7 8 9 8 5 3 3 2 2 1 1 1 1 2 4 5 6 5 4 2 1 1 0 0 0 1 2 2 2 1 1 1 1 1 1 1 1 1 1 1 1 1 2 2 3 3 3 3 3 2 1 1 0 0 0 0 0 0 0 1 1 2 2 2 1 1 1 2 3 4 4 4 5 4 4 2 2 2 3 3 4 3 3 2 1 1 2 2 2 1 1 1 1 1 1 1 1 1 2 2 2 1 1 1 1 1 1 1 1 1 2 2 3 2 3 3 4 3 3 2 2 1 1 1 1 2 3 4 4 3 3 3 3 3 3 4 4 3 2 2 2 2 2 2 2 2 3 2 2 2 2 2 2 2 2 2 2 3 4 4 3 3 3 4 4 4 4 4 4 3 2 2 1 1 1 1 1 1 0 
0 2 3 3 2 1 1 0 1 1 1 2 3 4 3 2 1 3 3 4 4 5 5 4 3 1 2 2 2 2 2 2 2 2 1 1 2 2 2 2 2 1 1 0 1 1 1 1 0 0 0 0 0 1 1 1 2 1 1 1 1 1 1 1 1 1 2 2 2 2 2 2 2 1 1 0 0 0 1 2 2 2 2 2 2 2 2 2 1 1 1 1 1 1 2 2 2 1 1 1 2 2 1 1 2 3 3 3 2 2 2 2 1 1 1 1 0 0 0 1 1 0 0 0 0 0 0 0 1 2 2 2 2 2 3 3 3 3 2 2 1 0 1 1 2 3 3 2 2 2 3 3 4 4 3 3 2 2 2 2 4 4 6 6 5 5 4 3 3 2 2 2 1 2 2 2 3 3 4 4 4 4 4 5 5 4 3 2 2 3 3 2 1 1 1 0 0 1 1 1 2 2 3 2 2 2 2 2 2 1 1 1 1 1 2 2 2 1 1 1 2 2 3 3 2 2 3 3 4 3 4 4 4 3 3 3 3 2 1 2 1 2 1 2 3 4 3 3 2 2 2 2 2 3 4 5 7 6 7 5 4 8 26 33 105 179 190 150 52 28 26 53 77 89 73 57 49 68 57 52 47 48 58 74 76 67 61 48 46 41 67 150 195 181 114 56 38 26 11 6 5 4 3 3 3 3 2 2 2 2 2 2 2 2 2 2 2 2 2 2 2 2 2 3 2 1 1 1 2 1 2 1 2 3 4 5 6 4 4 3 3 2 2 1 1 2 2 3 3 4 4 3 3 1 1 0 1 1 2 2 2 2 1 1 2 1 1 1 1 1 1 1 1 1 1 1 1 2 2 3 3 2 2 1 1 1 1 1 1 1 1 1 1 2 2 1 1 1 1 1 2 3 5 5 6 6 5 4 3 2 3 4 4 4 4 4 3 2 2 3 3 2 2 1 1 2 2 2 1 1 1 2 3 3 3 3 2 2 2 1 1 1 1 2 3 4 4 5 5 5 4 3 3 2 1 1 1 1 2 3 4 4 3 2 2 2 2 3 3 3 3 3 4 3 3 3 3 3 4 3 3 2 2 2 2 2 3 2 2 2 2 3 4 3 3 3 4 3 3 4 4 4 3 2 2 1 1 1 1 2 1 0 
0 1 2 2 1 1 0 0 0 0 1 1 2 3 3 3 2 3 4 4 5 5 5 3 2 1 2 2 3 2 1 2 2 2 2 3 3 3 2 2 2 2 1 1 1 1 1 1 1 0 0 0 1 1 2 2 2 1 2 2 2 2 2 2 2 2 2 2 2 2 2 2 1 1 0 0 0 1 1 1 1 1 2 2 2 2 2 2 1 2 1 1 1 1 2 2 2 2 2 1 1 1 1 1 2 3 3 3 3 3 3 2 2 1 1 0 0 0 0 0 0 0 0 0 0 0 0 0 0 1 2 2 2 2 2 3 3 3 2 1 1 1 1 1 2 2 2 2 2 2 3 3 3 3 3 2 1 1 1 2 4 5 6 6 5 4 3 3 2 2 1 1 1 1 1 1 3 4 5 5 5 4 4 4 4 3 2 1 2 3 3 2 2 1 1 1 1 1 1 1 3 3 4 3 4 3 3 3 2 1 1 1 2 3 3 3 2 1 1 1 2 2 2 2 2 2 2 3 3 3 3 4 4 3 3 3 2 2 0 2 1 1 1 2 2 3 3 3 2 2 2 1 2 2 3 4 5 4 4 3 3 8 24 35 99 182 191 159 59 31 25 49 79 87 75 56 46 62 46 47 51 57 55 60 73 73 63 54 42 40 45 114 178 192 139 73 36 31 14 6 5 4 4 5 4 2 2 2 2 2 2 2 3 2 2 2 3 2 2 2 2 2 2 2 2 2 1 1 2 1 1 1 1 2 4 6 7 5 5 3 4 4 3 2 2 2 2 2 2 2 3 2 3 1 1 0 1 1 2 2 2 2 1 1 1 1 1 1 1 1 1 1 1 1 1 2 2 3 3 2 2 2 2 1 1 1 1 1 1 2 2 2 2 2 2 2 1 1 1 1 2 2 4 4 5 5 5 5 3 2 3 4 4 4 4 4 3 3 3 3 3 3 2 2 2 2 2 2 1 1 1 3 4 6 7 6 5 3 3 2 2 2 3 6 6 6 6 6 6 5 4 3 2 2 1 1 1 2 2 2 3 3 2 2 1 1 2 2 2 3 3 3 4 3 4 3 3 4 4 3 3 3 2 2 1 2 2 3 3 2 2 3 3 3 3 3 3 3 4 4 4 4 3 2 2 1 1 1 2 2 1 0 
0 1 2 2 1 0 0 0 0 0 0 0 2 3 3 3 3 3 3 3 4 4 3 3 2 1 1 2 2 2 1 2 2 2 2 2 2 2 2 2 2 2 2 1 1 1 1 1 1 1 1 1 1 1 1 1 1 2 2 2 2 2 3 3 2 2 2 2 2 2 2 1 1 0 0 1 1 1 1 1 1 1 2 2 2 2 2 2 2 2 1 1 2 2 2 3 3 2 2 1 0 0 1 1 2 3 3 3 4 4 3 2 2 1 1 0 0 0 0 0 0 0 0 0 0 0 0 0 0 1 1 1 2 2 2 2 3 2 2 1 1 1 2 2 3 3 3 3 3 3 3 3 3 2 2 2 1 1 1 1 2 4 5 6 6 5 4 3 3 2 2 2 1 1 1 1 2 3 4 4 4 3 3 2 2 2 2 2 3 3 3 2 1 1 1 1 1 1 1 2 3 3 4 3 3 2 2 2 2 1 1 1 2 2 2 2 1 0 0 1 2 2 1 1 1 1 1 1 2 2 2 3 4 3 3 2 1 1 0 1 0 1 0 1 1 2 3 3 2 2 1 1 2 2 3 3 4 4 3 3 3 9 24 35 86 170 186 166 72 34 31 54 80 85 77 53 46 53 47 46 37 36 38 52 65 71 63 52 37 35 35 75 156 192 163 99 36 31 17 7 4 5 4 4 3 2 2 1 2 2 3 3 3 2 2 2 2 3 3 3 3 3 2 2 1 1 1 1 1 1 0 0 0 0 1 4 5 6 6 5 5 4 3 2 3 3 3 2 1 1 2 2 3 1 1 0 1 1 2 1 1 1 1 1 1 1 1 1 1 1 1 1 1 1 1 2 1 2 2 2 1 1 1 1 1 1 1 1 2 2 2 2 2 2 1 1 1 1 1 1 2 3 4 5 6 5 5 5 3 2 2 3 4 4 4 3 3 3 3 4 3 3 2 2 1 1 1 1 1 1 2 4 6 7 8 7 6 3 2 2 2 4 6 10 11 12 9 7 8 5 4 2 3 2 1 1 1 1 2 2 2 2 1 1 0 1 1 2 2 2 2 4 4 4 4 3 4 4 3 4 2 3 2 2 2 2 3 3 2 2 2 2 2 3 3 3 3 3 3 3 2 3 3 3 2 2 2 2 2 3 2 0 
0 1 2 2 1 0 0 0 0 0 0 0 1 2 3 3 2 3 3 2 2 2 2 2 2 1 1 1 2 2 2 2 2 2 2 2 1 1 1 1 1 2 1 1 1 1 1 1 1 1 1 1 1 1 2 2 2 2 2 2 3 3 3 3 2 2 1 1 2 2 1 1 0 1 1 1 1 2 2 1 1 1 2 2 2 2 2 2 2 2 1 1 1 1 1 2 2 2 1 0 0 0 0 2 3 4 4 4 4 4 4 2 2 1 1 1 0 0 0 0 0 0 1 1 0 0 0 0 0 0 1 1 1 1 1 2 2 2 2 2 2 2 2 2 3 3 3 3 4 3 3 2 1 1 1 1 1 1 0 0 1 3 4 5 5 5 4 4 3 2 2 2 2 2 1 1 1 2 3 3 2 2 1 1 1 1 1 2 3 4 4 2 2 1 1 1 0 0 1 2 4 4 4 3 3 3 3 2 2 1 1 1 2 2 2 1 0 0 0 1 2 2 1 1 1 1 1 1 2 2 2 2 3 2 2 1 1 1 1 1 0 0 0 0 1 1 1 2 2 1 1 1 1 1 2 2 3 4 4 3 4 9 24 32 66 141 174 167 102 51 39 51 75 77 76 43 45 38 41 36 37 45 51 52 65 73 68 54 43 38 43 51 143 186 175 110 39 32 20 9 4 4 5 5 4 2 2 1 1 2 3 3 3 3 3 2 2 3 3 4 3 4 2 2 1 1 1 1 1 1 0 0 0 0 1 4 6 7 6 6 6 5 5 3 3 3 3 2 1 1 2 2 3 1 1 0 1 1 1 1 0 0 0 0 0 0 0 1 1 1 1 1 1 1 1 2 2 2 1 1 1 1 1 1 1 1 1 1 1 2 2 2 2 2 1 1 1 1 1 1 1 2 3 4 4 4 5 5 4 3 2 2 3 3 3 2 3 3 4 5 3 3 1 1 1 1 1 2 2 2 3 5 7 8 9 8 7 5 4 3 3 6 8 13 13 12 11 8 8 6 4 2 2 2 2 1 1 1 2 1 2 1 1 1 0 1 1 1 2 2 2 3 4 3 4 3 3 3 3 3 2 2 2 2 1 2 3 3 3 2 1 2 2 3 2 2 3 3 3 3 3 3 3 4 3 3 2 2 2 2 1 0 
0 1 2 2 1 0 0 0 0 0 0 0 0 1 2 2 1 1 1 1 1 1 1 2 2 1 1 1 1 2 2 2 2 1 1 0 0 0 0 0 1 1 1 0 0 1 1 1 1 1 1 1 1 2 2 2 1 2 2 2 2 2 2 2 2 1 1 1 1 1 1 0 0 1 1 1 1 2 2 1 1 1 2 2 2 2 2 2 2 2 2 1 2 1 0 0 1 1 1 0 0 0 0 1 3 4 4 4 4 4 3 2 2 1 1 1 0 0 0 0 1 1 2 2 1 1 1 1 1 0 1 1 1 2 2 2 2 1 2 2 2 2 2 3 3 3 3 3 3 3 2 2 1 1 1 1 0 0 0 0 1 1 3 4 5 5 5 4 3 3 3 2 2 2 2 2 1 1 1 2 2 1 1 1 1 2 2 2 3 4 4 3 3 2 1 0 0 0 1 2 5 5 5 3 4 3 3 3 2 1 1 1 1 1 1 0 0 0 1 1 2 2 1 2 1 1 1 2 2 2 1 1 2 2 1 1 1 1 1 2 1 1 0 0 0 0 1 1 1 1 1 1 1 1 2 3 4 4 4 3 6 9 24 29 49 106 155 162 117 64 48 52 72 70 77 44 37 34 48 38 50 42 47 52 62 69 66 48 39 30 39 43 143 190 188 121 44 32 21 10 4 6 4 4 3 3 2 1 2 3 4 4 4 3 3 2 2 4 3 5 4 4 2 2 0 1 0 1 1 1 1 1 1 1 2 3 4 5 5 5 6 4 3 2 3 3 3 2 1 1 2 2 3 2 1 0 0 1 1 0 0 0 0 0 0 0 0 1 1 1 1 1 1 1 2 2 2 2 1 1 1 1 1 1 2 1 1 1 1 1 2 2 2 2 1 1 1 1 1 1 1 2 3 3 3 4 4 5 4 3 2 1 1 1 2 2 3 2 3 4 3 3 1 1 1 1 1 1 2 2 3 5 6 6 8 7 6 4 3 3 3 7 10 16 17 14 12 7 7 6 4 2 2 2 2 2 3 3 3 2 2 2 2 2 1 1 2 2 2 2 3 3 4 3 4 2 3 3 3 3 2 2 1 1 1 1 3 3 2 2 1 2 2 2 2 2 3 4 4 3 2 2 3 3 3 3 2 3 3 3 2 0 
0 1 2 2 1 0 0 0 0 0 0 0 0 1 2 1 1 1 2 1 1 1 1 1 1 1 1 1 1 1 2 2 2 1 0 0 0 0 0 0 1 1 0 0 0 0 0 0 1 1 1 1 2 2 2 2 2 2 3 3 3 3 3 3 2 2 1 1 1 1 0 0 0 1 1 1 1 1 2 1 1 2 2 2 2 2 2 2 2 1 2 1 1 1 0 0 1 1 1 0 0 0 0 1 3 4 5 5 5 4 4 3 2 2 1 1 0 0 0 0 1 2 2 2 2 1 1 1 1 1 1 1 1 2 1 1 1 1 1 2 3 2 2 2 3 3 3 3 3 2 1 1 1 1 1 1 0 0 0 0 1 2 3 3 4 4 4 3 3 2 2 2 2 2 3 3 2 3 3 3 3 3 2 2 2 3 2 3 3 3 4 3 3 2 1 0 0 0 1 2 5 5 6 4 4 3 3 2 2 1 1 1 1 1 1 1 0 0 1 2 3 2 2 2 2 2 2 2 3 2 1 1 1 1 1 1 1 1 2 2 1 1 1 1 0 0 0 0 1 1 1 1 1 1 2 3 4 4 4 4 7 8 21 25 35 78 135 161 137 84 53 50 66 67 83 69 57 53 62 60 70 52 53 56 63 74 69 47 40 32 42 58 147 194 184 118 41 36 21 11 5 6 4 4 3 3 2 2 2 3 4 4 4 3 3 2 3 4 3 5 3 4 2 2 0 0 0 0 0 1 1 1 1 1 1 2 3 3 4 4 5 4 4 4 4 3 2 1 1 1 1 2 2 2 1 0 0 1 1 0 0 0 0 0 0 0 0 1 1 0 0 0 1 1 2 2 2 2 1 1 1 1 1 2 2 2 1 1 1 1 2 2 2 2 2 1 1 1 1 1 1 1 3 3 3 3 3 5 5 4 3 1 2 1 2 2 3 2 3 3 3 2 1 1 1 1 1 2 2 2 2 4 5 5 7 6 7 7 5 5 4 7 9 14 16 13 10 6 6 5 4 2 1 2 2 3 3 3 3 2 2 2 2 2 2 2 2 3 2 2 4 4 5 3 4 2 2 2 2 3 2 1 1 1 1 1 2 2 2 2 1 2 2 2 2 1 2 4 4 3 2 1 2 3 3 3 2 2 2 2 1 0 
0 1 2 2 1 0 0 0 0 0 0 0 1 1 1 1 1 1 2 2 2 1 1 2 2 2 1 1 1 1 1 1 1 1 1 0 0 0 0 0 1 1 0 0 0 0 0 0 1 2 1 1 2 3 2 3 2 2 2 2 1 1 1 1 2 2 2 2 1 1 1 1 0 1 1 2 2 2 2 2 2 2 2 2 2 3 2 2 2 1 2 2 1 1 0 1 1 2 1 1 0 0 1 2 3 4 4 4 5 5 4 4 3 2 1 0 0 0 0 1 2 2 2 3 2 2 2 2 2 2 2 2 1 2 1 1 1 0 1 1 2 2 1 2 2 3 4 4 3 3 2 2 1 2 1 1 0 0 0 0 1 2 3 3 3 3 3 3 3 2 1 1 1 2 3 4 3 3 3 3 3 3 3 3 3 3 3 4 3 3 4 4 4 3 1 1 1 1 2 3 5 5 6 5 4 4 4 3 2 1 1 1 1 1 1 0 0 1 1 2 3 3 2 2 2 2 2 3 2 2 1 1 1 1 2 1 1 1 2 2 2 2 2 2 2 1 1 1 1 1 1 1 0 1 1 3 3 4 3 3 6 6 16 22 31 59 122 156 147 95 55 48 54 60 77 78 72 69 69 90 80 63 43 41 58 78 77 52 36 30 34 56 145 197 186 122 41 39 21 11 5 6 4 4 3 3 3 2 2 3 4 4 3 3 2 2 2 3 3 4 3 4 3 3 1 1 0 1 1 2 1 2 1 1 2 1 2 1 2 2 3 2 3 3 3 3 2 1 1 2 2 2 2 2 1 1 0 1 1 1 0 0 0 0 0 0 0 1 1 1 0 0 0 1 1 2 2 2 1 1 1 1 2 2 2 2 2 2 2 1 2 2 2 2 2 1 1 1 1 1 1 2 2 2 2 3 3 4 4 3 2 1 2 1 2 2 3 3 3 3 3 2 1 1 1 2 2 2 2 1 2 3 4 4 5 5 6 6 5 4 4 5 9 11 12 10 7 5 4 4 3 2 1 2 2 3 3 3 3 2 1 1 2 3 3 3 3 3 3 3 3 4 5 3 4 2 2 1 2 2 3 2 2 1 1 1 2 2 1 1 1 2 3 2 2 1 2 4 4 3 2 1 2 2 2 2 1 1 1 1 1 0 
0 1 2 2 1 1 0 1 1 1 1 1 1 1 1 1 1 1 3 3 3 2 1 2 2 2 2 1 2 2 1 1 1 1 1 0 0 0 0 0 1 1 1 0 0 0 0 1 1 1 1 2 2 3 3 3 2 3 3 3 2 3 3 2 2 2 2 2 2 2 1 1 1 2 2 2 2 2 2 2 2 2 2 2 2 2 2 2 1 1 1 1 1 1 1 2 2 3 2 1 1 0 0 1 2 3 3 4 5 5 5 4 3 2 1 0 0 0 0 1 1 2 3 3 3 3 2 2 2 2 2 2 1 1 1 1 1 0 1 2 2 2 1 2 3 4 4 4 3 3 3 3 2 2 1 1 0 0 0 1 1 2 3 4 5 4 4 3 3 2 2 1 1 2 3 3 3 3 3 4 5 5 5 5 4 4 3 3 3 3 3 4 4 3 2 1 2 1 2 2 4 5 5 4 3 3 2 2 1 1 1 1 1 1 1 1 0 1 1 2 3 3 2 2 2 2 2 3 2 2 1 1 2 2 3 2 2 1 1 1 2 2 2 2 2 2 1 1 1 1 1 0 0 0 1 2 2 3 3 3 5 5 11 18 30 41 110 149 159 117 58 40 43 57 73 86 82 80 78 105 94 91 47 42 58 78 81 55 37 34 41 60 143 188 177 116 44 38 22 11 5 7 4 5 4 4 4 3 2 2 3 3 3 3 2 2 2 3 2 3 3 3 3 3 2 1 1 1 2 2 2 2 2 2 2 1 2 1 2 3 3 3 3 3 3 2 1 1 1 1 1 1 2 2 2 1 1 1 1 1 1 0 0 0 1 0 1 1 2 1 0 0 0 0 1 1 2 2 1 1 1 1 1 2 2 2 2 2 2 2 3 2 2 2 2 1 1 1 1 1 1 2 2 3 3 3 3 4 3 3 2 2 2 1 2 3 4 4 3 3 3 2 1 1 2 2 2 2 1 1 1 2 4 4 5 4 6 6 6 5 4 3 6 8 10 9 6 3 3 3 2 2 1 2 3 4 3 3 2 1 1 1 2 3 3 4 5 5 4 3 4 5 5 4 3 1 1 1 1 2 2 1 1 1 2 1 2 2 1 1 1 2 2 2 1 1 3 4 4 3 2 1 2 2 2 2 1 1 1 0 0 0 
0 2 2 1 1 1 1 2 2 2 2 2 2 1 1 1 2 3 5 5 4 3 2 3 2 2 2 1 2 2 2 1 1 1 1 1 0 0 0 1 2 2 2 2 2 2 1 1 2 2 1 1 2 3 3 3 3 2 2 2 2 2 2 1 2 2 2 2 2 2 2 2 2 3 3 2 2 2 3 3 3 3 3 3 3 4 3 2 1 1 1 1 1 1 2 2 3 2 2 2 2 1 1 1 1 2 2 3 4 4 3 3 3 2 1 1 0 0 1 1 2 3 3 4 3 3 3 2 2 2 2 2 2 1 2 2 1 1 1 2 2 2 1 2 3 4 4 3 3 3 3 3 3 2 1 1 1 1 1 1 2 2 3 3 2 2 3 3 3 2 2 1 1 2 3 3 3 3 4 4 5 4 4 4 4 4 4 5 5 6 6 5 5 4 3 2 2 2 4 3 4 4 3 3 3 2 2 2 2 1 2 2 2 2 1 1 1 0 1 2 2 2 2 1 2 2 2 2 2 3 3 3 2 3 3 2 2 2 2 3 3 2 3 3 3 3 1 2 2 2 1 0 0 0 1 2 3 2 2 2 4 4 7 12 24 28 88 139 164 148 91 59 45 47 60 77 64 63 67 90 104 105 73 57 65 75 84 60 42 33 40 47 129 180 178 120 47 34 21 9 5 6 5 5 5 5 5 4 2 2 3 2 2 2 2 3 2 2 2 2 2 2 2 2 2 2 1 2 2 2 2 2 1 2 2 2 2 2 3 3 3 3 3 3 2 2 1 1 1 1 1 1 1 2 2 2 1 1 1 2 2 2 2 2 2 2 2 2 2 1 1 1 1 1 1 1 2 2 2 3 3 3 2 3 2 2 2 2 3 3 3 2 2 2 2 2 2 2 2 2 3 3 3 2 2 2 3 3 2 2 1 1 2 3 4 4 4 4 4 4 4 3 2 1 2 2 3 2 1 1 1 2 2 3 3 4 4 5 5 4 3 3 4 4 4 3 3 3 2 2 2 2 2 3 3 3 3 2 2 1 1 2 2 3 3 3 3 3 3 3 3 3 3 3 2 2 1 1 2 2 2 1 1 1 1 1 2 1 1 1 1 2 2 2 2 2 3 4 4 3 2 1 1 1 2 1 1 1 1 0 0 0 
0 1 2 1 1 1 2 2 2 2 2 2 2 1 1 1 3 3 4 4 4 3 3 3 3 2 1 2 3 3 2 1 1 2 1 1 0 0 0 1 1 1 1 2 2 2 2 2 2 2 2 1 1 2 3 3 3 3 4 4 4 4 4 3 2 2 2 2 2 2 2 1 2 3 3 2 1 2 2 3 4 5 5 5 4 3 3 2 1 1 1 1 1 2 2 3 3 3 2 2 2 2 1 1 1 1 2 3 3 3 3 3 2 2 1 1 1 1 1 2 2 3 3 4 4 3 3 3 2 2 2 3 3 2 2 2 2 2 2 2 2 1 1 2 3 3 3 2 1 2 3 3 3 2 1 1 1 1 1 2 2 2 3 3 3 3 3 3 3 3 2 1 2 3 3 3 3 4 4 5 5 6 6 4 3 3 4 6 6 6 6 6 6 5 4 4 5 5 5 4 4 3 3 2 3 3 2 2 2 2 2 2 3 3 2 2 1 1 1 2 2 3 2 2 2 3 2 2 2 3 4 4 3 3 3 3 2 2 2 3 3 3 3 4 4 3 2 2 2 2 2 1 0 1 2 3 3 2 2 2 2 3 4 9 17 23 53 110 147 165 135 95 66 52 48 59 47 44 57 68 90 89 89 69 81 75 80 56 37 30 35 49 132 182 172 116 43 32 19 7 4 5 4 4 5 5 5 3 2 1 1 2 2 2 2 2 2 2 1 2 2 2 2 1 1 1 1 2 2 3 3 3 3 4 3 3 2 2 3 3 3 3 2 3 2 2 1 1 1 1 0 0 1 2 2 2 1 1 1 2 2 2 2 2 2 2 3 3 2 2 1 1 0 0 0 1 2 2 3 4 4 4 3 2 2 2 2 2 3 3 3 3 3 3 2 2 2 2 2 2 2 2 2 1 1 1 2 2 1 1 1 2 2 3 3 4 4 4 3 3 3 3 2 2 2 2 3 2 1 1 0 1 2 3 4 4 5 5 4 4 3 2 2 3 3 4 3 2 2 2 2 3 3 4 3 3 2 2 1 1 2 2 2 3 3 3 3 3 3 3 3 3 3 2 1 1 1 1 2 2 2 1 0 0 1 1 2 1 1 1 2 2 2 2 2 3 3 3 3 3 2 1 1 1 1 2 1 1 1 1 0 0 
0 1 2 1 1 1 2 2 2 2 1 1 1 1 2 2 3 3 4 4 4 4 4 4 4 3 2 2 3 4 3 2 2 2 2 1 0 0 0 1 2 3 3 3 3 3 3 2 3 2 2 1 1 2 3 3 3 2 3 3 4 4 3 3 2 2 2 2 2 2 1 1 2 3 2 2 1 2 2 3 4 5 6 5 6 5 3 2 1 1 1 1 1 2 2 3 3 3 3 2 2 2 1 1 1 1 2 2 2 2 1 1 1 1 1 1 1 1 1 2 2 3 3 3 2 2 3 3 3 4 4 4 4 5 4 3 2 2 2 2 2 2 2 3 3 2 2 1 1 1 2 3 2 2 1 1 1 1 2 2 2 2 2 2 2 2 3 3 2 2 2 2 1 2 3 4 6 7 7 8 8 7 5 3 3 3 5 6 8 9 9 7 7 6 5 4 5 5 6 6 5 3 2 2 3 3 2 2 2 2 2 2 2 2 2 2 1 1 2 3 3 3 3 2 3 3 3 3 3 4 6 6 4 3 2 2 2 2 2 3 3 3 4 5 6 5 4 3 3 3 3 2 1 2 3 3 3 3 3 2 2 3 3 8 10 22 33 73 115 152 160 136 100 72 51 44 37 38 42 49 71 75 91 78 94 85 77 53 32 29 32 71 144 187 161 105 38 32 17 8 6 7 6 5 6 5 5 3 2 2 2 2 2 2 2 3 2 2 1 2 2 2 2 1 1 1 1 2 2 3 3 3 3 3 3 2 1 2 3 3 3 2 3 3 3 3 3 3 2 1 1 1 1 2 2 2 2 1 2 2 2 2 2 2 2 3 3 3 3 2 2 2 1 1 0 1 2 3 4 4 4 4 4 3 2 1 1 1 3 3 4 4 4 5 5 4 3 4 3 3 3 2 2 2 1 1 1 2 2 2 2 2 2 3 4 4 3 3 4 5 5 4 2 3 2 2 2 1 1 1 1 1 2 2 3 4 4 4 3 3 3 3 2 2 1 2 2 2 2 3 3 3 4 4 3 3 2 2 2 2 2 3 3 3 2 1 0 1 2 3 3 3 2 2 2 2 1 1 2 2 1 1 0 0 1 1 2 1 1 1 2 2 3 3 3 3 3 2 2 2 2 2 1 1 2 2 2 2 1 0 0 0 
0 1 1 1 1 1 2 3 2 2 2 2 2 1 2 2 3 3 3 2 3 4 5 5 4 3 3 3 4 4 3 2 2 2 2 1 1 1 1 1 2 2 2 2 2 2 2 3 3 3 2 1 1 1 2 3 3 3 4 4 4 4 3 3 3 2 3 2 2 1 1 0 2 2 2 2 1 2 3 4 5 5 7 5 6 5 3 2 1 1 1 1 2 3 3 3 3 2 3 3 2 2 1 1 2 1 2 2 3 2 1 1 0 0 0 0 0 0 1 1 2 3 3 2 2 1 2 3 3 2 2 3 4 4 3 3 3 2 2 2 1 1 2 3 4 4 3 2 2 2 3 3 2 2 1 1 1 1 2 2 2 2 2 2 2 3 3 3 2 2 2 3 3 3 4 5 6 7 9 8 8 7 7 4 3 4 5 6 8 7 7 8 9 7 6 6 7 7 6 5 4 3 2 2 3 3 2 2 1 1 2 2 2 3 2 3 3 2 3 3 3 3 3 3 3 3 3 3 4 5 5 5 4 3 2 2 1 1 2 2 3 3 4 5 6 6 5 4 3 3 3 2 3 3 3 3 3 2 2 1 1 2 2 7 9 17 22 37 68 112 147 159 139 109 74 50 35 30 34 43 42 47 66 76 90 78 59 41 33 38 54 105 170 187 144 87 37 31 13 6 6 6 6 5 5 4 4 2 1 0 1 1 2 2 2 2 2 1 2 2 3 3 3 2 1 1 2 2 3 3 4 4 4 4 3 3 2 2 3 3 3 3 3 4 4 3 3 3 2 2 1 1 1 2 2 2 2 2 2 2 2 2 1 1 2 2 3 3 2 2 2 2 1 1 0 1 1 2 3 3 3 4 3 2 1 1 1 2 3 3 3 4 4 5 5 4 4 5 4 4 3 3 2 2 1 1 2 2 3 2 2 2 2 2 3 3 3 3 4 6 6 5 4 3 2 2 2 1 1 1 1 1 2 3 4 5 5 5 4 3 3 3 2 2 1 2 1 3 3 4 4 3 3 3 3 3 3 3 3 3 3 3 3 3 2 1 1 1 2 3 2 3 2 3 2 1 1 1 1 1 1 1 1 1 1 1 2 1 2 1 2 3 3 4 4 3 3 2 2 2 3 2 2 2 2 2 2 2 1 1 0 0 
0 1 1 1 1 1 2 2 2 2 2 2 2 1 2 2 2 3 3 3 4 4 5 5 4 4 3 4 4 4 3 2 1 1 1 1 1 1 1 2 3 3 3 3 3 2 2 3 3 2 2 1 1 1 3 3 3 2 2 2 2 3 4 3 3 2 2 2 1 0 0 0 1 2 2 2 1 3 3 5 6 5 5 4 5 4 4 3 1 1 1 1 2 3 3 3 2 2 3 3 2 2 2 2 2 2 3 3 3 2 1 1 0 0 0 0 0 0 1 2 3 3 3 2 1 1 2 3 4 4 4 4 5 6 6 4 3 2 2 2 2 2 2 3 4 5 5 5 5 5 5 4 3 2 1 1 1 2 2 2 2 2 2 2 2 3 3 3 3 2 2 2 2 2 2 6 9 12 11 10 11 8 7 5 6 5 5 5 6 7 9 9 9 9 8 6 5 5 4 5 4 3 3 3 4 3 3 2 1 0 1 2 2 2 2 3 3 4 5 5 5 4 4 4 4 4 4 3 4 5 6 7 5 4 2 2 1 1 2 2 2 3 4 5 6 6 5 5 3 3 2 2 2 2 2 2 2 2 2 1 2 2 2 5 7 10 20 26 38 68 98 136 154 148 117 75 44 32 27 37 34 39 45 57 77 80 82 75 76 76 102 150 190 168 119 59 37 28 13 9 8 8 7 5 5 4 3 2 1 1 1 2 2 3 2 2 2 2 3 3 4 4 4 3 3 3 3 4 4 4 4 3 3 3 3 2 1 2 3 3 3 3 4 4 5 5 5 5 4 3 2 1 1 1 2 2 2 2 2 2 1 2 1 1 1 2 2 2 2 2 2 2 1 1 1 1 2 2 3 2 2 3 3 2 1 0 1 2 3 3 3 3 4 6 6 5 5 6 6 5 4 3 2 2 2 1 2 3 4 3 2 1 1 1 2 2 3 4 5 5 6 5 4 3 3 2 2 1 1 1 1 2 2 2 3 3 3 3 3 3 3 2 2 2 1 2 2 3 4 4 4 3 2 2 3 4 4 4 4 3 3 3 3 3 2 1 1 1 2 2 2 3 3 3 2 1 1 1 1 1 1 1 1 1 2 2 2 2 2 2 2 3 3 4 4 3 3 2 1 1 2 2 2 2 2 2 2 2 1 1 0 0 
0 0 1 1 1 1 2 2 1 2 2 2 2 2 2 2 2 3 3 3 3 4 4 3 2 3 4 3 3 3 3 2 2 2 2 1 1 1 1 2 3 3 3 3 3 3 3 2 3 3 3 1 2 2 3 3 2 2 2 2 2 3 3 2 3 3 2 1 0 0 0 0 2 2 2 2 2 3 4 5 5 5 5 3 4 5 4 3 1 0 0 1 3 3 3 2 1 2 3 3 2 2 2 3 3 2 3 3 2 2 1 1 0 0 0 0 0 0 1 2 3 3 3 2 2 2 3 4 4 3 3 3 4 4 4 3 2 2 2 2 1 1 2 3 4 5 5 5 4 5 5 4 2 1 1 1 2 2 3 3 2 1 1 2 2 2 3 2 2 2 2 2 2 3 3 6 7 8 9 9 11 15 21 22 21 19 16 12 7 5 7 8 11 8 8 7 6 6 4 4 4 3 3 4 5 4 3 2 1 0 1 1 3 3 3 4 4 5 4 4 4 4 4 4 3 3 3 4 4 4 5 6 5 4 3 1 1 1 1 2 2 3 4 6 7 6 5 5 4 3 2 2 2 2 1 1 2 2 2 2 2 2 2 3 6 9 16 25 29 35 56 93 135 160 158 128 88 58 35 34 29 33 43 56 85 82 87 84 95 105 139 175 181 139 90 42 34 20 8 7 6 5 5 3 4 3 3 1 1 1 1 2 3 3 2 1 1 1 2 2 4 5 6 5 5 4 4 4 4 4 4 4 4 3 3 3 3 3 3 3 3 3 4 4 4 5 5 4 4 3 2 1 2 1 2 1 2 2 2 1 2 2 2 2 2 2 2 2 2 2 1 1 1 1 1 1 2 2 2 3 3 3 3 2 1 0 2 3 4 3 2 3 4 5 6 6 6 6 6 5 4 3 3 2 2 1 3 4 4 3 1 1 1 1 1 2 3 3 4 4 4 4 3 3 3 3 3 2 1 1 1 2 3 3 3 3 3 3 3 3 3 3 3 3 2 3 3 4 4 4 2 2 1 2 3 3 4 4 3 3 3 3 3 2 1 1 1 1 2 2 2 2 2 2 2 1 1 1 1 1 1 1 2 1 2 2 2 2 2 2 2 3 3 3 3 3 3 2 2 1 2 2 2 2 2 2 2 1 1 1 0 0 
0 1 2 2 2 1 2 1 1 1 1 2 2 1 1 1 1 1 2 2 3 3 3 2 2 2 3 3 2 2 2 2 2 2 2 2 1 1 1 1 2 2 2 2 2 2 2 2 3 2 2 1 2 3 3 4 3 2 2 2 2 3 3 3 3 3 2 0 0 0 0 1 2 3 3 2 2 3 3 4 5 5 5 4 5 5 3 3 1 1 1 2 3 3 3 2 1 2 3 2 3 3 3 3 3 3 3 3 2 2 2 1 1 1 1 1 1 1 2 3 3 4 3 3 3 3 4 4 5 5 5 4 4 4 4 3 2 1 1 1 1 1 1 2 4 5 6 6 6 6 6 4 3 2 1 2 2 2 3 2 2 2 2 2 2 2 3 4 4 3 2 2 3 2 2 4 7 9 10 14 22 26 27 24 22 21 20 18 15 11 11 9 10 8 8 7 5 4 3 4 3 4 4 5 5 5 4 3 1 1 1 1 2 3 3 3 4 5 5 5 5 5 5 4 4 4 3 3 3 4 5 5 5 3 2 1 1 0 1 1 2 3 4 4 4 4 4 4 4 3 1 2 2 1 1 1 2 2 2 2 2 2 2 4 5 9 14 21 27 27 30 49 91 131 159 162 139 108 77 54 36 28 37 51 73 80 98 100 111 119 150 166 144 104 54 32 24 13 8 7 6 4 3 2 2 2 2 1 1 1 1 3 3 3 2 1 1 1 2 2 4 5 6 5 5 4 4 3 3 3 3 3 3 3 3 2 2 2 3 3 3 3 3 3 4 4 4 4 4 4 4 4 3 2 2 2 2 2 2 1 1 2 2 2 2 1 1 2 2 2 2 1 1 1 2 2 2 2 3 3 3 3 3 2 2 1 2 3 4 3 2 2 3 4 5 5 4 4 4 4 3 3 2 2 2 2 3 4 4 4 2 2 1 1 1 2 4 3 3 2 2 3 4 4 4 3 3 2 1 1 1 2 2 2 2 2 2 2 2 2 3 3 3 3 2 3 3 4 4 3 2 2 2 2 2 3 3 3 2 3 2 2 2 1 1 1 1 2 2 2 2 2 2 2 1 2 1 2 1 1 2 1 2 2 2 2 3 3 3 3 2 2 2 2 2 2 2 2 2 2 2 2 2 2 1 1 1 1 0 0 0 0 
0 1 2 2 2 2 2 1 1 2 2 1 1 1 1 1 1 1 2 2 2 2 2 2 2 2 3 2 2 1 2 3 4 3 3 2 1 1 0 1 1 1 1 2 2 3 2 3 2 2 2 2 2 2 3 3 4 4 3 2 2 2 1 3 3 3 1 0 0 0 1 1 2 3 3 3 2 2 2 3 5 5 7 6 6 5 3 3 2 2 2 2 3 3 2 2 1 1 2 2 3 3 4 4 3 3 2 2 2 2 2 2 2 2 2 1 1 2 2 3 3 3 3 3 3 3 4 5 5 6 6 6 6 6 5 3 2 1 2 2 2 1 2 3 4 5 6 5 4 4 4 4 3 2 1 2 2 3 3 2 2 2 2 3 3 2 4 4 5 4 4 3 3 3 4 4 5 10 19 25 27 34 46 60 63 58 44 31 26 25 26 23 20 18 16 13 10 6 5 5 5 5 4 5 5 5 4 4 3 2 2 2 3 3 3 3 4 4 4 4 4 5 5 5 4 3 3 4 3 3 4 5 5 3 2 1 0 0 1 1 2 3 4 5 5 4 5 5 4 4 3 2 2 1 2 2 2 2 2 2 1 1 1 3 4 9 12 19 19 20 20 24 44 78 114 145 155 151 136 116 94 65 52 55 69 80 94 97 118 124 134 126 96 67 34 27 13 7 6 5 4 2 1 1 1 2 2 2 1 1 1 2 2 2 2 1 1 1 1 1 3 4 6 6 6 5 4 3 2 2 2 3 3 2 2 3 3 4 4 3 3 2 2 2 3 4 4 4 4 5 5 4 4 3 2 2 2 2 1 1 1 2 2 2 2 1 1 1 2 2 1 1 1 1 2 2 2 2 2 2 2 2 3 2 3 2 3 3 3 3 2 2 3 4 4 4 4 4 3 3 2 2 3 2 3 2 3 4 3 3 2 2 1 1 2 3 4 4 4 4 3 3 3 2 3 3 3 2 1 2 2 2 2 2 2 2 2 2 2 2 2 2 3 2 2 3 3 3 3 2 1 1 1 1 2 2 2 2 2 2 1 1 1 1 1 1 1 1 2 2 2 2 2 2 2 2 2 2 1 2 1 2 2 2 2 2 3 4 4 2 1 2 2 2 2 2 3 2 2 2 2 2 2 1 2 2 2 1 0 0 0 0 
0 2 3 3 3 2 2 2 1 2 1 1 1 1 1 1 1 1 1 2 2 2 2 2 2 2 3 2 2 1 2 3 4 4 3 3 2 2 1 1 1 1 1 1 2 2 2 2 2 3 2 2 1 1 2 4 4 4 4 3 2 2 2 3 3 3 1 1 1 2 2 2 2 2 3 3 2 2 1 3 5 6 9 8 7 5 3 2 2 2 2 3 3 2 2 2 1 1 2 2 4 4 3 4 3 3 2 2 2 2 3 2 2 3 3 3 3 3 3 4 3 3 4 4 4 4 4 5 6 6 6 5 5 4 4 3 2 2 2 1 2 2 2 2 3 4 5 6 6 6 5 4 3 2 1 2 1 2 2 3 2 3 3 3 3 2 3 4 6 5 5 5 5 6 5 6 12 21 27 40 58 88 101 109 108 105 96 80 54 37 31 28 23 19 18 19 19 14 8 5 4 5 5 6 5 5 4 4 4 3 4 3 3 3 2 2 2 2 3 3 3 3 4 4 4 3 3 2 2 2 2 2 2 2 1 1 0 0 1 2 3 3 3 2 2 2 3 4 4 4 4 3 4 2 3 2 2 2 2 1 1 1 2 4 5 8 9 10 11 14 15 18 22 39 64 99 125 147 159 160 149 120 90 61 59 74 108 123 125 107 93 75 54 36 23 17 6 4 5 5 3 1 1 1 2 2 3 2 2 2 2 2 2 2 2 1 1 1 0 1 2 3 4 4 3 3 2 2 1 1 2 2 2 1 2 2 2 2 3 3 2 2 1 1 1 2 3 3 4 4 5 5 4 3 2 2 2 2 1 1 1 1 1 1 2 1 1 1 1 2 2 2 2 2 2 2 2 2 2 2 3 3 3 3 3 3 4 5 5 4 2 2 3 3 2 2 2 2 1 1 1 2 2 3 4 3 3 3 3 3 2 3 3 4 4 4 4 4 4 4 4 4 4 4 4 3 3 3 3 3 3 3 3 2 2 1 1 2 2 3 2 2 2 2 1 1 1 2 1 1 1 1 1 1 1 2 2 2 2 2 2 2 1 1 1 1 1 2 2 2 2 2 2 2 2 3 3 3 2 3 3 3 3 2 2 2 4 4 4 3 2 1 1 1 2 2 2 2 3 2 3 3 2 2 1 2 2 2 2 1 1 0 
0 2 3 4 3 2 2 1 1 1 1 2 1 1 1 1 2 2 2 2 2 2 2 2 2 2 3 3 2 1 2 4 5 5 4 3 2 2 1 1 1 0 0 1 1 1 2 3 2 3 2 1 1 0 1 3 4 4 4 3 2 2 2 2 2 2 2 2 2 2 2 2 2 2 3 3 2 2 1 2 4 5 8 8 7 4 2 2 2 2 1 1 2 2 2 2 1 1 2 3 4 4 3 4 3 3 2 1 3 3 3 2 3 2 3 3 3 3 3 4 3 3 3 4 5 4 4 4 5 6 6 6 7 7 7 5 4 3 2 2 2 2 3 4 5 6 6 6 5 4 4 4 3 2 1 2 1 2 3 3 3 4 3 3 2 1 2 3 4 6 5 7 6 7 8 12 21 28 50 84 105 122 129 136 138 137 135 126 112 97 88 90 84 74 58 38 26 19 16 11 5 7 6 6 5 4 4 3 4 4 4 4 3 2 2 2 3 4 4 4 4 4 4 3 3 2 2 2 2 2 2 3 3 2 2 1 1 1 1 2 3 4 4 3 3 3 3 5 5 4 5 3 4 2 2 2 2 2 2 1 2 2 2 2 3 5 7 7 7 8 10 15 15 18 22 39 63 92 120 148 167 160 142 119 116 132 154 148 129 95 69 48 30 21 15 8 3 4 5 4 3 2 1 1 1 2 2 2 2 2 2 2 2 2 2 1 1 1 1 1 2 2 3 3 3 3 2 2 1 1 2 2 2 2 2 2 3 3 3 2 2 1 0 0 1 1 2 3 4 4 3 4 3 3 2 2 2 2 1 1 1 1 1 1 1 1 1 1 1 1 2 2 2 2 2 2 2 2 2 3 3 3 3 2 3 3 4 4 4 3 3 3 3 3 2 2 2 2 2 2 2 2 3 3 3 3 4 3 2 2 2 3 3 4 4 4 5 6 7 7 5 4 4 4 5 4 3 2 2 3 3 3 2 2 1 1 1 1 2 3 3 2 1 1 1 1 1 1 1 1 0 0 0 0 1 2 3 3 3 3 3 3 3 2 2 2 1 1 1 1 1 2 2 2 2 3 3 3 3 4 4 4 4 3 3 3 4 5 4 3 2 2 2 2 2 2 2 2 2 2 3 3 2 2 1 2 2 3 3 2 1 0 
0 3 4 3 2 2 2 2 1 1 1 1 1 1 1 2 2 2 2 3 3 3 2 2 2 2 3 3 2 2 2 3 5 5 4 3 3 3 2 2 1 1 0 1 1 2 1 2 2 3 2 1 1 1 1 2 3 3 3 2 2 2 2 2 2 2 2 2 2 2 2 1 1 2 2 3 3 2 1 1 2 4 6 7 5 3 2 3 2 1 0 1 1 2 2 2 2 2 3 3 3 3 3 3 3 3 3 3 3 3 3 3 3 3 4 3 3 4 4 4 3 3 3 4 5 4 4 4 4 4 4 4 5 5 5 4 4 3 1 1 2 3 3 3 3 3 4 5 5 4 3 3 3 2 2 2 2 2 2 3 3 3 3 2 1 1 1 2 3 5 6 7 9 10 12 20 28 50 87 115 133 137 129 120 112 116 134 146 148 145 131 130 126 118 107 88 65 39 23 16 8 7 6 7 6 4 3 2 3 4 4 5 4 3 2 2 2 2 2 2 2 2 2 2 2 2 2 2 2 3 2 2 2 1 1 1 1 1 1 2 3 3 3 2 1 2 2 4 5 4 5 3 4 3 2 2 2 2 2 2 2 2 2 2 3 3 3 2 3 4 6 9 11 14 15 16 24 41 65 94 125 145 154 148 143 146 148 130 105 64 40 27 20 16 9 5 4 5 5 5 4 3 2 2 2 3 3 3 3 2 2 1 1 1 1 1 1 1 1 1 1 1 1 1 1 1 1 1 1 1 1 1 1 1 1 1 1 1 2 2 2 1 1 0 1 1 2 3 3 2 2 2 2 2 2 2 2 2 2 2 1 1 1 1 1 1 1 1 1 1 1 1 1 1 2 2 1 2 2 2 3 3 2 2 2 3 4 5 4 3 3 3 3 3 3 3 4 3 2 1 3 2 2 3 3 3 3 2 2 2 3 4 5 5 4 4 4 6 7 7 5 5 5 6 5 4 3 3 3 4 4 3 3 2 1 0 1 1 3 3 3 2 1 1 1 1 1 1 1 0 0 0 0 0 1 2 3 3 3 3 3 3 3 3 2 1 1 1 0 1 1 2 2 2 2 2 3 3 4 4 5 4 3 2 2 3 4 4 4 3 3 3 3 3 2 2 2 2 2 2 3 3 2 2 1 2 2 3 3 3 2 0 
0 3 3 2 1 1 1 1 1 1 1 1 1 1 1 1 2 2 3 4 4 3 2 2 1 2 2 3 3 2 2 3 4 4 4 3 3 3 3 2 2 1 0 1 1 2 1 2 2 2 2 1 1 1 2 3 3 3 2 2 1 1 2 1 1 1 2 2 2 1 1 1 1 2 2 3 3 3 2 1 1 4 5 5 3 2 3 4 2 1 0 0 0 1 1 1 2 3 3 3 2 2 1 2 2 2 3 3 4 4 4 3 3 3 3 3 3 4 4 3 3 2 2 3 3 3 2 2 2 2 2 3 3 4 5 4 3 2 1 1 1 2 3 3 3 3 4 4 3 4 4 4 4 2 2 2 2 2 2 2 2 2 2 2 1 1 1 2 3 5 6 8 11 10 19 31 41 87 117 141 133 106 81 66 64 74 100 130 146 153 147 140 141 138 137 123 101 74 43 21 13 9 6 7 5 4 3 2 3 3 3 3 3 3 2 2 3 4 4 4 3 2 2 1 1 1 2 2 3 3 3 3 2 2 1 1 1 1 1 2 3 4 3 3 2 2 3 4 4 3 3 2 2 2 2 2 2 2 2 2 3 2 2 2 2 2 3 2 3 4 4 5 7 10 13 13 14 15 20 32 56 88 114 126 131 129 117 87 55 32 28 22 17 11 6 4 4 5 5 4 4 3 3 3 2 2 2 2 2 2 2 2 2 1 2 2 2 2 1 1 1 1 0 0 0 0 0 0 0 0 0 0 0 0 1 1 1 1 2 1 1 1 1 1 1 2 2 2 2 2 2 2 2 2 2 1 1 2 2 2 1 1 1 1 1 1 1 1 1 1 0 0 1 1 1 1 1 2 2 3 3 2 1 1 2 2 4 4 3 2 2 3 3 4 4 3 3 2 2 2 2 2 2 2 3 3 3 2 2 2 3 4 4 3 2 3 4 7 8 8 6 5 6 7 6 5 3 3 2 2 2 2 2 1 1 1 1 1 3 4 3 2 1 2 2 2 2 1 1 0 0 0 0 0 1 2 4 5 4 4 5 5 5 3 3 2 1 1 0 0 0 1 1 1 2 2 2 2 3 3 5 4 4 3 3 3 3 3 3 3 3 3 3 3 2 2 2 2 2 2 2 2 2 2 1 1 2 2 3 3 1 0 
0 1 2 1 1 1 2 2 2 1 1 1 0 0 0 1 2 3 3 4 4 3 2 2 2 1 2 3 3 3 2 2 3 3 3 3 3 3 3 2 2 1 0 1 1 2 2 2 1 2 2 2 2 2 2 3 3 2 1 1 1 1 2 1 1 1 1 1 0 0 0 1 1 2 2 2 3 3 2 2 2 3 4 3 2 2 2 3 2 2 0 0 0 0 1 1 2 3 3 3 1 1 0 1 1 2 3 4 4 4 3 3 3 2 2 3 4 4 4 3 1 1 1 1 1 1 1 1 1 2 2 2 2 3 3 2 1 1 0 0 1 1 1 2 2 2 2 3 2 3 3 4 4 3 2 2 2 2 2 1 1 2 1 1 1 1 2 2 4 5 7 8 9 15 26 32 61 112 136 136 90 50 29 21 32 32 59 85 116 118 118 102 108 108 124 138 139 115 76 37 15 11 6 6 5 4 3 2 2 2 3 3 3 3 3 2 2 2 2 2 1 1 1 0 0 1 2 3 3 3 3 3 3 1 1 1 1 1 1 1 2 4 3 3 3 3 4 5 4 3 2 2 2 2 2 3 3 3 3 3 2 2 2 2 2 1 1 1 2 3 3 3 4 6 8 10 12 15 17 18 23 38 59 72 74 61 45 32 28 24 22 16 13 9 7 5 5 4 4 4 4 4 2 2 2 3 2 3 3 3 2 1 1 1 1 2 2 2 2 1 1 1 0 0 0 0 0 0 0 0 0 0 0 0 0 1 1 1 1 1 1 1 1 1 2 2 3 3 2 2 1 1 1 1 1 1 1 1 2 2 2 2 1 1 0 0 0 1 1 0 0 0 0 1 1 1 1 2 2 1 1 1 1 1 2 2 3 3 3 3 2 3 4 5 5 5 5 4 2 2 2 2 2 2 2 3 3 2 2 3 4 4 4 3 2 2 3 6 8 8 6 5 6 6 6 4 3 3 2 3 2 2 2 2 2 2 2 2 3 3 3 2 2 2 2 2 1 1 1 1 0 0 0 0 0 2 3 4 4 3 3 3 3 3 2 2 1 1 0 0 0 1 1 1 1 1 2 2 2 3 4 4 5 4 4 4 4 4 3 2 2 3 4 3 3 2 2 2 2 2 1 1 1 1 1 1 1 1 1 1 0 0 
0 1 2 1 1 2 2 3 2 2 1 0 0 0 0 1 2 3 3 3 3 3 2 2 2 2 1 2 3 3 2 2 3 3 3 2 2 3 3 3 2 1 0 1 2 2 2 2 1 2 2 2 2 2 3 3 2 2 1 1 1 1 2 1 1 1 1 1 0 0 0 1 2 2 2 2 2 2 3 3 3 4 3 3 2 1 2 2 2 1 1 0 0 0 0 1 2 3 2 2 1 1 0 0 1 1 2 3 3 3 3 2 2 2 2 2 3 3 2 1 1 1 1 1 1 1 1 2 2 2 2 1 1 1 1 1 1 0 0 0 0 0 0 0 1 2 2 2 2 3 4 5 4 3 1 1 2 2 2 1 1 1 1 1 1 2 3 4 4 5 7 9 16 26 37 42 92 128 142 112 53 25 22 22 36 46 80 68 89 68 75 52 49 50 69 99 137 143 108 64 18 14 6 7 5 5 3 2 3 2 2 2 3 3 3 2 3 3 3 3 2 2 1 1 0 1 2 3 4 4 4 3 3 1 1 1 1 1 1 2 3 4 4 4 3 3 4 4 4 3 2 2 1 2 2 4 4 4 3 2 2 2 3 3 2 1 1 1 2 3 3 3 4 6 8 10 10 10 12 13 15 16 18 16 13 12 16 19 20 15 11 8 7 6 6 5 5 4 5 5 5 4 3 3 2 2 2 2 3 3 3 2 2 1 2 2 2 2 1 1 1 1 1 0 0 0 0 0 0 0 0 0 0 0 0 1 1 0 0 1 2 2 1 2 2 2 2 2 2 2 2 1 1 1 1 1 1 1 1 2 2 2 2 1 1 0 0 1 1 0 0 0 1 1 2 1 1 2 2 2 1 1 1 1 1 2 3 3 3 3 3 4 5 5 5 4 4 4 4 6 6 4 4 4 5 5 5 4 3 3 3 3 3 2 2 2 3 5 7 7 5 5 5 5 5 4 3 3 2 2 2 2 2 2 3 3 3 3 3 3 3 2 2 2 3 2 2 1 1 1 1 0 0 0 0 1 2 3 3 3 3 3 3 3 2 2 1 1 1 1 0 0 1 1 2 2 1 2 2 3 4 5 5 5 4 4 4 3 2 2 2 3 4 3 3 2 2 2 1 1 1 1 1 2 2 1 1 1 0 0 0 0 
0 1 1 1 2 3 3 3 2 1 1 0 0 0 1 1 2 2 2 3 3 3 3 2 2 2 1 1 2 2 2 2 2 3 3 2 2 2 3 3 2 2 1 1 2 3 3 3 2 2 2 2 2 2 3 3 2 1 0 0 1 1 1 2 2 2 1 1 0 0 0 1 2 2 2 2 2 1 2 2 3 3 4 2 3 2 2 1 1 1 1 0 0 0 0 1 2 3 2 2 1 2 1 0 1 1 2 2 3 3 3 2 2 2 2 2 1 1 1 1 1 1 1 1 1 1 1 2 3 3 3 3 2 2 3 2 2 1 0 0 0 0 0 0 1 2 2 2 2 3 4 4 3 2 2 2 1 2 2 2 2 2 2 1 1 2 3 5 7 8 11 17 24 30 36 41 96 133 140 95 42 30 27 25 41 62 86 73 81 56 65 59 56 41 36 55 108 148 133 92 28 14 7 7 5 4 3 2 2 2 2 2 2 3 2 2 2 3 3 3 2 2 2 1 1 1 2 3 4 3 2 2 2 1 1 2 2 2 2 2 2 3 3 3 4 5 6 7 5 4 3 1 1 2 2 4 3 3 3 3 3 2 3 3 2 1 1 1 2 3 3 3 4 5 6 6 6 6 8 9 13 15 17 17 14 12 11 12 11 10 9 11 9 8 6 6 6 4 4 4 4 3 2 3 3 2 2 2 3 3 3 2 2 1 2 2 2 2 2 2 1 1 1 1 1 0 0 0 0 0 0 0 0 0 1 1 1 0 0 1 2 2 1 2 2 2 3 3 2 2 2 1 1 1 1 1 1 1 1 1 2 2 2 2 1 1 2 2 2 1 1 1 1 1 1 1 2 2 2 1 1 0 1 1 1 1 2 2 3 2 3 4 5 5 5 5 5 6 5 6 6 7 5 5 5 6 6 6 6 6 6 7 6 4 3 2 3 5 7 7 4 4 4 5 5 4 3 2 2 2 3 2 2 3 3 3 3 2 3 3 3 2 2 2 3 3 2 1 1 1 1 0 0 0 0 0 1 1 1 1 1 1 2 2 2 2 2 1 1 1 1 1 1 1 2 2 1 2 1 2 3 4 6 6 6 6 5 4 3 2 2 3 3 3 3 3 2 2 1 1 1 1 1 2 1 1 0 0 0 0 0 0 
0 1 2 1 2 3 3 3 2 1 1 1 1 1 1 1 2 2 2 2 2 3 3 3 2 2 1 1 2 2 3 3 3 4 4 3 3 3 4 4 4 3 3 2 3 3 2 2 2 2 1 1 2 2 2 2 2 1 1 1 1 1 2 2 2 2 1 1 1 1 1 1 1 2 2 2 1 1 2 2 2 2 3 3 3 2 2 1 1 1 1 0 0 0 1 1 2 2 2 2 1 2 1 1 1 1 2 2 3 3 3 3 3 3 2 1 0 0 1 1 2 2 2 1 1 1 1 2 3 3 2 2 2 2 2 2 2 2 1 1 1 1 0 0 1 1 2 2 2 3 4 4 4 3 2 2 1 2 2 3 3 3 3 2 3 3 5 6 6 10 19 25 33 43 62 82 122 141 128 92 51 48 42 50 54 72 80 70 61 51 60 62 60 52 40 39 76 135 142 114 48 15 10 8 5 5 3 2 2 2 2 2 2 2 2 2 2 2 3 3 2 2 2 2 2 2 4 4 4 4 4 3 2 1 1 1 1 1 2 2 2 2 2 2 4 5 6 6 5 3 3 1 1 2 2 3 3 2 3 3 3 3 3 3 2 1 1 1 2 3 3 3 3 4 5 5 5 4 5 6 8 10 14 15 11 9 9 8 8 10 7 10 7 7 6 7 6 5 5 6 5 4 3 3 2 2 2 3 4 4 4 3 2 2 2 2 2 2 1 1 1 1 1 1 2 1 1 0 0 0 1 1 1 1 1 1 1 0 0 1 2 2 2 2 2 2 2 2 3 3 2 2 1 1 2 2 2 1 2 2 2 2 2 2 2 2 2 2 2 2 2 1 1 1 1 1 2 2 2 2 2 1 1 1 2 3 3 2 3 4 5 4 4 4 4 4 5 8 13 19 22 21 19 19 20 20 20 19 18 16 13 11 9 6 4 3 3 4 6 5 4 4 4 4 3 2 2 2 3 3 3 2 3 3 3 3 2 2 3 3 3 3 2 2 3 4 3 2 1 1 1 0 0 0 0 1 1 1 1 1 1 2 3 3 2 1 1 1 1 1 1 1 1 1 2 1 2 1 1 1 3 4 5 5 5 6 5 5 3 2 2 2 3 2 3 3 3 2 1 1 1 1 1 1 1 1 1 0 0 0 0 0 
0 1 2 1 1 2 2 2 1 1 1 1 1 1 1 1 1 1 1 1 2 3 3 3 3 3 2 2 2 2 2 3 3 3 3 3 2 2 3 4 4 4 4 4 4 3 3 3 2 3 3 3 3 2 2 1 1 1 1 1 1 1 2 2 2 2 1 1 1 1 1 1 2 2 2 2 2 2 2 2 3 3 4 3 3 2 2 2 1 1 1 1 1 1 1 1 2 2 2 2 1 1 1 1 0 1 1 2 2 3 3 3 3 3 3 1 0 0 1 2 2 2 2 2 1 1 1 2 2 3 3 3 2 2 2 2 3 3 3 2 2 2 1 1 1 1 2 2 2 3 4 4 3 3 3 3 2 2 2 4 4 5 4 3 4 4 6 7 10 21 29 38 58 82 107 124 141 141 111 88 57 76 73 81 73 73 64 51 36 37 46 57 62 65 59 52 56 121 141 125 69 17 15 9 5 5 2 2 2 2 2 2 2 2 1 2 2 2 2 2 3 3 3 3 3 3 4 4 4 3 2 2 2 2 2 2 3 3 3 2 2 1 0 1 3 5 6 7 5 3 1 1 1 2 3 3 2 2 2 3 3 3 3 2 2 1 2 1 2 3 3 3 3 3 4 4 4 3 4 6 9 10 9 9 9 9 9 11 10 9 8 11 8 7 6 6 5 4 3 4 3 2 1 2 2 3 4 5 6 5 4 3 2 1 2 2 2 2 1 1 1 1 1 1 1 1 0 0 0 0 1 1 2 2 2 1 1 0 1 1 2 2 2 2 2 2 2 2 2 3 3 2 1 1 2 2 2 2 2 1 2 3 3 3 3 3 2 2 3 3 3 2 1 2 2 2 3 3 3 3 2 2 3 3 4 4 4 4 5 6 6 7 7 7 7 6 10 17 22 22 21 21 23 29 38 43 39 30 23 23 24 25 22 16 10 6 5 4 5 4 3 3 4 5 4 4 4 4 4 4 3 2 3 3 4 3 2 2 2 3 3 3 3 4 5 6 5 3 2 1 1 0 0 0 0 1 1 1 0 0 1 2 2 2 2 2 1 1 1 1 2 2 2 2 2 1 2 1 1 1 2 3 4 4 4 4 4 4 3 2 1 2 2 2 3 3 4 3 1 1 1 1 2 2 2 2 2 2 1 1 0 0 
0 1 2 3 3 4 3 3 1 1 0 1 1 1 1 1 1 1 1 1 1 2 3 3 3 3 3 2 2 2 2 3 3 4 4 3 2 2 2 3 4 4 4 4 5 5 4 4 3 4 4 4 3 2 1 1 1 1 2 1 1 1 2 3 2 1 1 1 1 1 1 2 2 3 3 3 3 3 2 2 2 3 3 3 3 2 2 1 1 2 2 3 3 3 2 2 2 2 2 2 2 2 1 1 1 0 0 1 2 2 3 3 3 3 3 2 1 1 1 2 3 2 3 2 2 2 1 2 2 2 2 2 2 2 2 2 3 3 3 3 3 2 2 2 1 2 2 2 3 3 4 4 4 4 3 3 2 2 2 3 4 5 4 4 5 5 7 7 13 26 35 62 96 130 153 154 137 110 80 66 62 100 101 102 76 57 43 28 19 21 25 31 43 62 70 66 62 121 145 130 79 21 19 11 6 6 3 2 2 2 2 2 2 2 1 2 2 2 2 3 4 4 4 3 3 3 4 5 5 5 5 3 3 2 2 2 2 2 2 3 2 2 1 3 4 6 7 7 5 3 1 1 1 3 3 3 2 2 2 2 3 3 3 3 2 2 2 1 2 2 3 3 3 2 3 3 3 3 3 4 5 7 9 8 6 6 7 8 8 9 7 7 7 7 5 5 4 3 4 4 4 3 3 3 3 4 6 7 7 6 5 4 2 2 2 2 2 2 1 1 1 1 2 2 2 2 1 1 1 1 1 2 2 2 2 2 1 1 1 1 1 1 2 2 2 2 2 2 3 3 3 2 1 2 2 3 3 2 2 2 3 4 4 4 4 3 2 1 3 3 3 2 2 3 2 2 2 2 2 3 3 3 4 4 5 6 6 7 8 10 9 8 8 9 11 17 30 32 38 44 61 66 70 69 64 68 80 91 87 73 52 35 24 19 15 10 5 4 3 4 3 5 6 6 5 4 5 6 5 4 3 3 4 4 4 2 2 2 2 2 3 4 4 6 6 7 6 4 2 1 1 1 1 1 1 1 1 1 0 0 1 2 3 3 3 2 1 1 1 1 2 2 2 1 2 2 2 1 2 1 2 4 5 5 5 6 6 5 3 2 2 2 2 2 2 3 3 3 3 2 2 2 2 2 2 2 3 3 3 2 1 0 
0 1 3 3 4 4 3 3 2 1 0 1 1 2 1 2 1 1 1 1 1 1 2 3 4 4 4 4 3 2 2 3 3 3 2 2 1 1 1 1 2 3 3 4 4 5 5 4 4 4 4 4 3 2 1 1 1 1 1 1 1 2 2 2 1 1 1 1 1 1 1 2 3 4 5 4 4 4 3 4 4 4 4 4 3 3 2 1 1 2 3 3 3 3 3 2 2 1 1 1 1 1 1 1 1 0 0 1 1 1 2 2 2 2 2 2 1 1 1 1 2 3 3 2 2 2 1 2 2 3 3 3 3 2 2 2 2 3 3 4 4 3 3 2 1 2 2 2 3 3 3 3 3 3 3 2 2 2 2 2 3 4 4 3 4 4 6 9 21 29 49 95 138 161 156 131 106 79 64 65 90 111 111 102 74 48 31 22 19 20 21 21 26 51 70 74 82 114 138 122 77 26 23 15 6 7 3 3 2 2 2 2 2 2 3 2 2 3 3 4 4 4 3 3 2 3 3 4 5 4 4 4 3 3 3 3 3 3 2 2 2 1 1 2 3 4 4 4 3 2 1 1 2 4 4 4 2 2 2 2 2 3 2 2 2 2 2 2 1 1 2 3 3 2 2 1 2 2 2 3 6 7 6 4 4 5 8 11 10 8 9 9 7 5 4 3 3 3 4 4 3 4 4 4 4 4 5 6 7 6 4 3 2 1 2 2 2 2 2 1 1 1 1 1 0 0 0 0 0 0 0 1 1 1 2 2 2 2 2 1 1 1 1 2 3 2 2 2 2 2 2 3 2 3 3 3 3 2 2 3 3 5 4 5 4 3 3 2 3 3 3 2 2 3 2 2 2 2 2 3 3 2 3 4 6 7 6 7 11 12 12 11 9 14 28 41 48 60 86 98 100 93 96 101 128 153 168 170 160 146 125 98 63 37 22 17 8 4 3 6 5 6 7 8 7 6 7 7 6 6 3 4 5 4 4 2 2 1 3 2 3 4 5 7 9 8 6 4 3 2 2 2 1 1 2 2 1 1 0 0 1 1 2 3 3 2 1 1 1 1 2 2 3 1 2 1 2 1 2 2 2 3 3 3 3 3 3 3 3 2 2 2 2 2 2 3 4 5 4 3 3 3 3 3 3 3 3 3 3 3 2 0 
0 2 5 5 7 6 5 4 2 1 0 1 1 1 1 1 1 1 1 0 0 1 2 3 4 5 5 5 4 3 3 3 3 3 3 2 2 1 1 1 1 2 3 3 4 4 4 3 3 3 3 2 1 1 1 1 1 1 1 2 2 2 2 1 1 0 1 1 1 1 1 2 3 5 5 5 4 4 3 4 4 4 4 4 3 3 2 2 2 3 4 3 3 2 2 2 2 1 1 1 1 1 1 1 1 0 0 1 1 2 2 2 1 1 1 1 1 1 1 1 2 3 3 2 2 2 1 1 2 2 3 3 3 3 2 2 2 2 3 4 4 3 2 2 1 1 2 2 2 3 3 3 3 3 2 2 2 2 2 2 2 2 3 2 2 4 5 14 27 37 77 122 158 155 118 79 62 60 72 85 104 109 103 79 60 39 25 23 19 21 20 20 21 38 65 73 99 128 146 125 74 32 25 20 8 6 3 2 2 2 2 2 2 2 3 3 3 3 4 3 3 3 3 3 2 2 2 4 4 4 4 3 3 2 2 2 2 2 3 3 3 3 3 3 4 5 5 5 3 2 1 1 3 4 5 4 2 1 1 2 2 2 2 2 3 3 2 2 1 1 1 2 2 2 1 1 1 1 1 2 2 3 4 3 3 4 5 6 7 6 7 6 6 4 4 2 3 3 3 3 3 4 4 4 4 5 6 6 6 6 5 4 2 2 2 2 2 2 2 2 1 1 0 0 0 0 0 0 0 0 0 0 0 0 2 2 3 2 1 1 0 0 1 2 3 3 2 2 2 3 3 3 3 3 3 2 2 1 1 3 3 5 4 4 3 3 3 3 3 2 2 2 2 2 2 2 1 1 1 2 1 1 1 3 5 7 8 10 14 19 18 20 30 46 47 65 105 155 163 155 140 124 123 127 151 167 181 182 179 172 160 136 101 72 42 28 18 7 6 7 8 10 10 9 8 7 8 7 6 5 3 4 5 4 4 1 2 1 3 3 3 4 5 7 8 7 6 4 3 2 2 2 1 2 2 2 1 1 1 1 1 1 2 3 3 3 1 2 1 2 3 2 2 2 2 2 2 2 2 2 3 3 4 4 4 4 4 2 2 1 2 2 3 2 2 2 3 4 5 4 4 4 3 3 2 3 3 3 3 3 1 0 
0 2 5 6 6 5 4 3 2 1 0 0 1 1 1 1 0 0 0 0 0 0 1 2 3 4 5 5 5 4 4 4 3 2 2 2 2 2 1 1 1 1 1 1 2 3 2 2 2 2 1 1 0 1 1 2 2 2 2 2 2 2 1 0 0 0 1 2 2 2 1 2 3 4 5 5 5 4 4 4 4 4 4 4 3 4 2 3 3 3 3 2 2 1 2 2 1 1 1 0 1 0 1 1 1 1 1 1 2 2 1 1 0 0 0 1 1 0 0 0 2 2 2 2 2 2 2 2 2 2 2 2 3 3 2 1 2 2 3 4 4 4 3 2 1 1 1 2 2 3 2 3 2 2 2 2 2 2 1 1 2 2 3 2 3 3 5 21 30 53 101 145 155 121 62 46 52 64 81 98 105 95 81 60 50 41 26 19 18 24 23 21 24 31 62 74 97 118 134 135 101 61 34 22 14 7 3 3 3 2 2 2 2 2 3 2 3 3 4 3 3 2 2 2 2 2 2 3 4 4 3 3 3 4 4 3 3 3 3 3 3 3 3 3 2 2 2 2 2 1 1 1 3 4 5 4 2 1 2 2 2 1 2 2 2 2 2 2 1 1 1 2 1 1 0 0 0 0 1 2 3 3 3 2 3 4 5 6 6 5 7 6 6 4 4 3 3 3 3 4 4 4 4 4 4 4 4 4 5 5 4 3 2 2 2 2 2 1 2 2 1 0 0 0 0 0 0 0 0 0 0 0 0 0 1 2 3 3 1 1 0 0 1 2 3 3 3 2 3 3 3 3 3 3 3 2 2 1 1 2 3 4 4 4 4 4 4 4 3 2 2 1 2 2 1 1 1 1 1 1 1 0 1 2 5 7 8 12 15 19 25 34 37 52 83 157 193 213 205 181 148 122 114 125 152 164 167 153 149 150 159 165 143 105 68 35 30 18 12 11 12 12 11 12 8 6 5 6 7 7 6 5 5 5 4 1 1 1 3 2 3 3 4 5 6 6 5 4 2 2 1 2 2 2 2 2 1 1 2 2 2 2 2 2 2 2 1 1 2 2 3 2 2 1 2 1 2 1 1 1 1 2 2 2 2 2 2 1 2 2 3 3 3 2 2 3 4 5 5 4 4 4 4 4 3 3 2 2 2 3 2 0 
0 3 5 5 5 5 5 4 3 1 0 0 0 0 0 0 0 0 0 0 0 0 1 2 3 4 5 5 4 4 4 4 3 3 2 2 2 2 2 1 0 1 1 1 2 2 2 2 1 2 1 1 0 1 1 2 2 2 2 2 2 2 0 0 0 0 1 2 2 2 2 2 3 4 5 6 6 5 5 4 4 3 3 3 3 4 2 4 3 3 3 2 2 1 1 1 1 1 1 0 1 0 1 1 2 2 2 2 3 2 1 0 0 0 0 0 0 0 0 0 2 2 3 2 2 2 2 2 2 2 1 1 2 2 2 1 1 1 2 3 4 5 4 3 2 1 1 2 2 2 2 2 2 2 2 2 2 2 1 1 1 3 3 3 5 4 7 26 31 74 123 156 138 87 43 50 59 68 77 81 78 68 58 56 51 38 30 22 18 18 17 18 19 24 63 77 91 99 112 137 130 95 61 28 19 11 5 4 3 2 2 2 2 2 3 2 3 3 3 2 2 2 2 2 2 1 2 3 3 3 2 3 3 4 4 4 4 4 4 5 5 4 3 2 2 3 3 3 2 1 1 2 3 5 5 4 2 2 3 3 2 1 1 2 3 3 3 2 1 1 1 2 1 1 0 0 0 0 1 1 2 3 3 2 2 3 4 4 4 4 5 3 3 3 3 3 2 2 2 3 3 3 3 3 3 3 4 5 6 7 6 4 3 2 2 2 1 1 2 2 1 0 0 0 0 0 0 0 0 0 0 0 0 0 1 2 3 2 1 0 0 0 1 2 2 3 3 3 4 3 3 3 3 3 2 1 1 1 1 2 3 4 5 4 4 3 4 4 3 2 2 2 2 2 2 1 2 1 1 1 0 1 1 3 6 7 10 14 22 37 39 46 69 127 177 215 226 217 183 140 114 101 96 100 107 99 88 64 64 80 108 147 154 132 106 60 41 25 22 16 11 10 9 9 6 5 5 6 7 7 6 6 6 5 4 1 1 2 3 2 3 3 3 4 5 6 5 4 1 2 1 1 1 1 1 2 1 1 2 2 2 2 2 2 2 2 1 1 2 2 3 3 3 2 2 1 2 1 1 1 1 1 1 2 2 2 1 2 2 2 3 3 2 2 1 3 4 5 5 5 5 5 5 4 4 3 2 2 2 2 1 0 
0 3 4 4 4 4 3 3 2 2 1 0 0 0 0 0 0 0 0 0 0 0 0 2 2 3 3 3 4 4 4 3 3 3 2 2 2 2 2 0 0 0 0 1 2 2 2 2 2 2 1 1 1 1 1 1 2 2 2 2 2 2 1 1 1 1 1 1 2 2 3 3 4 5 6 6 6 4 4 3 3 3 3 4 3 5 3 4 3 4 2 2 2 2 2 1 1 1 1 1 1 1 2 2 2 3 3 3 3 2 2 1 0 0 0 0 0 0 0 0 2 2 3 3 2 2 2 2 2 2 1 1 2 2 2 1 1 2 3 3 5 5 5 4 3 2 1 1 2 2 2 2 2 3 3 3 2 2 1 2 2 4 4 5 7 5 11 29 30 87 132 158 129 65 57 58 66 57 48 43 40 48 54 55 57 40 34 27 19 21 19 21 24 38 65 73 74 68 84 127 153 130 92 41 24 16 6 6 5 4 2 2 2 2 2 2 2 2 2 2 2 2 2 2 2 1 2 3 4 4 2 2 3 4 5 5 5 5 5 5 6 6 5 4 2 2 2 2 3 2 2 2 3 4 5 4 3 2 4 4 3 2 1 2 3 3 3 2 2 1 1 2 2 1 1 0 0 0 1 2 3 3 2 2 2 3 5 5 5 3 3 2 3 3 4 5 3 3 2 3 3 3 3 3 3 3 3 3 4 5 4 4 3 2 2 2 2 2 1 2 1 0 0 0 0 0 0 0 0 0 0 0 0 0 0 1 2 2 1 0 0 0 0 1 2 3 4 4 3 3 2 2 2 2 2 1 1 1 1 2 4 5 6 4 4 4 4 4 3 2 2 2 3 2 2 2 2 1 1 1 1 1 2 3 7 8 10 16 26 34 43 70 114 168 213 228 208 155 107 74 73 83 87 86 80 63 58 46 45 53 77 117 143 149 133 107 83 44 27 22 16 11 8 6 5 4 4 5 7 8 7 6 6 5 4 2 2 2 2 2 3 3 3 3 4 5 4 4 2 2 1 2 1 1 1 0 0 1 1 1 1 1 1 1 2 2 2 2 2 2 2 3 3 2 2 1 1 0 1 0 1 1 1 2 1 1 1 2 3 2 2 2 2 2 1 2 3 4 4 4 4 4 4 4 4 3 3 2 2 3 2 0 
0 2 4 3 3 4 4 5 3 2 1 0 0 0 0 0 0 0 0 0 0 1 1 2 2 3 3 3 4 4 4 3 3 3 2 2 2 2 2 1 0 0 1 1 2 2 2 3 2 2 2 2 2 2 2 1 2 1 1 1 1 2 2 1 1 1 1 1 1 2 3 3 4 6 7 8 7 6 5 4 4 3 3 4 4 5 4 5 3 4 3 4 3 3 2 1 1 1 2 2 2 3 2 3 3 3 3 4 4 3 3 2 1 1 1 1 1 1 1 1 2 2 2 2 2 2 2 2 2 2 2 2 2 2 2 2 2 2 3 4 5 5 5 4 3 2 1 2 2 2 2 2 3 3 3 3 2 2 1 2 2 5 6 6 9 6 16 32 32 97 135 153 120 55 67 61 62 32 20 23 23 34 56 58 60 50 37 35 20 21 21 26 36 51 68 70 61 47 51 93 146 149 116 59 23 23 11 10 7 6 3 2 2 2 2 2 2 3 2 2 1 2 2 2 2 2 2 2 3 3 2 2 3 4 4 4 4 4 4 4 4 4 4 3 2 2 2 3 3 3 2 2 3 4 5 3 3 3 4 5 4 2 2 2 3 3 3 2 2 1 1 1 2 1 1 1 0 1 1 2 2 2 2 2 2 3 4 4 4 3 3 2 3 4 3 3 2 2 2 2 2 2 2 2 2 3 5 7 8 8 8 6 4 3 3 2 2 2 2 2 1 0 0 0 0 0 0 0 0 0 0 0 0 0 0 1 2 2 2 1 1 1 1 1 2 3 4 4 3 3 2 2 2 2 1 1 0 1 1 2 4 5 5 4 4 3 5 5 3 2 2 3 3 3 3 3 2 2 1 1 1 1 2 4 6 8 9 17 31 50 80 107 153 202 216 186 125 59 34 32 43 62 74 74 69 57 55 49 49 53 79 108 135 147 146 139 116 82 45 25 18 11 6 5 4 3 5 6 7 7 5 5 5 4 4 2 2 2 2 2 3 3 3 3 3 4 3 3 2 2 1 1 1 1 1 0 1 1 1 1 0 0 1 1 1 2 2 2 1 1 2 3 3 2 2 1 1 0 0 0 0 0 0 1 1 1 2 2 2 2 2 2 2 2 1 2 2 3 3 3 3 4 4 4 4 4 3 2 2 3 2 0 
0 2 3 2 2 3 3 3 2 2 1 0 0 0 0 0 1 1 1 1 1 1 1 2 2 2 2 2 3 3 3 3 4 3 2 2 2 2 2 1 1 1 2 2 2 2 2 3 3 3 3 2 2 2 2 1 1 1 1 1 1 2 3 3 2 2 1 0 0 1 2 3 4 4 5 6 5 4 4 4 4 5 6 7 6 6 5 5 4 4 4 6 7 9 9 9 9 10 12 13 13 12 9 9 8 7 5 3 4 5 7 6 5 5 5 4 3 2 1 1 2 1 2 1 1 1 1 2 2 3 3 3 3 2 2 2 2 4 5 5 4 3 3 3 3 2 1 2 2 2 2 3 4 4 3 3 2 2 2 2 3 5 7 6 11 6 19 33 34 100 136 147 108 56 71 65 54 24 17 21 22 29 50 56 57 49 35 41 31 37 33 40 57 69 71 60 47 40 35 58 122 153 129 77 20 24 11 12 8 7 3 2 2 3 3 3 3 3 3 2 1 2 1 2 2 2 2 3 3 2 2 2 3 4 4 4 4 4 4 4 4 4 4 4 3 2 2 3 3 3 2 2 3 4 4 3 2 3 5 6 5 4 3 3 3 3 3 2 1 1 2 1 2 2 2 1 1 1 1 2 2 2 2 2 2 3 3 4 3 2 2 2 2 3 4 4 3 2 2 2 2 2 1 1 2 3 4 4 4 5 5 5 4 3 3 3 3 3 2 2 1 1 0 0 0 0 0 0 0 0 0 0 0 0 0 1 2 2 2 2 2 2 2 2 2 3 4 4 3 2 2 2 2 2 2 2 3 3 2 3 4 4 4 3 4 4 5 4 3 2 2 3 4 4 3 3 2 2 2 1 1 1 2 6 8 10 8 15 30 57 96 133 171 181 150 102 48 25 23 22 28 38 52 57 62 56 57 48 47 51 78 101 116 115 125 145 142 117 71 38 21 19 8 7 4 5 4 4 5 4 3 4 4 4 3 2 2 2 1 2 4 4 4 3 3 2 3 2 2 1 1 1 1 1 1 0 1 1 1 1 0 0 0 1 2 2 3 3 2 1 1 2 2 2 2 1 1 0 0 0 0 1 1 2 2 2 1 1 1 1 1 2 2 2 2 1 1 1 1 1 2 3 4 4 4 4 3 3 2 4 2 0 
0 2 4 4 4 4 5 3 2 1 1 0 0 0 0 1 1 2 2 1 1 1 1 1 2 1 2 2 3 3 3 4 4 3 2 2 2 2 2 2 3 3 3 2 3 3 3 4 3 3 2 2 2 2 2 1 1 1 0 1 1 2 3 2 2 2 1 1 1 1 2 2 3 4 5 5 5 4 4 4 5 6 7 7 7 7 6 6 5 5 6 8 13 15 16 19 21 23 25 24 19 15 15 21 25 23 18 10 8 8 11 11 10 8 7 6 4 3 3 3 3 1 1 1 1 2 2 3 3 3 3 3 3 2 2 2 3 4 5 5 4 3 3 3 2 2 2 2 2 2 2 3 4 4 3 2 2 2 1 1 2 4 6 6 10 6 19 31 34 99 137 144 103 59 67 66 42 13 14 23 24 28 38 45 46 43 43 51 54 60 52 61 77 80 71 54 34 38 27 42 110 154 134 88 20 28 14 14 8 7 3 2 2 3 3 3 4 4 3 3 2 3 2 3 2 3 3 3 3 2 2 2 2 2 2 2 2 1 1 1 2 2 2 2 2 2 2 2 2 2 2 3 3 4 4 3 3 4 5 5 4 3 3 3 3 3 3 2 1 1 2 2 2 2 2 2 1 2 1 2 2 2 2 2 2 3 3 3 3 1 1 2 2 3 3 3 3 2 2 2 2 2 1 2 3 4 5 6 6 7 6 6 5 3 3 2 2 3 2 3 1 1 0 0 0 0 0 0 0 0 0 0 0 0 0 1 2 3 2 2 1 1 2 1 2 2 3 3 3 2 2 2 3 2 3 3 3 3 3 3 3 4 4 4 4 4 4 4 3 2 2 4 5 5 4 3 2 2 2 2 1 2 2 8 9 13 14 26 47 81 128 154 155 129 85 55 29 21 23 20 20 36 51 60 64 53 47 34 30 34 56 80 94 90 86 106 138 140 97 61 24 25 10 8 4 5 3 4 4 3 3 3 3 3 2 2 1 2 2 2 3 3 3 2 2 2 2 2 2 1 1 0 0 1 1 1 1 1 1 1 0 0 0 1 1 2 2 2 1 1 1 2 2 2 1 1 0 0 0 0 0 1 2 2 2 2 1 1 1 1 1 2 2 2 2 2 1 1 1 1 2 2 4 4 3 3 3 3 3 3 2 0 
0 1 3 2 2 2 2 2 2 1 1 0 0 0 1 1 2 3 2 2 2 2 2 2 2 1 1 2 2 2 3 4 4 4 3 3 3 4 4 4 4 3 3 3 4 5 6 6 5 4 3 2 2 2 2 1 1 1 1 1 1 2 2 2 2 2 1 1 1 1 1 2 1 1 2 2 3 2 4 3 6 7 10 9 8 6 6 5 6 6 12 21 25 23 22 20 23 26 32 42 47 47 38 30 26 25 26 21 15 12 13 14 12 12 10 7 5 5 3 3 3 1 1 1 1 2 2 3 3 3 2 2 2 1 2 2 3 4 5 5 4 3 2 2 2 2 2 2 2 1 2 3 4 3 2 2 2 1 1 1 1 3 4 5 8 6 15 27 31 94 140 142 108 64 69 68 42 17 19 24 23 26 30 37 35 35 46 54 70 74 75 84 92 84 69 45 29 32 18 35 111 156 140 93 20 25 14 13 8 5 2 2 2 3 3 3 3 4 4 3 3 4 3 4 4 4 4 4 4 2 2 2 2 3 3 3 3 3 3 2 2 2 2 2 2 1 1 1 2 2 2 3 3 4 4 3 4 4 5 4 3 2 2 2 2 3 3 2 1 2 3 2 3 2 2 2 1 2 1 1 2 2 3 4 4 4 4 4 3 2 2 2 2 3 3 3 3 2 2 1 1 1 1 2 3 3 4 4 4 4 5 4 4 3 3 3 3 4 4 3 2 1 0 0 0 0 0 0 0 0 0 0 0 0 0 1 2 3 2 2 2 2 3 2 2 2 3 3 2 2 2 2 3 3 4 5 7 7 4 3 3 3 4 4 4 4 4 4 2 3 3 5 5 5 4 2 3 3 3 2 1 2 2 11 11 16 24 33 68 112 156 151 119 84 55 39 29 16 20 20 27 58 62 66 56 50 45 36 29 29 41 58 73 65 57 70 118 148 119 81 30 27 12 9 5 4 3 2 2 2 3 3 3 3 1 1 0 1 1 2 3 3 3 3 3 3 3 2 2 1 0 0 0 0 1 1 1 1 1 1 1 1 0 1 1 2 2 2 2 1 1 1 2 2 1 1 0 0 0 0 1 2 2 2 2 1 1 0 0 1 2 2 3 3 2 2 2 2 2 3 3 4 5 4 4 2 2 2 3 3 2 0 
0 2 4 4 4 4 4 3 2 1 1 1 1 1 1 2 2 2 2 2 2 2 2 2 2 2 2 3 3 4 3 4 4 3 2 3 3 3 3 3 4 4 4 4 4 5 5 6 5 3 3 2 2 2 2 2 1 1 1 1 1 2 2 1 1 1 2 2 1 1 1 2 1 2 2 2 3 2 3 3 6 6 7 6 7 7 7 8 12 17 22 24 27 33 44 53 68 77 94 109 114 117 111 106 97 81 57 33 19 16 15 17 12 11 8 6 5 5 3 4 2 2 2 1 2 2 2 3 3 2 2 1 1 1 2 2 4 4 4 4 3 3 2 2 2 2 2 2 1 1 2 3 4 3 2 2 1 1 1 1 1 2 2 4 5 5 11 25 31 84 143 144 118 67 70 67 50 18 25 27 25 27 26 29 29 39 65 80 97 80 79 89 95 83 64 36 27 20 17 42 125 160 145 85 22 22 11 9 7 4 2 2 2 3 2 3 3 3 3 3 3 4 4 4 5 5 5 4 4 3 2 1 1 1 1 1 1 1 1 1 2 1 1 1 1 1 1 1 2 2 2 3 3 4 4 3 5 5 5 4 2 2 2 2 2 3 2 3 2 3 3 3 3 2 2 2 1 1 1 2 4 5 6 6 7 7 6 6 4 3 3 3 3 3 3 3 2 2 1 1 0 0 1 1 3 3 4 4 4 5 4 4 3 2 2 2 2 3 3 3 1 0 0 0 0 0 0 0 0 0 0 0 0 0 0 1 2 3 2 1 1 1 1 1 2 2 2 2 2 2 2 2 3 3 5 6 7 7 5 4 3 4 4 4 4 3 3 3 2 4 4 6 6 5 4 2 3 3 3 2 2 2 3 9 10 19 34 54 119 161 176 140 92 62 50 39 31 21 30 42 61 88 88 95 75 63 45 34 31 28 30 39 60 62 63 65 111 153 137 98 38 26 14 7 4 3 2 2 2 3 3 3 3 2 1 1 1 1 1 2 2 2 2 2 3 3 2 2 2 1 1 0 0 0 0 1 1 1 1 1 1 1 1 1 1 1 2 2 2 2 2 2 2 2 1 0 0 0 0 1 2 3 3 2 1 0 0 1 0 1 2 3 3 3 3 3 3 2 2 3 3 3 3 2 2 2 2 2 2 3 1 0 
0 1 2 2 2 2 2 2 2 1 1 1 1 1 1 2 2 2 2 2 1 2 2 3 3 2 2 4 3 5 4 5 5 4 4 5 5 5 5 5 4 4 3 4 5 6 7 7 5 4 3 2 2 2 2 2 1 1 1 2 2 2 2 2 2 2 2 2 1 1 1 1 1 1 2 2 2 1 2 3 4 6 7 7 5 6 8 14 20 23 28 40 65 80 93 102 120 143 170 185 192 193 182 169 151 133 114 82 44 26 17 20 15 12 8 5 4 4 3 3 2 3 2 2 2 2 2 2 2 2 1 1 1 2 2 3 4 3 4 4 3 3 2 1 2 2 2 2 1 1 2 3 3 4 3 3 2 1 1 2 2 2 2 3 4 5 7 21 34 75 141 146 130 74 67 63 56 23 29 28 30 31 24 27 30 38 65 79 93 82 89 90 88 75 53 33 26 15 17 59 139 160 140 68 25 19 9 8 5 4 2 2 3 3 2 2 3 3 3 3 3 4 4 4 5 4 5 5 4 3 2 1 1 2 2 2 2 2 2 1 1 0 1 1 1 0 0 0 2 2 2 3 3 3 3 3 5 4 4 3 2 2 1 2 1 3 2 4 3 4 4 4 4 2 2 2 1 1 1 2 4 5 6 6 6 6 6 5 4 3 4 3 3 3 3 3 2 2 1 1 0 0 0 1 2 2 3 2 4 5 5 4 3 3 3 3 3 3 3 2 2 1 0 0 0 0 0 0 0 0 0 0 0 0 0 1 2 3 3 2 2 2 2 2 2 1 2 2 2 1 1 2 3 4 5 7 8 8 6 5 3 4 4 3 3 2 2 2 2 4 4 5 6 5 5 3 3 3 3 2 2 3 4 7 14 23 44 90 145 177 170 126 79 56 48 38 36 39 49 55 70 83 92 96 71 56 41 34 32 33 33 35 48 54 60 67 114 162 155 113 46 24 16 8 5 2 2 1 2 3 3 2 2 2 2 2 1 2 2 2 1 1 2 2 3 3 2 2 2 2 1 0 0 0 0 0 1 1 1 1 1 1 1 1 1 1 1 1 2 3 3 2 2 1 1 1 1 1 1 2 3 3 3 2 1 1 0 1 1 1 2 2 3 3 4 4 4 4 4 5 5 5 5 4 3 3 2 2 2 1 0 0 
0 1 1 2 2 3 3 2 1 0 1 1 1 1 1 2 2 2 2 1 1 1 2 2 3 3 3 5 4 6 6 5 5 4 4 4 4 3 2 2 2 2 3 4 4 5 5 6 5 4 3 2 2 2 2 2 2 2 2 3 3 3 3 3 3 2 2 1 0 0 0 1 1 2 2 2 1 1 2 3 4 4 3 4 4 9 15 24 26 34 52 78 101 116 127 143 166 189 206 207 199 195 195 197 189 172 151 125 85 55 26 22 15 10 7 4 3 3 3 2 2 3 2 2 2 2 2 2 2 3 2 1 1 2 3 3 3 3 3 3 3 2 2 2 2 2 2 2 1 1 2 2 3 4 4 3 2 2 2 2 3 3 3 3 4 4 6 19 34 58 126 141 142 93 67 57 55 29 29 30 36 39 31 30 29 37 61 72 76 64 72 79 79 67 42 36 23 15 24 84 151 151 121 43 23 15 7 7 5 5 2 2 2 3 3 3 3 3 3 3 3 4 3 4 4 4 4 4 4 3 2 1 1 0 0 0 0 0 0 1 1 0 1 1 1 1 1 1 2 2 2 3 3 3 2 3 4 4 4 3 3 2 2 2 1 4 3 5 4 5 4 4 4 3 3 2 1 1 1 3 6 8 9 9 10 10 10 7 6 3 4 3 3 4 3 3 2 2 2 1 1 1 1 1 1 1 2 2 3 4 4 4 3 4 4 4 4 4 4 3 2 1 1 1 1 0 0 0 0 0 0 0 0 0 0 1 2 4 4 4 3 3 2 2 1 1 1 1 1 1 1 2 2 4 5 7 8 9 6 6 3 4 4 3 3 2 3 2 2 4 4 6 6 5 6 3 3 3 3 2 2 3 5 6 17 26 63 107 148 173 151 111 72 51 46 44 47 52 56 61 76 89 100 88 70 55 31 27 28 36 33 36 40 43 47 59 114 172 175 128 56 24 18 9 4 2 1 1 2 3 2 2 1 1 1 2 2 2 2 2 2 2 2 2 2 2 2 2 2 2 1 1 0 0 0 0 1 1 1 1 0 1 1 1 1 1 1 2 2 3 3 2 1 1 1 1 1 1 1 2 2 3 4 3 2 2 1 1 1 1 1 2 2 3 3 4 3 3 3 3 4 4 3 3 3 3 3 2 2 2 1 0 
0 0 1 2 2 1 1 1 0 0 1 1 1 1 1 1 1 1 2 1 1 0 1 2 3 3 2 5 4 7 6 6 6 5 4 4 4 4 4 4 3 2 2 2 3 4 5 4 4 3 2 2 2 2 3 2 3 3 3 4 4 4 4 4 3 3 2 1 1 1 1 2 2 2 2 2 1 1 2 3 4 5 5 5 8 15 23 27 35 61 91 121 133 132 132 144 160 172 170 154 138 133 143 153 160 155 154 154 130 95 51 25 18 12 7 4 2 3 3 2 2 2 2 3 2 3 3 3 2 2 2 1 2 2 3 3 3 3 2 2 2 2 2 3 2 3 2 2 2 2 1 2 3 4 4 4 3 2 2 3 4 3 4 3 5 4 6 14 30 39 99 131 150 123 90 70 60 38 26 39 47 52 47 40 30 30 44 57 69 68 69 73 68 64 41 43 35 37 61 119 157 135 94 25 20 12 8 9 6 5 2 2 3 3 3 3 2 3 3 3 3 3 3 3 3 3 3 3 3 3 2 1 1 1 0 0 1 1 1 1 1 1 1 1 1 1 1 1 2 2 3 3 3 2 3 3 4 3 3 2 2 2 2 2 1 4 4 6 4 5 4 4 3 3 2 2 1 1 1 2 4 6 7 7 7 7 6 5 5 2 3 3 3 4 3 3 2 2 2 2 2 2 1 1 1 2 2 2 3 4 4 5 3 3 3 3 3 3 3 2 2 2 1 1 2 1 1 0 0 0 0 0 0 0 0 1 3 4 4 4 4 4 3 3 1 0 0 0 1 1 1 2 2 3 4 6 7 8 5 5 3 4 4 3 3 2 2 1 2 3 4 6 6 6 6 3 4 4 4 3 3 4 5 10 19 35 85 112 134 134 116 100 77 55 50 50 55 57 56 57 59 58 63 62 57 44 39 46 38 39 29 31 28 29 31 40 105 177 193 142 68 26 23 12 6 4 2 1 1 2 2 3 2 2 2 2 2 2 3 2 2 2 2 2 2 2 1 2 2 2 2 1 0 0 0 0 1 1 1 1 1 1 1 1 1 2 2 2 2 2 2 1 0 1 1 2 2 2 2 1 2 3 3 4 4 3 2 2 2 2 2 2 2 2 3 3 4 4 5 5 5 6 5 5 4 3 3 2 1 1 0 0 
0 0 1 1 1 1 1 1 1 1 1 1 1 1 1 1 1 1 2 1 1 1 3 3 3 4 2 5 4 6 6 6 5 4 4 4 4 4 3 2 2 1 1 2 3 4 4 5 4 3 3 3 2 2 2 3 4 5 4 4 4 3 3 3 3 2 2 1 1 2 2 3 4 4 3 2 2 2 2 3 5 6 6 7 15 23 31 43 65 102 131 137 121 108 110 118 114 101 82 62 48 42 58 75 95 101 113 138 151 130 83 33 17 12 7 4 3 3 4 3 2 2 2 2 3 3 3 3 3 3 3 2 2 2 3 3 3 2 2 2 1 2 2 4 3 3 2 2 2 2 2 2 2 3 3 3 3 2 2 3 4 3 4 3 5 5 7 10 23 28 59 106 140 148 130 112 98 77 54 51 59 68 62 58 48 48 49 50 47 46 50 64 61 62 59 73 93 110 127 149 144 107 58 19 17 11 10 11 7 6 2 2 2 2 2 2 2 3 3 3 4 4 4 3 3 2 2 3 3 2 2 2 1 0 0 0 0 1 1 1 1 1 2 1 1 1 1 2 2 3 3 3 3 3 3 3 3 2 2 2 2 3 2 2 1 4 4 5 4 5 4 4 3 2 2 1 1 0 1 2 4 6 8 9 10 10 10 7 5 2 3 3 3 3 2 2 1 1 1 2 2 2 2 2 2 3 3 4 4 5 5 5 4 4 4 4 5 5 4 3 2 2 2 2 2 1 1 0 0 0 0 0 0 0 0 2 4 6 7 7 7 5 4 3 1 0 0 0 1 1 1 2 2 3 3 5 5 6 5 4 3 3 3 3 3 2 2 1 2 3 4 5 5 6 6 4 6 4 4 3 4 5 5 12 18 50 93 108 104 96 101 107 83 56 50 54 54 49 42 38 39 45 49 43 40 37 44 47 46 45 31 31 29 24 22 22 93 177 206 153 77 27 27 11 5 5 4 4 3 3 2 2 2 3 3 3 4 2 3 2 2 2 2 2 2 2 2 2 2 1 1 0 0 0 0 0 1 1 1 1 1 1 1 1 1 2 2 2 2 2 2 2 1 0 1 2 2 1 1 1 1 1 3 3 4 3 3 3 2 2 2 2 2 2 3 3 4 3 3 4 4 4 4 3 3 3 3 2 2 2 1 0 
0 1 1 1 1 0 1 1 1 1 1 1 1 1 1 1 1 1 1 1 2 2 3 3 4 4 3 4 3 5 5 5 5 4 4 4 4 4 3 4 2 2 1 1 1 1 2 2 2 3 3 3 2 2 3 3 4 6 5 4 3 2 2 2 2 2 2 2 3 3 4 5 7 5 6 3 4 3 3 4 7 7 9 11 24 29 44 68 104 136 136 114 89 85 92 92 75 49 27 15 11 9 21 40 62 66 72 100 144 152 115 58 22 19 11 9 8 7 6 4 2 2 2 2 3 3 3 3 4 4 4 4 3 2 2 2 2 2 1 1 1 2 2 4 2 3 2 2 2 2 2 2 1 1 1 2 2 1 1 2 3 3 2 3 4 5 7 7 16 24 38 81 113 139 152 152 151 142 133 121 109 104 87 86 75 70 63 58 49 41 35 46 54 67 95 112 132 146 152 140 109 76 34 19 13 10 10 11 6 6 2 2 2 2 1 1 1 2 2 2 2 3 3 3 3 2 1 2 2 2 2 2 1 0 0 0 1 2 3 2 2 1 2 2 1 1 1 1 1 2 3 3 4 3 3 4 4 3 2 2 2 3 3 3 2 4 4 5 4 3 3 2 1 1 1 0 0 0 0 1 3 4 5 6 7 6 6 5 4 2 3 3 3 3 2 2 1 1 1 1 1 2 2 2 2 3 4 4 4 5 4 4 3 2 2 2 3 3 3 2 2 2 2 2 2 2 2 1 1 1 0 0 0 0 0 1 3 4 5 5 5 4 4 3 2 1 1 1 2 2 2 2 2 2 2 3 4 4 4 3 2 2 2 2 2 1 2 1 2 2 4 5 5 5 5 3 6 4 6 5 5 5 6 12 16 58 94 100 77 73 93 109 79 56 50 55 49 39 35 33 30 26 21 18 23 30 45 50 58 44 30 26 26 25 20 15 84 173 214 166 90 30 31 16 9 7 6 5 4 4 4 4 3 4 4 4 4 3 3 3 2 3 2 3 2 2 2 2 2 1 1 0 0 0 0 0 0 0 1 1 1 1 1 2 1 1 1 2 2 2 2 2 1 1 1 2 2 2 2 2 2 2 2 3 4 4 4 3 3 3 2 2 2 2 3 3 3 3 4 4 4 5 4 4 3 3 3 3 2 2 1 0 
0 0 1 1 0 0 1 1 1 1 2 1 2 1 1 1 1 2 1 1 2 2 3 3 4 4 4 3 3 4 4 5 4 3 3 3 4 4 2 2 1 1 1 1 1 2 2 3 3 3 3 3 3 3 2 3 4 5 5 4 2 1 1 1 1 2 3 3 4 4 5 6 6 6 6 4 5 4 4 4 6 7 10 18 30 36 68 103 137 140 108 77 70 82 89 76 46 23 12 11 10 9 10 26 54 61 57 74 131 163 133 78 24 25 15 17 17 13 9 5 3 2 2 2 2 2 3 3 4 4 5 5 4 3 2 2 1 1 0 1 1 2 2 3 2 3 2 2 2 2 2 2 1 1 1 1 1 1 1 1 2 2 2 4 5 5 7 6 13 19 29 42 75 96 124 149 173 187 190 178 159 138 109 98 84 81 67 48 33 28 22 28 40 73 120 154 167 145 126 100 66 39 19 17 10 10 10 8 5 5 2 2 2 1 1 1 3 4 4 4 4 4 4 3 2 1 1 1 2 2 2 2 1 0 0 1 2 2 2 1 2 2 2 2 2 1 1 1 1 2 3 4 4 3 3 4 4 3 2 1 2 2 2 3 3 4 4 4 3 2 2 1 1 1 0 0 0 0 0 2 4 5 6 6 7 6 6 4 3 2 3 3 2 2 2 2 1 1 1 1 2 2 2 2 2 3 4 4 4 4 3 3 2 3 2 2 2 2 2 2 3 2 3 2 2 2 2 1 1 1 1 1 0 0 1 1 3 4 7 7 7 6 5 4 3 2 2 2 2 2 3 3 2 3 2 2 2 3 3 2 2 2 2 1 1 1 1 1 2 1 3 3 3 4 4 3 5 4 6 5 5 4 4 10 14 60 97 102 80 69 92 104 75 55 48 58 47 35 34 28 24 20 17 22 22 29 44 53 58 43 35 33 32 31 19 9 69 161 213 174 101 32 30 15 8 9 10 11 10 7 5 4 5 6 8 9 8 6 4 3 3 4 4 3 3 2 2 3 2 1 0 0 0 0 0 0 0 0 1 1 1 1 2 2 2 2 1 2 2 3 3 3 2 1 1 2 2 2 2 2 2 3 3 4 4 3 3 3 2 1 1 1 2 2 2 3 3 3 3 3 4 4 4 4 4 4 4 4 3 3 1 0 
0 0 0 0 0 0 0 1 2 2 2 2 2 2 2 2 1 1 1 1 2 2 2 2 4 4 4 3 2 3 4 5 4 3 3 3 3 3 3 2 1 1 1 1 1 1 2 2 3 3 3 3 3 3 2 2 3 4 4 3 1 1 1 2 2 2 3 3 4 4 5 6 6 7 5 6 6 5 6 4 5 7 16 27 30 50 94 136 149 119 78 65 79 87 77 48 20 11 10 11 9 6 5 17 46 61 61 77 126 158 148 120 73 70 46 32 22 16 12 6 3 1 1 1 1 2 2 2 4 5 6 6 6 4 2 1 0 0 0 0 1 2 2 2 2 3 2 2 2 2 2 2 1 1 1 1 1 1 1 1 1 2 2 3 4 4 5 5 9 14 26 26 40 54 76 99 125 151 170 175 180 164 126 96 71 69 56 37 23 20 21 28 33 80 139 165 160 111 74 51 29 19 14 12 8 7 7 6 5 3 2 2 2 1 1 2 2 3 3 3 3 2 3 2 2 2 1 1 1 1 2 2 1 0 0 1 2 2 2 2 1 1 2 2 2 2 1 1 1 1 3 3 4 3 3 4 3 3 1 1 1 1 2 3 3 3 3 3 3 2 1 1 0 0 0 0 0 0 0 1 3 3 4 4 4 4 3 2 2 2 2 2 2 1 2 2 2 2 2 2 3 3 3 3 2 3 3 3 3 3 2 2 1 1 1 1 1 0 1 1 3 2 3 2 2 2 2 1 2 2 2 2 2 2 2 2 2 2 4 5 5 4 3 3 3 3 3 3 2 3 3 3 2 2 2 2 2 2 2 2 2 1 1 0 0 1 1 2 1 1 2 2 2 3 3 2 3 3 5 5 5 5 5 9 12 52 94 106 95 72 86 90 66 47 42 51 40 32 28 22 20 26 35 42 38 45 45 47 46 38 35 35 33 30 15 13 58 150 207 176 107 40 39 32 24 22 19 19 19 17 15 9 8 7 8 8 8 7 6 5 4 4 4 3 3 3 3 3 2 2 1 0 0 0 0 0 0 0 0 0 1 2 2 3 2 1 1 1 2 2 2 2 1 2 1 1 1 1 1 2 2 2 3 3 3 3 3 2 1 0 0 1 1 2 2 2 1 1 1 2 2 3 3 3 4 4 4 4 3 3 1 0 
0 0 0 0 0 0 0 1 2 3 3 4 4 3 3 2 1 1 1 1 2 2 2 3 4 4 4 2 2 2 3 4 3 2 2 2 2 2 2 2 1 1 1 1 1 1 2 2 3 3 3 3 3 2 1 2 3 3 4 3 2 1 1 2 2 2 2 2 3 4 5 5 5 5 4 6 6 5 5 3 6 13 26 38 41 78 121 157 143 96 72 78 89 78 49 19 7 7 7 9 10 11 10 18 39 56 67 86 119 150 161 145 130 127 106 83 51 25 16 12 5 2 1 1 1 2 2 3 4 4 6 6 6 4 2 1 1 0 0 0 1 1 2 2 2 3 2 2 1 1 1 2 2 2 1 2 2 1 1 1 1 2 3 4 5 4 4 6 7 10 15 19 20 23 31 48 71 99 125 138 165 165 138 98 53 47 35 24 21 24 28 27 28 70 146 166 142 72 29 24 15 13 9 6 6 6 5 3 3 2 1 1 1 1 2 2 3 3 3 3 3 3 3 2 2 1 1 1 1 1 2 2 1 1 1 1 2 2 2 1 1 1 2 2 2 2 1 1 0 1 3 3 4 3 3 3 3 2 1 1 0 1 1 2 2 4 3 4 4 3 3 2 1 0 0 0 0 0 1 2 4 5 5 5 5 5 4 4 3 3 3 2 1 1 2 2 3 3 3 3 3 3 3 3 3 3 3 3 3 2 2 2 2 2 1 1 0 0 1 1 2 2 3 2 2 1 1 1 1 2 2 2 2 2 3 3 3 3 4 5 5 5 4 3 4 3 3 3 2 3 3 3 2 2 1 1 1 2 2 2 1 1 0 0 0 0 1 1 2 1 2 2 2 2 2 2 2 2 3 5 5 5 6 9 14 37 92 117 123 101 89 78 57 39 35 45 45 39 26 24 32 55 57 61 56 54 52 50 41 30 31 36 36 35 17 18 62 151 206 182 117 54 44 41 40 42 43 41 32 22 17 14 13 9 10 13 12 10 7 5 4 5 4 3 3 2 2 2 3 2 2 1 1 1 1 0 0 0 0 1 2 3 3 3 3 2 2 2 2 2 2 2 2 2 1 1 1 1 1 1 2 2 2 2 2 3 3 2 1 0 0 1 1 2 1 2 2 2 2 2 2 2 3 3 4 4 4 4 3 3 1 0 
0 0 0 0 0 0 0 2 4 5 6 5 5 4 3 2 1 1 1 1 2 3 4 4 4 4 3 2 2 2 2 3 4 3 3 3 3 3 2 2 1 1 0 0 1 1 1 2 2 2 2 3 2 2 1 2 2 3 3 3 2 1 1 2 2 2 2 2 3 4 5 5 5 5 4 5 5 5 5 4 6 23 39 48 53 99 144 161 128 82 77 85 78 55 25 13 6 6 7 10 12 14 14 20 35 53 75 95 121 144 154 151 155 152 142 123 88 53 25 15 10 3 1 2 2 3 3 3 4 4 6 6 5 4 2 1 1 1 0 0 0 1 2 2 3 3 3 2 1 1 1 2 2 2 2 2 2 1 1 1 1 2 3 3 4 4 4 5 5 7 9 12 15 18 18 16 18 28 46 63 121 147 146 103 44 28 25 21 21 20 27 24 36 85 154 164 136 64 32 23 11 8 6 5 6 4 4 4 2 2 1 1 1 2 2 2 2 2 2 2 2 1 2 1 1 1 1 2 2 2 2 2 1 1 1 2 2 2 2 1 1 1 2 2 2 1 1 1 0 1 2 3 3 3 3 3 2 1 1 0 0 0 0 2 2 3 3 3 4 3 3 3 2 1 1 1 1 2 2 3 3 3 3 3 3 3 3 2 3 3 3 2 2 2 2 4 5 6 5 5 5 5 4 3 2 2 3 3 2 2 2 3 2 1 1 1 1 1 1 1 2 3 4 2 2 1 1 1 2 2 3 3 3 4 5 4 4 3 3 4 3 3 2 2 3 3 4 3 2 3 2 3 2 2 1 1 1 1 1 1 0 0 0 0 0 1 2 1 2 1 1 1 1 1 2 2 2 1 2 4 5 7 8 11 17 24 80 118 143 126 91 68 49 34 34 41 34 27 18 21 33 56 61 76 65 63 54 36 32 32 33 37 28 28 26 49 105 180 208 169 104 74 99 121 122 117 106 93 78 61 40 23 17 18 14 12 11 10 8 6 6 4 4 2 3 2 2 3 3 3 2 1 1 1 1 1 1 1 1 2 3 3 3 3 2 2 1 2 2 2 2 2 2 2 1 0 0 0 1 1 1 1 1 1 1 2 3 2 1 0 1 1 2 2 1 1 1 1 1 1 1 2 2 2 3 3 3 2 2 1 0 0 
0 0 0 0 0 0 0 2 4 5 5 4 4 5 5 3 2 1 1 2 2 3 4 4 4 3 2 2 2 2 2 3 4 4 3 3 2 2 1 1 1 0 0 0 0 0 0 1 2 2 2 2 2 2 2 2 2 3 3 3 2 2 2 2 2 2 3 3 4 4 4 3 4 4 4 4 4 4 4 5 14 39 48 69 102 146 163 149 114 95 83 73 53 31 17 14 9 8 8 14 22 27 27 25 33 46 72 96 118 131 133 127 122 126 142 151 134 94 59 28 17 8 1 2 2 3 3 3 3 4 4 5 4 3 2 2 2 1 0 0 0 0 1 2 3 3 3 2 1 1 1 2 3 3 2 3 2 2 1 1 2 3 3 5 4 4 4 4 5 6 8 11 14 13 14 15 18 26 40 42 86 125 154 135 87 42 24 19 20 23 33 40 73 127 163 150 112 44 27 14 9 8 6 4 6 4 5 3 3 2 1 1 1 1 2 2 2 1 2 2 2 2 1 1 1 1 1 2 2 2 2 2 1 1 1 2 2 2 2 2 1 2 2 2 2 1 1 1 1 1 1 2 2 3 3 3 2 1 0 0 0 0 0 2 3 3 3 3 3 4 3 3 2 1 1 2 2 2 3 3 3 4 4 4 3 3 3 3 3 3 3 3 2 2 3 3 4 5 5 5 5 4 4 3 2 2 2 3 2 3 2 3 2 1 1 1 1 1 1 1 2 2 3 2 2 1 1 1 2 3 4 4 5 5 5 5 4 3 2 3 2 2 2 2 3 3 4 3 2 3 2 3 2 2 0 0 0 1 1 1 0 0 0 0 1 1 2 1 2 1 1 1 1 1 1 2 2 2 3 5 5 8 9 13 18 20 67 116 157 143 98 62 40 29 30 34 39 37 24 22 41 63 59 70 58 66 56 45 37 38 34 37 29 42 59 105 160 197 192 163 145 149 163 167 158 143 125 105 89 74 58 48 36 32 28 23 19 14 11 7 7 5 5 3 3 2 2 3 3 3 2 1 1 1 1 1 1 1 1 2 3 3 3 3 2 2 2 2 2 2 2 3 3 3 2 2 2 2 2 2 2 1 1 1 1 2 2 2 1 1 1 2 2 2 1 2 1 2 2 2 2 2 2 2 3 3 2 1 0 0 0 0 
0 0 0 0 0 0 1 2 4 5 6 6 5 5 5 4 3 2 2 2 2 2 3 3 3 2 2 2 2 2 2 3 4 4 4 3 2 2 1 1 0 0 0 0 0 0 0 1 1 2 2 1 2 2 3 3 2 3 3 4 3 2 2 2 2 2 3 4 4 4 4 4 4 4 3 2 3 4 5 8 25 40 64 109 152 180 174 142 102 95 85 60 32 20 17 18 14 8 12 23 34 40 39 32 33 37 59 87 109 119 112 88 66 66 94 136 162 142 96 49 22 16 4 2 2 2 2 2 3 4 4 5 5 4 3 3 2 1 1 0 0 0 1 1 3 3 3 2 2 2 2 2 3 3 3 3 3 2 1 1 2 3 3 4 5 5 5 4 5 4 6 7 9 10 9 9 10 14 25 30 53 95 138 150 128 86 58 45 44 55 72 96 130 158 155 120 69 29 22 15 10 8 6 4 4 4 3 4 3 2 2 1 1 1 1 1 2 2 3 3 3 3 2 2 1 1 1 1 2 2 2 2 1 1 1 2 2 1 1 2 2 2 1 2 1 2 1 1 1 1 1 1 2 2 2 2 2 2 1 1 1 1 1 2 3 3 2 2 2 3 3 2 2 2 2 2 3 3 3 3 3 3 3 3 3 2 2 1 2 2 3 3 2 2 2 4 5 7 7 6 6 6 5 4 2 2 2 3 3 3 2 3 3 2 1 1 2 1 1 1 1 2 3 2 2 1 1 1 2 2 3 3 4 5 5 5 4 4 3 3 3 2 2 1 3 3 4 3 2 3 2 2 1 1 0 0 0 0 0 0 0 0 0 0 1 1 2 1 2 1 2 1 2 1 2 2 3 3 4 5 5 8 9 13 18 18 59 112 165 152 102 59 33 26 24 31 39 37 29 27 48 63 55 64 63 77 64 48 38 40 31 28 28 65 108 164 182 186 183 178 167 183 191 183 167 149 135 119 109 106 100 82 60 44 33 24 19 18 16 9 9 6 5 4 3 3 2 3 3 3 2 1 1 1 1 1 2 2 2 2 2 2 2 2 1 2 2 2 2 2 2 3 3 3 3 2 2 2 2 2 2 1 1 1 1 2 2 1 1 1 1 2 2 2 2 2 1 1 1 2 2 2 2 2 3 2 2 1 1 1 0 0 
0 0 0 0 0 0 1 2 3 4 4 3 3 5 5 4 3 2 1 2 2 2 2 2 2 2 2 2 2 2 3 4 4 4 3 3 2 1 1 1 0 0 0 0 0 0 0 1 1 2 2 1 2 3 3 3 2 3 4 4 4 3 3 3 3 3 4 5 6 4 4 4 4 4 3 3 3 4 6 10 34 43 94 138 189 190 154 111 116 105 86 50 19 18 20 23 16 13 20 36 46 50 48 39 32 32 43 64 81 91 84 65 43 34 52 98 160 174 134 81 27 24 8 3 2 2 2 2 2 3 4 4 3 5 5 5 3 2 1 1 0 0 1 2 3 2 3 1 2 1 2 2 3 3 3 3 3 2 1 1 2 3 3 3 5 5 6 5 6 6 8 10 12 11 9 7 9 10 15 19 28 60 103 138 153 141 124 115 113 121 131 147 157 149 121 81 35 23 16 13 13 8 5 3 3 4 3 4 3 2 2 1 1 0 0 1 1 1 2 3 3 2 2 2 2 1 1 1 1 1 1 2 2 2 1 1 1 0 0 1 2 2 2 2 2 2 1 1 1 1 1 2 2 2 2 2 2 2 2 1 1 1 1 2 2 2 2 2 2 2 2 1 1 1 2 2 2 1 1 2 3 3 3 3 2 1 1 1 2 2 2 2 2 1 2 2 3 4 4 4 5 5 4 3 2 2 3 4 3 3 3 3 3 2 2 1 2 1 1 1 1 1 2 2 2 2 2 2 2 2 4 4 5 5 5 5 3 2 2 3 2 2 1 1 2 2 2 3 2 2 1 1 1 1 0 0 0 1 1 0 0 0 0 1 1 1 2 1 1 1 2 2 2 2 3 3 3 3 3 5 5 7 8 10 16 16 57 112 168 160 108 54 27 21 19 29 39 42 42 52 60 64 66 75 74 75 59 46 36 31 22 27 49 98 153 185 181 186 174 180 187 192 171 141 116 102 97 98 104 123 141 141 129 100 72 52 34 24 18 12 8 6 4 5 4 4 3 3 3 3 2 1 1 1 1 2 2 3 2 2 2 3 2 2 1 2 1 1 2 2 2 2 3 3 3 3 3 3 3 2 1 1 1 0 1 1 1 1 1 1 2 2 2 2 2 2 1 1 1 3 3 3 3 2 3 3 2 2 2 2 1 0 
0 1 1 1 1 1 1 3 4 4 4 5 5 5 5 4 3 3 2 3 2 3 2 3 2 3 3 3 2 3 3 3 3 3 2 2 1 1 1 1 1 1 0 0 0 0 0 1 2 3 3 2 3 3 4 4 3 4 4 4 4 3 3 4 4 4 4 5 5 4 4 4 4 5 3 4 4 5 8 17 35 48 110 161 195 169 118 84 100 93 77 41 17 16 19 21 17 21 30 45 49 49 48 45 40 32 31 38 46 57 63 63 53 36 40 63 144 181 161 109 36 29 14 5 4 5 5 4 5 4 5 6 7 7 6 5 4 4 4 4 4 4 5 5 5 3 4 2 4 4 4 4 5 5 6 5 4 3 1 1 2 2 2 2 4 5 7 7 8 9 10 10 9 8 9 9 12 9 8 12 18 31 65 97 126 143 148 148 148 149 147 141 129 107 76 38 20 16 12 12 11 5 4 3 4 4 3 4 3 2 2 2 1 0 0 0 0 1 2 3 3 3 3 3 3 3 2 1 1 1 1 2 1 1 1 1 1 0 1 1 2 2 2 2 2 2 2 1 1 1 2 2 2 2 2 2 2 2 2 1 1 1 2 3 3 3 2 2 2 3 2 2 1 1 2 2 2 2 3 2 3 3 3 3 3 3 2 2 1 1 1 1 1 1 1 2 3 4 4 5 5 5 5 3 2 2 3 3 3 3 3 4 4 3 3 3 2 2 2 1 1 1 2 2 3 2 2 2 2 2 2 2 2 3 3 3 2 3 3 3 3 2 1 1 1 2 2 2 2 2 2 1 1 0 0 0 0 1 1 1 1 1 1 1 1 1 1 1 1 2 2 2 3 4 3 3 3 3 3 4 4 5 6 7 13 14 44 105 161 170 128 66 34 21 18 24 30 36 41 63 72 88 82 80 74 67 51 36 25 21 20 32 65 121 169 180 187 176 179 183 161 135 104 79 66 72 80 88 92 118 147 161 154 129 103 75 53 35 21 17 10 6 4 5 5 5 4 3 3 2 2 1 1 1 1 3 3 4 4 4 4 4 3 3 2 1 1 1 1 1 1 1 2 2 2 2 2 2 2 2 1 1 1 0 1 1 1 1 1 1 1 2 2 2 2 2 2 2 2 3 4 4 4 3 3 4 4 5 5 4 2 0 
0 1 2 2 2 2 2 2 2 3 3 3 3 4 4 3 3 3 2 3 2 4 3 3 2 2 2 3 3 3 3 3 2 2 2 2 1 1 1 1 1 0 0 0 0 0 1 2 2 3 2 3 3 3 4 4 3 5 5 5 5 4 5 5 5 4 5 5 5 4 3 4 4 5 3 4 3 5 6 17 30 53 116 168 171 127 65 70 79 74 55 28 15 13 16 16 18 26 33 45 45 41 45 46 49 36 25 21 19 26 41 52 57 46 43 39 122 176 175 129 46 32 17 8 7 7 7 6 7 5 6 6 6 7 8 7 8 6 6 6 6 5 6 5 6 4 4 5 6 7 6 6 6 7 7 6 4 3 1 1 1 1 1 1 3 5 7 9 10 12 12 12 13 11 11 9 9 8 7 8 14 19 29 51 84 107 121 125 125 122 114 98 77 50 32 21 16 10 10 11 8 3 4 3 4 4 3 4 2 2 2 1 1 0 0 0 0 0 2 2 2 2 3 4 4 3 3 2 2 1 1 1 1 1 1 1 1 1 1 1 2 2 2 2 2 2 1 1 1 1 1 2 2 2 2 2 2 2 2 1 1 1 2 2 2 2 2 2 2 2 2 2 1 2 2 2 2 2 3 3 3 3 3 3 2 2 2 2 1 2 1 1 1 1 2 3 4 4 4 3 3 3 3 2 2 2 3 3 3 3 3 4 5 5 4 3 2 2 2 2 2 1 2 2 3 3 3 2 2 2 3 2 2 2 3 3 2 2 2 2 2 2 2 2 2 1 2 2 2 2 2 1 1 0 0 0 0 1 1 1 1 1 1 1 1 2 1 1 1 1 2 2 3 3 3 3 2 2 2 2 3 3 3 4 8 13 28 86 146 182 165 104 61 35 30 27 25 34 54 72 70 79 70 73 62 48 35 34 34 37 42 58 87 125 152 164 184 183 179 138 93 69 54 47 48 61 69 76 78 101 128 157 169 162 150 121 87 56 32 21 16 8 4 4 5 5 4 3 2 2 2 2 1 2 2 3 4 5 5 5 5 4 3 3 2 2 1 1 2 2 2 1 1 1 2 2 2 2 2 2 1 1 0 0 0 1 2 2 1 1 1 1 1 1 1 2 2 2 3 3 4 4 4 3 4 5 5 5 5 4 2 0 
0 1 2 2 2 2 2 2 2 3 2 3 3 3 3 3 2 3 3 4 3 4 3 3 2 2 3 3 3 3 2 2 1 2 2 2 1 1 1 1 2 2 2 2 1 1 1 3 4 5 5 5 5 5 4 5 4 6 6 6 5 4 6 5 5 3 3 3 3 3 3 3 4 4 2 3 2 4 5 16 25 44 112 161 161 116 50 51 52 48 32 18 11 8 10 11 18 27 35 42 38 34 53 53 56 40 22 13 9 13 26 38 52 49 45 32 103 170 178 140 52 32 20 9 9 11 11 10 11 14 18 24 26 26 26 24 24 21 18 16 17 18 17 11 7 6 6 7 7 9 8 7 9 9 8 6 4 3 3 3 1 0 0 1 3 5 7 11 13 15 15 12 12 9 9 9 8 6 3 5 8 15 18 21 31 48 65 70 70 66 54 40 28 23 21 17 9 7 6 6 5 3 3 3 4 4 3 4 2 2 1 1 0 0 0 0 0 0 2 2 2 2 2 3 3 3 2 2 2 2 2 1 1 1 0 1 1 1 2 2 2 2 1 2 1 2 2 2 1 1 1 1 1 1 2 2 2 2 2 2 2 2 2 3 3 3 3 3 3 3 3 3 2 3 3 3 3 3 3 3 2 2 2 2 2 2 2 2 1 1 1 1 1 2 3 4 5 5 5 4 3 3 3 2 2 2 2 2 2 3 4 5 5 5 5 4 3 3 2 2 2 2 2 3 3 4 3 2 2 1 2 2 2 2 2 2 2 1 2 2 2 2 2 1 2 1 2 2 2 2 2 2 1 0 0 0 0 1 1 1 1 1 1 1 2 2 2 2 2 2 2 2 3 3 2 2 2 2 2 2 2 2 2 4 6 11 18 54 112 169 187 144 89 42 33 33 32 36 45 55 61 64 56 51 33 27 31 37 41 47 57 69 85 101 121 151 169 166 133 80 50 39 36 37 44 53 55 58 55 71 90 115 134 143 152 147 121 79 47 28 20 12 5 3 4 4 4 3 2 2 1 1 1 1 2 3 4 5 6 5 5 4 3 2 2 2 1 1 2 2 2 1 1 1 1 2 2 3 3 2 1 0 0 0 1 1 2 2 2 1 1 2 2 2 2 2 2 3 3 3 4 4 4 3 5 6 6 6 5 4 2 0 
0 1 2 2 2 2 2 2 1 1 1 2 2 2 2 2 2 3 3 4 2 4 3 3 2 1 2 2 2 3 2 3 2 2 2 2 2 2 2 2 2 2 2 2 1 1 2 2 3 3 3 4 4 4 3 5 5 7 7 6 5 5 6 6 5 2 2 2 2 2 2 3 3 3 3 2 2 3 4 11 23 34 102 151 169 128 66 44 39 33 23 16 11 9 8 11 19 24 29 31 34 37 52 54 52 35 16 11 7 11 19 31 49 54 48 32 93 163 176 139 54 31 22 11 13 13 14 19 23 28 30 29 25 22 21 22 21 18 17 19 23 24 22 17 14 8 6 7 9 10 9 8 7 6 6 4 3 3 2 2 2 1 1 2 4 6 7 12 14 15 16 13 14 10 9 8 6 5 3 5 5 9 10 15 20 21 21 21 20 20 21 21 18 15 9 6 4 6 9 8 6 3 3 3 3 3 2 3 1 1 1 0 0 0 0 0 0 0 2 2 3 2 3 3 3 2 2 2 2 1 1 1 0 0 0 0 1 1 2 2 2 2 1 1 1 2 2 2 2 2 1 1 1 1 1 1 1 1 1 2 2 2 2 2 3 5 5 5 5 5 4 4 3 3 3 4 4 4 4 4 3 3 3 2 2 1 2 2 2 1 1 1 2 3 5 5 6 6 5 3 2 1 2 2 2 2 2 2 2 3 4 5 7 8 7 5 4 3 3 3 3 3 3 4 4 4 4 3 2 1 2 2 2 2 2 2 2 1 1 1 1 1 2 2 2 2 1 1 2 2 2 1 1 0 0 0 0 1 1 1 1 1 2 2 2 2 3 3 3 2 3 2 3 2 2 2 2 2 1 1 2 2 2 3 6 11 16 33 74 138 186 179 128 65 34 27 27 33 39 40 37 35 33 27 17 20 31 45 63 80 90 88 79 77 89 120 132 117 78 44 33 29 25 22 29 37 37 41 37 48 58 70 84 102 131 154 152 108 63 32 21 14 5 3 3 3 3 3 2 2 1 2 2 2 2 2 4 5 5 5 4 3 3 2 2 2 1 1 1 1 2 1 1 1 2 2 2 2 3 3 2 1 1 1 1 1 2 2 2 1 1 1 1 2 2 2 2 3 3 3 3 4 4 4 6 6 6 5 4 3 2 0 
0 1 1 1 1 2 2 1 1 2 2 2 2 2 1 1 1 3 3 4 3 4 3 3 2 1 2 2 2 3 3 3 2 2 2 2 2 2 2 2 2 2 2 2 2 1 1 2 4 5 5 5 5 6 5 6 5 5 6 5 5 4 6 5 4 1 1 1 2 2 1 2 2 2 3 2 3 2 4 7 21 27 81 132 169 151 103 61 44 30 26 22 14 11 10 17 20 23 26 32 32 41 49 52 42 25 9 8 7 11 16 26 47 57 51 34 96 158 173 130 52 30 24 12 16 23 28 27 26 32 48 68 82 88 93 96 94 82 68 53 42 33 27 23 20 16 12 7 7 7 7 7 9 9 7 4 3 3 4 4 3 2 1 2 5 7 9 13 14 16 18 15 15 10 7 5 4 4 3 4 5 6 6 7 10 15 19 18 18 18 17 13 10 7 4 5 6 8 7 6 4 3 2 3 3 3 2 2 1 1 0 0 0 0 0 0 0 1 2 3 3 3 3 3 2 1 1 1 1 1 1 1 1 0 0 0 0 0 2 2 2 1 1 1 1 2 2 3 2 2 2 2 1 1 1 1 1 2 3 4 4 3 3 3 3 3 4 5 5 5 5 4 3 3 3 3 3 4 4 4 4 3 2 1 1 1 2 2 3 2 2 1 2 3 5 5 5 5 5 3 2 2 2 2 1 1 1 1 2 2 3 5 6 6 5 4 3 3 3 3 4 4 4 5 5 5 4 3 2 1 2 2 2 3 3 3 2 1 0 1 1 1 1 2 1 1 1 1 1 1 1 1 1 0 0 0 0 1 1 1 1 1 2 2 2 3 4 4 4 3 4 3 3 2 2 2 2 1 1 1 1 1 2 3 7 13 14 19 36 93 156 185 157 94 39 25 26 30 30 28 29 31 25 18 11 19 45 79 107 121 120 104 81 69 72 84 83 64 42 28 26 29 34 37 45 50 46 46 39 44 45 47 55 69 105 153 169 129 77 28 22 12 6 3 3 3 3 2 2 1 1 2 2 2 3 3 4 4 4 3 3 2 3 3 2 2 1 1 1 1 1 1 1 1 2 2 2 2 3 3 3 2 1 1 1 1 1 1 1 1 1 1 2 2 2 2 2 3 3 2 3 3 4 5 5 5 4 3 3 3 2 0 
0 1 1 1 2 2 2 1 1 1 1 1 1 1 1 1 2 3 3 4 3 4 3 3 2 1 1 1 2 3 3 4 3 2 2 2 2 2 2 2 1 2 1 1 1 1 1 1 2 3 3 4 4 4 3 3 4 4 4 4 4 5 5 4 3 1 1 1 2 2 1 1 2 3 4 3 3 2 3 6 20 24 56 105 149 158 124 69 40 26 26 26 17 14 18 21 23 26 24 33 30 43 41 41 27 14 6 7 6 7 14 25 48 61 56 39 106 159 169 119 45 30 24 20 33 35 35 39 55 79 102 116 120 120 120 120 119 115 110 104 94 77 55 35 27 23 20 14 11 9 9 7 6 5 5 3 3 2 2 2 2 2 2 3 6 8 9 13 13 15 16 15 15 10 8 5 4 3 3 3 4 4 4 4 6 7 9 10 10 9 8 6 3 2 3 4 6 8 8 7 5 3 3 3 2 2 2 2 1 1 0 0 0 0 0 0 0 1 2 3 3 3 3 3 3 2 2 2 1 1 2 1 1 1 0 0 0 0 1 1 2 1 1 1 1 2 2 3 3 3 2 2 1 1 0 0 1 2 3 4 4 4 3 3 3 4 5 5 6 6 6 5 4 3 3 3 3 4 4 5 5 4 3 2 1 1 2 3 3 3 3 2 3 3 4 4 4 4 3 3 2 1 1 1 1 1 1 1 2 2 3 4 5 6 6 4 3 3 5 6 5 5 4 5 6 6 5 3 2 2 2 2 2 3 2 2 1 0 0 0 0 1 1 1 1 1 1 1 1 1 2 1 1 0 0 0 1 1 1 1 1 2 3 3 3 3 4 4 3 3 4 4 3 3 2 2 1 1 1 1 2 1 2 2 5 11 13 18 19 53 110 164 171 128 69 27 16 19 25 35 46 54 49 43 37 54 90 125 145 138 120 108 92 80 71 60 54 41 30 31 40 51 56 58 58 56 52 52 42 37 25 23 26 41 88 157 185 144 86 24 22 10 6 4 3 3 3 2 1 1 1 1 2 3 3 3 4 4 4 4 3 3 3 3 3 2 1 1 1 1 1 1 1 2 2 2 2 2 3 4 3 3 1 1 0 0 0 0 1 0 1 1 1 1 2 2 2 2 3 2 3 4 5 5 4 4 3 3 3 4 2 0 
0 0 1 1 2 2 2 2 2 2 2 1 1 1 1 2 2 3 3 4 3 3 3 3 2 2 2 2 3 4 4 4 2 1 1 1 1 2 2 2 2 1 0 1 1 1 1 2 3 4 5 5 5 5 5 4 3 2 3 4 5 6 5 3 2 2 2 3 3 2 2 2 2 3 4 3 4 2 3 6 16 24 34 74 117 152 146 103 69 44 32 30 23 23 26 25 29 24 27 32 31 41 34 31 17 8 5 7 6 6 12 25 50 64 58 52 121 165 162 109 38 33 28 32 36 44 60 79 93 109 125 138 142 139 134 130 128 127 129 131 130 119 99 75 54 32 23 19 16 10 8 9 10 9 7 4 2 2 3 3 3 2 3 4 6 8 9 11 11 14 15 15 14 9 7 4 4 4 3 4 4 3 4 4 5 6 5 5 4 5 4 3 3 3 3 4 6 8 7 4 4 3 4 3 3 2 2 2 2 1 1 0 0 0 0 1 1 2 2 2 3 3 3 3 3 3 3 3 3 3 3 2 2 1 0 0 0 0 1 1 1 1 1 1 2 3 2 3 2 3 3 2 1 0 0 1 1 2 4 4 4 3 3 3 3 3 5 6 7 8 7 6 4 2 2 3 3 3 3 3 4 4 3 2 2 2 3 3 3 3 3 3 3 3 4 4 3 3 3 3 3 3 2 2 1 1 2 1 2 2 3 5 5 5 3 2 2 3 3 4 5 6 5 6 6 6 5 4 2 2 2 1 1 2 2 2 1 1 0 0 0 0 0 1 1 1 2 1 1 1 2 1 1 0 0 0 1 1 1 2 2 2 3 2 3 4 4 4 3 2 3 3 3 3 2 3 1 1 1 1 2 1 2 2 4 8 9 12 13 31 68 127 169 166 121 60 24 20 51 82 108 121 106 94 81 99 141 159 163 143 130 126 114 95 67 41 35 32 32 43 51 60 60 59 59 56 54 53 49 39 21 15 21 43 99 170 192 144 80 23 25 11 6 4 3 4 4 3 2 1 1 2 3 4 5 5 5 5 5 4 3 2 3 4 4 3 2 2 1 1 1 1 2 2 3 3 2 2 3 4 3 2 1 1 0 0 0 0 1 0 0 0 1 2 2 2 1 2 2 2 3 4 5 5 4 3 3 3 3 5 3 0 
0 0 1 1 2 2 2 2 2 2 2 1 1 1 1 2 2 3 3 3 3 3 3 2 2 2 2 2 3 3 3 3 2 1 1 1 1 1 2 2 2 1 0 1 1 1 1 2 4 5 5 5 5 4 4 2 2 2 2 5 7 7 6 4 4 4 4 3 3 2 2 2 3 3 4 3 4 2 3 5 11 17 19 45 84 135 163 153 122 86 52 42 38 43 44 38 36 25 30 25 28 34 29 25 12 8 5 6 5 5 10 27 50 65 57 70 135 165 151 94 32 38 34 37 47 74 97 119 132 136 131 121 108 96 89 85 86 89 98 108 122 132 132 118 99 78 53 33 23 20 14 9 7 6 4 3 2 2 2 2 3 3 3 4 6 8 9 10 11 13 13 13 11 8 6 4 4 4 5 5 4 3 4 3 4 3 3 3 3 3 3 3 2 2 3 5 7 7 6 5 5 4 4 3 3 1 2 2 3 1 1 0 0 0 1 2 2 2 2 2 2 2 2 3 3 2 2 2 2 2 3 3 3 2 0 0 0 0 1 1 1 1 1 1 2 2 2 2 2 3 3 2 1 0 0 1 2 3 3 4 4 3 3 3 3 4 4 5 5 6 5 5 4 3 2 3 3 3 3 2 3 3 3 3 3 3 3 2 2 2 3 3 2 2 2 3 3 2 2 2 2 2 2 2 2 2 2 2 2 2 3 4 4 4 5 6 9 13 16 18 15 10 8 6 7 7 6 5 3 2 2 1 1 2 1 1 1 1 0 0 0 0 0 0 0 0 1 1 2 2 2 2 1 1 0 0 1 1 1 2 2 2 2 2 2 3 4 3 3 2 3 3 2 2 2 2 1 1 1 2 2 2 2 2 3 6 8 10 13 18 32 73 129 166 161 126 100 101 134 158 169 172 151 142 131 143 167 154 152 113 104 106 110 95 65 37 29 30 37 52 65 72 63 55 51 50 61 68 70 58 34 18 23 47 111 175 189 140 77 30 25 13 5 2 2 3 3 3 3 2 2 3 4 5 6 6 5 4 4 4 3 2 3 4 4 4 3 2 2 1 1 1 2 3 4 3 3 2 3 3 4 3 1 1 1 1 1 1 1 1 1 1 1 2 2 2 1 2 2 3 3 3 4 4 4 2 3 3 4 5 3 0 
0 1 1 1 2 3 4 4 3 2 2 1 1 1 2 2 3 3 3 2 3 2 3 2 2 2 2 2 2 2 2 2 1 2 2 2 3 2 4 3 3 2 1 2 2 2 2 3 5 6 6 5 5 5 4 3 2 3 3 6 7 9 8 5 6 5 6 4 3 3 3 3 3 3 4 4 4 3 3 4 9 13 15 28 54 100 146 175 178 159 115 80 59 61 58 53 41 32 29 22 26 28 24 20 9 8 7 6 6 6 13 34 54 66 59 91 149 156 132 65 34 43 34 47 74 107 138 148 132 108 85 66 51 41 35 32 32 38 47 59 79 100 122 132 127 111 86 60 35 22 19 12 10 8 6 4 3 3 3 3 4 4 4 4 5 6 7 8 9 10 10 10 8 7 5 5 5 6 6 6 6 3 4 2 4 4 4 4 4 4 3 3 3 3 3 5 7 7 7 5 5 5 5 5 3 2 3 2 3 2 2 2 1 1 2 3 2 3 1 1 1 1 2 2 3 3 3 2 2 2 2 3 3 2 1 1 1 1 1 1 1 1 1 2 4 4 3 3 2 2 2 1 0 0 0 1 2 2 2 2 2 2 2 3 4 6 7 7 8 8 8 7 4 3 2 3 3 3 3 2 2 3 3 3 3 3 3 3 2 2 3 3 2 2 2 3 3 2 3 3 4 4 4 3 3 3 3 3 2 3 3 5 6 8 11 16 25 33 37 33 25 17 12 8 7 7 6 5 4 2 3 2 2 2 2 2 1 1 1 0 0 0 0 1 1 1 1 2 2 3 3 2 1 1 1 1 1 1 2 2 2 2 1 1 2 2 3 3 4 3 3 2 2 2 2 3 2 2 1 1 2 1 2 2 3 4 9 13 14 15 17 36 82 135 166 173 165 170 185 188 174 169 154 157 152 153 146 129 130 101 104 101 104 91 64 39 31 31 43 64 74 70 53 52 64 74 84 89 90 77 51 28 27 55 121 177 189 143 78 41 24 17 6 3 2 3 3 5 4 4 3 4 5 5 5 5 4 4 4 3 2 2 2 3 4 4 3 2 2 2 2 2 2 3 4 3 3 1 3 3 4 3 2 2 2 2 2 2 2 2 2 2 2 2 2 2 2 2 2 2 3 3 3 3 4 3 3 3 4 4 2 0 
0 1 2 2 2 3 4 3 3 2 2 1 2 2 2 3 3 2 2 2 3 2 3 2 2 2 2 2 2 1 1 1 1 3 2 2 3 3 5 5 4 2 1 1 1 2 2 3 5 6 6 6 6 5 5 5 3 4 3 7 7 8 7 5 6 6 6 4 4 3 4 5 4 4 5 4 4 3 3 3 6 10 13 21 43 76 112 152 186 198 177 132 82 70 65 64 47 39 26 24 23 21 18 14 8 7 8 7 10 11 23 45 59 67 76 119 158 145 113 47 42 40 43 74 108 143 149 128 90 59 39 29 26 24 24 24 25 25 25 27 35 53 78 103 121 132 120 89 61 29 25 19 14 10 6 7 5 5 4 4 4 4 4 3 4 5 6 6 7 7 7 6 5 5 4 4 4 6 7 6 6 3 3 2 3 3 2 2 2 3 3 3 3 4 4 5 7 7 7 4 4 4 5 5 4 3 3 3 3 1 2 2 1 1 1 2 2 2 1 0 0 0 1 2 2 2 2 2 2 1 2 2 2 2 1 1 1 1 1 1 1 1 2 3 3 3 3 2 2 2 2 1 1 0 1 1 2 2 2 2 2 2 2 3 3 4 3 3 3 4 4 4 3 3 2 3 3 3 3 3 3 3 3 3 3 3 3 2 2 2 3 3 2 2 1 2 2 2 3 3 3 3 3 3 3 4 4 3 2 2 2 4 5 8 13 22 31 36 39 40 38 27 15 9 6 6 7 6 4 2 3 3 4 4 4 2 2 1 1 1 0 0 0 1 1 0 0 1 1 1 1 1 1 1 1 1 1 1 2 2 2 2 1 1 1 1 2 3 4 3 3 2 1 2 2 2 2 1 1 1 2 2 2 2 3 5 8 11 12 12 11 15 37 81 124 156 171 178 173 156 128 120 110 122 122 116 104 118 119 109 94 82 92 91 66 39 34 35 51 68 73 71 64 77 91 92 92 99 107 98 67 35 25 48 104 156 179 150 92 55 23 15 7 4 3 4 4 4 4 5 6 6 5 5 5 4 3 3 2 2 2 1 2 2 3 4 3 2 1 1 2 2 2 3 4 3 3 2 2 3 3 4 4 3 2 2 2 3 3 2 2 2 2 2 2 2 2 2 2 2 2 2 2 3 3 3 3 3 3 3 1 0 
0 1 2 2 2 3 4 3 3 1 2 2 2 2 2 2 2 2 2 1 2 1 2 2 2 2 1 1 1 1 0 1 1 3 4 5 6 6 5 4 4 4 3 3 3 3 4 5 6 6 6 5 6 6 6 5 4 5 5 7 7 7 6 5 5 5 5 5 4 4 5 6 6 5 5 4 4 3 3 3 6 8 12 14 23 39 66 100 144 181 194 178 131 104 78 66 53 44 35 35 26 21 16 12 14 15 15 12 14 19 31 49 62 79 107 147 153 127 73 45 44 45 70 107 137 146 119 82 43 27 25 26 27 27 27 27 27 28 29 27 25 28 39 56 79 110 130 115 87 45 28 22 17 12 8 9 6 6 4 4 4 4 4 3 2 3 3 3 3 3 3 3 3 4 4 5 5 6 7 5 5 3 2 2 2 2 2 2 3 3 3 3 3 4 4 5 6 7 7 4 4 4 6 6 4 4 3 3 2 2 1 2 1 1 1 1 1 1 0 0 0 0 1 2 2 2 2 2 2 2 2 2 2 1 1 1 1 1 1 1 1 2 2 4 5 5 4 3 2 2 2 1 1 1 1 1 1 1 2 2 3 3 3 3 4 4 4 4 4 4 4 4 3 3 3 3 2 3 3 3 4 4 3 3 3 3 2 2 2 3 3 3 2 2 1 2 2 2 3 4 5 5 4 3 3 3 3 3 3 3 3 4 6 9 18 32 48 60 67 59 44 27 14 8 6 5 5 4 3 2 3 4 5 5 5 3 1 1 1 1 1 0 1 1 1 1 0 0 1 1 1 1 1 0 1 1 1 1 2 3 3 2 1 1 1 1 2 3 3 3 3 2 1 2 3 3 3 2 1 1 1 1 1 2 2 5 8 10 11 11 10 10 14 34 66 100 122 127 112 88 57 51 55 70 74 72 74 104 115 108 75 73 95 97 72 45 40 39 55 69 74 74 66 76 95 112 127 123 117 100 69 37 21 36 79 131 172 167 114 64 24 16 9 4 3 4 4 4 6 6 6 6 5 4 3 3 1 1 1 1 1 1 1 1 2 2 2 2 1 1 1 1 2 2 3 3 3 2 2 3 3 4 5 5 4 3 3 3 3 2 2 2 2 2 3 2 3 2 2 1 2 1 2 2 2 3 2 2 1 1 0 0 
0 1 2 2 2 3 3 2 3 1 2 2 2 2 2 2 2 2 1 2 2 1 2 2 2 2 1 1 1 1 1 2 3 4 4 3 3 4 6 6 5 3 2 2 3 4 4 4 5 6 6 5 6 6 6 5 5 5 5 6 6 5 4 3 3 4 5 6 6 6 6 6 7 6 6 5 5 3 3 3 7 8 11 12 19 25 31 42 77 129 159 171 159 152 140 116 86 52 44 40 31 23 15 10 11 12 14 16 20 32 43 59 75 106 144 161 135 103 49 55 43 67 103 136 140 111 67 35 26 22 27 30 29 24 20 18 18 19 23 26 28 28 25 27 40 71 112 130 115 76 44 27 24 15 9 9 7 8 6 6 5 5 3 2 2 2 2 2 2 1 2 2 2 3 3 4 5 4 5 3 3 2 1 2 1 2 1 1 2 2 2 2 3 3 4 5 6 7 6 5 5 4 5 5 4 4 3 3 2 2 2 2 1 0 0 0 0 0 0 0 0 1 1 2 2 2 2 2 2 2 2 1 1 0 0 0 0 0 0 1 2 2 3 5 5 5 5 3 2 2 2 2 2 2 1 1 1 1 2 2 3 2 2 3 2 2 1 1 1 2 3 3 3 3 3 3 3 2 3 3 4 4 3 4 3 2 2 2 2 2 3 2 2 1 1 2 2 3 3 4 4 4 3 3 3 4 3 3 3 3 3 4 6 10 16 24 32 35 38 36 32 24 14 7 6 5 5 4 3 2 2 3 5 5 5 4 2 1 1 1 1 0 1 2 1 1 0 0 0 0 0 0 0 0 0 1 1 1 3 2 4 2 2 1 1 2 2 2 3 3 2 2 2 2 2 2 2 1 1 1 1 1 1 2 3 4 5 6 6 6 6 6 7 11 20 32 42 43 36 28 23 24 25 31 32 30 49 95 119 110 78 81 104 94 67 37 37 40 49 65 81 89 89 93 107 111 107 101 103 91 63 35 12 21 51 106 164 176 128 72 23 15 8 5 5 5 4 3 6 7 9 7 6 6 5 4 2 1 0 0 0 0 0 1 2 2 2 2 1 0 1 1 2 2 3 3 2 2 1 2 3 5 6 5 4 3 3 3 2 1 1 1 2 2 2 2 2 1 2 1 1 1 2 2 2 2 1 1 1 0 0 0 
0 1 2 2 2 3 3 2 2 1 2 2 2 2 1 1 1 1 1 2 2 1 2 2 2 2 1 1 1 1 2 2 3 4 5 6 6 6 5 4 3 3 3 3 3 4 4 5 6 5 6 5 6 5 5 4 4 5 5 5 4 3 2 2 2 3 5 7 7 6 5 5 6 6 6 5 5 3 3 3 7 8 10 8 12 18 25 32 39 64 98 125 146 167 178 158 119 75 59 47 35 24 18 16 20 21 22 25 35 50 63 83 113 150 171 150 104 59 37 48 54 103 128 142 111 65 38 27 28 24 26 25 21 18 17 18 18 16 14 15 18 20 21 23 29 46 81 120 133 105 70 31 27 18 10 6 6 6 5 5 4 4 2 2 1 1 1 1 1 1 2 2 2 3 3 4 4 3 4 3 2 1 1 2 1 1 1 1 1 1 2 2 3 3 3 4 5 5 6 5 5 5 5 4 4 3 3 3 2 2 2 1 1 0 0 0 0 1 1 1 2 1 2 2 2 1 1 1 2 2 2 1 1 0 0 0 0 0 0 1 2 3 4 5 6 6 5 4 3 2 3 2 3 2 2 2 1 1 3 3 3 2 2 2 2 3 3 3 3 3 4 4 3 3 2 3 2 2 2 2 3 3 3 3 3 3 2 2 2 3 3 2 2 2 2 2 2 3 3 4 3 3 3 3 2 2 2 3 4 4 4 4 6 8 14 21 34 39 42 38 28 16 8 6 6 5 4 3 2 2 2 3 4 5 5 4 2 1 1 1 0 0 1 1 1 1 1 1 1 1 1 1 1 1 0 1 1 2 3 2 3 2 2 2 2 2 2 2 3 3 3 2 2 2 2 2 3 3 2 2 2 1 1 2 3 3 4 4 4 3 4 5 6 8 10 13 18 20 22 21 19 16 13 12 11 16 44 93 122 120 93 86 97 77 59 33 40 40 40 54 71 81 83 73 77 84 89 87 85 75 56 39 19 22 43 103 173 189 135 75 22 19 8 6 7 7 5 5 7 7 8 6 5 6 5 4 2 0 0 0 0 0 0 0 2 2 2 1 0 0 0 1 1 2 2 2 2 2 2 3 4 5 6 5 4 4 4 3 2 0 0 1 1 2 2 2 2 1 1 1 1 1 2 2 1 1 0 0 0 0 0 0 
0 2 2 2 2 3 3 2 2 2 3 3 2 2 1 1 1 1 2 2 2 2 2 2 2 2 2 2 1 1 2 3 5 6 5 4 4 4 5 6 5 4 3 3 4 5 5 4 5 5 6 5 6 6 6 6 4 4 4 4 4 4 3 3 2 4 7 8 8 5 4 4 6 6 7 6 4 3 4 4 8 7 8 4 5 8 12 20 26 31 45 76 111 151 182 185 159 115 79 58 43 28 23 20 20 19 22 32 49 69 91 118 152 177 161 120 72 40 43 40 70 119 139 130 75 36 27 26 27 25 23 21 16 14 13 14 14 13 13 14 15 17 18 21 29 36 55 96 136 133 99 47 28 21 13 6 6 5 6 5 4 3 2 2 1 1 1 1 1 2 2 2 3 3 3 4 4 3 3 2 2 1 1 2 1 1 1 0 1 0 1 1 2 2 2 2 3 3 4 4 4 4 4 3 3 3 2 2 2 2 2 2 1 1 0 0 1 1 2 2 2 2 3 3 2 1 0 0 0 1 1 1 1 1 0 0 0 0 0 1 3 3 5 5 7 7 5 5 3 2 3 2 3 3 2 3 2 2 3 3 3 2 2 2 2 3 3 3 4 4 4 4 3 2 2 2 2 2 2 2 3 3 3 3 3 3 2 2 2 3 3 2 2 2 2 3 3 4 4 4 4 3 3 3 4 3 2 2 3 3 3 4 6 8 11 11 14 15 14 11 10 9 8 6 5 5 5 3 2 2 1 2 3 4 5 4 2 1 1 0 0 1 1 1 1 1 1 1 1 1 1 1 2 1 1 1 1 2 2 2 3 2 3 2 2 2 2 3 3 3 3 3 3 2 2 3 4 4 3 3 2 1 1 2 3 4 4 4 4 4 3 3 5 6 8 10 13 16 17 16 15 12 10 10 12 17 36 91 126 138 113 95 88 61 46 31 41 35 34 49 65 75 73 67 70 67 61 59 64 64 50 33 15 18 57 133 203 200 133 69 24 20 10 7 7 7 6 5 7 7 7 7 6 7 6 4 2 0 0 0 0 0 0 1 2 2 2 1 0 0 0 1 1 2 2 2 2 2 2 3 4 5 5 5 5 5 5 4 2 1 0 1 1 2 2 2 2 1 1 1 2 2 2 2 1 0 0 0 1 1 1 0 
0 1 2 2 2 3 3 3 3 3 3 3 2 2 1 1 1 1 2 2 3 3 2 2 2 2 2 2 2 2 1 2 4 5 6 8 9 9 8 6 4 3 3 3 3 3 3 4 6 6 7 6 7 7 6 6 5 4 4 4 4 4 4 3 3 5 7 8 7 5 4 5 7 8 8 6 4 3 4 5 7 7 7 6 7 7 7 10 13 20 22 32 47 86 126 156 160 142 114 86 58 32 21 21 21 23 37 57 85 114 141 167 176 161 120 85 44 43 38 44 91 133 135 104 47 30 32 28 24 21 17 14 11 10 10 10 11 12 11 12 15 17 18 18 26 29 37 68 118 143 125 73 35 24 17 8 4 4 6 5 4 2 2 2 2 1 0 0 1 2 3 3 3 2 2 3 3 2 3 2 2 1 1 2 2 1 1 1 0 0 1 2 2 3 3 2 2 2 2 3 3 3 3 3 2 2 3 3 4 3 3 2 1 1 0 1 1 2 2 2 3 2 3 4 3 2 0 0 0 0 1 1 1 1 1 1 0 0 0 1 2 3 4 5 6 7 5 4 3 2 3 2 3 4 3 4 3 3 3 3 2 2 2 1 2 3 3 3 3 3 3 3 2 2 2 3 2 3 2 2 2 3 3 4 3 3 3 3 2 3 2 2 2 3 3 3 3 4 4 3 3 3 3 3 3 2 2 2 2 3 4 4 5 6 8 11 12 12 12 10 10 7 5 4 6 7 7 6 4 3 2 2 2 3 4 3 2 1 0 0 0 1 1 1 1 1 1 1 1 1 1 1 2 1 2 0 1 2 2 2 3 2 3 2 2 3 2 4 3 4 4 4 3 3 2 3 3 3 3 3 3 2 2 3 3 4 5 6 5 4 3 3 5 5 8 9 11 12 10 9 9 8 9 9 12 21 34 93 125 144 122 97 83 59 42 33 41 37 36 36 40 51 48 49 49 43 40 49 60 62 47 33 24 37 96 174 224 192 117 54 29 20 10 8 8 7 6 5 6 7 7 7 6 6 5 4 2 1 0 0 0 0 0 1 2 2 2 1 0 0 0 0 1 1 2 2 2 2 2 3 4 4 4 3 4 5 6 5 3 1 0 1 1 2 2 2 2 1 1 1 2 2 2 2 1 1 1 1 2 2 1 0 
0 2 3 2 2 3 3 3 4 3 3 3 2 2 1 1 1 1 2 2 3 3 2 2 2 2 3 3 2 2 2 3 4 5 6 6 7 8 8 7 5 4 4 5 5 6 6 6 6 6 6 5 6 6 7 6 5 4 5 5 6 5 4 4 4 5 7 8 7 6 6 7 8 9 7 5 3 3 3 5 6 5 4 3 4 5 5 6 5 10 15 30 32 40 61 102 138 161 162 137 105 76 60 63 72 87 109 130 150 164 166 159 140 112 77 48 34 53 36 61 98 137 121 78 34 29 32 24 21 20 14 10 8 9 8 9 9 10 11 13 15 16 17 16 24 27 26 41 88 133 139 95 52 26 22 11 5 5 6 6 5 4 3 2 2 1 0 1 1 2 2 2 2 1 1 1 2 2 2 2 2 1 1 1 2 2 1 1 0 0 1 2 3 3 3 2 2 1 2 2 2 2 2 2 2 3 4 4 4 4 3 2 1 1 1 1 2 2 2 2 2 2 3 3 3 2 1 0 0 0 1 1 1 1 1 1 1 1 1 2 2 2 3 4 5 5 4 4 3 2 3 2 3 4 3 3 3 3 2 2 2 2 2 1 2 2 2 2 1 1 1 1 2 3 3 3 3 3 3 3 3 3 3 3 4 4 3 2 2 2 2 2 2 3 2 2 3 4 6 5 4 4 4 5 4 3 2 1 1 1 2 3 5 5 7 7 10 10 8 6 5 4 4 4 5 6 6 6 4 3 2 2 2 3 4 3 2 1 0 0 1 2 2 2 1 1 1 1 1 2 2 2 2 1 2 0 1 2 2 3 3 2 3 3 3 4 1 3 2 4 4 5 3 3 2 4 4 4 3 3 2 2 1 2 3 4 5 5 4 4 3 3 3 3 5 5 6 7 7 7 7 6 6 8 11 21 33 87 113 131 115 103 89 65 37 27 37 39 41 36 32 34 34 48 45 45 52 65 69 56 38 27 28 50 122 199 225 175 97 43 30 16 9 7 7 6 6 5 5 5 5 5 5 5 4 3 1 1 0 0 0 1 1 1 1 2 2 1 1 0 0 1 1 2 2 2 2 2 3 4 4 4 4 4 5 6 6 5 3 1 0 1 2 2 3 2 3 1 1 1 2 2 2 2 2 2 2 2 2 2 1 0 
0 1 1 1 1 1 3 2 4 3 3 2 2 2 2 2 2 1 2 2 4 4 5 4 3 3 3 3 3 3 3 3 4 4 5 7 10 12 10 7 4 3 3 3 3 3 3 5 6 6 5 4 6 5 6 5 5 5 5 5 5 5 5 5 4 5 6 7 7 6 7 8 8 8 6 4 3 2 3 4 4 4 3 3 5 5 4 6 6 8 8 15 23 27 33 59 95 135 167 174 166 153 141 145 154 164 173 177 174 160 141 121 97 60 34 31 32 51 36 81 111 142 110 59 32 30 31 21 20 19 12 10 9 9 7 6 7 8 8 9 11 14 15 14 19 25 25 27 58 111 142 116 75 32 25 15 6 5 7 8 7 6 4 4 3 2 2 2 2 3 3 3 2 1 2 2 1 1 1 2 2 1 1 1 2 2 2 1 1 1 1 2 2 3 3 3 2 2 1 1 2 2 3 2 2 3 4 5 5 4 3 2 2 1 2 1 2 2 3 3 3 3 3 3 3 2 2 2 2 2 2 2 1 2 2 2 2 2 2 1 2 2 3 4 5 6 5 4 3 3 3 2 3 3 3 4 3 3 3 2 2 1 1 1 1 1 1 0 0 0 0 1 2 3 4 4 4 3 3 3 3 4 5 5 5 4 3 2 2 2 2 3 2 3 2 2 2 3 3 3 3 3 3 3 3 2 2 3 3 3 3 3 5 4 7 6 9 8 6 6 3 3 3 4 5 8 8 7 6 4 3 3 4 4 4 4 3 2 1 1 1 2 3 3 2 2 2 2 2 2 2 2 3 1 2 0 1 1 2 3 3 2 3 3 3 3 1 3 2 2 2 3 2 2 1 1 2 2 2 2 2 2 2 2 2 3 4 4 3 3 2 3 3 3 4 5 6 6 5 4 4 5 4 7 10 17 33 75 102 122 119 115 93 65 31 24 37 43 44 34 26 36 43 49 61 77 84 79 67 48 42 41 47 71 137 197 201 147 72 36 26 11 6 5 6 4 3 3 4 6 7 7 5 4 4 3 2 2 1 1 1 1 1 1 1 1 2 2 1 1 1 1 1 1 2 2 2 2 2 3 4 3 4 4 5 5 5 4 3 2 1 2 3 3 4 3 3 2 1 1 1 2 2 3 3 2 2 2 2 2 1 0 
0 1 2 1 2 2 2 2 3 3 3 3 2 2 2 2 2 2 2 3 4 5 5 5 4 4 4 4 4 3 3 4 5 4 5 5 6 7 6 4 3 2 2 3 4 4 4 5 5 5 4 2 3 2 4 4 5 5 4 4 4 4 4 4 4 4 4 5 6 6 7 7 6 5 4 3 3 3 4 3 3 2 2 2 2 3 4 4 4 4 6 8 13 16 19 30 61 92 130 158 179 188 188 188 187 183 176 161 144 124 101 68 39 26 22 22 27 49 41 96 124 141 100 44 32 30 29 19 18 16 8 7 8 9 7 5 4 4 4 6 9 11 12 14 17 23 23 18 34 86 136 130 95 43 28 19 8 5 7 8 7 6 4 3 3 3 2 2 3 3 4 3 2 2 2 3 2 2 1 2 2 1 1 1 2 2 2 1 1 1 2 2 2 2 2 2 2 1 1 1 1 1 2 1 3 3 4 5 5 3 4 2 3 2 2 2 2 2 3 3 3 3 2 3 2 2 2 3 3 3 3 3 2 2 2 2 3 2 3 2 2 2 3 4 5 5 4 3 3 3 2 2 3 3 3 4 5 6 5 4 3 3 2 2 1 1 1 1 1 1 2 2 3 4 5 5 4 4 3 4 4 5 6 7 6 5 4 4 4 4 4 4 4 3 3 2 3 4 4 4 3 2 3 4 3 3 3 3 3 4 4 4 5 4 7 5 6 6 5 5 2 2 2 3 4 6 6 6 5 4 4 4 5 5 5 4 4 3 2 1 1 3 3 3 3 3 2 2 2 2 2 2 2 1 1 0 1 1 2 3 4 3 4 4 3 3 2 2 1 1 2 2 2 1 1 1 3 2 3 2 2 2 1 2 2 2 2 2 1 2 2 2 2 2 2 2 3 2 2 2 3 4 5 7 12 14 36 66 98 119 118 109 83 53 21 17 36 47 47 36 28 38 62 85 110 106 97 76 52 37 41 48 57 80 132 174 167 113 58 30 19 8 4 4 5 5 5 4 3 4 4 4 3 3 3 3 1 1 1 1 1 1 1 1 2 2 2 2 1 1 1 2 1 2 1 2 1 1 2 3 4 4 5 5 4 5 4 4 3 2 1 2 2 3 3 3 3 2 2 2 1 1 2 3 3 3 1 1 2 2 1 0 
0 0 0 1 1 0 1 1 3 2 3 2 2 2 3 3 3 3 3 4 5 6 5 6 6 5 5 4 4 5 5 4 4 4 4 5 6 6 5 4 2 1 1 1 2 2 2 4 4 4 4 3 4 3 4 5 6 6 5 4 4 4 5 4 3 3 3 4 4 5 5 5 5 3 2 2 3 3 4 3 3 1 2 2 2 3 4 5 5 4 4 4 7 10 16 20 30 46 76 104 131 148 156 157 153 143 126 102 81 53 34 24 22 17 14 12 24 45 47 108 134 138 93 35 35 32 29 19 17 13 8 8 8 9 7 3 3 2 2 4 6 9 9 14 17 22 23 20 23 69 128 138 110 53 29 21 10 4 7 6 6 5 4 3 2 3 3 4 3 4 4 4 4 4 4 5 3 2 2 2 2 1 1 1 1 1 2 1 1 2 2 2 1 2 2 2 2 1 1 1 1 1 2 1 2 3 4 3 3 3 4 3 4 3 3 4 3 3 3 3 3 3 2 2 2 2 3 3 3 3 3 3 3 3 3 3 3 2 2 2 2 2 3 4 4 4 4 3 3 2 2 2 2 3 4 4 5 5 4 3 2 2 2 2 2 1 1 1 1 2 2 2 3 3 3 3 3 3 3 3 4 5 6 7 6 6 5 5 5 6 5 6 7 5 4 3 3 2 2 1 1 1 1 2 2 2 3 4 6 6 5 4 4 4 6 5 5 4 3 3 2 1 1 2 4 5 6 5 5 5 4 5 5 6 6 6 5 4 3 2 2 2 3 4 3 2 2 2 2 1 1 1 2 1 1 1 1 1 2 4 4 4 4 5 4 3 2 2 1 1 1 2 2 1 1 0 2 1 3 2 2 2 2 2 2 2 2 2 1 2 1 1 1 1 1 1 2 2 2 3 5 4 8 8 16 12 34 60 102 130 132 110 69 35 16 15 32 47 49 44 42 54 85 99 108 101 83 51 33 36 48 59 69 91 129 156 143 90 49 21 16 8 4 4 3 3 2 2 3 4 5 4 3 3 3 3 3 2 1 1 1 1 1 2 2 2 2 2 1 1 2 2 2 2 1 1 0 0 1 2 3 3 3 4 4 5 4 3 3 2 1 1 2 2 3 3 3 3 3 2 2 2 2 3 3 2 1 1 1 1 0 0 
0 0 1 0 0 0 1 1 3 3 3 3 3 3 4 4 5 5 4 4 4 4 3 4 5 5 6 7 6 5 5 5 4 4 3 4 3 4 3 2 1 1 1 1 2 2 3 4 4 5 5 3 3 2 3 3 4 4 4 4 4 4 4 4 3 2 2 3 3 4 4 4 4 3 3 2 3 3 5 4 4 2 3 2 2 2 3 4 5 5 5 4 5 7 11 17 21 23 30 47 70 86 90 82 69 54 39 25 18 17 18 15 11 8 9 9 24 41 51 113 139 134 85 30 32 33 26 16 16 11 8 8 8 9 6 3 3 3 2 4 6 8 9 14 14 19 22 24 23 61 123 141 118 59 27 24 13 4 6 5 5 4 3 2 2 3 4 4 4 4 5 5 5 6 5 6 4 3 2 2 2 2 1 1 1 1 2 1 2 2 2 2 2 2 2 2 2 2 1 1 1 1 1 1 2 3 3 3 3 3 5 3 4 2 3 5 4 4 3 3 3 3 2 2 3 2 3 3 3 3 2 2 3 3 3 3 3 3 2 2 2 2 3 3 3 3 3 3 3 3 3 2 2 3 4 6 8 9 8 7 7 7 6 4 2 1 2 1 2 2 2 2 2 3 4 4 4 4 4 3 4 6 8 9 8 7 6 6 5 6 5 7 8 8 7 5 4 3 2 1 1 1 2 3 3 4 4 5 5 5 5 6 6 5 5 4 4 3 3 3 2 1 0 1 2 4 5 5 4 4 4 4 5 6 6 5 4 3 3 2 2 2 3 3 3 3 2 2 1 1 1 1 1 1 1 1 1 1 3 4 4 4 4 5 5 4 2 1 1 1 2 2 2 1 1 1 2 1 3 2 2 2 2 2 2 2 2 2 2 2 1 1 1 1 1 1 1 1 2 3 6 6 11 8 18 13 31 55 105 142 148 114 64 27 15 17 33 54 61 62 59 64 83 99 104 91 60 36 29 39 61 81 98 119 142 145 113 64 35 17 14 8 6 5 4 3 3 2 2 3 4 4 4 4 4 3 2 2 1 1 1 1 1 1 1 2 2 2 2 1 2 2 2 1 1 0 0 0 1 2 3 3 3 4 4 4 4 3 2 1 1 0 0 1 2 2 3 3 4 4 4 4 3 3 3 2 1 1 1 1 1 0 
0 0 1 0 0 0 1 1 2 2 3 2 3 4 4 5 6 5 5 4 3 2 2 3 4 5 6 6 6 5 5 4 3 2 3 3 3 3 2 2 2 1 1 1 1 2 3 4 4 5 5 4 4 3 4 4 4 4 4 4 4 4 3 3 2 2 2 3 3 3 2 2 3 3 3 2 3 3 4 4 3 3 3 2 2 2 3 4 5 5 5 5 4 5 8 13 17 19 20 21 23 23 20 16 15 15 15 15 14 12 9 10 10 10 9 7 23 37 53 113 138 130 78 28 27 32 24 17 17 10 8 7 8 8 6 3 3 3 2 3 5 8 9 14 12 16 22 28 29 56 122 141 121 64 25 25 12 4 4 4 4 4 3 2 2 3 4 5 4 4 4 5 5 6 5 5 4 3 2 2 2 2 1 1 1 1 2 2 2 2 2 2 2 1 2 2 2 1 1 1 1 2 2 2 2 2 2 2 2 3 5 4 3 2 3 5 4 4 3 3 3 2 2 2 3 3 3 2 2 1 1 2 2 3 3 3 3 3 2 2 2 2 3 3 3 3 3 3 3 3 2 2 2 2 2 4 5 6 6 6 6 6 6 5 3 1 1 1 1 1 1 2 2 2 2 2 2 3 4 3 3 3 4 5 5 6 5 5 4 4 4 6 8 8 7 4 3 2 2 1 1 2 2 3 3 3 4 5 6 6 6 5 5 5 5 4 3 2 3 3 3 2 1 0 1 2 3 3 3 3 4 4 4 5 5 4 3 2 2 2 2 2 2 2 2 1 1 1 1 1 1 1 1 1 1 1 2 1 3 4 4 3 3 4 5 4 2 1 1 1 2 2 2 2 2 1 2 1 2 2 2 2 2 2 3 3 2 2 3 3 3 3 2 2 1 1 1 2 2 3 6 7 11 9 17 13 23 43 91 145 169 143 90 41 23 22 28 41 52 60 62 64 73 76 65 46 23 18 27 55 92 125 145 154 152 127 86 50 23 17 14 9 6 5 3 3 2 2 2 3 4 5 4 3 3 3 2 2 2 2 2 2 2 3 2 3 3 3 3 2 3 3 3 1 1 1 0 0 2 2 3 3 2 2 2 3 3 2 1 0 0 0 0 0 0 2 3 3 3 3 3 3 3 2 2 1 2 1 1 1 0 0 
0 1 1 1 1 1 1 2 3 3 3 2 3 4 4 5 5 5 4 3 2 2 2 2 3 4 5 6 5 5 5 5 4 3 3 3 3 3 2 2 2 1 1 1 1 2 3 5 5 5 5 4 4 2 2 2 2 2 3 4 4 4 3 2 2 2 2 3 3 3 2 2 2 3 3 3 3 3 3 3 3 3 3 3 3 2 3 4 5 6 7 6 5 4 6 9 12 14 19 22 24 26 25 19 14 10 10 10 9 8 7 7 8 9 11 7 23 34 50 109 134 128 75 30 23 30 23 18 17 9 7 6 7 8 5 4 4 4 3 3 6 8 9 14 10 13 21 28 36 54 121 140 121 68 24 27 12 4 3 4 4 4 4 3 3 3 3 4 4 4 4 5 5 5 4 4 3 2 2 2 2 1 0 1 1 1 2 2 2 3 2 2 1 1 1 1 2 1 1 1 1 2 2 3 3 2 1 1 1 3 5 4 4 1 2 4 4 3 2 3 3 2 2 2 3 3 3 2 2 1 1 2 2 3 3 3 4 4 3 2 3 2 3 3 3 4 4 3 3 2 2 2 2 2 2 4 7 8 9 9 9 9 8 5 3 1 1 1 1 1 1 1 1 2 3 3 4 4 4 3 3 5 8 9 8 6 5 5 4 3 2 5 7 8 7 4 3 2 2 1 1 1 2 3 4 5 5 5 5 5 5 6 7 6 5 4 2 2 3 4 4 3 1 1 2 2 3 3 3 3 3 3 4 4 4 4 3 2 2 2 2 2 2 2 2 1 1 1 1 1 1 1 1 1 1 1 2 1 3 3 4 3 2 3 4 4 2 1 1 1 2 2 1 1 2 2 2 1 2 2 2 2 2 2 3 3 3 3 3 3 3 3 3 3 3 2 1 1 3 3 6 7 9 10 12 13 15 31 67 124 171 174 133 78 41 27 30 40 49 56 53 48 42 38 31 26 20 21 37 82 135 176 186 174 148 107 67 39 23 18 10 7 6 4 2 2 2 3 3 3 5 5 5 4 3 2 2 2 2 2 2 3 3 3 3 4 3 4 3 3 4 3 3 1 1 2 2 2 3 3 3 3 2 3 3 3 3 2 1 0 0 0 0 0 0 1 2 3 4 4 4 4 3 2 2 1 2 1 1 1 1 0 
0 1 2 1 1 1 1 2 3 3 3 2 2 3 3 4 3 3 3 3 2 1 1 2 2 3 4 4 4 5 4 5 4 3 3 3 2 2 3 2 3 2 2 1 2 2 4 6 5 6 5 4 4 2 2 2 2 2 2 2 2 2 2 2 2 2 2 2 3 2 2 1 2 3 3 3 3 3 3 3 4 4 4 4 3 2 2 3 4 5 5 5 4 4 4 6 7 8 9 13 18 18 14 10 9 7 7 7 7 6 6 6 9 7 11 8 22 35 45 102 128 130 81 33 22 30 24 19 18 9 8 6 7 7 6 6 4 3 3 4 8 9 9 13 10 13 22 28 37 52 118 139 119 69 23 27 11 4 3 3 4 3 5 4 4 3 3 3 3 3 3 3 4 4 3 3 2 2 1 1 1 1 1 1 1 1 2 2 2 3 2 2 1 1 1 1 2 1 1 2 2 2 3 4 4 3 1 1 1 2 4 4 4 1 2 3 3 3 2 3 3 2 2 2 2 2 2 1 1 1 1 1 2 2 3 3 3 3 3 3 2 2 3 3 3 3 3 3 2 1 1 2 2 2 2 2 5 8 10 10 9 9 8 7 4 2 1 1 1 1 1 1 2 2 3 3 3 3 4 4 5 6 8 9 8 7 6 5 3 3 2 4 6 7 6 3 2 1 2 2 2 2 2 3 2 3 3 5 5 5 5 4 5 5 5 4 2 2 3 4 4 3 2 2 2 2 2 2 2 3 3 3 3 4 4 4 3 2 2 2 2 2 2 2 1 1 0 0 1 1 1 1 1 1 1 1 2 2 2 3 4 3 3 3 4 4 3 2 2 2 2 2 1 1 2 2 3 2 2 2 2 2 2 2 2 2 2 2 3 3 3 3 4 4 4 3 3 2 3 3 5 6 9 9 8 12 10 16 39 88 145 181 172 126 78 53 45 45 48 51 44 36 28 26 26 29 25 34 70 134 193 217 192 149 106 69 45 34 31 26 17 12 8 5 3 3 4 3 4 4 5 5 5 4 2 2 2 2 2 2 2 3 3 4 3 5 4 5 4 4 5 4 3 2 2 2 3 3 3 3 3 3 2 2 1 2 2 1 1 1 1 0 0 0 1 1 2 2 3 3 3 3 3 2 3 2 2 1 1 1 0 0 
0 1 2 1 1 1 1 1 3 3 4 3 2 2 2 2 2 2 2 1 1 1 1 2 2 3 3 4 4 4 5 6 5 4 4 3 3 2 3 3 4 3 3 2 2 3 5 6 6 6 4 4 3 2 2 2 2 2 2 2 3 3 3 2 2 1 1 2 2 3 3 2 2 2 3 4 4 3 2 2 3 3 4 4 3 3 2 2 3 4 5 4 3 2 3 5 6 8 9 9 8 8 10 8 7 8 8 8 8 7 5 5 7 7 12 10 21 37 37 95 122 134 92 39 22 30 26 22 18 11 10 7 6 7 7 7 7 5 4 5 8 10 9 12 10 15 23 27 30 51 115 138 116 67 23 27 11 4 3 3 3 3 4 3 4 2 2 2 2 2 3 3 4 3 2 2 2 2 2 1 1 1 0 1 1 1 2 2 2 2 2 2 1 1 1 1 1 1 2 2 3 3 4 4 4 3 2 1 2 3 4 4 3 1 2 2 3 2 2 2 2 1 1 2 2 1 1 1 2 1 1 1 2 2 3 3 4 4 4 3 2 2 3 3 3 2 2 2 1 1 1 2 3 2 2 3 4 6 6 7 6 6 5 4 3 2 2 2 2 2 1 1 1 2 2 3 3 3 4 4 6 7 8 9 9 9 9 9 8 5 4 5 7 7 6 2 2 1 2 2 2 2 2 2 2 3 3 4 3 3 4 4 5 5 4 3 2 2 2 4 4 3 3 2 3 3 2 2 3 3 3 3 3 4 4 4 3 2 3 3 4 3 2 2 2 1 1 1 1 1 1 1 1 1 1 1 1 1 1 2 4 4 4 4 4 4 4 3 3 3 3 2 1 2 2 2 3 2 2 3 2 2 1 2 2 2 2 2 2 2 2 2 2 3 4 4 4 3 3 3 5 5 7 7 6 6 6 9 17 46 100 153 180 163 120 80 61 57 56 53 46 43 45 56 63 64 56 65 108 170 206 196 169 152 138 116 92 65 43 26 17 15 13 10 6 3 4 4 5 4 4 4 5 4 4 2 1 1 1 1 1 2 3 4 4 5 4 5 5 5 6 5 4 2 2 2 3 3 2 2 2 3 3 3 3 3 2 2 1 1 1 1 1 1 1 2 3 4 4 4 4 4 4 4 2 2 1 1 1 1 0 0 
0 3 3 2 1 1 1 2 3 3 4 4 3 2 2 2 2 2 2 1 1 1 1 2 3 4 3 3 4 5 6 6 5 4 4 4 3 2 3 3 4 3 4 2 2 3 5 6 6 5 4 3 2 2 2 2 1 1 2 2 3 3 3 2 2 1 1 1 2 2 2 2 2 3 4 5 4 3 2 3 4 4 4 4 3 3 2 2 3 3 3 2 2 2 2 3 4 4 4 6 8 8 8 8 8 8 7 6 5 5 5 5 6 7 11 12 17 37 33 85 119 139 104 47 21 30 30 26 18 13 13 9 6 6 7 8 8 6 6 8 10 11 10 11 11 19 24 25 23 56 117 137 111 59 24 25 11 3 3 2 3 3 4 4 4 3 2 2 2 2 3 4 4 3 2 2 3 3 3 2 1 1 1 1 1 1 1 1 2 2 2 2 1 2 1 1 1 2 2 3 3 3 3 4 3 3 3 3 3 3 3 4 4 3 3 3 3 3 2 2 2 2 2 2 1 1 1 1 1 1 2 2 1 1 1 2 3 3 3 3 2 2 2 2 2 1 1 2 1 2 2 2 3 2 2 2 4 6 8 9 8 8 8 7 6 3 2 3 3 3 2 1 2 2 2 2 2 2 3 4 6 7 8 8 8 9 11 12 10 7 5 6 7 6 5 2 2 1 2 2 2 2 2 2 1 2 2 4 4 3 2 2 3 4 3 3 2 1 2 2 2 2 2 3 3 3 3 3 3 3 3 3 3 3 3 3 3 2 3 3 4 3 2 2 2 2 2 2 2 1 1 1 2 1 2 1 2 1 1 2 3 4 4 4 3 4 4 5 5 5 4 3 2 2 3 2 2 2 2 2 2 2 1 2 2 3 3 3 3 2 2 1 2 3 4 4 4 4 3 3 4 5 6 5 5 5 5 6 12 21 56 106 153 170 148 107 74 56 51 52 58 76 101 117 117 100 75 83 131 201 248 255 236 209 196 183 167 149 126 88 53 29 18 13 12 8 6 4 4 3 3 3 4 4 4 3 3 2 1 1 1 1 1 3 3 5 4 4 5 5 7 6 5 3 3 3 3 3 3 3 3 3 3 2 2 2 2 2 2 1 2 2 2 2 2 2 2 3 3 3 3 3 3 3 3 2 1 1 1 1 1 0 
0 2 4 3 2 2 2 3 3 3 3 4 3 3 2 2 2 2 2 1 2 1 1 2 3 3 4 3 3 3 4 4 4 4 4 3 3 2 3 2 5 4 5 3 3 3 5 5 5 4 3 3 2 1 1 1 2 2 2 3 4 5 5 3 2 1 1 1 2 2 2 2 2 2 3 5 4 3 2 2 2 2 2 3 4 4 3 3 3 4 4 3 2 2 3 4 4 4 4 4 4 5 5 5 5 5 6 6 6 5 4 3 5 6 9 12 13 32 31 68 113 139 121 64 23 30 31 31 23 19 17 11 6 5 7 8 9 8 8 9 12 13 13 13 14 23 25 24 23 66 124 135 102 50 25 24 12 5 5 4 3 2 3 3 3 3 2 3 2 3 3 3 4 3 3 2 3 3 3 2 1 1 1 1 2 2 2 1 1 1 1 1 1 2 1 1 1 1 2 2 2 3 2 3 3 3 3 3 3 3 3 3 4 4 4 4 3 3 2 2 1 1 2 2 2 1 1 1 1 2 2 3 2 2 1 2 3 4 4 4 3 3 3 3 3 2 3 3 3 3 2 3 3 3 3 2 2 2 3 3 3 3 3 3 3 3 3 4 4 4 2 2 1 2 2 2 1 1 2 4 5 5 5 4 6 8 11 13 12 10 7 6 6 5 3 2 2 2 2 2 3 3 2 2 1 1 2 3 3 2 2 2 2 3 3 2 2 1 2 2 3 2 3 4 4 4 3 3 3 2 3 3 3 3 3 3 2 2 3 3 4 3 2 2 2 3 3 3 2 2 2 2 2 2 3 1 2 1 1 2 3 4 5 4 4 4 5 6 6 5 4 3 2 3 2 2 1 1 2 2 2 2 2 3 3 4 5 4 4 3 2 2 2 3 3 4 5 4 3 3 3 3 4 5 4 4 4 3 9 13 25 61 105 143 149 124 83 53 39 53 82 109 125 130 132 128 110 119 154 212 248 240 227 220 216 206 196 181 158 123 83 47 28 19 15 13 7 7 4 3 3 2 3 3 4 4 4 3 2 2 2 2 2 3 3 4 5 4 5 5 7 6 5 3 3 3 3 3 3 3 3 3 3 2 2 2 3 3 2 2 1 1 2 2 2 2 2 3 3 3 2 2 2 2 2 2 2 2 1 1 0 0 
0 3 5 5 4 4 4 4 3 3 3 4 4 4 3 2 2 2 2 2 2 1 2 2 3 4 3 2 2 3 4 4 4 3 3 3 3 2 3 2 5 4 6 4 5 4 4 4 3 3 2 2 1 1 1 1 1 1 2 3 4 4 4 3 3 1 1 1 1 2 2 2 2 2 4 5 5 4 2 2 2 2 3 3 4 5 4 3 3 4 4 4 3 3 3 3 4 4 4 4 4 5 4 4 3 3 3 4 4 4 4 3 4 4 6 9 8 24 30 49 98 130 134 88 33 27 28 31 24 22 23 20 14 9 8 8 10 10 11 11 14 15 15 14 16 25 24 22 32 85 132 127 86 39 26 23 11 6 5 5 4 3 3 3 3 3 2 3 3 4 5 4 4 3 3 4 4 3 3 2 2 2 2 2 2 2 2 2 1 1 1 1 2 3 2 1 1 2 3 3 2 2 2 2 3 4 3 3 2 2 2 4 5 5 4 4 3 3 3 2 2 2 2 2 2 2 2 2 2 2 2 3 3 3 2 2 3 4 3 3 3 4 4 4 4 3 4 3 4 4 3 3 3 3 3 3 3 4 5 6 7 8 8 7 6 4 4 4 4 4 3 3 2 2 2 2 2 2 2 3 4 5 5 5 5 7 9 11 12 9 7 5 5 3 2 1 1 1 1 2 2 2 1 1 1 1 3 3 3 3 3 2 2 2 2 2 1 1 2 2 3 2 3 4 4 4 4 4 3 2 2 2 2 2 1 2 2 2 2 3 3 2 2 2 2 2 2 2 2 2 2 2 3 3 3 2 2 1 1 2 2 2 3 3 3 3 4 5 5 4 4 3 3 3 1 1 0 0 0 1 1 1 1 2 4 5 6 5 5 5 4 4 3 3 3 4 4 4 3 2 3 3 3 4 5 5 5 3 5 11 15 36 64 104 135 142 128 112 90 94 105 117 142 170 179 159 121 98 111 148 188 207 204 190 169 161 163 175 179 161 119 68 32 24 18 20 8 6 4 3 3 2 2 2 3 4 5 4 4 3 2 2 2 2 4 4 6 5 6 5 6 5 4 3 4 4 5 6 4 4 4 3 3 2 2 3 3 3 2 2 2 1 2 2 2 1 1 2 2 3 1 1 0 1 1 2 2 1 1 1 0 0 
0 3 5 5 5 5 4 4 3 3 4 4 3 3 2 2 2 2 2 2 2 2 2 2 2 2 2 2 1 1 1 2 3 3 3 3 3 3 3 2 6 4 8 5 6 4 3 2 2 2 2 2 1 1 0 1 1 2 2 3 5 5 5 3 2 1 1 1 1 1 2 2 2 2 3 4 5 5 3 2 2 2 3 4 4 5 4 4 4 4 4 4 4 4 4 4 4 3 3 3 3 3 3 2 2 3 3 4 4 3 4 3 4 3 4 5 5 14 25 34 75 117 139 118 61 29 26 34 30 24 22 20 15 12 11 12 14 14 14 13 15 16 16 16 19 25 24 25 53 109 137 117 69 30 25 21 12 8 8 5 4 2 2 2 2 3 2 3 3 4 4 4 4 4 3 3 3 3 3 3 3 3 3 3 2 3 3 2 1 1 1 2 2 3 2 1 1 2 2 2 2 2 2 3 4 4 3 3 2 2 3 4 4 5 4 3 2 3 3 2 2 2 3 3 2 3 3 3 2 2 2 3 4 3 3 2 4 4 3 3 2 4 5 5 5 4 5 4 5 4 3 3 3 3 3 3 3 3 3 4 5 6 6 6 5 4 4 4 4 4 4 3 3 2 2 2 2 2 2 3 4 5 5 4 5 6 8 9 10 8 8 4 4 3 2 2 1 1 1 1 2 2 1 0 0 1 2 3 3 2 2 2 2 3 2 2 1 1 3 3 3 3 3 4 4 4 4 4 3 2 2 2 2 1 1 1 2 2 2 2 3 2 2 2 2 2 2 2 2 2 2 2 3 3 3 3 2 1 1 2 2 3 4 3 3 3 3 4 4 3 3 3 3 2 1 1 1 1 1 1 1 1 1 2 4 5 6 6 5 5 4 4 3 3 3 4 4 4 3 3 3 3 4 4 5 5 5 5 6 10 13 19 38 68 117 158 172 162 132 108 105 124 149 146 143 128 102 82 86 104 124 129 109 88 65 65 75 107 140 155 132 88 44 30 22 23 12 7 5 3 3 2 1 2 3 3 4 5 5 4 3 3 3 3 4 4 7 6 7 5 5 3 3 2 3 5 6 7 6 4 4 3 3 2 3 3 3 3 2 2 1 1 1 2 1 1 1 2 2 2 2 1 1 1 1 2 1 1 0 0 0 0 
0 3 5 5 5 4 3 3 3 4 4 5 5 5 4 3 2 2 2 1 2 2 2 2 3 3 3 2 1 1 2 3 2 3 3 4 5 3 4 3 7 5 9 6 6 4 2 1 1 1 1 1 1 1 1 1 1 1 2 2 2 2 2 2 2 1 1 1 1 1 2 2 2 2 2 3 4 4 4 2 2 2 3 3 3 3 3 3 4 3 4 3 3 3 3 3 3 3 3 2 2 2 2 2 2 3 2 3 4 3 5 3 4 2 2 3 4 8 18 25 44 95 133 141 95 49 27 33 34 33 29 27 21 15 13 15 17 17 16 16 17 18 18 20 23 25 26 40 83 132 133 100 46 26 21 15 10 7 7 4 4 3 3 2 3 3 3 3 3 4 5 5 4 4 4 4 4 4 3 3 3 4 3 2 2 3 3 3 2 1 1 2 3 3 2 2 1 1 2 2 3 2 4 5 5 4 4 3 2 2 3 5 6 5 4 3 3 3 3 2 2 3 3 3 3 3 3 3 3 2 2 3 4 3 4 3 3 2 2 2 2 4 6 6 6 4 6 5 5 5 3 3 3 3 3 3 3 3 3 4 5 6 6 6 5 4 4 3 2 2 3 3 3 3 2 2 2 2 2 3 5 5 5 4 5 4 5 6 8 7 7 4 4 2 3 2 1 1 0 0 1 1 0 0 1 1 3 3 3 3 3 3 2 3 2 2 1 1 3 3 3 3 3 3 3 3 4 5 3 3 3 2 2 1 1 1 2 2 2 2 3 2 2 2 1 1 0 1 1 1 2 3 3 4 4 3 2 1 1 1 2 3 3 3 2 2 2 3 2 2 3 3 3 2 1 1 1 1 1 1 1 0 0 2 4 5 6 6 6 6 5 4 3 2 2 3 4 4 3 3 3 3 4 5 6 6 5 6 6 8 13 16 29 49 79 128 175 209 205 185 166 143 140 141 138 113 77 47 34 33 39 40 36 31 22 24 31 62 97 132 131 100 57 35 29 27 16 6 5 3 2 2 2 3 3 4 4 5 5 4 3 2 3 3 4 4 7 7 7 5 3 2 2 2 3 5 6 7 6 5 4 4 3 3 3 3 3 3 3 2 1 1 1 1 0 0 0 1 1 2 2 2 2 1 1 1 0 0 0 0 0 0 
0 3 4 4 3 3 2 3 4 5 6 5 4 4 3 3 2 2 2 2 2 2 3 2 2 2 2 2 1 1 2 3 3 4 4 5 5 4 5 3 7 5 8 6 5 3 1 1 1 1 1 1 1 1 1 1 1 1 2 2 3 3 3 2 2 2 1 1 1 1 2 2 2 2 2 3 4 4 4 3 3 3 3 3 3 4 4 3 3 3 3 3 3 3 3 3 2 2 2 2 2 2 3 3 2 2 2 3 4 3 5 4 4 3 2 4 5 6 13 24 34 65 108 141 130 87 40 31 31 32 31 31 25 20 17 18 19 18 18 18 21 23 23 24 24 24 32 68 118 144 119 81 35 27 16 9 7 5 6 3 4 3 3 3 3 3 2 3 3 4 5 5 4 4 4 4 4 4 3 4 4 4 3 2 2 3 3 3 2 0 1 2 3 3 2 2 1 2 1 2 3 3 5 5 6 5 3 3 3 3 4 5 6 6 5 4 4 5 4 3 2 3 3 4 4 4 4 3 3 3 3 3 4 4 4 3 2 2 1 1 2 4 6 6 6 4 6 5 4 4 2 2 2 2 2 2 2 2 2 3 4 4 5 5 5 4 3 3 3 3 3 3 3 3 3 2 2 2 2 4 6 6 6 4 4 3 4 5 6 6 5 4 4 3 3 3 2 1 0 1 1 1 1 0 1 2 4 3 3 3 3 3 3 3 2 2 1 1 3 3 4 3 3 3 3 3 4 5 3 3 2 2 2 1 1 1 2 2 2 2 3 2 2 2 1 1 0 0 1 1 1 2 3 3 4 3 2 1 1 2 3 4 3 3 2 2 2 2 2 2 3 3 2 2 1 2 2 1 2 1 1 1 1 2 4 6 7 7 6 5 5 4 3 2 2 3 4 4 3 3 3 4 4 5 6 6 5 6 6 9 14 14 23 36 70 142 204 238 218 171 136 123 120 107 82 55 31 20 17 18 27 31 36 34 27 28 38 62 87 122 137 125 91 56 37 33 25 11 7 4 3 2 2 3 3 3 3 4 4 3 3 3 2 2 3 4 7 7 6 4 2 2 2 2 3 5 7 7 6 5 5 5 4 3 3 3 3 3 2 2 1 1 1 0 0 0 0 0 1 1 2 2 2 2 1 0 0 0 0 0 0 0 
0 2 3 3 3 3 3 4 6 6 5 5 5 5 4 4 4 3 2 2 3 3 2 2 2 2 3 2 2 2 2 3 3 5 4 5 5 5 6 4 7 5 7 5 4 2 1 1 1 0 1 1 2 2 1 2 1 1 1 1 2 1 1 1 1 1 1 0 0 1 2 2 2 2 2 2 2 4 3 3 3 3 3 3 4 4 3 4 4 4 4 3 3 3 2 2 2 2 2 1 2 2 3 3 3 2 3 3 3 3 4 3 3 2 2 5 6 7 10 19 30 46 85 123 139 126 82 44 32 30 33 36 35 31 26 22 21 20 22 24 26 28 28 27 26 34 60 105 139 134 98 56 31 23 11 5 6 4 5 3 4 3 4 3 3 3 3 3 4 4 4 4 4 4 4 3 4 4 3 3 3 4 4 2 2 3 3 3 2 0 1 2 3 2 2 2 2 1 1 2 2 2 4 5 6 5 4 4 4 4 4 5 5 4 4 4 5 5 5 3 2 2 3 3 3 3 3 2 3 3 2 3 3 4 3 3 2 1 1 1 3 5 6 5 5 4 4 4 4 4 2 2 2 2 2 1 1 1 1 1 2 2 2 2 2 2 2 2 2 2 2 2 3 3 2 2 2 2 2 4 5 6 6 4 4 2 2 3 4 4 5 5 4 4 3 2 2 1 1 1 1 1 1 1 2 3 3 3 3 3 3 3 3 3 3 2 2 1 3 3 3 2 3 3 3 3 3 3 2 3 2 2 1 1 1 1 2 1 2 2 2 2 2 2 1 1 0 1 1 1 1 2 2 2 3 3 2 1 0 2 3 4 4 4 3 3 3 3 3 3 3 3 2 2 2 2 2 1 2 1 1 1 1 3 4 6 6 6 5 4 5 5 3 3 2 3 4 4 3 2 2 3 4 5 5 5 4 5 5 9 10 15 28 34 85 129 174 190 175 154 130 106 80 55 38 31 33 30 28 32 38 35 33 27 27 33 43 61 80 111 141 154 133 93 54 35 28 17 10 5 3 2 2 2 2 3 3 4 3 2 2 2 1 2 3 5 7 7 6 4 2 2 2 2 3 4 5 5 4 4 4 4 4 3 2 3 3 2 2 1 1 1 0 0 0 0 0 0 1 1 2 3 2 1 0 0 0 0 0 0 0 0 
0 1 2 2 2 3 3 4 5 5 5 5 4 4 4 4 3 3 2 2 2 2 2 1 1 1 2 2 2 3 2 3 3 4 4 4 4 5 5 3 5 4 6 4 3 2 2 2 1 1 1 1 2 2 2 2 2 2 2 2 2 2 2 2 2 1 1 0 0 0 1 2 4 5 5 5 4 5 5 6 5 4 4 5 6 7 6 5 5 4 4 3 3 2 2 1 1 1 1 0 1 2 4 3 3 2 3 2 3 2 2 3 2 2 2 5 5 8 7 14 22 27 45 89 123 136 120 79 41 25 27 35 41 41 37 31 28 27 29 30 30 28 25 23 32 59 99 136 135 109 71 38 27 18 9 4 4 3 5 3 4 3 5 3 3 2 2 3 4 4 4 4 3 3 3 4 4 4 3 2 3 3 4 3 3 3 3 3 2 1 1 1 2 2 2 2 2 1 1 1 1 1 3 4 5 4 4 4 4 5 5 5 5 5 5 5 6 6 5 3 2 2 3 3 3 3 3 3 3 3 2 3 3 4 3 3 2 2 2 2 4 6 5 4 3 3 3 3 3 3 2 2 2 2 2 1 1 1 1 1 1 2 2 3 2 2 2 2 2 3 2 2 2 2 2 2 1 1 2 4 5 5 6 4 4 2 2 3 3 3 5 5 5 4 3 3 3 2 2 1 1 1 1 2 3 4 4 3 2 2 3 4 3 3 2 2 2 2 3 3 3 2 2 2 3 3 3 3 3 2 1 1 0 0 1 1 1 1 1 2 2 2 2 2 1 1 0 1 1 1 1 1 1 2 2 2 2 1 1 1 2 3 3 3 3 3 3 3 3 3 3 3 2 2 1 1 1 1 2 2 1 1 2 3 4 6 6 5 4 3 4 5 4 3 2 3 4 4 3 2 2 2 3 3 4 4 3 5 5 10 10 13 22 42 124 170 203 174 128 98 70 54 40 31 39 47 64 67 63 55 48 44 44 47 59 67 64 60 61 81 120 159 166 135 85 46 30 24 13 7 3 2 1 2 1 2 2 3 2 2 1 1 1 2 3 5 6 5 4 3 2 2 2 2 3 4 4 4 4 3 3 3 3 3 2 2 2 2 1 1 1 0 0 0 1 1 1 1 1 1 2 2 2 1 0 0 0 1 1 1 1 0 
0 1 2 2 3 3 4 5 7 7 6 5 4 4 4 3 3 2 2 3 3 2 2 2 2 2 3 3 2 2 2 4 3 4 3 4 4 4 4 3 4 3 4 3 3 3 3 3 2 2 1 2 1 1 1 2 2 2 1 1 1 1 1 1 1 1 1 0 0 0 1 3 4 5 4 4 3 4 4 5 5 4 4 4 4 4 5 5 6 4 4 3 3 2 2 1 1 1 1 0 2 3 4 3 4 3 4 3 3 3 3 3 2 2 2 5 5 8 4 8 15 25 31 49 91 124 138 124 89 53 32 30 33 36 35 32 29 28 29 28 24 23 26 40 73 109 131 130 100 74 42 31 23 11 7 4 3 3 5 4 6 4 6 3 4 3 3 3 3 4 4 4 4 3 3 4 4 4 2 2 2 2 3 3 2 2 2 3 2 1 1 0 1 2 2 2 1 1 1 1 1 1 2 3 4 4 4 4 4 4 4 4 4 5 5 5 5 5 4 3 2 2 2 2 1 2 2 2 2 2 2 2 2 3 3 3 2 2 2 3 5 6 5 3 2 3 3 2 2 2 2 2 2 2 1 1 1 1 1 0 0 0 1 1 1 1 1 2 2 2 2 2 2 2 1 1 1 2 2 3 4 4 4 4 3 2 3 3 3 4 5 6 6 5 4 5 5 5 5 4 2 1 1 2 3 3 2 2 2 2 2 3 3 3 2 3 2 2 3 3 3 1 1 2 2 2 2 2 2 1 1 0 0 0 0 1 1 2 2 2 2 2 2 2 1 1 1 1 1 1 0 1 1 1 2 2 2 1 0 1 2 3 3 3 2 2 3 3 3 3 2 2 2 2 1 2 1 2 2 2 2 2 2 3 4 5 4 3 2 2 3 4 4 4 3 3 3 4 3 3 2 2 2 2 2 3 3 4 6 11 11 15 21 55 137 171 168 105 55 46 34 32 33 40 57 73 96 102 92 74 57 50 59 84 97 100 80 65 54 57 86 133 172 166 113 64 30 24 14 6 4 3 2 2 2 2 2 3 2 2 2 2 3 4 4 5 5 4 4 3 3 3 2 2 2 2 3 3 2 2 3 3 2 2 2 1 1 1 2 2 1 1 1 1 2 1 2 1 1 1 2 1 1 0 0 0 1 2 2 2 1 0 
0 1 2 2 2 3 4 4 4 4 5 5 4 4 3 3 3 2 2 2 2 2 2 2 2 2 3 2 2 2 2 2 3 3 3 2 2 2 2 2 2 1 2 1 2 2 3 3 2 2 1 2 1 1 1 2 2 1 1 1 1 1 2 1 1 1 1 0 0 0 1 3 5 7 7 6 5 6 6 6 6 5 5 5 6 6 7 6 7 4 4 2 2 2 2 1 1 0 0 0 2 3 4 3 3 2 3 3 3 3 3 2 2 2 2 4 4 6 3 4 6 12 25 29 50 84 116 133 127 104 79 56 40 33 30 30 30 29 27 29 31 44 62 89 119 133 126 98 63 44 28 24 11 8 7 4 3 3 4 4 6 4 6 4 4 3 3 3 3 3 4 4 4 3 2 2 2 2 2 2 2 2 2 2 2 2 2 3 2 2 0 0 0 1 1 1 1 1 1 1 1 1 1 1 2 2 3 3 4 4 4 4 5 5 5 5 5 4 2 3 2 2 2 2 2 2 2 2 3 3 2 2 2 3 3 3 2 3 2 3 5 6 5 3 2 2 3 2 3 2 2 2 2 2 1 1 1 1 0 0 0 0 0 1 1 2 1 1 2 2 2 2 1 1 1 1 1 2 2 2 2 2 3 2 2 3 3 4 2 3 3 5 6 6 6 6 7 7 6 4 3 2 2 3 3 3 3 2 2 2 3 3 2 1 1 2 2 2 3 3 2 1 1 1 1 1 2 2 2 1 0 0 0 0 0 1 2 2 2 1 2 2 3 3 2 1 1 1 1 1 1 1 1 1 2 2 2 1 0 1 1 2 2 2 2 2 1 2 2 2 2 2 2 2 1 1 1 1 1 2 2 2 2 3 3 4 4 3 2 1 3 3 4 4 4 3 3 3 3 3 2 1 1 1 2 2 3 4 7 11 14 15 19 62 144 170 147 74 44 48 41 40 40 56 74 89 103 106 96 79 59 54 74 99 108 119 99 73 46 30 43 87 155 180 139 79 27 23 14 5 3 3 3 4 4 3 3 3 3 3 3 3 3 4 4 4 3 3 3 3 3 3 3 2 2 2 2 2 2 3 2 2 2 2 1 1 1 1 2 2 2 1 1 1 1 1 2 1 1 1 2 1 1 0 0 1 2 2 3 3 2 0 
0 0 1 1 2 2 3 5 6 8 7 7 6 5 3 2 2 2 2 2 2 2 2 2 2 3 3 3 2 1 2 2 3 2 2 3 3 2 2 1 1 1 1 0 1 2 2 3 2 2 2 1 1 1 1 1 1 1 1 1 1 1 1 1 2 2 1 0 0 0 1 3 4 5 5 4 5 6 6 6 5 4 4 3 3 2 4 4 5 3 3 1 2 2 2 1 1 1 1 1 2 3 4 4 3 2 2 3 3 3 3 3 2 2 2 4 4 5 3 4 7 9 16 24 32 52 78 106 126 133 127 113 95 78 67 60 57 58 59 69 82 101 116 130 131 119 90 55 28 24 19 16 7 6 4 3 2 3 3 5 6 5 6 4 4 3 3 3 3 2 3 4 5 4 3 2 2 2 2 2 2 2 2 2 1 1 1 3 2 2 0 0 0 0 1 1 2 1 2 2 2 2 2 1 2 2 3 3 3 3 2 3 4 5 6 5 4 3 2 2 2 2 2 2 1 0 1 2 2 2 2 3 3 3 2 2 2 2 3 4 4 4 3 3 2 2 2 2 2 1 2 2 2 2 1 1 0 0 0 0 0 0 0 1 1 1 1 1 2 1 2 2 1 1 0 1 1 1 1 1 1 2 3 3 3 3 3 4 3 2 3 5 6 7 7 6 7 8 7 6 4 3 3 4 3 3 2 2 2 2 2 2 2 2 1 1 2 2 3 2 1 0 0 0 0 0 1 1 1 1 0 0 0 0 0 1 2 2 2 2 2 2 3 3 3 2 2 1 2 2 1 1 1 2 2 2 2 1 1 1 2 2 2 2 1 1 1 2 1 2 2 2 2 2 2 2 3 3 3 3 3 3 4 4 3 4 3 3 2 1 2 2 4 5 5 4 3 3 2 2 1 1 1 2 2 2 3 3 9 12 19 19 25 64 142 163 141 78 54 54 50 51 54 67 80 91 103 100 78 64 48 47 70 95 120 133 100 75 48 27 28 63 145 182 152 86 26 21 12 5 3 3 3 3 4 3 3 3 3 4 3 3 3 2 2 2 2 2 2 3 3 3 3 2 2 2 2 1 2 2 2 2 1 1 0 0 1 2 3 3 2 1 1 2 2 2 2 2 1 1 1 1 1 0 0 1 3 3 3 3 2 0 
0 0 1 1 2 3 3 4 3 4 5 6 6 6 5 5 4 2 2 1 1 1 1 1 2 2 3 2 2 1 2 2 2 2 2 2 2 2 2 2 2 1 0 0 1 2 2 2 2 2 2 2 2 2 2 2 1 1 1 1 1 1 1 1 1 1 1 0 0 0 0 1 3 4 4 4 4 5 5 5 6 6 6 5 5 4 4 4 4 3 2 1 2 2 2 2 1 1 1 1 3 3 4 3 2 2 2 2 2 3 2 3 3 3 3 3 4 3 3 3 6 11 15 19 23 28 39 65 90 111 122 125 122 118 120 125 125 121 117 119 125 130 127 119 102 80 45 29 21 19 13 7 5 6 4 3 2 3 3 4 4 4 5 4 4 2 2 2 2 2 4 5 5 4 3 2 1 1 1 2 2 1 1 1 1 1 1 3 2 2 0 0 0 1 2 2 2 2 2 2 2 2 1 0 0 1 2 3 3 3 2 2 2 3 3 4 3 2 2 2 2 2 1 1 1 0 0 1 2 2 2 2 2 2 2 2 2 2 3 3 3 3 2 2 2 1 2 2 2 1 1 2 2 2 1 0 0 0 0 0 0 0 0 1 1 1 1 1 1 0 1 1 1 1 0 0 1 1 1 1 2 3 4 4 3 3 3 3 3 2 3 5 7 7 7 6 6 6 6 6 5 4 3 4 3 2 2 2 2 3 3 2 2 1 1 1 2 2 2 1 0 0 0 0 0 0 0 1 1 1 0 0 0 0 1 1 1 1 2 2 3 2 3 3 3 2 2 1 1 1 1 1 2 2 2 2 2 1 1 1 1 1 2 1 1 0 0 1 2 2 2 2 2 2 2 3 4 4 3 3 4 4 4 4 3 3 3 2 2 2 2 3 4 5 6 4 3 2 1 1 1 1 1 2 2 2 2 4 9 13 20 23 27 72 149 171 145 83 53 55 59 61 62 62 66 64 59 54 45 51 45 44 62 70 83 87 77 69 41 30 31 70 149 184 154 84 25 21 12 6 3 2 2 3 4 4 3 2 3 3 3 3 2 2 2 2 2 2 2 2 2 2 2 2 2 2 2 2 2 2 2 2 1 1 0 0 0 1 2 2 1 2 1 2 2 3 2 2 1 1 1 1 1 0 1 2 3 3 4 4 2 0 
0 0 0 2 2 2 2 3 4 5 6 6 6 6 5 4 3 2 1 1 0 0 0 0 1 2 2 2 2 2 2 1 1 1 2 3 3 3 3 3 2 2 1 1 1 2 2 2 2 2 2 2 2 2 2 2 1 1 1 1 1 1 2 2 2 2 1 0 0 0 0 0 1 2 2 2 3 4 4 6 6 5 5 4 3 3 2 3 3 3 2 1 2 2 2 2 1 1 1 1 2 3 3 3 3 2 2 2 3 2 2 2 3 3 4 2 3 3 3 2 5 7 8 13 17 24 26 33 50 80 101 112 116 118 123 128 131 130 126 122 118 114 102 85 56 37 25 22 17 15 8 6 5 5 4 3 3 3 2 3 4 4 5 4 4 2 2 2 2 3 4 5 4 4 3 2 2 1 1 1 2 1 1 1 1 1 1 3 2 2 1 0 0 1 2 2 2 2 3 2 2 1 2 1 1 1 1 3 4 4 4 3 3 3 3 3 3 2 2 2 2 2 2 2 1 0 0 1 1 2 2 2 2 2 2 2 2 2 3 3 3 2 2 2 2 1 2 2 2 1 2 2 3 3 1 1 0 0 0 0 0 0 0 0 1 1 1 1 0 0 0 1 1 1 0 0 0 1 1 2 3 4 5 5 4 3 3 3 3 2 3 5 6 7 5 4 3 3 5 5 5 4 3 2 2 2 2 2 3 3 3 3 2 2 2 2 2 2 1 0 0 0 0 0 0 0 0 0 1 1 1 0 1 1 1 1 1 1 2 2 3 2 2 3 3 2 2 1 1 1 1 1 2 2 2 2 2 2 2 1 1 1 2 1 1 1 1 2 3 2 3 3 3 3 2 4 5 6 5 5 5 5 5 4 3 3 3 4 4 3 3 3 4 5 6 4 2 1 1 1 1 1 1 2 2 2 2 6 10 18 23 26 34 94 161 178 140 78 45 51 51 59 62 51 44 49 51 52 47 53 63 58 57 47 65 75 67 60 44 48 41 79 149 181 145 75 26 25 16 9 4 2 1 3 3 3 3 2 2 3 3 2 1 1 1 1 1 1 0 1 1 1 1 2 2 2 2 2 1 1 1 1 1 1 0 0 0 1 2 2 2 2 2 3 3 3 3 2 1 1 1 1 1 1 1 3 3 4 4 4 2 0 
0 0 0 2 2 2 2 2 3 4 5 6 7 7 7 5 3 2 1 1 0 0 0 1 2 2 3 2 2 2 2 1 1 1 3 4 4 4 4 4 4 3 2 2 2 2 2 2 2 2 2 2 2 3 2 2 1 1 1 1 1 1 2 1 1 1 1 0 0 0 0 0 0 0 0 1 1 1 1 4 5 6 6 5 4 3 2 3 4 3 3 1 2 2 2 2 2 1 2 2 2 2 2 3 3 3 4 3 3 3 2 2 3 2 4 2 3 2 2 2 4 7 9 12 9 12 19 23 25 28 36 50 68 84 103 120 129 126 115 102 89 74 48 32 23 23 21 18 14 10 8 6 5 5 4 3 2 2 3 3 4 4 5 3 4 2 2 2 2 3 4 4 4 3 2 3 1 1 0 0 1 1 1 1 1 1 1 2 2 2 1 0 1 1 2 2 2 3 3 3 3 2 3 2 2 2 2 4 5 5 4 3 3 2 2 2 2 1 1 2 2 2 2 2 1 0 0 1 2 2 2 2 2 2 3 2 2 3 3 3 3 2 2 2 2 1 2 2 3 1 2 2 3 3 2 1 0 0 0 0 0 0 0 0 1 1 1 1 1 1 0 0 1 1 1 0 0 1 1 2 4 5 6 6 4 4 4 5 4 3 3 5 6 6 5 3 3 3 4 5 5 4 3 2 1 1 2 3 3 3 2 3 2 2 2 2 2 2 1 0 0 0 0 0 0 0 0 0 1 1 1 1 1 1 1 1 1 1 2 2 3 2 2 2 2 2 1 1 0 0 0 1 1 2 2 2 2 3 3 2 1 1 2 2 2 2 2 3 4 4 4 4 4 3 3 3 5 5 5 5 5 5 4 4 4 3 3 4 4 4 3 3 4 5 5 4 2 1 1 1 1 1 1 1 2 2 3 6 9 13 23 25 49 115 171 171 119 64 38 50 46 60 55 37 29 32 31 40 41 47 71 61 61 40 44 53 53 59 56 60 60 92 145 174 139 79 32 26 18 9 6 3 2 3 3 3 2 2 3 3 3 2 2 1 1 1 0 0 0 0 0 0 1 1 1 2 1 1 1 1 1 1 1 1 1 1 0 1 1 2 3 3 3 3 4 4 4 3 2 1 0 1 1 1 2 3 3 5 4 5 2 0 
0 1 2 2 2 2 2 2 4 6 7 7 7 6 5 3 2 1 1 1 1 0 1 1 2 3 3 3 3 3 2 2 2 2 3 3 4 4 4 5 4 4 4 3 2 3 2 2 2 2 2 3 3 3 2 3 1 2 2 1 2 2 2 2 2 1 1 1 0 0 0 0 0 0 0 0 0 1 1 3 4 5 4 4 3 3 3 4 5 3 4 1 2 2 3 3 2 2 1 1 2 2 3 3 4 3 4 3 4 2 2 2 2 2 3 2 3 2 2 2 4 6 7 9 9 10 11 17 24 27 28 25 25 29 39 49 54 53 47 38 29 24 22 24 22 23 17 13 10 8 8 5 6 4 4 3 2 2 2 2 3 3 4 3 3 2 2 2 3 4 5 5 4 3 2 3 2 1 0 1 1 1 1 2 2 2 2 2 2 2 1 0 0 1 2 2 2 2 2 2 3 2 3 3 3 3 2 4 5 7 6 4 3 2 1 1 1 2 1 1 1 2 3 3 2 1 1 1 2 2 2 3 3 3 3 3 3 3 2 3 3 2 3 3 2 2 2 2 3 2 2 2 3 4 3 2 1 2 1 0 0 0 0 0 1 1 1 1 2 1 1 0 1 1 1 0 0 1 1 2 3 4 5 4 3 4 4 5 4 4 3 5 5 5 4 2 2 2 4 5 6 4 2 1 1 1 2 2 3 3 2 3 2 2 2 2 2 2 1 1 0 0 0 0 0 0 0 1 1 2 2 2 2 2 1 1 1 2 3 2 2 2 2 2 1 1 1 1 0 0 0 1 1 1 2 2 3 3 3 3 2 1 2 2 2 2 3 4 4 4 4 4 4 3 2 3 3 4 4 4 3 3 3 2 2 2 3 3 3 3 2 2 3 3 4 3 2 2 1 1 1 1 1 1 1 2 3 5 12 17 28 23 65 132 176 160 95 50 36 49 35 46 47 42 35 30 29 43 54 60 80 67 62 41 36 52 57 60 61 64 66 86 130 158 133 83 40 27 24 10 8 3 2 4 3 4 2 2 2 2 2 2 1 1 1 1 0 0 0 0 0 1 0 0 0 1 1 1 1 1 1 1 1 1 1 1 1 2 2 2 2 3 3 4 4 4 4 4 2 1 1 1 1 2 2 3 4 5 5 6 3 0 
0 1 2 2 2 2 2 2 4 5 6 6 5 5 4 4 3 2 2 2 1 1 1 2 3 3 3 4 3 3 3 3 2 2 3 5 5 6 5 5 4 4 4 3 2 2 2 3 2 2 3 3 2 3 2 3 1 1 1 2 3 3 3 2 2 1 1 1 1 1 1 2 2 2 2 1 1 1 2 3 3 4 4 3 2 2 3 4 5 3 3 1 2 2 2 3 3 3 4 3 3 2 2 3 3 3 4 3 4 2 2 2 2 2 3 3 3 2 3 3 3 4 7 10 9 9 8 8 10 9 13 16 20 22 25 28 31 31 28 25 25 25 21 15 12 12 10 9 6 6 5 4 4 3 3 2 1 2 2 3 3 2 2 2 2 2 2 2 2 3 3 4 4 3 3 3 2 1 1 0 1 1 1 2 2 2 3 2 2 1 0 0 0 1 1 2 2 3 2 2 2 2 3 3 3 2 2 4 4 5 5 5 4 3 2 1 1 2 1 1 1 1 2 2 2 2 2 1 2 3 3 4 3 3 3 3 2 3 2 2 3 2 3 3 3 2 2 2 2 2 2 1 3 4 3 2 1 1 1 1 0 0 0 1 1 1 1 1 2 1 1 1 1 1 1 0 0 1 1 2 3 4 5 4 3 4 6 7 6 4 4 5 5 5 4 3 2 2 5 6 6 4 3 2 1 1 2 3 3 3 3 3 2 2 2 2 2 2 2 2 1 1 0 0 0 0 0 1 2 2 2 2 2 1 1 1 1 2 2 2 3 2 2 2 1 1 1 1 1 0 1 1 1 1 2 2 3 3 3 3 2 2 2 2 2 2 3 3 3 4 4 4 4 3 2 3 3 4 4 4 3 3 3 3 3 3 3 2 2 2 1 1 2 3 4 3 3 2 2 2 2 1 1 1 2 2 3 5 8 11 20 19 66 134 170 142 69 38 39 54 49 65 70 61 46 33 32 42 55 59 66 63 59 50 44 55 58 56 59 69 73 80 114 146 141 97 48 22 21 8 7 3 3 3 2 3 2 2 1 1 1 1 1 1 1 1 0 0 0 0 1 1 0 0 0 0 1 1 2 2 1 1 1 2 1 1 1 2 2 3 3 4 4 5 5 5 4 3 2 1 1 1 1 1 2 3 4 4 4 5 2 0 
0 2 4 3 3 2 2 2 4 5 6 6 6 5 4 3 2 2 2 2 1 1 2 2 3 3 3 4 4 5 4 4 2 3 2 2 3 3 4 4 3 3 2 2 1 1 2 3 3 3 3 2 2 2 2 2 1 1 2 3 4 3 3 2 2 1 1 1 1 1 1 2 2 2 2 2 1 1 1 2 2 3 2 2 1 1 2 2 3 2 2 1 2 2 2 2 2 3 3 3 4 4 4 4 3 3 3 3 3 2 2 2 2 2 2 3 3 4 3 3 4 4 5 7 9 9 10 9 10 8 11 13 16 16 16 15 16 14 13 11 11 12 11 9 9 7 7 7 5 5 2 3 3 3 3 3 2 2 3 3 3 2 2 2 2 2 2 2 4 5 6 6 5 3 3 2 2 2 2 1 2 2 2 2 2 3 4 3 3 1 0 1 0 1 2 2 2 2 2 2 2 1 2 2 2 2 2 3 3 5 5 5 5 4 3 2 2 2 2 1 1 1 3 4 5 4 4 4 5 5 4 4 4 3 2 2 2 4 3 3 3 1 3 3 3 3 3 2 2 2 2 2 3 3 3 3 3 3 3 2 2 2 2 2 1 0 0 1 1 1 1 1 1 1 1 1 1 1 1 1 3 2 3 2 2 3 4 4 4 3 3 4 5 5 4 3 2 3 4 5 5 4 3 3 3 3 2 2 3 3 4 3 3 2 2 2 2 2 2 2 3 3 2 2 2 2 3 3 2 2 2 2 2 2 1 1 1 2 2 2 2 3 3 2 2 2 2 1 1 1 1 1 1 2 2 2 3 3 3 4 3 2 2 2 1 1 2 2 2 3 3 3 3 2 2 2 3 2 2 2 2 2 2 2 1 1 1 1 1 1 1 1 2 2 3 3 3 3 3 2 2 1 2 1 1 2 2 5 10 15 20 17 54 120 159 145 86 45 37 46 52 63 65 59 48 35 30 39 51 56 52 56 56 58 53 51 50 43 50 64 69 65 94 138 148 108 54 21 19 8 6 3 4 4 3 3 2 1 1 1 1 1 1 2 2 2 1 1 1 1 2 2 1 0 0 1 1 1 1 2 2 2 2 1 1 1 1 2 2 2 2 2 3 4 4 4 4 3 2 1 1 1 1 2 2 3 5 5 4 4 3 0 
0 2 3 3 2 2 2 1 2 3 4 4 3 3 3 3 3 3 2 2 1 1 1 2 3 3 3 4 4 5 5 4 3 2 2 3 3 3 3 3 2 2 1 1 0 0 2 2 3 3 2 2 1 1 1 1 1 1 2 3 4 3 3 2 1 1 0 0 0 0 1 2 2 3 2 3 2 2 2 2 2 2 2 1 1 1 1 1 1 1 1 1 2 2 2 2 2 3 3 3 4 4 4 4 4 3 3 2 2 2 2 2 2 3 3 3 4 4 4 4 4 4 7 9 10 9 9 8 10 9 12 13 12 10 8 6 8 7 6 7 7 9 9 7 4 3 5 5 4 3 2 2 2 2 2 3 3 3 3 3 3 2 2 2 1 2 2 3 3 4 4 3 3 3 2 2 2 2 2 2 2 2 2 2 2 3 4 3 3 1 1 1 1 1 1 1 1 1 1 1 1 1 2 2 2 2 2 2 2 3 4 5 6 6 5 3 3 3 3 2 2 3 4 4 5 5 6 6 6 6 7 6 5 3 2 2 3 4 4 3 2 2 2 2 3 3 2 2 1 2 2 2 2 3 3 2 2 2 2 2 2 2 2 1 1 0 0 0 0 0 1 1 1 1 1 1 1 1 2 1 3 2 3 1 1 2 3 4 3 3 3 4 4 4 4 4 4 4 5 5 5 4 4 4 3 3 2 2 2 3 3 3 3 3 2 2 2 2 2 3 3 3 3 3 3 4 4 3 3 2 2 1 2 1 1 1 1 1 1 2 2 3 3 2 1 2 1 1 1 1 1 1 1 2 2 2 2 3 3 4 3 3 2 1 1 1 1 2 2 3 2 2 2 1 2 2 3 3 2 2 2 2 3 2 2 1 1 1 1 1 1 1 2 2 3 3 3 3 3 2 2 1 1 1 1 2 3 6 10 11 12 11 33 94 146 156 115 63 40 41 54 69 83 85 72 58 44 43 50 56 51 57 66 71 63 47 40 38 56 67 65 56 88 141 155 115 56 21 15 5 4 3 3 3 3 2 2 1 1 1 1 1 1 2 2 3 2 2 2 2 2 2 1 0 0 1 1 1 1 1 1 2 1 1 1 1 1 2 3 4 5 5 6 6 6 5 3 2 2 1 2 2 2 2 1 2 2 2 2 3 1 0 
0 2 3 3 2 1 1 1 2 2 3 4 4 4 3 2 2 3 3 3 2 3 3 3 3 3 3 3 4 5 4 4 3 2 2 2 1 1 2 2 2 1 0 0 0 0 2 2 3 3 2 1 0 0 1 1 1 2 2 3 3 3 2 1 1 0 0 0 0 0 0 0 1 1 1 1 2 2 2 2 2 2 1 1 1 1 0 0 0 0 0 1 1 2 2 2 2 1 2 3 5 5 5 4 4 4 3 3 2 2 2 3 3 3 3 4 5 4 4 4 5 4 6 6 7 8 7 7 8 7 9 9 9 8 6 6 6 6 7 6 6 7 6 5 4 2 3 3 3 2 1 2 2 2 3 4 4 4 3 3 3 3 2 2 1 2 2 4 5 5 4 4 3 2 2 2 2 2 2 3 3 3 4 4 4 3 4 3 3 2 2 2 1 1 1 1 1 1 1 2 2 1 1 1 1 2 1 2 3 3 4 5 6 6 6 5 4 3 3 4 4 4 4 4 4 5 6 8 10 10 9 7 5 3 2 2 3 4 4 3 3 2 2 2 3 3 3 2 2 2 3 3 2 2 2 3 3 2 3 3 3 3 3 2 1 0 0 0 0 0 0 1 1 1 1 2 2 1 1 1 3 2 3 1 1 1 2 2 2 2 3 3 3 4 4 5 5 5 5 4 4 4 4 4 3 2 2 2 2 3 3 3 3 2 2 2 1 1 2 3 3 4 4 5 5 5 5 3 3 1 2 1 2 1 1 1 1 1 1 2 2 3 3 2 1 1 1 1 1 0 1 1 1 2 3 4 3 3 3 4 3 3 2 1 0 0 0 1 2 2 2 1 1 1 2 2 2 1 1 1 1 1 1 1 1 1 1 0 1 0 1 1 2 2 2 2 2 2 3 2 2 2 1 1 1 1 2 4 8 12 12 12 22 67 124 162 147 94 48 29 40 54 63 63 66 68 62 58 61 65 66 76 80 72 56 33 30 35 50 61 61 67 108 155 152 106 48 22 15 4 5 6 5 5 4 3 2 2 2 2 1 1 2 3 3 3 2 2 2 2 2 2 1 0 0 1 1 1 0 1 1 1 1 1 1 1 1 2 2 2 3 3 3 3 3 3 3 3 3 2 2 2 2 2 2 3 4 5 4 3 2 0 
0 1 2 2 1 1 1 1 1 2 3 3 3 3 2 2 2 2 3 3 3 3 3 3 3 3 2 2 2 4 4 4 3 2 2 1 1 1 1 2 2 1 1 1 1 1 1 2 2 2 2 1 0 0 1 1 1 2 3 3 3 2 2 1 1 0 0 0 0 0 0 0 1 1 1 2 2 2 2 2 2 2 2 1 1 1 1 0 0 0 0 1 1 1 1 2 2 2 3 4 5 5 4 4 4 4 4 3 2 2 3 3 4 4 4 5 6 5 5 5 5 5 7 8 7 6 5 6 5 5 7 9 10 8 6 6 6 5 5 5 5 6 5 5 4 3 3 3 3 2 1 2 2 2 3 4 4 4 3 2 3 2 2 1 1 2 3 4 4 4 2 2 1 1 1 2 2 3 4 4 3 3 3 4 4 4 4 3 3 2 3 2 2 1 0 0 0 0 1 2 2 2 1 2 1 2 1 3 4 4 5 6 6 7 6 5 4 3 4 4 5 4 4 4 4 5 6 9 11 11 9 7 6 4 3 3 3 3 3 2 2 2 2 2 3 3 3 2 2 2 3 2 2 2 2 3 2 2 2 2 2 2 2 2 1 0 0 0 0 0 0 1 2 2 2 2 2 1 2 1 3 2 3 1 1 1 2 2 2 2 2 3 3 4 4 4 4 4 4 3 3 3 3 3 2 1 1 1 2 3 3 3 2 2 1 1 1 1 1 2 2 3 4 5 5 4 4 2 3 1 2 1 1 1 1 2 1 1 1 2 2 3 3 2 1 1 1 1 0 0 0 1 1 2 3 3 3 3 3 3 3 2 1 1 0 0 0 0 1 1 1 1 1 1 1 2 2 2 1 1 1 1 2 1 1 1 1 0 0 0 0 1 2 2 2 2 2 2 2 2 3 2 2 2 1 1 2 4 7 11 11 10 19 37 98 150 164 119 61 22 29 38 54 67 74 71 65 62 66 71 75 77 73 65 53 36 27 30 44 69 88 125 161 172 137 84 35 21 13 6 5 4 4 3 2 1 1 2 2 2 2 1 2 3 5 6 5 5 4 3 3 3 1 1 0 0 1 1 0 0 0 0 0 0 0 1 2 3 3 4 5 6 6 6 6 4 3 2 2 2 2 2 2 2 3 4 5 5 4 4 2 0 
0 0 1 1 1 1 1 1 1 1 1 2 3 2 2 2 2 3 3 3 4 4 5 4 3 2 2 2 2 2 3 3 3 2 2 1 1 1 0 1 1 1 1 1 1 1 1 1 1 1 2 1 1 1 1 1 1 2 3 3 4 2 2 1 1 0 0 0 0 0 0 0 1 1 1 2 3 2 2 1 1 1 2 2 1 1 1 1 0 0 0 1 1 1 1 1 3 4 5 5 5 4 4 4 4 3 3 3 3 3 3 4 5 7 9 8 7 6 5 5 6 7 5 5 5 4 4 4 4 3 3 3 3 4 5 5 5 4 5 5 5 6 6 5 4 3 3 3 3 2 1 2 2 2 3 4 3 3 2 3 3 3 2 1 0 1 3 4 4 2 1 1 1 1 2 3 4 5 6 6 6 6 5 6 5 4 4 2 3 2 3 3 3 1 1 1 1 1 1 2 2 2 2 2 1 1 1 3 4 5 6 6 6 6 4 5 3 3 4 4 5 4 3 3 2 2 4 7 8 9 8 6 5 4 4 3 3 2 2 2 3 3 3 3 3 3 3 3 2 2 2 2 2 3 3 3 3 3 3 3 3 4 4 3 2 0 0 0 0 0 0 1 2 3 3 2 2 1 1 2 3 3 3 2 2 2 3 3 2 2 3 3 3 3 4 3 3 2 2 2 2 3 3 2 1 1 1 1 2 2 2 2 2 1 1 1 1 1 2 2 2 3 4 5 5 3 3 2 3 1 2 1 2 2 1 2 1 1 1 2 2 3 2 1 1 1 1 1 0 0 0 1 2 3 4 4 5 4 4 3 3 2 1 1 0 0 0 0 0 0 0 1 1 1 2 2 2 1 1 1 1 1 1 1 1 1 1 0 0 0 0 1 2 2 2 2 2 2 2 3 3 3 3 2 1 1 2 3 4 8 10 9 22 23 82 130 162 128 71 22 24 27 43 50 53 57 53 52 57 64 70 68 61 52 36 28 26 46 77 128 166 191 189 157 104 53 25 17 9 5 6 5 5 4 3 2 2 2 2 2 1 1 2 4 5 5 5 4 3 3 3 3 1 1 0 0 1 1 0 0 0 0 0 0 0 0 1 1 2 3 3 3 3 3 3 3 3 3 2 2 2 1 2 2 3 5 5 6 5 4 2 0 
0 0 0 1 1 1 1 1 1 1 2 2 2 2 2 2 2 2 2 3 3 4 4 4 3 3 2 2 2 3 3 3 2 2 1 1 1 1 0 0 0 0 0 0 0 0 0 0 0 1 2 2 2 2 2 2 1 1 2 3 4 3 2 1 0 0 0 0 0 0 0 0 1 1 1 2 2 2 2 1 1 1 2 2 2 1 1 1 1 1 1 1 1 0 0 1 3 4 6 6 5 4 4 3 3 4 3 3 3 4 4 6 9 14 18 19 18 13 9 8 8 8 6 6 4 3 3 3 3 3 3 3 4 4 4 4 4 4 4 4 5 4 4 4 3 3 3 4 3 2 2 2 2 2 3 3 3 3 2 3 3 2 1 1 1 2 3 4 3 2 1 1 1 2 2 3 4 5 6 5 4 4 3 4 5 4 4 2 2 2 3 3 2 1 1 1 1 1 1 2 2 2 2 1 1 1 0 3 4 4 5 6 5 5 4 4 3 2 3 4 4 3 3 3 3 2 3 6 7 8 5 5 5 4 4 3 3 2 2 2 3 4 4 5 4 4 3 4 3 2 1 1 2 3 3 3 3 4 4 4 4 4 4 4 2 1 0 0 0 0 0 1 2 3 3 2 1 1 1 2 2 3 3 2 3 3 3 3 3 2 3 3 3 3 3 2 2 1 1 2 2 3 2 2 1 1 1 1 2 2 2 2 1 0 0 1 2 2 2 2 3 3 4 4 4 3 3 2 3 2 2 2 2 2 2 2 2 1 1 1 2 2 2 1 1 1 1 1 1 1 1 2 2 3 4 5 6 5 4 3 2 2 1 1 0 0 0 0 0 0 0 0 1 1 1 1 1 1 1 1 1 1 1 1 1 1 1 1 0 0 0 1 2 3 3 2 2 2 2 2 2 3 3 2 1 1 2 3 4 8 8 8 19 16 63 110 155 132 77 24 20 19 34 44 45 46 36 34 38 41 44 44 37 35 32 31 40 80 139 191 212 198 166 119 73 33 20 11 9 5 5 3 3 3 2 2 2 2 2 2 1 1 2 3 6 6 6 5 4 4 3 3 1 0 0 1 1 1 0 0 0 0 0 0 0 0 1 2 3 4 4 4 4 4 5 5 4 3 2 1 1 1 2 3 3 5 5 6 5 4 2 0 
0 0 0 1 1 1 1 1 1 1 1 1 2 2 2 2 2 3 3 3 3 3 4 4 3 3 3 2 2 2 2 3 2 2 1 2 1 1 0 0 0 0 0 0 0 0 0 0 0 1 2 2 2 2 2 2 1 1 1 3 3 3 2 2 1 0 0 0 0 0 0 0 1 1 1 2 3 2 2 2 2 2 1 2 2 2 2 2 2 2 2 2 1 1 1 1 3 4 5 5 5 4 4 3 3 3 2 3 3 4 4 8 13 18 22 22 23 20 17 13 9 8 7 6 5 4 3 4 3 3 3 3 3 4 3 3 3 3 5 4 5 5 5 5 3 3 3 4 3 2 2 2 2 2 3 3 3 2 2 4 3 2 2 1 1 2 3 4 3 2 1 1 1 2 2 4 5 7 7 7 5 4 4 4 5 3 4 2 2 2 2 3 2 2 2 2 2 2 2 2 2 2 2 1 0 0 0 2 3 5 5 4 4 4 4 4 3 3 3 3 3 3 4 3 3 2 4 4 3 4 4 5 5 4 3 2 2 2 2 2 3 4 5 5 4 5 4 5 4 3 2 1 2 2 2 3 3 4 5 5 5 5 5 4 2 1 0 0 0 0 0 0 2 3 4 2 1 1 1 2 2 2 3 1 2 2 3 3 3 3 3 3 3 3 3 3 2 2 2 2 2 3 2 2 2 1 1 1 2 2 1 1 0 0 0 1 2 2 3 2 3 3 4 3 3 2 2 2 3 2 3 2 2 3 3 3 3 2 3 2 3 2 2 2 1 2 2 2 1 1 1 2 2 3 4 4 5 5 5 3 2 2 1 0 0 0 0 0 0 0 0 0 0 1 1 1 1 1 1 1 1 1 2 1 1 1 1 1 1 0 1 2 3 3 3 3 3 3 2 2 3 2 3 2 2 2 1 2 3 6 7 7 15 14 53 98 147 142 96 43 23 22 33 43 47 43 28 23 28 31 31 34 31 34 30 31 72 130 192 216 203 164 124 73 42 24 16 8 7 5 6 4 4 3 3 3 2 2 2 2 1 1 2 3 6 6 6 5 3 3 3 2 1 0 0 1 1 1 0 0 0 0 0 0 0 0 0 1 2 3 3 3 3 3 3 4 3 3 2 2 2 2 2 3 3 5 5 4 4 4 2 0 
0 0 1 1 1 1 2 2 2 1 1 1 2 2 2 1 2 2 2 3 2 3 3 3 4 3 2 2 2 2 2 3 2 2 1 1 1 1 0 0 0 0 0 0 0 0 0 0 0 1 1 1 1 1 2 2 1 0 1 2 3 2 2 2 1 1 0 0 0 0 0 0 1 1 2 3 3 3 2 2 2 2 1 2 3 2 2 2 3 3 3 2 2 2 1 1 2 3 5 5 5 5 4 3 3 3 3 3 3 3 4 10 18 26 30 26 25 24 23 20 15 9 8 7 7 5 2 3 2 3 3 2 3 3 4 4 3 2 4 3 5 4 4 3 3 3 3 4 3 2 2 2 3 3 3 3 3 2 2 2 2 2 2 2 2 3 4 4 3 2 2 2 2 3 3 4 4 5 5 4 3 4 4 4 5 3 4 2 2 2 2 2 1 1 1 1 1 1 1 1 1 1 1 0 0 0 0 1 2 3 3 3 3 3 3 3 3 3 3 3 4 4 4 3 3 3 4 4 4 3 4 4 5 3 3 2 2 2 2 2 3 4 5 5 4 5 6 6 5 3 2 1 2 2 2 3 3 4 5 5 4 4 4 3 2 0 0 0 0 0 0 0 2 4 4 3 2 1 1 1 2 2 2 1 1 2 2 3 3 3 2 2 3 3 3 3 2 3 3 3 3 4 4 3 2 1 2 2 2 2 1 1 0 0 0 1 1 2 2 2 2 2 3 3 3 2 3 3 3 2 2 2 2 3 4 4 4 3 2 2 2 2 2 2 2 2 2 2 2 2 2 2 2 3 4 5 6 5 4 3 3 2 1 0 0 0 0 0 0 0 0 0 0 0 1 1 1 1 0 0 0 1 1 2 1 1 2 2 2 1 1 2 3 3 4 3 3 3 3 3 2 2 2 2 1 1 2 2 4 6 8 7 12 11 32 76 128 153 135 97 65 44 40 42 47 43 34 33 36 37 32 34 31 32 30 47 112 171 204 184 136 84 53 39 32 22 9 6 5 5 5 4 4 3 4 3 2 2 2 2 1 1 2 3 5 5 5 4 4 4 3 3 1 0 0 1 1 0 0 0 0 0 0 0 0 0 0 1 3 4 4 4 3 3 4 5 4 3 2 2 2 2 2 2 2 3 4 4 4 3 1 0 
0 0 1 1 1 2 1 2 2 1 1 1 2 2 2 2 2 2 3 4 4 4 3 3 3 4 4 3 2 2 2 2 2 2 1 1 1 1 1 0 0 0 0 0 0 0 0 0 0 1 1 1 1 1 2 2 1 0 0 1 2 2 2 2 2 2 1 0 0 0 0 1 2 2 3 4 4 4 2 2 2 2 2 2 3 3 3 3 3 3 4 3 2 2 2 2 2 3 3 4 4 4 4 2 3 3 3 3 2 2 3 9 17 23 27 25 24 23 24 24 20 14 11 9 9 8 5 3 2 3 3 4 4 5 5 4 3 2 3 3 4 6 6 5 3 2 3 3 2 1 1 1 2 3 3 3 3 3 4 4 3 2 2 2 3 3 4 4 4 3 2 2 3 3 3 4 5 7 7 6 6 5 5 4 3 2 2 2 2 2 2 2 1 1 0 0 0 0 1 1 1 1 1 0 0 0 1 2 3 3 3 2 2 2 4 4 5 5 4 4 4 4 3 3 3 3 4 4 3 2 2 3 4 3 2 2 2 3 2 2 2 2 3 3 3 4 4 5 5 3 2 2 2 2 1 2 3 4 4 4 4 5 4 3 2 1 0 0 0 0 1 1 2 3 4 3 2 1 1 1 2 2 3 2 2 2 3 3 3 2 2 2 2 2 2 2 3 3 4 4 4 4 4 4 3 2 2 3 4 3 2 1 0 0 1 1 2 2 2 2 1 1 3 3 3 2 3 3 4 3 3 3 3 4 5 5 4 3 3 3 3 3 2 2 2 2 2 2 2 2 2 2 2 2 2 3 3 3 4 3 3 2 1 0 0 0 1 2 2 2 1 1 1 1 0 0 1 1 1 1 0 1 1 2 2 3 3 3 3 2 2 2 3 3 3 3 3 3 4 4 4 3 2 2 2 2 2 3 5 8 12 11 12 12 18 52 96 140 159 156 146 131 113 89 70 47 38 35 39 40 39 54 64 76 89 119 171 194 171 114 58 38 37 32 19 11 5 4 3 4 4 3 3 2 3 2 2 1 1 1 1 1 1 2 4 5 5 5 4 3 3 3 2 1 0 1 1 0 0 0 0 0 0 0 0 0 1 2 3 4 4 4 4 4 3 3 2 2 1 2 2 2 2 2 3 4 4 4 3 2 0 0 
0 1 2 1 2 2 2 2 2 2 2 2 3 3 3 3 3 3 3 3 3 4 3 4 3 3 3 2 2 2 2 2 2 2 1 1 1 2 1 1 0 0 0 0 0 0 0 1 1 1 1 1 1 1 1 1 1 0 0 1 1 1 1 1 2 2 1 1 1 1 1 2 2 3 4 4 5 4 3 2 2 1 2 2 3 3 3 3 3 3 4 3 3 2 2 2 2 2 2 3 3 3 3 2 2 2 3 3 3 3 4 8 15 21 25 24 21 21 21 23 23 21 17 13 9 8 6 4 3 3 3 4 5 5 5 3 2 1 2 3 4 4 4 4 3 2 2 2 2 1 1 1 1 2 2 3 3 2 2 2 2 2 2 2 2 2 3 4 3 3 2 2 2 2 2 3 4 4 5 4 4 4 5 4 3 2 1 1 2 2 1 2 1 0 0 0 0 0 0 1 1 1 1 1 0 0 1 2 3 3 3 2 2 2 2 4 5 5 5 4 4 4 3 3 3 3 4 3 3 3 3 4 4 3 2 2 3 3 2 1 1 2 3 2 2 2 3 4 4 3 3 2 2 2 2 2 3 4 4 4 4 4 4 3 2 1 0 0 0 0 0 1 2 3 3 3 2 2 2 1 2 2 3 3 2 2 3 3 2 2 2 2 3 2 1 1 3 4 5 5 5 6 7 7 5 4 4 4 4 3 2 1 1 1 1 1 2 2 2 2 2 1 2 2 3 2 3 3 4 3 3 3 3 4 5 4 3 2 1 2 2 2 2 2 1 1 2 2 2 2 1 1 1 2 3 4 5 5 5 4 3 2 1 0 0 1 2 2 2 2 2 2 1 1 1 1 1 1 1 0 0 0 1 2 3 3 3 3 3 3 3 3 3 3 3 2 3 3 4 4 5 5 5 5 4 3 2 4 6 7 11 10 11 10 11 26 56 96 132 158 170 172 165 156 138 104 78 56 56 69 91 124 149 164 172 184 195 172 121 69 35 27 24 17 13 10 5 3 2 2 2 2 2 2 3 3 2 2 2 2 2 1 1 2 3 3 3 3 3 4 3 3 2 1 1 1 1 0 0 0 1 1 1 0 0 0 1 2 3 3 3 3 3 3 3 3 2 1 1 1 2 2 2 3 3 3 3 2 2 1 0 0 
0 1 2 1 1 2 2 3 3 4 4 3 3 3 4 4 3 2 3 4 5 6 4 4 4 4 3 2 2 2 1 1 1 1 1 1 1 2 2 1 0 0 0 0 0 1 1 0 0 1 1 1 1 1 1 1 0 0 0 1 1 2 1 1 1 2 2 2 1 1 1 2 3 3 4 4 4 3 2 2 2 1 2 2 3 4 4 3 3 3 3 3 3 2 3 3 3 2 1 2 2 2 2 2 2 2 3 3 3 3 3 6 9 15 20 24 24 21 19 20 22 24 23 19 15 10 8 6 5 3 4 5 6 7 6 5 4 3 2 2 3 5 5 4 3 2 2 2 2 2 1 0 0 1 1 1 2 2 2 3 3 2 2 2 2 2 2 2 3 2 2 2 2 2 2 2 3 4 5 4 4 4 4 3 2 1 1 1 1 2 1 2 1 0 0 0 0 0 0 1 1 1 1 1 1 1 1 2 3 3 2 2 2 2 2 3 5 5 5 4 3 3 2 3 3 2 3 2 3 3 3 4 3 3 2 2 3 3 2 1 1 1 1 1 1 1 1 3 3 3 2 2 2 2 2 2 2 3 3 3 3 3 3 3 3 3 2 2 2 2 2 1 2 2 2 2 1 1 1 1 1 2 2 2 2 2 3 2 2 2 3 3 2 1 0 1 3 4 4 5 6 7 7 7 6 5 5 4 4 3 2 2 1 1 1 1 2 2 2 2 1 1 2 2 2 2 2 2 3 3 3 3 3 4 4 4 2 2 2 2 2 1 1 1 1 1 2 2 2 2 1 1 2 2 2 3 3 3 3 3 2 1 1 0 1 2 2 3 3 3 2 2 1 1 1 1 1 1 0 0 0 0 1 3 4 6 6 6 4 4 3 3 3 3 3 2 2 2 3 4 5 5 5 5 4 4 4 4 6 7 11 10 13 9 10 11 24 50 84 118 144 164 174 186 190 175 147 119 113 134 165 192 202 196 182 169 153 120 82 38 21 15 11 9 8 7 4 3 1 1 1 1 1 1 2 2 2 2 2 2 2 2 2 3 3 3 3 4 4 4 4 3 2 2 1 1 0 0 0 0 1 1 1 1 1 1 2 2 2 1 1 1 2 2 3 2 1 0 0 1 1 2 2 3 3 3 3 2 1 1 0 0 
0 1 1 1 1 1 2 2 3 4 4 4 3 3 4 4 4 4 3 3 3 3 3 3 4 3 3 2 1 1 1 1 1 1 1 1 1 2 2 2 1 0 0 0 1 1 1 1 1 0 1 1 1 1 1 1 0 0 0 1 1 1 1 1 1 2 2 2 1 1 1 1 2 2 3 4 3 3 2 2 2 2 1 2 2 3 3 3 2 2 3 4 4 4 3 4 4 3 2 2 2 2 2 2 3 4 5 5 6 6 6 7 8 11 15 17 20 20 18 17 18 21 23 21 18 14 10 8 8 7 6 4 5 5 6 6 5 4 3 3 3 4 4 4 3 2 2 3 3 2 1 1 0 0 0 0 0 0 0 1 2 2 2 2 1 1 1 1 2 1 1 1 1 1 1 2 3 3 4 4 3 2 2 2 2 1 1 1 1 1 1 1 1 0 0 0 0 0 0 1 1 1 1 1 1 2 2 2 2 2 2 2 1 1 1 2 4 4 4 3 2 2 2 3 4 5 5 5 5 6 6 5 4 3 2 2 3 2 2 1 0 0 0 0 0 1 1 2 2 2 1 1 1 2 1 2 2 2 3 3 3 3 3 3 2 2 1 1 1 1 1 2 3 3 2 2 2 2 2 1 1 1 1 1 1 1 2 2 2 2 2 2 2 1 1 2 3 4 5 6 5 7 7 6 6 5 4 3 2 2 2 2 1 1 1 1 2 2 2 2 2 1 2 2 2 2 2 2 3 2 2 1 1 3 2 3 2 1 2 2 2 1 1 1 1 1 2 2 2 1 1 1 2 3 4 4 3 4 4 3 2 1 0 1 1 2 3 3 3 3 2 1 1 1 1 2 2 1 0 0 0 0 1 2 4 5 5 5 4 4 4 3 3 3 3 3 3 2 3 3 4 6 7 7 6 4 4 5 6 6 7 6 8 6 7 7 7 14 26 46 64 91 116 146 174 191 189 178 173 179 189 190 185 174 160 136 103 64 41 26 20 13 9 7 7 6 4 4 2 1 1 1 1 1 2 2 2 2 2 3 3 3 3 3 3 3 3 3 3 2 2 3 2 2 1 1 0 0 0 1 1 1 1 1 2 2 2 2 1 1 1 2 3 4 4 3 2 0 0 0 0 1 1 2 3 2 2 2 1 1 0 0 
0 1 2 1 1 1 1 2 4 4 5 4 4 3 4 4 3 3 3 3 3 3 3 3 3 3 2 2 1 1 1 1 0 1 0 0 1 1 2 2 1 1 1 1 1 1 1 1 1 0 0 0 1 1 1 1 0 0 1 1 1 1 1 1 1 2 2 1 0 0 0 1 1 2 3 3 3 2 1 2 2 2 1 1 2 3 3 2 2 1 3 3 4 4 3 4 4 4 3 3 2 2 2 3 4 5 6 6 6 5 5 6 8 7 9 9 14 18 22 23 22 22 21 21 19 18 14 10 8 8 9 9 9 8 9 8 7 5 4 4 3 4 4 4 3 2 2 2 3 3 2 1 0 0 0 0 0 0 0 1 2 3 3 2 2 1 1 1 1 1 2 2 2 2 2 3 4 4 4 4 3 2 3 3 2 2 1 1 0 0 1 1 1 0 0 0 0 0 0 1 1 1 1 1 2 2 2 2 2 2 1 1 1 1 1 2 2 2 2 2 1 1 2 4 4 5 5 5 5 5 4 3 3 2 2 2 2 2 1 1 0 0 0 0 0 0 0 1 2 2 1 1 1 2 1 1 1 1 1 1 1 1 2 3 3 3 3 3 3 3 3 3 3 2 1 1 0 0 1 1 1 0 0 0 0 0 0 1 2 2 2 2 2 1 2 3 4 5 4 6 6 7 6 5 5 4 3 2 2 2 2 2 2 1 1 1 2 2 2 2 2 2 3 3 2 2 2 2 3 2 1 0 0 1 1 2 2 1 2 2 2 1 1 1 1 1 1 1 2 1 2 2 3 3 3 2 1 2 2 1 1 0 0 0 1 2 3 3 2 2 2 1 1 1 1 2 1 1 0 0 0 0 1 2 4 6 7 7 6 5 3 3 3 4 3 3 3 3 2 2 2 3 4 4 4 4 5 6 7 8 8 7 7 6 5 5 6 11 13 16 16 23 40 79 115 149 166 173 170 167 160 141 119 89 63 43 30 26 25 19 13 7 5 4 4 4 4 5 3 2 2 2 2 2 2 3 3 3 3 3 3 3 3 3 4 4 4 4 3 2 2 2 2 1 0 0 0 0 0 1 1 1 1 2 3 3 3 3 2 3 4 5 5 6 6 5 3 1 0 0 0 0 1 1 2 2 2 2 1 1 1 0 
0 1 1 1 1 0 1 1 3 4 5 5 4 3 4 5 5 4 3 2 2 1 2 2 3 3 2 1 1 1 1 1 0 0 0 0 0 1 1 1 1 1 2 1 1 2 2 2 1 1 1 0 1 1 1 1 1 1 1 1 1 1 1 1 1 2 1 1 0 0 0 1 2 2 3 3 3 2 2 2 2 2 1 1 2 3 3 2 1 1 2 3 3 3 3 3 4 3 3 3 2 2 2 3 5 7 8 8 8 7 6 5 6 7 8 6 7 11 19 25 27 25 22 20 19 19 18 15 13 11 10 9 10 11 12 11 9 7 6 5 4 3 3 3 2 2 1 2 3 3 2 2 1 1 0 0 0 0 0 0 2 3 3 2 2 1 1 1 1 2 2 2 2 2 2 3 3 4 4 3 3 2 3 3 3 2 1 0 0 0 0 1 1 0 0 0 0 0 0 1 1 1 0 1 2 3 2 2 2 2 1 1 1 0 1 2 2 1 1 1 1 1 2 3 5 7 7 7 7 7 5 3 2 2 2 2 2 2 2 1 0 0 0 0 0 0 0 1 1 1 1 1 1 2 1 1 1 1 1 1 1 1 2 3 3 4 3 3 2 2 3 3 3 2 1 0 0 0 1 1 1 0 0 0 0 0 0 1 2 3 2 2 2 2 2 3 4 5 4 6 7 7 7 6 6 4 3 2 2 2 2 2 2 2 2 2 2 2 2 3 3 4 4 4 3 2 2 2 2 2 2 1 0 0 1 1 1 1 2 2 2 2 2 1 1 1 1 1 1 2 1 2 3 3 3 2 2 2 3 2 1 0 0 1 1 2 3 3 2 3 2 1 1 1 1 1 1 1 1 0 0 0 0 2 4 6 7 8 7 5 3 3 3 3 3 3 3 3 3 2 3 4 5 5 4 4 4 5 6 6 6 6 6 5 5 5 5 8 11 12 13 15 13 21 37 70 97 116 119 106 82 53 39 33 33 29 22 18 17 15 12 7 4 2 3 5 5 6 3 2 2 2 2 2 2 3 3 3 3 3 3 3 3 3 3 4 3 3 2 2 2 2 1 1 0 0 0 0 0 1 1 1 1 2 3 3 3 2 2 3 4 6 7 8 8 6 3 1 0 0 0 0 0 0 2 2 3 2 1 1 1 0 
0 1 1 1 0 0 1 2 3 4 4 3 3 3 3 3 3 3 3 2 2 2 2 3 3 2 2 1 2 2 2 2 1 1 0 0 1 1 1 1 1 2 2 2 2 1 1 2 2 1 1 1 1 2 1 1 1 1 1 1 1 1 1 1 1 2 1 0 0 0 1 1 2 2 3 4 3 3 2 2 2 2 1 1 2 4 3 3 2 2 2 3 3 3 3 2 2 2 2 2 2 1 2 3 4 5 5 6 6 7 7 6 5 4 5 5 8 13 19 23 25 25 23 20 18 17 20 21 21 18 17 12 11 11 11 11 10 8 7 5 4 3 3 2 2 2 1 2 2 3 2 1 1 1 1 1 1 1 1 1 1 2 2 2 2 2 1 2 2 2 2 2 2 2 2 2 3 3 4 3 3 3 4 4 3 2 0 0 0 0 0 1 1 1 0 0 0 0 1 1 1 1 0 1 2 3 2 2 2 2 2 2 1 1 1 2 2 1 1 1 1 1 2 3 4 4 5 5 7 7 7 6 4 3 2 2 2 2 3 1 1 0 0 0 0 0 0 1 1 1 1 1 1 2 1 1 1 1 1 1 1 1 2 2 3 3 3 3 3 3 3 3 2 1 0 0 0 0 1 1 2 1 1 0 0 0 0 1 2 2 2 2 2 2 2 3 5 5 5 6 6 7 8 7 7 5 5 4 3 2 3 3 3 2 2 2 2 2 2 3 3 4 4 3 2 2 2 1 2 2 1 1 0 0 0 1 1 1 1 2 2 2 2 2 2 2 2 1 1 2 1 2 3 3 3 2 2 2 2 1 0 0 0 1 1 2 2 3 3 2 1 1 1 2 2 2 2 2 1 0 0 0 1 3 4 6 7 7 6 4 3 2 3 3 4 4 4 4 4 4 3 4 5 5 4 3 4 4 5 6 6 6 6 5 5 5 4 6 7 8 6 8 11 16 16 22 35 46 45 34 25 25 25 23 16 12 8 9 8 8 8 6 4 2 4 6 6 5 3 3 2 2 2 2 2 2 3 3 3 3 2 2 2 3 4 4 4 3 3 2 2 2 1 0 0 0 0 0 1 1 1 1 2 2 3 3 3 3 4 4 5 6 6 7 7 5 3 1 0 0 0 0 0 0 2 2 3 2 1 1 0 0 
0 1 1 0 0 0 1 2 3 5 5 5 5 4 4 5 4 3 2 3 3 3 3 3 3 2 2 1 1 1 1 2 1 1 1 1 2 2 2 2 2 2 2 2 2 2 2 2 2 2 2 1 2 2 2 1 1 1 2 2 2 1 1 1 2 2 2 1 0 0 1 2 2 2 3 4 4 3 3 2 2 2 1 1 2 3 3 3 2 3 3 3 3 3 3 2 1 1 1 2 1 1 1 2 5 6 6 6 5 5 5 5 5 5 6 5 6 9 13 18 23 21 22 20 19 19 21 25 29 28 25 19 14 11 10 11 10 7 6 5 4 2 2 2 2 2 2 2 2 2 2 1 0 0 0 0 0 1 1 1 1 1 2 1 1 1 1 1 1 1 2 2 2 2 2 2 2 2 3 3 3 3 3 4 3 1 0 0 0 0 0 1 2 2 1 1 1 0 1 2 2 2 1 2 2 2 2 2 2 2 2 2 1 1 1 1 2 1 1 1 1 1 1 2 4 5 5 5 6 6 6 6 5 4 3 2 2 2 3 2 2 1 1 1 1 1 1 1 1 1 1 1 1 2 1 2 1 2 2 2 1 1 2 2 2 2 3 3 3 2 2 2 2 1 0 0 0 1 1 1 2 1 1 0 0 0 1 1 3 3 3 3 3 3 3 3 4 3 4 6 7 8 8 7 8 6 5 5 4 3 3 4 3 2 1 1 1 1 1 2 3 4 4 3 2 2 2 1 2 1 2 1 0 0 0 1 1 2 2 2 2 2 1 1 2 1 1 1 2 1 1 2 3 3 3 2 2 2 2 2 1 1 1 1 2 2 2 3 2 2 2 2 2 2 2 2 2 2 2 1 0 0 1 2 4 6 8 8 6 4 3 3 4 4 4 4 4 4 3 3 4 5 5 5 4 4 4 4 3 3 3 4 5 5 5 5 5 7 5 7 5 5 3 6 9 13 16 18 18 18 16 15 14 15 11 9 5 5 6 8 7 5 3 2 4 5 6 5 4 2 1 1 1 1 1 2 3 3 4 4 3 3 3 4 4 3 3 2 2 2 2 2 2 1 1 1 1 2 2 2 2 2 3 2 4 3 3 4 5 5 5 5 5 6 6 6 5 3 1 1 0 0 1 1 2 2 3 2 1 1 0 0 
0 1 2 1 1 2 2 3 3 3 3 3 3 3 3 3 3 3 3 3 4 4 4 4 4 3 3 2 1 1 1 2 2 2 2 3 3 2 2 2 2 2 2 2 2 2 2 2 3 4 4 3 3 2 3 2 2 1 1 1 1 1 1 1 2 2 2 1 1 1 2 2 2 2 3 4 3 3 2 2 2 1 1 2 2 2 3 3 3 3 3 3 4 4 3 2 1 0 1 1 1 0 1 3 4 4 3 4 5 5 6 6 6 5 5 6 7 9 11 10 10 11 16 18 19 21 22 24 27 30 32 28 21 13 9 8 9 9 7 5 4 4 3 2 2 2 2 2 2 2 2 1 0 0 0 0 1 1 1 1 1 1 1 1 1 1 1 2 2 1 2 2 2 2 1 1 2 3 3 3 3 3 4 3 2 1 0 0 0 0 0 1 2 2 3 2 2 2 3 3 2 2 1 2 3 3 2 2 3 2 2 3 2 2 2 1 2 1 1 1 1 1 1 2 3 4 5 5 6 7 7 7 6 5 4 3 2 3 2 2 2 2 3 3 3 3 2 2 1 0 0 0 1 1 1 2 2 2 1 1 1 1 1 1 1 1 1 1 1 1 1 1 2 2 2 2 2 2 2 2 2 2 2 1 1 1 2 2 3 3 3 4 3 3 3 4 4 4 4 5 5 6 6 6 5 5 5 5 4 4 4 5 3 2 1 1 1 1 1 2 2 2 2 2 2 1 1 1 1 1 1 1 1 1 1 1 1 1 1 2 1 1 1 1 1 1 1 1 1 1 2 2 3 2 3 2 2 1 1 1 1 2 2 2 1 2 2 3 3 3 2 2 2 3 3 3 3 2 1 0 0 0 0 1 2 3 4 4 4 4 3 3 3 4 5 4 4 4 4 6 6 6 5 4 4 5 6 6 4 3 3 3 3 3 3 4 5 6 5 6 4 5 4 5 5 9 11 14 12 12 9 8 9 11 13 13 8 6 4 4 4 4 3 2 3 5 5 4 3 2 1 1 1 1 1 1 2 2 3 3 2 2 2 3 3 3 4 3 3 2 2 2 2 2 2 3 4 4 3 3 2 2 2 2 3 4 5 5 5 5 4 4 4 4 5 5 5 4 4 2 1 1 1 2 2 3 3 2 1 1 1 0 
0 2 3 2 2 2 3 3 4 5 5 5 5 4 4 4 3 3 3 4 5 6 5 4 4 4 4 4 2 2 2 2 2 2 3 3 2 3 2 3 3 2 3 3 3 3 3 3 4 5 5 4 4 3 3 3 2 2 2 2 2 2 1 2 2 3 3 2 2 2 2 2 2 2 3 3 3 2 2 1 1 1 1 1 1 2 2 2 3 2 3 3 4 4 3 2 1 0 1 1 1 0 1 3 5 6 7 5 4 3 4 4 6 6 6 5 4 5 6 9 9 9 10 15 19 23 25 26 28 28 30 31 31 25 19 14 11 9 7 7 5 4 4 4 3 3 3 3 3 3 3 2 1 0 0 0 0 0 1 1 0 0 1 1 1 1 1 2 2 2 2 2 2 1 1 2 3 3 4 4 4 3 4 3 2 1 0 0 0 0 0 1 2 3 4 2 3 3 4 3 3 2 2 3 3 3 3 2 2 2 2 2 2 2 2 1 2 1 2 2 2 1 1 2 3 4 5 5 5 5 4 4 4 4 3 2 2 2 2 2 2 2 3 3 4 3 3 2 1 0 0 0 0 0 1 2 3 2 2 1 1 1 1 1 1 1 2 2 2 1 2 2 2 2 2 3 3 2 2 2 2 2 2 2 2 2 3 3 3 5 3 5 3 4 4 5 5 4 3 4 5 5 4 4 4 4 4 4 4 4 5 5 3 2 0 0 0 1 1 2 2 2 1 1 1 1 0 0 1 1 1 1 1 1 1 1 1 2 2 2 1 1 1 1 1 1 1 2 1 1 1 1 2 1 1 0 0 1 1 2 3 3 3 2 3 3 4 4 3 3 2 3 2 3 3 3 3 3 1 0 0 0 0 0 1 2 3 3 4 4 4 4 4 4 5 4 4 3 3 4 4 4 4 4 4 5 5 5 4 3 2 2 2 2 3 4 5 5 5 5 4 4 3 3 3 6 7 11 9 11 9 8 9 10 11 10 6 5 3 5 4 3 2 2 2 3 3 3 2 1 1 2 1 1 1 1 2 3 3 3 2 2 2 3 4 5 6 6 6 5 3 3 3 4 4 6 9 10 8 6 5 4 4 4 4 5 5 7 8 8 7 7 5 5 5 6 6 5 4 3 2 1 2 3 4 4 3 2 2 2 1 0 
0 1 2 2 2 2 3 3 3 3 3 3 3 3 3 3 3 2 3 3 4 6 5 4 3 4 5 4 3 3 3 3 3 2 3 3 2 2 2 2 2 2 3 3 4 4 4 4 5 5 6 5 4 4 4 4 3 2 2 1 1 1 1 1 2 2 2 2 2 2 3 2 3 3 3 2 1 1 1 1 1 1 1 2 2 2 3 2 3 2 2 2 3 3 2 2 0 0 1 1 1 0 1 3 5 5 5 4 4 4 4 4 4 4 4 3 3 3 3 3 4 7 8 11 15 20 25 25 25 25 30 30 33 33 29 20 12 9 8 7 6 6 5 4 3 3 3 4 4 4 4 3 2 1 0 0 0 0 0 0 1 1 1 2 2 2 2 2 2 2 2 2 2 2 1 2 2 3 4 3 3 3 3 3 2 1 0 0 0 0 0 1 2 3 4 3 4 3 4 4 3 2 2 3 4 5 4 4 3 3 2 2 3 3 2 1 2 1 2 2 2 2 2 2 2 3 4 5 5 5 4 2 2 2 2 2 1 1 1 1 1 2 3 3 4 3 3 2 1 0 0 0 0 0 1 2 3 2 1 1 1 2 2 1 2 1 2 1 1 1 1 1 2 2 3 4 5 5 3 3 2 2 2 2 3 4 4 4 3 6 4 5 3 5 5 6 6 6 4 5 5 5 4 3 3 2 3 3 4 4 4 4 2 2 1 1 1 1 1 2 1 0 0 0 0 0 0 0 1 1 1 1 1 1 1 2 2 2 2 2 2 2 1 1 1 1 1 1 1 1 1 1 2 2 2 1 1 1 1 2 2 3 3 2 2 3 3 4 3 3 2 2 2 3 3 3 3 3 1 1 0 0 0 0 0 0 0 1 3 4 3 3 4 4 5 3 3 3 4 5 5 5 3 3 4 5 6 5 4 3 2 2 1 1 1 2 4 4 5 4 5 6 5 4 3 3 4 6 7 8 6 6 6 8 10 10 6 5 3 4 3 3 2 2 1 1 2 2 2 1 1 1 1 1 1 2 2 3 3 2 2 1 1 1 3 5 6 6 6 5 4 4 5 8 9 11 10 10 9 8 6 6 6 6 5 5 4 5 5 5 4 4 4 3 4 5 5 4 4 3 3 2 3 4 5 5 3 2 2 2 2 0 
0 1 2 2 2 2 2 3 4 4 4 4 4 4 3 2 2 1 2 3 4 5 4 4 4 4 5 5 4 4 4 3 2 2 3 3 2 2 1 2 3 3 4 4 4 5 6 5 6 5 5 5 4 4 4 4 3 2 1 2 2 2 1 2 2 3 3 3 3 3 3 2 3 2 3 2 1 0 1 1 1 2 1 1 2 3 3 3 3 2 2 1 2 2 2 1 0 0 1 1 1 1 1 2 4 5 5 4 4 3 3 3 3 3 3 2 2 2 2 2 4 6 9 9 12 14 20 26 30 30 30 31 32 33 32 26 18 12 11 11 8 7 5 6 4 4 3 5 4 6 5 4 3 1 1 0 0 0 0 0 0 0 1 2 2 3 2 3 2 2 2 2 2 2 1 2 2 3 4 4 3 3 3 3 2 1 0 0 1 1 1 1 2 3 5 4 4 3 3 4 3 3 3 3 5 5 5 4 4 4 3 3 3 3 3 2 2 2 2 2 2 2 2 2 2 3 4 4 4 4 3 3 2 2 2 1 1 1 1 1 1 2 2 3 3 3 2 2 1 1 0 0 0 0 1 2 3 2 2 2 2 1 1 1 2 2 2 1 0 0 1 2 2 2 3 5 6 6 5 3 2 2 2 2 3 4 4 4 3 4 3 5 5 5 6 6 5 4 3 3 3 3 3 2 3 2 3 2 3 3 3 3 1 1 1 1 1 1 1 1 0 0 0 0 0 0 0 1 1 1 1 1 1 0 1 2 2 3 3 3 2 2 1 1 1 1 0 1 1 1 1 1 2 2 2 1 1 1 2 2 3 3 3 3 4 5 4 4 3 3 2 2 2 2 3 3 3 3 2 1 0 0 0 0 0 0 1 2 3 3 3 2 3 3 4 2 2 2 3 3 3 2 2 3 4 4 4 4 3 3 2 2 1 1 0 1 2 2 3 3 3 4 3 3 2 3 4 5 6 5 4 5 5 5 3 3 3 4 4 5 4 3 2 1 1 1 2 2 2 1 1 1 1 1 1 2 2 3 3 2 2 2 2 1 2 5 9 11 11 8 5 4 8 11 13 14 15 15 13 11 9 8 7 6 6 5 5 7 8 8 8 8 8 7 6 5 4 3 3 3 3 3 3 5 6 5 4 4 4 3 2 0 
0 1 1 1 2 2 2 3 5 5 5 5 4 4 3 3 2 1 2 3 4 5 5 5 5 4 5 5 4 4 4 4 2 2 2 2 2 2 2 2 3 3 4 5 5 5 6 5 5 3 4 4 4 3 3 3 3 2 1 1 0 1 1 1 1 2 3 3 3 3 3 2 3 2 2 1 0 0 0 1 2 2 3 3 4 4 5 5 4 3 2 1 1 1 1 1 1 1 1 1 1 1 2 2 3 4 4 5 4 4 3 2 2 2 2 1 1 1 1 2 2 4 8 8 8 9 13 19 25 32 36 36 35 36 33 29 21 13 10 9 7 6 4 4 3 4 3 5 5 7 6 5 4 1 1 1 1 1 1 0 1 1 1 2 2 2 2 2 2 2 2 2 2 2 1 2 2 2 2 1 1 1 1 1 1 1 1 1 1 1 1 1 2 2 4 3 3 2 2 3 3 4 4 4 5 5 5 4 4 5 4 4 4 4 4 4 2 2 2 2 2 2 2 2 2 2 3 3 3 3 2 3 3 3 2 1 0 0 1 1 2 1 2 3 3 3 2 2 1 1 0 0 0 0 1 2 3 2 2 2 2 2 2 1 2 2 1 0 0 0 0 2 3 3 4 5 7 7 5 4 3 3 3 3 3 4 4 5 5 5 5 5 6 6 8 7 6 5 3 3 4 4 4 3 3 1 2 2 2 3 2 2 1 1 0 1 1 2 1 1 0 0 0 0 0 0 0 1 1 1 1 0 0 0 0 1 2 2 2 3 2 2 1 0 0 0 0 0 0 1 1 1 2 2 2 1 1 1 1 2 2 2 3 3 3 4 4 4 3 2 2 2 2 2 3 3 3 3 2 2 1 1 0 0 1 1 1 2 3 3 2 2 2 2 3 1 1 1 2 3 3 2 2 3 4 4 4 4 2 2 1 1 1 0 0 0 2 2 2 2 2 3 3 2 2 2 3 3 3 3 3 3 3 3 3 3 3 3 4 4 3 3 2 1 1 1 2 3 3 2 1 1 1 1 1 2 2 2 2 2 3 2 2 1 2 5 8 9 10 8 6 4 9 11 12 14 18 24 28 26 23 25 23 18 10 6 5 5 4 4 4 5 5 6 6 6 4 2 2 3 3 3 4 5 7 7 6 6 6 5 3 0 
0 1 2 2 3 3 4 4 5 5 5 5 4 3 2 2 2 2 3 3 4 4 5 5 5 4 4 4 4 5 4 3 2 2 2 2 2 2 2 3 4 5 5 5 5 6 6 5 5 4 4 4 3 2 2 3 2 2 1 1 0 0 1 2 2 2 3 3 4 4 3 2 2 2 2 1 0 0 0 1 2 3 5 4 4 5 5 6 4 3 2 1 1 1 1 1 2 2 2 2 2 2 2 2 3 3 3 5 5 5 3 1 1 1 1 1 1 1 2 2 3 4 6 6 8 9 10 14 18 24 33 38 36 34 31 29 22 14 11 11 8 7 5 5 4 4 3 7 6 8 7 5 4 1 1 1 1 1 1 1 1 1 2 2 2 2 2 3 3 2 2 2 2 2 2 2 2 1 1 1 1 1 1 1 1 2 2 2 2 2 2 2 2 2 3 3 3 2 2 3 4 5 4 5 5 4 4 4 5 5 5 4 5 5 5 5 3 3 2 2 1 2 1 2 2 2 3 3 2 2 3 4 4 3 2 1 0 0 1 2 2 2 2 3 3 3 2 1 1 0 0 0 0 0 1 2 3 2 2 2 1 1 0 0 1 1 1 0 0 0 0 2 3 4 5 5 7 7 5 4 3 2 2 3 3 5 5 4 3 3 6 6 10 8 10 8 6 4 2 2 2 2 3 2 3 2 2 2 1 2 1 1 1 0 0 0 1 2 1 0 0 0 0 0 0 0 0 1 1 1 0 0 0 0 0 1 1 2 2 3 2 2 1 1 0 0 0 0 0 0 1 2 2 2 2 1 0 0 1 2 3 3 3 4 4 5 5 4 3 2 2 2 2 2 3 2 2 2 2 2 1 1 1 1 1 1 1 1 2 3 2 1 2 2 2 1 2 3 3 4 2 2 1 3 4 4 3 3 2 1 1 1 1 0 0 0 1 2 1 1 1 1 2 2 2 2 3 3 3 3 2 4 3 3 2 2 2 3 4 4 4 3 2 1 1 2 2 3 3 3 2 1 1 1 1 3 2 2 1 1 3 2 2 2 4 7 11 13 12 9 7 5 8 13 21 31 42 45 43 37 33 32 33 35 34 29 23 16 11 7 6 6 8 8 7 5 3 2 1 2 3 4 5 5 5 5 6 6 7 6 3 0 
0 1 2 2 3 3 4 4 5 5 4 4 4 3 3 2 2 3 3 3 3 4 5 5 6 4 3 3 3 3 3 3 2 2 2 2 3 3 2 3 3 4 4 4 4 5 5 4 4 4 5 4 3 2 2 2 2 2 1 1 0 0 1 1 1 2 3 3 3 3 3 3 3 2 2 2 0 0 0 1 2 4 5 5 5 5 4 5 4 3 2 1 1 1 1 1 2 2 3 3 3 3 3 3 3 4 4 6 5 5 4 2 2 1 1 1 1 1 1 2 2 3 3 4 5 7 8 11 14 18 26 32 35 35 31 26 20 13 10 9 7 6 4 4 3 4 4 7 7 7 7 4 4 2 2 2 2 2 2 2 2 2 2 2 1 1 2 2 2 2 2 2 2 2 2 2 2 1 1 0 0 0 0 1 1 1 2 2 2 3 3 3 3 2 3 2 2 1 1 2 3 4 4 5 4 4 4 4 5 5 5 4 5 5 6 5 4 3 2 2 1 1 1 1 2 2 2 2 2 2 3 3 4 3 3 1 0 0 1 2 2 3 2 3 3 2 2 1 1 0 0 0 0 0 1 1 2 2 2 2 1 1 1 1 1 1 1 1 0 0 1 2 3 4 4 4 5 5 5 4 4 3 3 3 3 4 4 5 6 7 11 11 15 12 13 10 8 5 3 2 3 3 4 2 3 2 2 1 1 1 1 1 1 1 0 1 2 2 2 0 0 0 0 0 0 0 0 0 1 1 1 1 0 0 0 1 1 2 2 2 2 2 1 1 1 0 0 0 0 0 0 1 2 2 1 0 0 0 0 1 2 3 4 4 5 5 4 3 2 2 2 2 3 3 3 2 2 1 1 1 1 1 1 1 1 1 0 1 2 2 2 1 2 2 2 3 3 4 4 4 2 1 2 3 3 3 2 3 1 1 0 1 1 0 0 0 1 1 1 1 1 1 1 1 2 2 3 3 3 3 3 3 3 3 2 2 2 2 3 3 3 3 2 1 1 2 3 4 4 3 3 1 1 1 1 3 2 2 1 1 2 2 3 2 4 7 9 11 11 9 10 15 25 32 32 38 63 102 129 136 135 133 122 97 64 38 26 24 23 17 12 8 6 6 7 6 4 2 2 3 3 3 4 4 6 5 7 6 7 6 4 0 
0 1 2 2 3 3 3 3 4 4 3 3 3 3 3 3 3 3 3 3 3 3 4 4 4 4 3 3 3 3 3 3 3 2 2 2 2 2 2 2 3 4 5 5 5 5 5 5 5 5 5 4 3 2 2 2 2 2 1 1 1 0 1 1 2 2 2 2 2 2 3 3 3 3 2 2 1 1 1 1 2 3 5 5 5 4 5 5 4 3 2 1 1 0 0 1 2 2 3 3 2 2 2 3 3 4 3 5 5 5 4 2 3 2 2 2 1 1 2 2 3 2 3 4 6 8 9 10 11 11 13 21 24 27 23 18 12 7 6 6 6 6 5 4 3 4 5 7 8 6 6 4 3 2 1 2 2 1 2 2 3 2 2 2 2 1 1 2 2 2 2 2 2 2 2 2 2 1 1 1 1 1 1 1 1 1 2 2 2 2 2 3 3 3 3 2 2 1 1 1 2 3 5 5 4 4 4 5 5 4 4 4 5 5 5 4 4 3 3 2 1 1 1 1 1 1 1 1 2 2 2 2 3 2 2 1 1 1 1 3 2 3 2 2 2 1 1 1 0 0 0 0 0 0 1 2 2 2 2 2 1 1 1 1 1 2 2 1 1 0 1 2 3 3 3 3 4 4 4 3 3 3 3 3 4 4 4 4 5 8 12 13 16 14 14 11 8 6 5 4 4 4 4 4 4 2 2 1 1 1 1 1 1 1 0 1 2 2 2 0 0 0 0 0 0 0 0 0 1 1 2 2 1 1 1 1 1 1 1 1 2 2 2 1 1 1 1 1 0 0 0 1 2 2 1 0 0 0 0 1 2 2 3 3 3 4 4 4 2 2 2 2 2 2 2 2 1 1 1 0 0 0 0 0 0 0 0 1 2 2 2 2 2 3 3 3 4 4 4 3 2 2 2 3 3 3 2 2 1 1 0 1 1 1 0 0 1 1 1 1 2 2 2 2 2 2 2 2 2 1 2 2 3 3 3 2 2 2 2 3 2 3 2 1 1 1 2 3 3 3 2 1 1 1 2 3 2 1 1 1 3 3 3 3 4 7 8 9 9 12 19 28 33 50 81 135 172 190 193 190 187 185 185 182 166 135 94 54 33 23 22 17 14 10 7 5 4 3 3 3 4 4 5 4 5 4 5 5 6 6 4 0 
0 1 2 2 2 2 2 2 2 3 3 3 4 3 3 3 3 3 3 2 2 2 2 3 3 3 2 2 2 2 2 2 3 2 2 2 2 2 1 1 2 3 3 2 3 4 5 5 5 6 5 4 3 2 2 2 1 2 2 1 1 1 1 2 2 2 2 1 1 2 3 3 3 3 2 2 2 1 1 1 2 3 3 3 3 3 2 2 3 2 2 1 0 0 0 1 2 3 3 3 3 2 2 3 3 3 3 4 4 4 4 3 3 3 3 2 2 3 3 2 2 1 2 3 4 4 4 5 8 10 10 13 15 16 14 10 7 6 6 6 6 5 4 4 3 4 5 6 6 4 5 3 3 2 2 2 2 2 2 3 3 3 2 2 2 1 2 1 1 2 2 1 1 1 1 1 2 1 1 1 1 1 1 1 1 1 1 2 3 3 3 3 3 3 3 2 2 1 1 1 1 2 4 5 4 4 4 5 6 5 5 5 5 4 4 3 3 3 2 2 1 1 2 2 1 1 1 1 2 2 2 1 2 2 3 2 2 1 2 3 3 3 2 2 2 2 2 1 1 1 0 0 0 0 0 1 2 2 2 2 2 2 2 2 3 3 3 2 2 1 1 1 3 2 2 2 2 2 2 2 3 3 3 3 2 2 2 3 5 10 15 18 19 16 14 11 8 7 5 4 4 5 5 4 3 1 1 0 1 1 1 1 1 1 1 1 2 2 2 1 0 0 0 0 0 0 1 1 1 1 2 2 2 1 1 1 1 1 2 1 2 2 2 2 1 1 1 1 1 0 1 2 3 3 2 1 0 0 1 1 1 2 2 3 4 4 4 3 2 2 1 1 1 2 2 2 1 1 0 0 0 0 0 0 0 0 1 2 3 2 2 2 3 4 4 4 4 4 3 3 2 2 3 4 4 3 2 2 1 1 1 1 1 1 0 0 0 1 1 1 2 2 2 2 2 2 2 1 2 2 3 2 2 2 2 2 2 2 2 2 2 2 2 1 1 1 3 4 5 4 4 3 2 3 4 4 3 2 1 2 3 4 5 5 5 6 6 9 11 23 27 48 82 139 164 178 181 188 190 187 187 190 192 189 181 167 150 125 97 57 36 26 21 15 12 10 7 4 5 3 4 3 4 3 4 3 4 4 5 5 3 0 
0 1 1 1 1 2 2 3 3 3 3 3 3 3 3 3 3 3 3 2 2 2 2 2 2 3 3 3 2 2 2 2 2 2 2 1 1 1 1 2 3 3 3 2 3 4 5 5 6 5 4 3 2 1 1 1 2 2 1 1 1 1 1 1 2 2 2 1 2 2 3 3 3 3 2 2 1 1 1 1 1 2 2 2 1 2 2 2 3 3 2 2 0 0 0 1 2 2 2 2 2 1 1 2 2 2 3 3 3 3 3 2 3 3 3 2 2 3 3 3 3 2 3 3 5 5 4 2 2 5 7 9 10 9 8 5 5 4 4 3 4 4 4 3 2 4 4 5 4 4 4 3 3 2 2 1 1 1 2 3 3 3 2 2 2 2 1 1 1 1 1 1 1 1 1 1 1 1 1 1 2 2 1 1 1 1 2 2 2 2 2 2 3 2 2 2 2 1 1 1 1 2 3 5 4 4 3 4 5 5 5 5 4 3 2 2 2 3 2 2 1 1 2 1 1 0 0 1 1 1 1 1 1 1 2 2 2 3 3 3 3 3 2 2 2 2 1 1 1 1 1 1 1 0 1 1 2 2 2 2 2 2 2 2 3 4 4 3 2 1 1 1 2 2 2 1 1 1 2 2 3 3 3 3 3 2 2 3 5 9 11 12 12 11 11 9 7 5 5 4 3 3 3 3 3 1 0 0 1 1 1 1 1 1 0 0 1 1 1 1 1 1 1 2 2 2 2 2 2 1 2 2 3 2 1 1 1 1 0 0 1 1 1 1 1 1 1 1 1 1 1 3 4 3 1 1 1 1 1 2 3 3 3 2 3 4 5 4 3 2 1 1 1 1 1 1 1 1 0 0 0 0 0 0 1 1 2 2 3 2 2 2 3 4 4 4 3 2 2 2 2 3 3 4 4 4 3 2 1 1 1 1 1 0 0 0 0 0 0 0 1 2 3 3 2 1 1 1 1 1 2 2 2 2 2 2 1 1 2 1 1 1 1 1 0 0 1 3 4 3 3 2 2 3 4 4 3 2 1 2 3 4 5 6 9 10 8 11 19 27 48 102 144 174 188 193 182 162 142 131 127 129 140 156 176 186 184 167 142 111 73 43 28 26 14 10 9 6 5 4 5 3 4 4 5 5 5 4 5 5 3 0 
0 1 1 2 2 3 3 3 3 3 3 2 3 3 3 3 3 4 3 3 2 2 1 2 1 2 2 2 2 2 2 1 1 2 2 2 1 1 1 2 2 2 1 1 2 3 4 5 4 4 3 2 1 1 1 1 1 1 1 1 1 1 1 1 3 3 3 2 2 3 3 4 3 3 2 2 2 1 1 1 1 1 0 0 0 0 1 1 2 3 2 2 1 1 1 2 2 3 3 3 3 2 2 2 2 2 2 1 2 1 2 1 3 2 3 3 3 3 3 3 4 4 5 6 6 5 3 2 2 4 5 6 7 6 6 4 6 5 5 4 4 4 3 3 3 3 4 4 4 3 3 3 3 2 2 2 2 2 3 3 3 2 1 2 2 2 1 1 1 1 1 1 1 2 1 1 1 1 1 1 1 1 1 1 2 2 2 2 2 2 2 2 2 1 2 1 1 1 1 1 1 1 3 4 4 3 2 4 4 5 5 4 3 3 2 3 3 3 3 3 2 2 2 2 2 1 1 1 1 0 0 0 1 1 2 2 3 4 4 4 4 3 2 2 3 3 2 2 2 2 2 2 2 1 1 1 2 2 2 2 2 2 2 3 4 4 3 3 3 2 1 0 1 1 2 1 1 1 1 2 3 3 3 3 2 1 1 2 4 6 9 9 10 8 7 5 5 4 3 3 2 2 2 2 2 1 0 1 1 2 2 2 2 1 1 0 0 0 1 1 2 2 3 3 3 2 2 2 2 2 3 2 3 2 1 1 1 1 1 0 0 1 1 1 1 0 1 1 2 2 2 3 4 4 3 3 3 3 3 3 3 3 2 2 3 3 3 3 2 2 1 1 1 1 1 1 0 0 0 0 0 0 0 1 1 2 3 3 3 2 2 3 3 4 3 3 2 1 1 1 2 2 3 3 4 4 4 3 2 2 1 1 0 0 0 0 0 0 0 0 1 2 3 3 3 2 2 2 2 2 3 2 2 2 1 1 1 1 1 1 1 1 1 1 0 0 1 2 3 3 3 3 3 4 4 4 3 2 2 3 4 5 7 9 10 12 14 18 24 45 102 154 187 194 173 139 103 71 47 38 37 40 49 65 94 127 156 178 181 164 128 84 45 30 24 14 9 6 7 4 5 4 5 4 4 3 3 3 3 4 2 0 
0 1 2 3 3 3 4 3 4 2 2 1 2 2 3 4 4 4 3 2 2 2 2 2 2 2 2 2 2 2 1 1 1 2 2 2 1 1 1 2 2 2 1 1 1 2 3 4 3 3 2 1 1 0 1 1 1 1 0 0 0 0 0 1 3 3 3 3 3 3 3 4 3 3 2 2 1 1 1 1 1 0 0 0 0 0 1 2 2 2 2 2 2 2 1 2 2 2 3 3 3 2 2 2 2 1 1 1 1 0 1 1 2 3 3 2 2 3 3 3 4 5 6 7 6 5 4 3 3 4 5 6 6 6 7 6 8 6 5 4 3 4 3 3 3 3 3 3 3 3 3 3 3 3 3 3 3 3 3 3 2 2 1 1 2 2 2 1 1 1 1 1 2 2 1 2 1 1 1 1 1 1 1 1 1 1 1 2 1 2 1 1 1 1 1 1 1 1 1 1 1 1 3 3 3 3 2 3 3 5 4 4 3 3 3 3 3 4 3 3 3 3 2 2 1 1 1 1 0 0 0 0 0 1 1 2 3 4 4 4 3 3 3 3 3 2 2 2 2 2 2 2 2 2 1 1 1 1 2 2 2 3 3 4 4 3 3 3 2 2 0 0 1 1 2 1 1 1 1 2 2 2 3 2 3 2 3 3 5 5 6 4 5 4 4 3 3 2 2 1 1 1 1 1 1 1 1 1 2 2 2 1 1 1 0 0 0 0 1 2 2 3 3 4 3 3 2 2 2 2 3 2 3 2 2 1 1 1 1 0 1 1 1 1 1 1 2 2 2 2 2 3 3 3 3 3 3 3 3 4 4 4 4 3 3 3 3 3 2 1 1 2 2 2 1 1 0 0 0 0 0 0 0 1 2 3 3 3 3 2 2 3 3 3 3 3 2 2 1 1 1 1 2 3 3 3 3 2 2 1 1 0 0 0 0 0 0 0 0 0 1 2 2 3 3 2 2 2 2 2 2 2 2 2 1 1 1 1 1 1 2 2 1 1 0 0 1 1 2 2 2 2 2 2 3 3 2 2 2 3 4 5 6 9 15 15 18 21 38 90 151 186 186 146 97 64 44 35 34 34 33 30 26 25 35 59 89 128 165 186 176 137 91 46 29 18 12 6 6 4 5 4 4 4 6 5 5 4 4 3 2 0 
0 2 2 5 4 4 5 3 3 2 1 1 1 2 3 4 4 3 3 2 2 3 3 3 3 3 2 2 2 2 1 2 1 2 2 1 1 1 1 1 1 1 1 1 1 1 2 2 2 2 2 2 1 0 1 1 1 0 0 0 0 0 0 1 3 4 4 3 3 3 3 3 3 2 1 1 1 1 1 1 0 0 0 0 0 1 2 3 2 2 1 2 3 3 2 2 2 3 3 3 4 4 3 3 2 1 1 1 0 1 1 1 2 2 2 2 2 2 2 3 4 5 6 7 6 5 4 4 4 3 3 4 5 6 6 6 7 7 6 4 2 4 3 4 3 4 3 4 4 4 3 3 3 4 4 4 4 4 3 3 2 1 0 1 1 1 1 1 1 0 0 1 2 2 2 2 1 2 2 2 2 2 2 1 1 1 2 1 1 2 1 1 0 1 0 1 1 1 0 0 1 1 2 2 2 2 2 3 3 4 3 3 3 3 3 3 3 4 4 4 4 4 4 3 2 1 1 1 1 0 0 0 0 0 1 1 2 3 3 3 2 2 3 3 2 2 3 3 3 2 1 2 2 3 2 1 1 1 2 2 3 3 3 4 4 3 3 3 3 2 1 1 1 1 1 1 1 1 1 2 3 3 2 2 2 2 2 2 2 2 3 3 3 2 2 2 2 2 2 2 2 1 1 1 1 1 1 1 2 2 1 1 1 1 1 1 1 1 1 1 2 3 4 4 3 3 2 2 2 2 3 2 3 2 2 2 2 1 1 1 1 1 1 1 1 1 2 2 2 3 2 3 3 4 4 4 4 4 4 4 3 2 2 1 2 2 2 1 1 1 1 2 2 2 1 1 0 0 0 0 0 0 1 2 2 3 3 3 3 3 3 4 3 3 3 2 2 2 1 1 1 2 2 2 2 2 2 2 1 1 0 0 0 0 0 0 0 0 1 1 1 1 2 2 3 2 2 2 2 2 2 2 2 2 1 1 1 1 1 1 2 2 1 1 1 1 1 1 1 1 1 1 1 1 1 1 1 2 2 3 4 4 5 8 13 17 25 32 75 136 182 182 134 73 42 39 35 29 25 21 19 21 22 23 25 32 44 66 103 150 185 178 137 86 43 26 19 8 8 5 6 6 7 6 5 4 3 3 3 2 1 0 
0 3 3 6 5 4 5 2 3 2 2 1 1 2 3 3 3 3 2 2 2 2 2 3 3 3 2 2 2 2 1 1 1 2 2 2 2 1 1 1 1 1 1 1 1 1 1 1 1 2 2 2 2 1 1 1 1 0 0 0 0 0 1 2 3 3 3 3 2 2 2 2 2 1 1 1 1 1 1 1 0 0 0 0 0 1 2 3 2 1 1 2 3 3 3 3 3 3 4 4 4 4 4 4 3 2 1 1 1 2 2 2 3 3 3 3 2 2 2 2 3 4 6 6 6 5 4 4 4 4 4 4 6 7 7 7 8 7 6 4 3 4 3 4 4 4 5 5 5 4 2 2 3 4 4 4 4 4 3 2 2 1 1 1 1 1 1 1 1 0 1 1 2 2 1 1 1 2 2 2 2 2 2 2 2 1 1 1 1 1 1 1 0 1 0 1 2 1 1 0 0 1 1 1 2 2 2 2 2 3 4 4 4 3 3 3 3 3 3 3 3 4 3 3 2 1 1 1 1 0 0 0 0 0 0 1 2 2 2 2 2 2 3 3 2 2 3 3 3 2 2 2 2 3 2 2 2 2 3 3 3 3 3 4 4 3 3 3 2 2 1 1 1 1 1 1 1 1 1 1 2 2 2 2 3 3 3 3 2 2 2 2 3 2 2 2 3 3 3 3 3 3 2 1 1 1 1 1 2 2 1 1 1 1 1 1 1 1 1 2 2 3 3 3 3 3 2 2 2 2 3 2 3 2 2 2 2 1 2 1 1 1 1 0 1 2 2 2 2 2 2 2 3 4 4 4 4 4 4 4 4 3 2 2 2 3 3 2 1 0 1 2 2 2 1 1 0 0 0 0 0 0 1 2 3 3 3 3 3 3 3 3 3 3 4 4 4 3 2 2 2 2 2 2 2 2 1 1 0 0 0 0 0 0 0 0 0 0 0 1 1 1 1 1 1 1 1 1 1 0 1 2 2 1 1 1 1 1 1 1 2 2 2 2 2 2 2 2 2 1 1 1 1 0 0 0 1 1 1 2 2 3 5 11 18 22 24 51 116 171 184 137 76 36 30 29 22 17 15 15 17 18 18 19 21 26 30 38 56 95 147 182 172 127 79 40 28 16 7 5 6 6 6 5 6 5 5 4 3 3 1 0 
0 3 4 6 5 4 5 2 3 1 1 1 1 1 2 2 3 3 3 3 3 3 3 3 3 3 2 2 2 1 1 1 1 2 2 2 1 1 1 2 2 1 1 1 1 0 1 1 2 2 2 2 2 1 1 1 1 0 0 0 0 0 1 2 3 3 3 3 3 3 4 3 3 1 1 1 1 1 1 0 0 0 1 1 1 1 2 3 2 1 1 2 3 4 4 4 4 4 4 4 4 4 4 4 3 2 2 2 2 3 2 2 2 2 3 3 3 3 2 3 3 3 4 4 4 4 4 4 4 3 4 4 7 8 8 9 9 8 6 4 3 4 4 5 5 4 5 4 5 4 3 3 3 3 3 4 4 3 3 2 2 1 1 1 1 1 1 1 1 1 2 3 3 3 2 2 2 3 3 3 2 2 2 2 2 2 1 1 2 1 1 1 0 1 1 2 2 2 1 1 1 1 1 2 2 2 2 1 2 3 4 4 4 3 3 2 2 2 2 3 3 4 3 3 1 0 0 1 1 0 0 0 0 0 0 1 1 1 1 1 1 2 3 2 2 2 2 3 2 1 1 2 2 3 3 2 2 3 4 3 3 3 3 4 5 4 3 3 3 3 3 2 1 1 1 1 1 0 1 2 2 2 2 2 2 3 4 3 2 1 1 2 2 2 2 2 3 3 4 3 3 3 3 2 1 1 1 1 2 2 1 1 1 1 1 2 2 2 2 2 2 2 2 3 3 3 3 3 2 2 2 2 3 2 3 1 2 1 1 1 1 1 1 1 2 2 2 2 2 2 2 2 2 3 3 3 4 4 4 3 2 2 1 2 3 3 3 2 1 1 1 2 3 3 2 2 1 1 0 0 0 0 1 2 3 3 3 3 3 3 3 4 4 4 5 6 6 5 4 3 3 3 2 2 2 2 1 0 0 0 0 0 0 0 1 1 1 2 2 2 2 1 1 1 1 1 1 1 0 0 1 1 1 2 2 2 2 1 2 1 2 2 2 2 2 2 2 2 2 1 1 0 0 0 1 1 1 2 2 2 2 2 3 12 17 23 31 87 151 183 153 84 38 25 25 21 15 12 11 13 13 13 15 17 18 20 21 25 30 51 94 149 183 161 114 59 32 24 11 8 6 7 7 7 7 6 5 4 3 3 2 0 
0 3 4 6 5 4 5 3 3 1 1 1 1 1 2 2 3 3 4 3 3 3 3 3 3 2 2 2 1 1 1 1 1 2 2 3 3 2 2 2 2 2 1 1 0 1 1 2 2 2 3 3 2 1 1 1 1 0 0 0 0 1 2 2 2 3 3 3 3 3 2 2 2 2 1 1 1 1 1 1 1 1 1 1 1 1 2 2 2 1 1 2 3 3 3 4 4 5 5 5 4 5 4 5 4 3 2 2 2 3 2 3 3 3 3 3 3 3 2 3 3 5 5 5 5 4 4 4 4 3 3 3 5 7 8 9 10 9 7 5 4 5 5 6 5 5 5 6 6 4 3 2 2 3 3 3 3 3 3 2 2 2 1 2 1 1 1 1 1 2 3 3 3 2 2 2 2 3 2 2 2 2 2 3 3 3 3 2 2 2 1 1 2 2 2 2 2 2 2 2 1 1 1 2 3 3 3 2 3 3 4 3 3 3 2 2 2 2 2 3 3 3 3 2 1 1 1 1 1 1 0 0 0 0 0 1 2 2 2 2 2 3 2 2 2 2 2 3 3 2 2 2 3 4 5 4 4 4 3 3 3 3 4 4 4 3 2 2 2 2 3 2 1 1 1 1 1 0 1 1 2 2 3 3 3 3 3 3 3 2 1 2 2 2 2 2 3 3 3 3 3 3 2 2 1 1 2 2 2 2 1 2 1 2 1 2 2 2 2 2 1 1 2 3 3 3 3 3 2 3 2 2 3 2 2 1 1 1 1 1 1 1 1 2 2 2 2 2 2 2 2 2 3 3 4 4 4 4 4 4 3 3 2 3 3 3 3 3 2 1 1 1 2 3 2 2 1 1 1 1 1 0 1 2 2 3 2 2 1 2 2 3 4 4 6 6 7 6 5 4 4 3 3 3 2 2 1 1 1 1 1 1 1 1 1 1 1 2 2 2 2 1 1 1 2 1 1 0 0 0 1 1 2 3 3 3 3 2 3 2 3 3 3 3 2 2 2 2 2 2 1 1 1 1 1 2 2 3 3 3 3 3 4 12 19 24 48 115 172 168 111 49 26 28 22 16 14 10 10 11 12 11 12 13 15 17 17 20 25 32 55 105 165 180 142 87 37 25 15 9 7 7 7 6 6 6 5 4 3 3 2 0 
0 3 4 6 5 4 4 3 3 1 1 1 1 1 1 2 3 3 4 4 3 3 2 2 2 2 2 3 3 3 2 2 2 2 3 3 3 3 3 3 2 2 1 1 1 1 2 2 2 2 1 1 1 0 1 1 1 1 0 1 1 1 2 2 2 2 2 2 2 3 4 4 4 3 2 1 1 1 1 2 1 2 2 2 2 2 2 2 2 2 1 2 3 3 3 4 5 5 5 4 4 3 3 3 3 2 2 1 1 2 2 2 2 2 3 2 3 3 3 4 6 6 6 5 4 3 4 4 3 2 1 2 4 6 7 8 7 7 5 4 4 4 5 5 5 4 3 3 3 2 2 2 2 2 2 2 2 2 2 2 2 2 2 2 2 2 2 2 2 2 3 4 3 2 2 3 3 3 3 3 2 2 3 4 4 5 5 4 4 4 3 3 2 2 2 2 2 3 3 3 2 2 2 3 4 4 3 3 4 4 5 3 3 3 2 2 1 2 2 2 2 2 2 2 2 1 1 2 2 1 0 0 0 0 0 1 2 2 2 2 2 2 2 2 2 2 2 3 3 2 2 2 3 4 4 4 3 3 3 2 2 2 4 4 5 5 4 3 3 3 3 3 2 1 1 1 1 1 1 1 1 2 2 3 3 3 4 4 3 2 1 2 2 2 3 2 3 3 3 3 3 3 3 3 3 3 3 3 3 3 2 2 1 2 1 2 2 2 2 2 1 1 1 2 2 2 2 3 2 3 2 2 2 2 2 2 2 2 1 1 1 2 3 3 2 1 1 2 2 3 3 3 4 4 4 4 3 3 3 3 2 2 3 3 3 3 3 2 2 1 1 2 3 4 3 2 1 1 1 1 1 1 1 2 1 3 2 2 2 2 3 3 4 4 5 6 6 6 5 4 3 3 2 2 2 1 1 1 1 1 1 1 1 2 1 2 3 5 6 6 4 3 2 2 2 2 1 1 0 1 1 1 2 3 4 5 4 5 5 5 6 5 5 4 3 2 2 2 2 1 1 0 1 1 2 2 3 3 3 3 3 3 4 10 19 20 75 138 179 143 75 30 22 25 17 15 15 9 10 9 10 9 8 8 11 13 15 18 24 29 39 73 136 179 160 101 44 22 18 10 6 6 6 5 5 5 4 3 3 3 2 0 
0 2 3 4 3 3 3 3 3 3 2 2 2 2 2 2 3 3 4 3 2 2 1 1 1 1 3 3 3 3 3 2 3 3 4 3 3 3 3 2 2 2 2 1 1 2 2 2 2 1 1 1 1 0 0 1 1 1 1 1 1 2 2 2 1 1 1 1 2 2 2 3 3 3 2 1 1 1 1 2 2 3 3 3 2 2 1 1 1 1 1 2 2 2 2 2 3 4 5 5 5 4 4 3 2 1 1 0 1 1 2 2 2 2 2 2 2 2 3 5 6 6 6 5 5 4 4 3 2 1 0 1 2 3 4 5 5 6 5 5 4 4 5 5 4 2 2 2 2 1 1 1 2 2 1 1 1 1 1 2 2 3 2 2 2 2 2 2 2 2 2 2 2 1 2 3 4 4 3 3 3 3 4 4 5 6 6 6 5 5 4 4 3 2 2 2 2 2 3 3 2 2 1 2 4 4 4 3 4 4 4 2 2 2 2 1 1 2 2 2 2 1 2 1 1 1 2 2 2 2 1 1 1 0 0 1 2 2 2 2 2 3 3 3 3 3 2 3 3 3 3 4 5 7 7 6 5 3 2 1 1 2 3 4 5 5 4 4 3 3 3 2 1 1 0 1 1 1 1 1 1 2 2 3 3 3 3 3 3 2 1 1 1 2 2 3 3 3 4 4 4 4 4 4 5 5 5 4 3 3 2 2 1 1 1 2 1 2 2 2 2 2 2 2 2 2 2 2 2 2 2 2 2 2 2 1 2 2 2 1 2 2 2 2 1 1 1 2 2 3 3 3 4 4 4 4 3 3 3 3 3 3 2 3 3 4 3 3 2 2 2 3 3 3 2 2 1 1 1 1 1 1 1 1 1 1 1 2 2 3 3 3 3 3 3 4 3 4 3 3 3 2 2 2 2 2 2 1 1 1 0 1 1 1 1 2 3 5 6 6 5 4 3 3 2 2 1 1 0 1 1 2 2 3 4 5 5 5 6 6 7 7 5 4 3 2 2 3 2 2 1 1 1 2 2 2 3 3 3 4 3 4 5 8 17 25 101 153 175 121 52 25 24 22 16 14 15 11 10 7 6 5 5 5 7 9 11 15 20 23 29 52 107 165 172 119 61 20 18 11 7 5 5 4 3 3 3 3 3 4 2 0 
0 1 2 3 3 4 3 4 4 4 4 3 3 2 2 2 2 2 2 2 2 1 1 1 1 2 3 5 6 6 4 3 4 3 4 3 3 4 3 3 2 2 2 2 2 2 2 2 1 0 0 0 0 0 0 0 1 1 1 1 1 2 2 2 1 0 0 1 1 2 3 3 3 3 2 1 1 1 1 2 2 3 3 3 2 1 1 1 1 1 1 2 2 2 2 2 3 4 5 5 6 5 4 3 2 1 1 1 1 1 1 2 1 1 1 1 2 3 3 5 6 6 6 5 5 4 4 3 2 1 0 1 2 2 2 2 1 2 3 3 3 3 3 3 2 1 0 0 0 0 0 1 1 1 1 1 1 1 1 2 3 3 2 2 2 2 2 3 3 3 2 2 2 2 3 5 5 4 3 2 3 2 2 3 4 4 5 5 5 5 5 4 3 2 1 1 1 2 3 3 3 2 1 2 3 4 4 3 3 3 3 2 2 1 1 1 1 1 1 1 0 0 1 1 2 2 3 3 3 3 2 2 2 2 2 2 2 3 3 3 4 3 4 3 4 3 3 3 3 2 3 3 4 5 5 5 4 3 1 1 1 1 2 3 4 5 5 5 4 3 2 1 0 0 0 0 1 1 1 1 1 1 2 2 2 2 2 2 2 2 1 2 2 3 2 3 3 4 5 5 5 4 4 4 6 7 7 6 4 4 3 2 2 1 1 1 1 1 2 2 2 2 2 2 1 1 0 1 2 3 3 3 2 2 2 2 2 2 2 2 1 1 1 1 1 0 0 1 2 2 3 3 3 3 3 3 3 2 2 2 2 2 2 3 3 3 4 3 2 3 3 4 3 3 2 1 0 0 0 0 1 1 2 2 1 1 1 2 2 2 2 3 3 4 3 3 2 2 2 2 2 2 3 2 3 3 3 2 1 0 0 0 1 1 2 2 4 6 8 9 8 6 4 3 2 2 1 1 1 1 1 1 2 3 4 6 8 7 8 9 11 10 9 7 4 2 2 3 3 2 1 0 1 1 2 2 2 2 2 2 2 4 6 9 13 35 115 163 166 101 39 25 24 19 15 14 14 11 9 10 10 8 7 5 6 8 10 14 17 19 25 39 83 148 174 137 75 22 19 12 7 5 5 4 2 2 2 3 3 4 2 0 
0 1 1 1 2 3 3 4 4 4 4 4 3 3 3 3 2 2 1 1 1 1 1 1 2 3 4 5 5 5 5 4 3 3 3 2 3 3 3 2 2 2 2 2 2 2 1 1 0 0 0 0 0 0 0 0 0 0 0 0 1 1 1 1 1 0 1 1 1 1 2 2 2 2 2 1 1 1 2 3 3 4 4 4 3 3 2 2 1 1 2 2 2 2 2 2 2 2 3 3 4 4 4 3 2 2 1 1 1 1 1 1 1 1 1 1 2 2 3 4 4 5 6 6 5 4 3 3 2 1 1 1 2 2 2 2 2 3 4 3 3 3 3 3 1 1 0 0 0 0 0 0 1 1 1 1 0 0 1 2 3 3 2 2 2 1 2 3 3 3 3 2 3 4 5 5 5 4 4 4 4 4 5 4 4 3 3 4 4 4 4 3 2 1 1 1 0 1 2 3 3 3 2 1 2 3 4 4 3 2 2 1 1 1 1 0 1 1 1 1 0 0 1 1 1 2 2 3 3 3 3 3 2 2 3 3 3 3 3 3 4 3 4 4 4 3 3 3 3 2 2 3 4 5 6 5 5 4 3 2 1 1 1 2 3 4 4 3 3 2 1 0 0 0 0 0 0 1 1 1 1 1 1 1 1 1 1 1 1 1 1 3 3 3 3 2 3 4 5 5 4 3 3 4 6 7 7 6 5 4 4 3 3 1 2 1 1 1 2 2 2 2 3 2 2 1 0 0 1 2 2 3 2 2 1 2 2 2 2 1 1 1 1 1 1 1 0 0 1 1 2 2 1 2 2 2 3 3 2 2 1 2 2 2 3 3 3 3 2 3 3 3 3 2 1 0 0 0 0 0 1 1 1 1 1 1 1 2 2 2 2 3 3 3 3 2 2 1 2 2 3 3 3 3 3 4 4 3 1 0 0 0 0 1 1 2 4 6 8 8 8 6 4 3 2 3 2 2 1 1 2 2 3 4 6 8 8 7 9 9 13 11 9 6 4 4 3 4 3 2 1 1 1 1 2 3 2 2 2 2 4 5 7 9 10 44 122 169 157 88 33 24 22 17 16 15 16 13 10 9 9 8 8 6 4 5 7 12 13 16 25 31 64 132 172 153 92 29 20 14 7 6 5 5 3 3 2 3 2 3 2 0 
0 1 2 2 3 4 4 5 5 5 4 4 3 3 3 2 1 1 1 0 1 1 1 2 3 3 4 5 5 6 5 4 3 2 2 2 3 4 4 3 2 1 1 1 1 1 0 0 0 0 0 0 0 0 0 0 0 0 0 0 0 0 0 0 1 0 1 1 2 2 2 2 2 1 2 1 2 2 2 3 4 4 4 5 4 3 2 2 2 1 1 1 2 2 2 2 2 3 3 4 4 5 5 4 2 2 1 1 0 0 0 1 1 1 1 1 2 2 2 2 4 5 6 6 4 3 3 3 3 3 2 1 1 1 1 1 1 2 2 3 3 3 2 3 1 1 0 0 0 0 0 0 1 1 1 2 1 1 1 2 2 2 1 1 2 2 2 3 4 4 4 4 4 5 5 5 5 4 3 3 3 3 3 3 3 2 2 3 3 3 3 2 2 2 1 0 0 0 1 2 3 2 2 1 1 2 3 4 4 3 2 1 1 1 1 1 1 2 2 2 1 1 1 1 1 2 3 3 4 3 4 3 3 3 4 4 3 3 3 3 4 4 4 3 3 3 3 3 2 2 1 2 2 2 3 4 4 4 3 3 2 1 1 1 1 2 1 2 2 1 1 0 0 0 0 0 0 0 1 1 2 1 1 0 0 0 0 0 0 1 2 3 3 3 3 2 4 4 5 4 3 2 2 3 6 7 8 6 5 4 5 4 4 3 3 2 1 1 2 2 2 2 2 2 2 1 0 0 1 2 2 3 2 2 1 1 2 2 1 1 0 0 0 0 0 0 1 1 1 2 2 2 1 1 0 1 2 3 2 2 1 2 2 2 2 3 3 3 3 3 3 3 2 2 1 1 0 0 1 1 1 1 1 1 1 1 1 1 1 1 1 2 3 3 3 2 2 1 2 3 3 4 4 5 5 6 5 4 2 0 0 0 0 0 1 2 3 5 6 6 6 6 5 5 4 3 2 1 1 1 1 1 3 4 7 8 8 8 10 11 13 11 10 9 6 5 4 4 3 2 1 1 1 1 2 3 2 2 2 2 3 6 6 8 7 45 125 169 152 82 29 23 21 16 16 15 15 13 11 10 10 10 10 6 6 7 9 13 14 16 27 29 52 120 170 163 105 36 22 16 8 7 6 6 3 3 2 3 2 2 1 0 
0 2 4 3 4 4 5 4 4 4 3 3 2 2 2 2 2 1 0 0 1 1 2 2 3 3 4 4 5 6 5 4 3 2 2 2 3 4 5 4 2 1 1 1 1 1 0 0 0 0 0 0 0 0 0 0 0 0 0 0 0 0 0 0 0 0 0 1 1 1 1 1 1 1 2 2 2 2 3 4 4 4 4 5 5 4 3 2 2 2 2 1 2 2 1 2 2 2 2 2 2 3 3 3 3 1 0 0 0 0 0 1 1 1 1 1 2 2 2 2 3 5 6 5 3 3 2 3 3 3 2 1 1 1 1 2 2 2 3 3 2 3 2 2 1 1 0 0 0 0 0 0 0 1 2 2 1 2 2 2 1 1 1 2 2 2 2 3 4 4 4 5 5 6 5 4 4 4 4 5 5 6 6 6 4 3 3 4 4 3 2 2 2 2 1 0 0 0 1 1 2 2 1 0 0 1 2 4 4 3 3 1 2 2 3 2 2 3 3 3 2 2 2 1 1 2 3 4 4 4 5 5 4 3 4 3 3 2 2 3 3 3 3 3 3 3 3 3 2 1 1 1 2 2 3 3 3 3 3 3 2 2 1 1 1 1 1 1 1 1 1 0 0 0 0 0 0 0 0 1 1 1 1 0 0 0 0 0 0 2 2 3 3 3 3 2 4 4 5 4 3 2 2 2 5 6 7 6 4 4 4 3 4 3 3 2 1 1 1 2 2 2 2 2 1 1 1 1 1 2 2 3 2 2 2 1 2 1 1 1 0 1 1 1 1 1 1 1 1 2 1 2 1 1 0 1 2 3 2 2 1 2 2 3 3 3 3 3 3 3 3 2 2 2 2 1 1 1 1 1 1 0 0 1 1 2 1 2 2 2 2 2 2 2 2 2 2 2 2 3 3 4 4 4 4 5 4 3 2 0 0 0 0 0 0 1 2 4 5 6 6 5 4 5 5 4 3 1 1 1 1 1 3 4 10 15 17 16 13 10 10 9 8 6 5 5 5 4 4 2 2 1 1 2 2 2 2 2 2 3 4 6 6 6 8 43 127 167 151 82 26 23 23 15 15 11 12 11 9 7 7 7 8 6 5 6 8 11 13 18 30 31 49 116 172 167 113 41 26 18 10 7 6 6 3 4 2 2 2 2 1 0 
0 3 5 3 4 4 4 4 4 4 3 3 2 2 2 2 2 1 1 0 1 1 1 2 3 3 4 4 5 5 5 4 3 2 2 2 2 3 3 3 2 1 1 1 1 0 0 0 0 1 1 1 1 1 0 0 0 0 0 0 0 0 0 0 0 0 0 0 1 1 2 2 1 1 2 2 2 2 3 4 4 4 5 6 6 4 2 2 2 2 2 1 2 2 2 2 2 3 2 3 3 4 3 3 2 2 1 0 0 0 0 1 1 1 1 2 2 2 2 2 3 5 5 3 2 3 3 5 4 4 2 1 1 1 1 2 2 2 2 3 2 2 2 2 1 0 0 0 0 0 0 0 1 2 2 2 2 2 2 2 1 1 1 2 2 3 3 4 5 5 5 6 5 5 3 3 4 5 5 6 6 6 6 6 5 4 4 4 4 3 2 1 2 2 1 0 0 0 1 1 2 2 1 1 0 1 2 4 6 5 4 2 3 2 3 2 3 3 3 3 3 2 2 2 2 3 3 4 4 5 4 5 4 3 3 3 3 2 2 2 3 3 3 3 3 3 2 2 2 2 2 3 3 2 2 3 3 3 2 2 2 3 3 2 3 2 2 1 1 1 1 0 0 0 0 0 0 0 0 0 1 1 0 0 0 0 0 0 1 2 2 3 3 3 3 2 3 4 5 5 4 3 2 3 5 6 6 5 3 3 3 3 4 3 3 2 1 0 0 1 1 2 2 1 1 1 1 1 1 1 2 2 2 2 2 2 3 2 2 1 1 1 1 1 1 1 1 2 2 2 2 3 1 1 0 1 2 3 2 2 1 2 3 3 3 4 3 3 3 3 2 2 2 2 2 1 1 1 1 1 0 0 0 1 1 2 2 2 2 2 2 2 1 2 2 2 2 2 2 2 2 3 4 4 5 4 4 3 2 0 0 0 0 0 1 1 2 2 2 2 3 3 5 5 6 5 3 2 1 1 1 2 6 12 18 20 19 20 21 22 18 16 14 12 11 9 7 4 3 2 2 2 2 2 2 2 2 1 1 2 3 4 4 5 9 38 121 164 156 90 30 22 23 16 13 9 10 10 8 6 5 5 6 5 5 6 9 12 16 22 30 33 51 120 176 166 112 40 28 19 9 7 5 6 3 4 3 2 2 1 1 0 
0 4 7 5 5 4 4 4 3 2 1 1 1 1 2 2 2 2 2 1 2 2 2 2 2 3 4 4 4 4 4 3 3 3 3 2 3 3 4 4 2 1 1 1 1 1 0 1 1 1 1 1 1 1 1 1 1 1 1 1 1 1 1 1 0 0 0 0 0 1 1 1 1 1 2 2 2 2 3 4 4 4 6 6 5 4 2 2 2 2 2 2 2 2 2 2 2 3 3 3 3 3 3 3 2 2 1 1 1 1 1 1 1 1 1 1 2 2 2 2 3 4 4 3 3 4 4 5 4 3 2 1 1 1 2 2 2 2 2 3 2 3 2 2 1 0 0 0 0 0 1 1 2 2 2 2 2 2 3 2 2 2 1 1 2 2 4 5 5 5 5 5 5 4 2 3 3 4 4 5 5 7 6 5 4 3 4 4 4 3 2 1 2 2 1 0 0 0 1 1 2 2 2 1 1 1 2 4 5 4 4 2 3 3 3 2 2 2 2 2 2 1 1 1 2 3 5 5 4 4 5 6 4 3 3 2 2 2 2 2 3 3 4 3 3 3 2 2 2 2 3 3 2 2 2 3 3 3 3 3 2 3 4 4 4 3 3 2 2 2 1 0 0 0 0 0 0 0 0 0 0 0 0 0 0 0 0 0 1 2 2 3 3 2 3 2 3 4 4 5 4 4 3 3 4 6 6 5 3 2 2 1 2 2 2 2 1 0 0 1 1 2 2 1 1 1 2 2 2 3 3 4 4 4 3 2 2 2 2 2 2 2 1 1 1 1 1 2 2 2 2 2 1 1 0 1 2 2 2 2 2 2 4 4 4 3 3 3 2 2 2 2 1 2 1 1 1 0 0 0 0 0 0 0 1 1 1 2 2 2 2 1 1 2 2 2 2 2 2 2 2 3 4 4 4 3 3 3 2 1 0 0 0 0 1 1 2 2 3 3 3 2 2 3 4 4 3 2 1 1 2 5 14 23 34 40 44 38 30 25 22 24 23 17 11 7 6 6 5 4 3 2 2 2 2 2 1 1 1 2 3 3 3 4 9 32 106 160 164 105 41 23 22 17 11 7 6 6 6 6 7 6 5 4 4 6 11 15 21 26 30 32 56 130 181 161 104 34 27 19 10 8 6 6 3 3 2 2 2 1 1 0 
0 4 5 3 3 3 3 3 2 1 1 1 2 3 2 2 2 3 2 2 2 3 2 2 2 3 3 3 3 3 2 2 2 3 2 1 1 1 2 2 2 2 1 2 2 2 2 2 2 2 1 1 1 1 1 1 2 1 1 1 1 2 1 1 1 1 0 0 1 1 1 2 2 2 3 3 2 3 3 4 4 4 5 5 4 3 1 2 2 2 3 3 4 3 3 2 3 3 4 4 4 3 2 2 2 2 1 1 1 1 1 1 1 1 1 1 1 2 1 2 2 4 4 4 3 4 4 5 4 3 2 2 2 2 2 1 2 2 2 1 1 1 1 1 1 0 0 0 1 1 1 2 2 3 3 3 2 2 3 3 3 2 1 1 2 3 4 5 5 5 5 5 4 3 2 3 3 4 3 5 6 8 8 7 4 3 3 4 4 3 2 2 2 2 1 1 0 1 1 2 2 2 2 2 2 2 3 5 6 6 5 3 4 3 4 3 2 2 2 2 2 2 1 2 3 3 4 4 4 4 4 4 3 3 2 2 2 2 3 3 4 3 5 4 3 3 2 2 2 2 3 4 3 3 2 3 3 3 3 3 4 3 4 4 4 4 4 2 2 2 1 1 0 0 0 0 0 0 1 1 1 0 0 0 0 0 0 0 1 2 2 2 2 2 3 2 3 4 5 5 5 4 3 4 5 7 6 5 3 2 1 1 1 1 1 1 1 1 0 1 1 2 2 1 0 0 1 1 2 2 2 3 3 4 4 4 4 4 3 2 2 2 1 1 0 1 1 2 1 2 1 2 1 1 1 1 1 2 2 3 3 3 5 4 4 3 2 2 2 2 1 1 1 1 1 0 0 0 0 0 0 0 0 0 1 1 2 2 2 2 2 1 1 2 2 2 2 1 1 2 2 3 4 4 3 3 2 2 2 1 1 0 1 1 1 2 3 3 2 1 1 2 3 5 5 5 4 3 2 2 1 9 20 29 39 40 49 52 54 56 54 46 32 21 15 12 9 6 4 3 3 2 2 2 2 2 2 1 1 1 2 2 1 3 7 22 80 148 171 127 58 24 21 20 10 8 6 6 5 5 7 8 8 7 6 9 13 15 20 24 25 30 67 147 188 153 89 27 25 17 8 7 5 5 3 4 3 2 1 1 0 0 
0 4 6 5 4 4 4 4 3 1 1 2 3 3 3 3 2 2 2 2 2 3 3 3 2 2 3 3 2 1 1 2 2 3 2 2 2 2 2 2 1 1 1 1 2 2 2 2 2 1 1 1 1 1 1 2 2 2 3 3 3 3 3 3 1 1 1 1 1 1 1 1 2 3 3 3 2 3 4 5 4 4 4 3 3 2 2 2 2 2 4 3 4 3 2 2 2 3 4 5 5 4 2 1 1 1 1 1 0 1 1 1 1 1 1 1 1 1 1 2 2 3 4 5 5 5 4 4 3 2 2 2 2 2 2 1 2 2 2 1 1 1 1 1 1 1 0 0 1 1 1 1 2 3 3 3 3 3 3 2 3 2 2 2 2 4 4 4 4 3 4 4 4 3 3 2 2 3 3 4 4 4 5 4 3 2 2 3 4 3 3 2 2 2 2 1 1 1 2 2 3 3 3 3 2 2 3 4 5 5 5 4 4 5 5 4 2 1 1 2 2 1 1 1 2 3 4 3 3 3 3 4 3 3 2 2 2 3 3 3 3 3 4 4 4 3 2 2 2 2 3 3 2 3 2 3 3 3 3 3 4 4 5 4 4 3 3 3 3 2 1 1 1 1 1 1 1 2 2 2 1 1 0 0 0 0 0 1 2 2 2 2 3 3 4 4 4 5 6 6 5 5 5 6 6 7 6 4 2 1 1 0 0 0 1 1 1 1 1 1 2 2 2 1 1 1 1 1 2 2 3 3 3 3 4 4 4 3 3 2 2 2 1 1 0 1 1 2 1 1 1 2 1 1 1 1 1 2 2 3 3 4 5 5 5 4 3 2 1 2 1 1 1 1 0 0 0 0 0 0 0 0 0 0 1 1 2 1 1 1 1 1 1 2 3 3 2 2 2 2 2 3 3 2 2 2 2 2 2 1 1 0 1 1 1 2 3 3 3 3 2 2 2 3 3 4 4 3 2 2 1 11 23 33 46 43 47 48 52 59 70 77 69 49 25 13 9 10 9 8 6 4 3 2 3 2 2 2 1 1 1 1 1 3 6 12 53 128 169 150 89 35 22 20 11 12 11 8 6 5 7 8 8 8 11 16 18 21 25 27 25 37 91 167 189 142 73 24 22 15 8 7 6 5 3 2 2 1 1 1 0 0 
0 3 4 3 2 3 3 3 3 2 3 3 4 4 3 3 2 3 3 2 3 4 4 4 3 2 2 2 2 2 2 2 2 2 2 1 1 1 1 1 1 2 2 2 2 3 2 2 2 1 2 2 2 1 1 1 3 3 3 3 3 3 3 3 2 2 1 1 1 1 1 1 2 3 4 4 3 4 5 5 4 3 3 2 2 2 2 2 3 3 4 4 5 4 3 2 2 3 4 4 4 3 2 1 1 1 1 0 0 0 1 2 2 1 1 0 0 1 1 1 2 3 4 5 5 5 4 4 3 2 2 2 2 2 2 2 2 1 1 0 0 0 0 1 1 1 1 2 2 2 1 1 2 3 3 3 2 2 2 2 3 3 3 3 3 4 4 3 2 2 3 4 4 3 3 3 3 4 5 5 6 6 7 6 4 2 2 3 3 2 2 2 2 2 2 1 1 1 2 3 3 3 3 4 4 3 3 4 5 6 6 5 4 5 5 5 3 2 1 2 2 1 1 2 3 4 4 5 4 4 3 3 3 3 2 2 2 3 3 3 3 4 4 4 4 4 2 2 1 1 2 2 3 3 2 3 3 3 3 4 5 6 5 4 3 2 3 3 3 2 1 1 1 2 2 2 2 2 3 3 2 2 1 0 0 0 0 1 2 2 2 2 2 3 4 4 5 6 7 7 6 6 6 7 7 7 5 3 1 1 1 0 0 0 0 1 2 1 1 1 2 2 2 1 1 1 1 1 1 2 2 2 2 3 3 4 4 4 3 2 1 1 1 1 1 1 2 1 1 1 0 1 1 1 1 1 1 1 1 2 3 3 4 4 5 4 3 3 1 2 1 1 1 0 0 0 0 0 0 0 0 0 0 0 2 1 2 1 1 1 1 1 1 2 3 3 3 3 2 3 4 4 3 2 2 2 2 2 1 1 1 0 1 0 2 2 3 3 3 3 3 3 3 4 4 4 4 4 3 2 1 9 21 29 37 42 55 63 72 80 83 77 63 45 28 15 8 6 5 4 3 3 2 2 2 2 2 2 1 1 1 1 1 3 6 9 30 99 156 165 124 57 28 21 17 17 14 10 9 8 10 9 10 10 12 17 20 22 25 25 28 58 126 185 177 121 52 24 19 11 6 5 5 4 3 3 3 2 1 1 0 0 
0 2 4 3 3 4 4 4 4 2 4 3 4 4 3 4 3 3 3 3 3 4 4 3 2 1 2 1 2 2 2 3 3 2 2 1 1 1 1 1 1 1 1 2 2 2 2 2 2 2 3 3 3 2 2 2 3 3 4 4 3 4 3 4 2 2 1 1 0 0 0 1 2 3 4 4 3 4 5 6 6 4 3 2 2 3 3 3 3 3 4 4 5 4 3 2 2 2 3 4 4 3 2 2 1 2 1 0 0 0 1 2 2 1 0 0 0 0 1 1 2 2 4 5 5 5 4 3 2 1 1 2 2 3 2 2 2 2 1 0 0 0 0 1 1 1 2 2 2 2 2 2 2 2 2 2 2 1 2 3 4 4 4 3 3 3 3 3 1 2 3 5 4 4 2 3 3 4 5 6 5 5 5 5 4 2 2 2 2 2 2 3 2 2 1 1 1 1 2 3 3 4 4 4 4 4 4 5 6 6 6 6 5 6 6 5 3 1 1 1 2 1 1 2 3 4 5 5 5 5 4 3 3 2 2 2 2 2 2 3 2 3 3 3 3 4 2 2 1 1 2 2 2 3 2 3 3 3 4 4 6 7 7 6 4 2 3 3 3 2 1 2 2 2 2 2 2 3 3 3 2 2 1 0 0 0 0 1 2 3 4 4 4 5 5 6 6 6 6 5 5 5 7 7 6 5 3 2 1 1 1 0 0 0 0 1 1 1 1 1 1 2 2 2 2 2 2 2 2 2 2 2 2 2 2 3 3 4 3 2 1 1 2 1 1 1 2 1 1 1 0 1 1 1 1 1 1 1 1 2 2 3 4 3 4 5 4 4 1 2 1 1 1 0 0 0 0 0 0 0 0 0 1 1 2 1 2 1 1 1 1 1 1 2 3 3 3 3 3 3 3 3 3 3 3 3 3 3 2 1 1 1 1 1 2 2 3 3 2 3 3 3 3 3 3 3 3 3 2 2 3 7 15 24 30 33 40 50 65 81 96 105 99 72 40 18 9 10 9 8 6 4 2 2 2 2 2 2 2 2 2 2 2 4 7 10 21 66 131 170 154 98 48 25 23 22 18 14 11 10 12 14 16 17 18 20 20 23 23 23 44 96 164 192 152 95 37 27 17 8 5 6 6 5 4 3 3 2 1 1 0 0 
0 2 2 1 1 1 1 2 3 2 4 3 4 5 4 5 4 4 3 3 3 4 4 3 2 1 1 1 2 2 2 3 2 2 2 1 1 0 0 0 1 1 1 1 2 2 2 2 2 2 2 2 2 2 2 2 3 3 4 4 4 4 3 4 2 1 0 0 0 0 0 1 2 3 4 4 4 4 5 5 4 3 2 3 3 3 3 3 3 3 3 3 4 4 3 2 1 1 2 2 2 2 1 2 1 2 1 1 0 1 2 2 2 1 0 0 0 0 0 1 1 2 3 4 5 4 4 3 2 1 1 2 2 3 3 3 2 2 1 0 0 0 0 0 1 1 1 2 2 2 2 2 2 2 2 2 2 1 2 3 4 4 4 3 3 3 2 2 1 2 3 4 4 4 3 3 3 4 6 6 5 5 4 5 3 3 2 1 1 1 1 2 2 2 2 1 1 2 2 2 3 3 3 4 3 4 4 4 4 4 4 3 3 3 3 3 1 0 0 1 1 1 1 2 3 4 5 6 6 5 4 4 3 2 2 2 2 2 2 2 3 2 2 2 2 2 2 2 1 1 1 2 2 2 2 2 3 2 5 5 6 8 7 6 4 2 3 3 3 2 1 2 2 3 3 3 3 3 2 2 2 1 1 1 0 0 0 1 1 2 3 3 4 3 3 4 4 6 7 8 8 7 7 6 4 2 2 1 1 2 1 1 0 0 0 0 1 1 1 1 1 1 2 2 3 2 2 2 1 2 2 2 2 2 2 3 2 3 2 2 2 2 2 2 2 1 1 1 1 1 1 1 1 1 1 1 1 1 1 1 2 2 2 2 3 4 4 4 1 1 1 1 1 1 0 0 0 0 0 0 0 1 1 1 1 1 1 1 1 2 2 2 2 2 3 3 4 4 3 3 3 4 5 4 4 5 4 4 3 2 1 1 1 1 2 2 3 2 2 2 2 3 3 3 2 2 2 2 1 2 3 6 12 20 28 35 43 52 57 60 61 60 56 47 32 17 8 6 5 3 2 2 1 1 1 1 1 1 2 2 2 2 3 6 11 13 21 38 97 159 172 140 72 31 27 28 28 23 16 15 16 16 16 18 21 25 26 28 25 39 86 144 187 170 113 60 29 23 11 6 6 6 6 4 4 3 2 2 1 1 0 0 
0 2 3 3 3 3 3 3 3 2 3 3 4 5 5 5 4 3 2 2 3 3 3 3 2 1 2 1 2 2 2 3 2 2 2 2 1 1 0 0 1 1 1 2 2 2 2 2 2 2 3 3 3 2 2 2 3 3 4 4 4 4 4 4 2 1 0 0 0 0 0 1 2 3 4 4 3 4 5 6 6 5 4 4 3 3 3 4 4 3 2 3 3 2 2 2 1 1 2 2 2 2 1 2 1 2 1 2 1 2 2 3 2 1 0 0 0 0 0 1 2 2 3 4 4 4 3 3 2 2 2 2 2 2 2 2 2 2 1 0 0 0 0 0 0 0 1 1 2 2 2 2 2 2 2 2 2 2 3 4 4 4 3 3 2 2 2 2 2 2 2 4 4 4 3 3 2 3 4 5 4 4 4 4 3 2 2 1 0 1 1 2 2 2 2 2 2 3 3 3 3 3 4 4 3 3 3 4 4 4 4 4 3 3 3 2 1 0 0 1 1 1 2 2 3 4 5 5 5 5 4 4 3 3 2 2 1 1 2 2 2 2 2 2 2 2 2 2 1 1 1 2 1 1 1 2 2 2 5 5 6 7 6 6 4 2 2 2 2 2 1 2 2 3 3 3 3 3 3 2 2 1 1 1 0 0 1 1 2 4 4 5 5 5 4 4 5 6 7 7 7 6 5 4 3 1 1 1 1 2 1 1 0 0 0 0 0 1 1 1 1 2 2 2 2 2 1 1 1 2 3 2 3 2 1 3 2 3 3 2 2 2 2 2 1 1 1 1 1 1 1 1 1 2 2 1 1 1 1 1 2 2 2 2 2 4 3 4 1 1 1 1 1 1 0 0 0 0 0 0 0 1 2 2 1 1 1 1 2 2 2 2 2 2 2 3 4 4 4 3 3 4 5 6 6 6 5 5 4 2 2 1 1 1 2 3 3 2 1 1 1 2 2 2 2 3 3 2 1 1 4 6 9 11 13 16 23 32 42 49 55 55 51 39 24 13 9 7 6 5 3 3 2 2 2 2 2 2 2 2 2 2 2 4 9 10 18 21 60 127 169 173 122 69 41 30 26 25 22 21 20 22 25 26 25 24 24 24 36 78 136 182 180 130 79 39 26 17 7 4 5 6 7 6 5 4 3 2 1 1 0 0 
0 1 2 2 2 2 2 2 2 2 2 4 5 5 5 4 3 3 2 2 2 2 3 3 2 1 2 1 2 2 2 2 2 2 2 2 1 1 0 0 0 1 1 2 2 2 2 2 2 2 2 2 1 1 2 2 2 3 3 3 3 3 3 4 2 1 0 0 0 0 1 1 2 3 4 4 3 4 5 6 5 4 3 3 3 4 5 5 4 3 3 2 2 1 1 1 1 1 1 2 2 2 1 2 2 2 2 2 2 3 3 3 2 1 0 0 0 0 1 1 1 2 3 4 4 3 3 3 3 2 2 2 2 2 2 2 2 2 1 1 0 0 0 0 0 0 0 0 1 2 2 2 2 2 2 2 3 3 3 3 3 3 3 3 2 3 3 3 3 2 2 3 3 4 4 4 3 3 4 4 3 3 3 4 4 3 2 1 1 1 2 3 3 3 4 3 3 3 4 4 4 5 5 4 3 2 3 2 2 2 2 2 2 2 1 1 0 0 0 0 1 2 2 2 3 4 5 4 4 3 4 4 3 2 1 1 1 1 1 2 3 2 2 1 1 2 2 2 2 1 1 2 2 2 1 1 2 2 4 5 6 6 5 5 4 2 2 2 2 2 1 2 3 4 4 4 3 2 2 2 1 1 1 1 1 1 1 1 2 3 4 5 5 5 4 3 4 7 9 10 10 9 8 5 3 1 1 1 1 2 1 1 0 0 0 0 0 1 1 1 2 2 3 3 3 2 2 2 2 2 3 2 2 2 2 3 2 3 3 3 3 2 2 2 1 1 1 1 1 1 1 1 1 1 1 1 1 1 1 1 2 2 2 3 2 4 3 3 1 1 1 1 1 1 1 0 0 0 0 0 1 1 1 2 1 1 1 1 2 2 2 2 2 2 2 2 3 3 3 3 3 5 6 6 6 6 6 5 4 2 2 1 1 1 2 2 2 2 1 1 1 2 3 3 3 3 3 2 2 1 3 5 9 10 11 10 12 12 14 14 14 16 17 16 14 11 7 5 4 3 1 1 1 1 2 2 2 2 2 2 2 2 2 3 8 11 14 16 31 82 138 173 162 124 85 58 40 34 29 27 26 26 28 28 28 32 39 52 86 140 181 184 139 82 45 28 22 11 5 6 9 8 7 4 2 2 2 2 1 1 0 0 
0 2 3 3 3 3 3 3 3 2 3 4 5 5 4 3 3 3 3 3 2 2 3 3 3 1 2 2 2 2 2 2 2 2 2 2 2 1 1 1 1 2 2 2 1 1 2 2 3 3 2 2 2 2 2 2 3 3 4 4 3 3 4 4 3 1 0 0 1 1 2 2 3 3 3 3 3 4 6 6 6 6 5 5 5 5 6 6 5 4 4 2 2 1 2 2 1 1 1 2 2 2 1 2 2 2 2 2 2 2 2 2 1 0 0 0 0 0 0 1 1 2 3 4 4 4 4 3 3 2 3 2 2 2 2 2 1 1 1 1 1 1 1 1 1 0 1 1 2 2 2 2 2 2 2 2 2 3 3 3 3 3 3 3 2 3 3 3 3 3 2 2 3 4 5 4 3 2 3 4 4 4 5 5 4 3 2 2 1 2 3 4 4 4 3 2 2 3 3 3 3 4 5 4 4 3 2 2 2 2 3 3 3 3 3 2 1 0 0 0 1 1 2 2 3 4 5 4 4 2 4 4 4 3 2 2 2 1 2 3 3 2 2 2 2 2 2 2 2 2 2 2 2 2 2 2 2 2 4 5 6 6 6 4 3 3 2 2 2 2 1 2 2 3 4 4 4 3 2 2 1 1 1 1 1 1 1 2 3 4 4 5 5 5 5 5 5 6 7 8 7 7 6 4 4 2 2 1 1 1 1 1 1 1 0 0 0 1 1 1 1 2 2 2 2 3 2 2 2 2 3 2 2 2 1 2 2 3 3 3 3 2 2 1 1 1 1 2 2 2 1 1 1 2 2 1 1 1 1 1 2 2 2 3 2 3 3 3 1 0 1 1 1 1 1 1 1 1 1 1 1 1 1 1 1 0 1 1 2 1 2 2 3 3 3 3 3 3 3 3 3 3 4 5 6 6 5 5 4 3 2 2 1 1 2 2 2 2 1 2 2 2 2 2 2 2 2 2 2 2 4 4 6 7 8 8 6 7 9 11 13 14 12 9 6 5 5 5 4 3 2 2 2 2 2 2 2 2 2 2 2 1 1 2 4 9 10 14 15 42 90 141 171 170 148 120 87 57 37 29 27 24 23 26 37 61 90 125 165 193 185 146 89 46 28 21 14 6 5 6 7 7 7 5 3 3 3 2 2 1 0 0 
0 1 2 2 2 2 2 3 3 4 5 5 6 5 4 3 3 3 3 3 3 2 3 3 3 2 3 3 4 4 3 2 2 2 1 1 1 1 1 1 1 1 1 2 2 2 3 3 3 3 3 3 2 2 2 3 4 4 5 4 3 3 3 3 3 2 1 1 2 2 3 3 2 2 2 2 3 4 6 6 5 4 3 3 3 5 6 7 7 5 5 3 3 2 2 2 2 1 2 2 2 3 2 2 2 2 2 3 3 3 3 3 2 2 2 2 2 2 2 2 1 1 2 3 3 3 3 2 3 2 2 2 2 2 2 2 1 1 1 2 2 2 2 2 2 1 2 3 3 3 3 2 2 2 3 2 2 2 3 3 2 3 3 2 3 3 4 4 3 3 2 3 3 4 5 4 3 2 2 3 3 4 4 4 4 3 3 3 4 4 4 4 4 4 4 4 4 4 4 3 4 4 5 5 4 4 3 2 2 2 3 4 4 3 3 2 1 0 0 0 0 1 1 1 3 4 5 4 3 3 4 4 5 3 4 2 2 2 3 3 4 3 3 2 2 2 3 3 3 2 2 2 2 3 3 3 3 3 3 4 5 5 5 4 4 4 4 3 2 2 1 1 2 3 3 3 2 2 1 2 2 2 2 1 1 1 1 2 2 3 3 4 5 5 5 4 5 6 8 7 6 6 5 5 4 2 2 2 1 2 1 2 1 1 1 1 1 1 1 2 2 3 3 3 3 3 3 3 3 2 2 2 2 2 2 2 3 3 4 4 3 3 2 1 1 1 2 2 2 2 1 1 1 1 1 0 1 1 1 1 2 2 2 2 2 2 3 2 2 1 1 1 1 1 1 1 2 2 2 2 2 2 2 2 2 2 2 2 2 1 2 2 3 3 2 2 2 2 2 2 2 3 3 4 5 5 5 5 4 3 2 2 1 2 1 1 1 1 2 2 3 3 3 2 2 1 2 2 2 2 4 4 6 5 5 5 5 5 4 5 7 9 10 9 8 6 6 4 4 3 2 1 1 1 1 1 1 2 2 2 2 2 2 2 4 8 10 13 9 19 43 86 127 160 174 169 151 129 111 96 94 92 97 105 120 141 163 182 188 173 137 90 45 26 22 13 8 4 6 8 11 11 8 5 3 2 1 1 2 2 1 0 
0 2 2 2 1 2 2 3 3 4 5 5 6 5 5 4 4 3 3 3 2 2 2 2 2 2 2 2 3 4 3 2 1 1 0 1 1 1 1 1 1 1 1 1 1 1 2 3 4 4 4 5 4 5 5 5 7 6 6 5 4 4 4 4 3 2 2 2 2 3 3 3 3 3 2 2 2 3 4 5 5 5 4 5 6 7 7 7 6 5 5 3 3 2 3 2 2 1 2 2 2 3 3 2 2 1 1 2 3 3 3 2 2 2 1 1 1 1 2 1 2 1 2 3 3 3 3 3 3 2 2 2 3 2 3 2 2 1 2 2 3 3 3 2 3 2 3 3 4 3 2 1 3 3 3 2 1 2 3 3 2 3 2 2 2 2 3 3 2 3 2 3 3 5 4 4 2 2 2 3 3 4 4 4 4 3 3 3 3 4 5 5 4 5 3 3 3 3 3 2 2 2 3 3 4 3 3 3 3 3 4 4 5 5 4 4 2 1 0 0 0 0 1 1 2 3 4 4 4 4 5 4 5 3 5 3 3 2 3 3 3 3 3 3 2 2 2 2 2 3 2 2 1 3 2 2 2 2 3 5 6 6 5 4 5 5 5 4 2 2 1 1 1 2 3 3 2 2 2 2 2 2 2 2 2 1 1 2 3 4 3 3 3 3 4 4 5 4 5 4 4 4 3 3 3 3 3 2 1 1 1 1 1 2 1 2 1 2 1 2 2 2 3 3 3 3 2 2 2 2 2 2 2 1 2 2 3 3 3 3 3 3 2 2 2 2 3 3 3 2 1 1 1 1 1 1 1 1 1 1 1 2 2 2 1 2 2 2 2 1 1 1 1 1 1 2 2 2 2 2 2 2 2 3 3 2 2 2 2 1 2 2 3 4 4 4 4 3 2 2 2 2 2 2 3 3 3 3 3 3 2 2 2 2 1 1 1 1 2 2 3 3 2 1 1 1 1 2 2 3 4 4 5 5 6 6 6 4 4 4 6 8 9 8 6 4 5 5 5 3 2 2 2 2 1 1 1 1 1 2 2 2 3 3 4 7 8 9 7 10 16 39 70 105 137 164 178 177 173 167 165 164 165 170 179 187 189 178 161 129 90 45 26 19 12 5 5 3 5 5 5 6 5 5 3 2 1 1 2 2 1 0 
0 2 3 2 1 1 2 3 4 4 5 4 6 4 5 4 3 2 2 2 2 2 2 2 2 3 3 3 4 4 3 3 1 1 0 1 1 1 1 1 1 2 2 2 2 2 3 2 3 4 4 7 7 9 11 9 9 6 6 5 3 3 3 3 3 2 1 1 2 2 3 3 3 3 2 2 2 3 4 4 4 3 2 2 3 3 4 5 6 5 5 3 3 3 2 2 2 3 3 3 3 3 3 2 1 1 1 2 2 3 3 3 3 2 2 2 2 2 2 2 2 2 2 3 3 3 2 2 2 2 3 3 4 4 4 2 2 1 2 2 3 3 3 2 3 3 3 4 4 4 4 3 3 3 3 2 2 2 3 2 2 2 2 2 2 2 3 2 2 2 3 3 3 4 3 3 2 2 2 1 1 1 2 3 3 3 3 3 4 4 4 4 4 4 4 4 4 4 3 3 3 2 3 3 4 3 2 2 2 3 4 4 4 4 4 3 2 1 1 0 0 0 0 1 2 2 3 3 4 4 5 4 5 4 5 4 3 2 3 4 4 3 3 2 2 1 1 2 2 2 2 2 2 3 3 3 3 4 5 5 5 6 5 4 4 4 5 4 2 2 1 1 1 1 1 1 1 1 1 2 2 3 3 3 3 2 2 2 2 2 2 2 2 3 3 3 3 4 4 4 3 3 3 4 3 2 2 2 1 1 1 1 1 1 1 1 1 1 1 1 2 2 3 3 3 3 2 1 1 1 1 1 1 1 1 2 3 3 3 3 2 2 2 2 2 2 2 2 3 2 2 2 1 1 0 0 1 1 1 1 2 2 2 2 1 2 2 2 1 1 1 1 2 2 2 2 2 2 2 2 2 2 2 2 3 3 2 1 1 1 1 2 2 2 3 3 3 3 2 2 2 2 3 3 3 3 3 3 2 2 1 1 1 1 1 1 1 1 2 2 2 3 2 2 1 1 2 2 2 3 3 4 4 4 4 3 3 3 3 3 3 3 4 5 5 4 4 4 4 3 3 3 3 3 2 2 1 1 1 1 2 2 3 4 4 5 6 6 5 6 8 12 22 45 78 111 136 152 163 170 174 174 173 170 166 160 150 128 104 59 37 22 18 13 11 8 6 3 4 4 5 6 5 4 2 2 1 1 1 1 1 0 
0 2 3 2 2 2 2 3 4 4 4 3 4 4 4 3 2 2 1 2 2 2 2 2 2 2 1 2 2 2 3 3 2 1 1 1 2 2 2 2 2 2 2 2 2 1 2 3 3 5 6 8 11 13 16 14 12 7 6 5 4 3 3 3 3 2 1 1 1 2 2 3 3 3 2 1 1 2 2 3 3 3 4 4 4 5 5 4 4 4 4 3 3 3 3 3 3 3 3 3 3 3 3 3 1 1 0 1 1 1 2 2 2 1 0 0 0 0 1 1 1 2 2 3 3 3 2 2 2 2 3 3 4 4 3 2 1 1 2 3 3 3 4 3 4 3 4 4 5 5 5 3 3 3 3 3 2 3 2 2 1 1 2 2 2 2 2 2 3 3 3 2 2 2 2 3 2 3 3 3 3 3 3 4 4 4 4 4 3 3 3 4 4 4 4 4 4 3 3 2 2 1 2 3 3 3 2 2 3 3 4 4 4 4 4 3 2 1 0 0 0 0 0 1 2 2 3 3 4 4 4 3 4 4 5 4 3 2 2 3 3 3 2 2 2 1 1 1 1 2 2 2 3 3 2 2 2 3 4 5 5 5 4 3 3 4 4 3 2 1 1 1 1 1 1 1 1 1 2 2 2 3 4 4 4 3 3 3 4 4 3 2 2 1 2 2 3 3 4 3 3 4 3 3 2 2 2 1 1 0 1 1 1 1 1 1 1 1 1 1 1 2 2 2 3 3 2 1 0 0 1 1 1 1 0 1 2 2 2 2 1 1 1 2 2 2 2 2 2 3 3 3 2 2 1 1 1 1 1 1 2 2 2 1 1 1 1 1 1 0 1 2 3 2 2 2 2 2 2 2 1 1 1 1 2 2 1 1 1 1 1 1 2 2 2 3 4 5 4 4 3 2 3 3 2 2 2 2 2 1 1 1 1 1 1 1 1 1 2 1 1 1 2 2 2 2 2 2 3 3 3 3 3 3 3 3 3 3 2 2 2 2 3 3 3 3 3 3 4 3 3 3 3 3 3 2 1 0 0 1 2 2 2 3 4 3 4 3 2 3 5 9 13 15 25 44 73 99 121 134 140 142 141 135 121 103 81 57 43 31 27 17 11 8 7 5 4 4 3 2 1 2 2 2 2 1 1 1 1 1 0 0 
0 2 2 2 2 2 3 4 5 4 4 3 4 4 4 3 2 2 2 2 2 2 3 3 4 4 4 4 3 2 2 3 2 2 1 1 2 2 2 2 2 3 3 3 2 1 1 2 2 3 5 9 14 17 18 17 13 8 5 4 3 3 3 3 3 2 1 1 2 1 1 2 2 3 2 1 1 2 3 3 3 2 2 2 2 2 2 3 3 4 4 4 4 4 4 3 3 3 3 3 2 2 2 2 1 0 0 0 0 0 1 1 1 0 0 0 0 0 0 1 1 2 3 3 3 3 1 1 1 2 3 4 5 5 4 3 2 1 2 3 4 4 4 3 3 3 4 4 5 5 5 3 3 3 3 3 3 2 2 1 1 1 1 2 2 2 2 2 2 3 3 2 2 2 2 2 2 2 2 2 2 2 3 3 4 5 5 5 4 2 2 3 4 5 5 5 4 4 4 3 2 1 2 2 3 2 1 1 2 3 3 3 3 3 3 2 1 1 0 0 0 0 1 1 2 2 3 3 3 3 3 3 4 4 4 4 3 2 2 3 3 2 1 1 1 1 0 0 1 1 2 2 3 2 2 2 3 5 5 6 5 5 4 3 2 2 3 2 2 1 1 1 2 1 1 1 1 1 2 3 3 4 4 4 4 4 3 3 2 1 1 1 1 1 2 2 2 2 2 2 2 2 2 2 2 1 1 1 1 0 0 1 1 1 1 1 1 1 1 1 1 1 1 1 2 2 2 1 0 0 1 1 1 1 1 1 1 1 1 1 1 0 1 1 2 2 1 1 2 2 3 3 3 2 2 1 1 1 1 1 2 2 1 1 2 2 2 1 0 0 1 2 3 3 2 3 2 2 1 1 1 0 0 0 1 1 1 0 0 0 1 1 1 1 2 2 3 3 4 3 3 3 3 3 3 3 3 2 1 1 1 1 1 1 1 1 1 1 1 1 1 1 2 2 2 2 2 2 3 3 3 2 2 2 2 2 1 1 1 1 1 2 3 3 2 2 3 3 3 4 4 4 4 4 4 3 1 0 0 1 2 2 2 2 3 3 3 3 2 2 1 4 10 16 22 19 18 21 28 38 46 46 42 33 24 22 28 35 33 24 13 7 7 9 7 6 5 3 2 1 1 2 2 1 1 1 1 1 1 0 0 0 
0 2 3 2 3 3 3 4 5 5 4 3 3 3 3 3 2 2 1 2 2 2 3 4 5 6 6 6 5 4 3 3 3 2 2 2 2 2 2 2 3 3 3 3 2 2 2 3 4 5 7 12 17 19 20 18 15 10 5 3 3 4 4 4 4 3 3 2 2 2 2 2 1 1 0 0 1 2 3 3 3 3 3 3 3 3 2 2 3 3 4 3 4 4 4 3 3 2 2 3 2 3 3 3 2 1 0 0 0 0 0 1 1 0 0 0 0 0 0 0 2 2 3 3 4 2 1 1 1 3 4 5 5 5 4 4 2 3 3 3 4 4 4 4 3 3 4 4 4 4 4 2 2 2 3 2 2 2 1 1 1 1 1 2 2 2 2 2 2 3 3 2 2 2 2 2 3 3 3 3 3 3 3 4 5 5 6 5 4 3 2 2 3 5 6 5 5 4 4 3 3 1 2 2 3 2 2 1 2 2 3 3 3 3 3 3 2 1 1 1 1 1 1 1 1 2 3 2 2 2 3 3 4 3 4 2 2 2 2 2 2 2 1 2 2 1 1 1 1 1 2 3 3 2 2 2 2 3 4 4 4 3 3 2 2 2 2 2 2 1 2 2 2 2 1 1 1 1 2 3 4 4 4 4 3 3 2 2 2 2 1 1 1 1 2 1 1 2 2 2 2 2 2 2 2 1 1 1 1 1 1 1 1 2 2 2 2 1 1 1 2 1 1 1 2 3 2 1 1 1 1 1 1 1 1 1 1 1 1 1 1 1 1 1 1 1 1 1 2 3 3 3 3 3 2 1 1 1 1 1 2 2 1 1 1 1 1 1 0 0 1 2 3 3 3 3 2 2 2 1 1 0 0 0 1 1 1 0 1 1 1 1 1 1 2 2 3 3 4 4 4 3 3 3 3 3 3 2 1 1 1 2 2 1 1 1 0 0 0 0 0 0 1 2 2 2 2 2 2 2 2 2 2 2 2 2 2 2 1 1 2 3 3 3 2 2 2 3 4 5 5 5 5 5 5 4 2 1 1 1 2 2 2 2 1 2 1 1 1 1 1 3 8 11 14 17 17 19 19 20 23 24 26 24 22 21 21 22 18 12 7 9 7 7 4 4 5 4 3 1 1 1 1 1 2 1 2 1 1 0 0 0 
0 1 3 3 3 3 3 4 5 4 4 3 3 3 3 3 2 2 2 2 2 2 3 3 4 6 7 7 7 6 5 5 5 4 3 3 3 3 3 2 2 2 2 2 2 2 3 4 5 6 7 14 17 20 20 16 14 9 4 2 2 4 5 5 4 3 2 2 3 2 2 2 2 2 1 0 1 2 3 3 3 2 2 2 3 3 4 3 3 3 4 4 5 5 5 4 3 2 2 2 2 2 2 3 2 2 0 0 0 0 1 1 1 0 0 0 0 0 0 1 2 2 3 3 3 2 1 0 1 2 3 4 4 5 3 4 3 4 4 4 4 4 4 3 3 3 3 3 3 3 3 2 2 2 2 2 2 1 2 1 1 1 1 1 2 2 2 3 2 2 2 1 2 2 2 2 2 2 2 2 2 2 3 3 4 5 5 5 4 3 2 2 4 5 6 5 5 4 5 4 4 2 2 2 3 2 2 2 2 3 3 3 4 4 4 3 1 1 0 1 1 2 2 1 1 2 3 3 3 3 3 3 4 4 5 2 2 2 2 3 3 2 1 1 1 2 1 1 1 2 3 3 3 2 1 1 3 3 4 4 4 4 3 3 2 1 2 2 2 1 2 2 3 2 2 1 1 1 2 2 4 4 4 4 3 2 2 2 1 1 0 0 0 1 1 2 2 2 2 2 2 2 2 2 2 1 2 1 2 1 1 1 1 2 2 2 2 2 2 2 3 2 2 1 2 3 2 2 1 1 1 1 1 1 1 2 1 1 1 1 1 1 1 2 2 2 2 2 2 2 2 3 3 3 2 1 1 1 1 1 2 2 2 1 2 2 2 1 0 0 1 2 3 3 3 3 3 2 1 1 1 1 0 0 1 1 1 0 1 1 1 2 2 3 3 3 3 3 3 4 4 3 3 3 3 2 2 2 2 1 2 2 2 2 1 1 0 0 0 0 0 0 0 1 2 2 2 2 2 2 2 2 1 1 1 1 1 1 1 2 2 3 3 2 2 2 2 3 4 5 5 5 5 5 5 4 3 1 1 1 2 2 1 1 1 2 1 2 1 1 1 3 8 11 13 13 10 12 11 12 13 13 12 10 6 5 8 11 11 11 7 9 6 5 4 4 5 4 3 2 2 2 2 2 1 2 1 1 0 0 0 0 
0 1 2 2 2 2 2 3 4 4 3 3 3 3 2 2 2 2 2 2 2 2 2 2 3 5 6 6 6 6 6 6 5 4 3 3 2 2 2 2 1 1 1 2 2 2 3 5 6 7 6 13 15 19 18 15 12 7 3 2 2 4 5 6 5 3 3 2 3 3 3 2 2 1 1 1 1 2 4 3 3 2 1 2 2 3 3 3 3 3 3 3 3 4 5 4 3 2 2 1 1 2 2 2 2 2 1 1 1 1 1 2 1 1 0 0 0 0 0 1 1 2 3 3 3 2 1 0 1 3 4 5 5 5 4 5 4 5 5 4 3 3 4 3 4 3 2 2 1 2 2 2 2 2 2 2 1 1 1 2 2 1 1 2 2 2 3 2 2 1 1 1 2 3 2 3 2 2 2 2 2 2 2 3 4 4 4 4 3 3 3 4 5 6 6 5 4 4 4 3 3 2 2 2 2 2 2 2 2 1 1 2 3 3 3 3 2 2 2 2 2 2 2 1 1 2 2 2 2 2 3 3 5 5 5 3 2 1 2 2 2 2 1 1 1 2 1 2 1 1 2 3 3 2 2 1 2 3 4 4 4 4 3 3 3 2 2 2 2 1 2 1 2 2 1 1 0 1 1 2 3 3 3 3 2 2 2 2 1 1 0 0 1 1 1 2 2 2 2 2 2 2 2 2 2 2 2 2 2 2 2 2 1 1 1 1 1 1 1 2 3 3 3 2 2 3 2 2 1 1 1 1 1 2 1 2 1 1 1 1 1 1 1 2 2 2 2 2 2 2 2 3 3 3 2 2 1 1 1 2 2 2 1 1 1 2 2 1 0 0 1 2 3 3 2 3 3 2 2 1 1 1 0 0 1 1 1 1 1 1 1 1 1 2 2 2 2 2 2 3 4 4 4 4 4 4 3 2 2 2 2 2 2 2 2 1 0 0 0 0 0 0 0 0 1 1 2 2 2 2 1 1 1 1 1 1 1 2 2 2 2 2 2 2 3 2 3 3 4 6 6 6 6 6 6 5 4 2 2 2 2 2 1 1 1 1 1 1 2 1 1 2 6 9 13 11 11 11 9 9 8 9 9 8 6 6 8 10 9 10 8 9 6 4 4 5 6 5 3 2 1 1 1 2 2 2 1 1 0 0 0 0 
0 1 2 2 2 2 2 2 3 3 3 3 2 2 2 2 2 2 3 2 2 1 1 2 2 3 3 3 4 5 6 6 6 5 4 3 2 3 3 3 2 2 1 1 1 1 2 4 5 6 4 9 11 15 14 12 8 4 2 1 2 5 5 6 4 3 3 1 3 2 3 2 2 2 1 1 1 2 2 3 2 1 1 2 4 5 6 5 4 2 2 2 3 3 3 3 3 3 2 2 2 3 3 3 3 3 2 2 2 2 3 3 2 1 0 0 1 1 2 2 2 2 2 2 2 2 1 1 1 2 2 2 2 3 2 3 4 5 5 5 5 4 5 4 4 2 2 2 1 2 2 2 2 3 3 2 2 2 2 2 2 2 2 2 3 3 3 2 2 1 0 1 2 3 3 3 2 2 2 2 2 2 2 3 3 3 2 2 3 4 5 5 6 5 5 5 5 4 5 4 4 3 3 2 2 2 2 2 2 2 2 3 3 4 4 4 3 3 2 2 2 2 2 2 1 2 2 3 3 3 3 3 4 4 4 3 3 3 4 5 4 2 1 0 1 1 1 1 1 1 2 2 3 2 2 2 3 3 3 2 3 3 3 3 2 2 2 3 3 2 2 2 2 2 1 1 0 0 1 1 1 2 2 3 3 2 2 3 1 1 1 1 2 2 2 1 2 2 2 2 2 2 3 3 3 3 3 3 3 3 3 2 2 1 1 0 0 0 1 1 3 3 3 2 2 3 2 2 1 1 0 0 0 1 1 2 1 1 1 1 1 1 1 1 2 3 4 3 3 2 3 3 4 3 2 2 1 1 2 2 2 2 1 1 2 2 2 1 1 0 1 2 3 3 3 3 2 2 2 1 2 1 1 1 1 1 1 1 1 1 2 1 2 2 2 2 2 2 2 3 4 4 3 3 2 2 1 1 2 2 2 2 2 1 2 2 1 0 0 0 0 0 0 0 1 1 2 2 2 2 2 2 2 2 2 2 2 3 3 3 2 2 1 2 2 2 3 4 5 5 5 5 5 5 5 5 4 3 2 3 3 2 1 1 1 2 2 2 2 1 2 2 4 6 10 11 13 12 9 8 6 6 6 6 4 5 7 8 8 8 7 8 6 5 4 4 4 3 2 2 1 2 2 2 2 2 1 1 0 0 0 0 
0 0 1 2 3 3 3 3 4 3 3 3 2 2 1 2 2 3 4 3 3 1 1 2 2 2 2 2 2 3 4 5 5 6 4 3 2 2 3 2 2 2 1 1 0 0 1 3 3 4 3 5 6 8 9 7 5 3 1 1 2 4 6 6 5 3 4 2 3 2 3 2 1 1 2 1 2 2 2 2 1 1 1 2 3 3 3 3 2 2 1 1 2 2 2 3 3 3 3 3 3 3 3 3 3 3 3 3 2 3 3 3 2 1 0 1 1 1 2 2 2 2 2 2 2 2 1 1 2 3 4 4 3 3 4 4 4 3 3 4 4 4 4 3 3 2 2 2 1 2 2 3 3 3 3 2 2 2 2 2 3 3 3 4 4 3 3 2 1 1 1 1 2 3 3 2 2 1 2 1 2 2 1 2 2 2 2 2 3 4 5 5 5 5 5 5 5 4 4 4 4 4 3 2 1 1 2 2 1 1 1 2 2 3 3 3 3 3 2 3 2 3 2 2 1 2 2 2 2 2 2 2 3 3 3 3 3 3 3 4 3 2 1 1 0 0 0 0 1 2 2 3 3 2 2 2 3 4 4 4 4 4 3 3 3 2 2 3 3 3 2 1 1 1 1 0 0 0 0 0 0 1 2 3 3 3 2 2 1 1 1 2 2 2 2 1 2 2 1 1 1 1 2 2 3 2 3 3 4 3 3 3 2 1 0 0 0 0 0 0 2 3 4 3 3 3 2 1 0 0 0 0 0 0 1 1 2 2 2 2 2 2 2 1 2 2 3 3 3 3 3 3 3 2 2 1 1 1 2 2 2 2 1 1 2 3 3 2 1 1 1 2 3 3 3 3 3 2 2 2 2 2 2 1 1 1 1 1 1 2 2 2 1 1 1 1 1 0 0 2 3 4 3 3 3 3 2 2 2 3 3 3 3 3 3 3 1 0 0 0 0 0 0 0 1 1 2 2 2 2 2 3 2 3 2 3 2 3 3 3 2 1 1 2 2 3 3 3 4 5 6 6 6 6 6 5 4 3 4 3 3 2 1 1 1 2 2 2 2 2 1 3 4 7 8 9 8 7 6 6 6 7 5 4 3 4 6 6 6 5 6 6 6 5 4 3 3 2 1 1 1 1 1 2 2 2 2 1 1 1 0 0 
0 1 2 3 4 4 4 4 4 3 3 2 2 2 1 2 2 3 4 3 3 1 1 2 2 2 2 2 2 3 4 5 7 9 9 7 5 3 3 3 2 2 2 1 1 0 0 1 2 3 2 3 3 4 4 4 3 2 2 2 3 5 6 5 5 4 4 2 3 3 3 2 1 1 2 2 2 2 2 2 1 1 2 3 4 4 4 3 2 1 1 1 2 2 2 2 2 2 2 2 2 2 2 2 3 3 3 3 2 2 2 2 1 1 1 1 1 1 1 2 2 2 2 2 1 1 1 1 1 1 1 1 2 2 2 3 3 2 2 3 4 4 4 3 2 2 2 1 1 2 2 3 3 3 3 2 2 2 2 2 3 4 4 5 4 3 2 2 1 1 1 2 3 3 3 2 3 1 2 2 2 1 1 1 1 2 3 3 4 5 5 5 5 5 5 4 5 4 5 4 4 4 3 2 1 1 1 2 1 2 2 2 2 2 2 3 3 4 3 3 2 3 2 2 1 2 2 3 3 3 3 2 2 2 2 3 4 5 5 4 3 2 1 1 0 0 0 1 1 2 2 2 2 2 1 2 3 3 2 2 2 2 2 2 2 2 2 3 3 3 2 2 2 2 1 0 0 0 0 0 1 1 2 3 3 3 2 2 2 1 1 2 2 2 2 1 1 1 1 1 0 1 2 2 2 2 3 3 3 3 3 3 2 2 1 0 0 0 0 0 2 3 4 4 4 4 2 1 0 0 0 0 0 0 0 1 2 2 2 2 2 2 2 2 2 3 4 3 4 5 4 3 2 1 1 1 1 1 1 2 2 2 2 2 2 2 2 2 2 1 1 2 2 2 2 2 2 2 2 3 3 3 3 2 1 1 1 1 2 2 2 2 2 1 1 1 0 0 0 2 3 4 3 3 2 2 2 2 2 2 3 3 3 3 3 3 1 0 0 0 0 0 0 1 2 1 1 2 2 3 2 3 3 4 3 4 4 5 4 3 2 0 1 2 2 3 2 3 3 4 4 4 4 4 4 4 4 4 4 4 4 2 1 2 2 2 2 2 1 1 1 3 3 5 6 6 7 6 5 4 4 4 3 2 2 4 5 6 5 4 4 4 5 4 3 2 2 1 1 1 1 2 2 2 2 2 2 1 1 1 0 0 
0 1 2 4 4 5 4 4 4 3 2 2 2 2 1 2 3 3 4 3 3 1 1 1 2 2 2 2 3 4 5 7 9 11 12 11 9 5 4 3 3 3 2 1 0 0 0 1 2 2 3 2 3 3 4 5 4 3 3 3 4 6 6 5 5 4 4 2 3 3 3 2 2 1 2 2 2 2 2 2 2 2 2 3 3 3 3 2 2 1 1 1 2 2 2 2 2 2 1 1 1 1 1 1 2 3 3 3 2 2 2 2 1 1 1 2 1 1 1 1 1 1 1 1 1 1 1 1 1 2 2 2 3 3 4 3 2 2 1 2 3 4 3 3 3 2 2 1 1 2 3 4 3 3 2 2 1 1 1 2 3 5 5 5 4 3 2 2 1 1 1 2 3 3 4 2 3 1 3 2 2 1 1 1 1 2 4 4 4 4 4 4 4 4 4 4 4 4 5 4 4 3 2 2 1 1 1 2 1 1 1 1 1 2 2 3 2 3 3 3 3 2 2 2 2 3 3 3 2 3 3 2 2 2 2 3 4 5 4 4 3 2 2 1 1 1 1 1 2 3 3 2 2 1 1 1 2 2 3 3 3 2 2 2 2 2 2 3 3 2 2 2 2 2 1 0 0 0 0 0 2 1 2 3 3 2 1 1 2 2 2 2 3 3 3 2 2 2 2 1 1 1 1 1 1 1 2 2 2 2 2 2 2 2 1 0 0 0 0 0 1 2 3 4 4 3 2 1 0 0 0 0 0 0 0 0 2 3 3 2 2 2 2 2 3 4 4 5 5 5 4 3 1 1 1 1 1 1 1 2 2 2 2 2 2 1 1 1 2 1 1 1 1 1 2 2 2 2 3 3 4 4 4 3 1 1 1 1 1 2 2 2 1 1 1 0 0 0 1 1 2 3 3 3 3 3 2 3 3 4 4 4 4 5 4 3 1 0 0 0 0 0 1 1 2 1 1 2 2 2 2 3 3 4 4 5 5 5 4 3 2 1 1 2 2 2 1 2 3 4 4 4 4 4 4 3 4 3 4 4 4 3 3 3 2 2 1 1 1 1 1 2 3 4 5 5 4 4 3 3 3 3 2 2 2 3 4 4 3 3 3 3 4 3 3 2 1 1 1 1 1 2 2 2 1 2 2 2 1 1 1 0 
0 1 3 4 5 5 4 3 2 2 2 2 2 2 1 2 3 3 3 3 2 1 0 1 1 2 2 2 3 4 5 7 9 12 14 14 11 8 5 4 4 3 3 3 2 1 0 1 3 3 3 2 3 3 3 4 4 4 4 4 5 6 5 6 5 4 3 2 2 2 3 2 2 2 2 3 3 4 4 4 3 3 3 3 3 3 3 3 3 2 1 1 2 3 3 3 1 1 0 0 0 0 0 0 1 2 2 2 2 2 2 1 1 1 1 1 1 1 2 2 1 1 1 0 0 0 0 0 1 1 0 1 1 2 3 3 2 1 1 1 2 2 2 2 2 2 1 1 1 1 2 3 3 3 2 2 1 0 0 2 3 5 5 5 3 2 2 2 2 2 2 2 3 3 4 3 3 2 3 2 2 2 2 2 2 3 4 5 4 3 3 3 3 4 2 4 4 4 5 4 4 2 1 1 1 1 0 1 2 2 2 1 1 1 1 2 3 3 5 4 4 3 3 3 3 3 3 3 3 3 3 3 3 2 2 2 3 4 4 4 3 2 2 1 1 1 1 2 3 3 3 2 2 2 2 1 2 2 2 3 2 2 2 2 2 2 2 3 3 2 2 2 2 2 1 0 0 0 0 0 2 2 2 3 2 2 1 1 1 1 1 2 2 2 2 2 2 2 2 1 1 1 1 1 1 1 1 1 1 1 2 2 2 1 0 0 0 0 0 1 1 2 3 4 4 4 3 1 0 0 0 0 0 0 0 0 1 2 3 2 2 2 3 3 3 4 5 6 6 6 4 2 1 1 1 1 1 1 1 2 2 2 2 2 1 0 0 1 1 1 1 0 0 0 0 1 1 2 2 3 4 5 4 3 1 1 1 1 1 1 1 1 0 0 0 0 0 1 1 1 1 2 3 4 3 4 3 4 3 4 4 4 4 4 4 3 2 1 0 0 0 0 1 1 2 1 1 1 2 2 2 2 3 3 4 5 6 6 4 3 2 2 1 1 2 2 2 2 2 2 2 2 2 2 3 4 4 4 4 3 3 3 3 3 3 2 2 1 1 1 1 1 2 3 3 3 3 3 2 3 2 3 2 2 3 3 4 4 3 3 2 2 2 3 2 2 1 1 1 1 2 2 2 2 1 1 1 1 2 2 1 0 
0 1 3 3 4 4 3 3 2 1 2 2 2 2 2 2 2 3 3 2 2 0 0 1 2 3 3 3 3 3 3 5 8 12 15 16 12 9 5 5 4 3 2 2 2 1 1 2 3 3 3 2 2 3 3 4 4 4 4 4 4 5 5 5 5 4 3 2 1 2 2 2 2 3 3 4 4 4 4 4 3 3 3 4 4 4 3 4 3 3 2 2 3 3 3 3 2 1 0 0 0 0 0 0 1 1 2 2 2 3 2 2 1 1 1 2 2 2 2 2 2 1 1 0 0 0 0 0 1 1 2 2 2 3 3 3 2 2 1 1 2 2 3 2 2 1 1 1 1 1 2 3 3 3 2 2 1 0 0 2 3 5 5 4 3 2 2 2 2 2 3 1 3 3 4 3 4 3 3 3 2 3 2 2 2 3 4 5 4 2 2 3 2 2 1 4 4 5 6 4 4 2 1 1 1 1 2 2 2 2 1 1 1 1 1 2 3 4 6 4 5 4 4 4 4 4 4 3 2 2 3 2 3 2 2 2 2 3 4 4 3 3 2 1 1 1 1 2 3 5 5 5 4 4 3 3 3 3 3 3 3 3 2 2 2 2 3 3 3 3 2 1 1 1 1 0 0 0 0 1 2 1 2 2 2 2 1 1 2 2 2 2 2 3 3 2 2 2 2 1 0 0 1 1 1 1 1 1 1 1 2 2 2 1 0 0 0 0 0 1 2 2 4 4 4 4 2 1 0 0 0 0 0 0 0 0 1 2 2 2 2 2 3 3 3 5 6 7 6 5 3 1 1 1 2 2 1 1 1 1 2 2 2 2 0 0 0 1 2 2 1 0 0 0 0 0 1 1 2 3 3 4 3 2 1 1 1 1 0 0 0 0 0 0 0 0 1 1 1 1 1 2 2 3 3 3 3 3 3 4 4 3 3 4 3 3 2 1 0 0 0 0 0 1 1 1 1 1 2 2 2 2 3 4 5 5 6 6 4 3 2 2 2 2 2 2 2 2 2 3 3 3 3 3 3 4 3 4 4 4 4 4 4 3 4 2 2 1 1 1 1 2 1 2 3 4 4 3 3 3 2 2 2 2 2 2 2 3 2 2 2 2 2 2 2 2 0 0 0 1 2 2 2 2 1 1 1 1 2 2 1 0 
0 1 2 3 3 4 3 3 2 1 2 2 2 2 2 3 3 3 3 3 2 1 1 2 3 3 3 2 2 2 3 5 8 11 13 13 10 7 4 4 3 3 3 3 3 2 2 3 4 4 3 2 2 2 2 2 2 3 3 3 3 3 4 4 5 4 4 2 2 2 2 3 3 4 4 4 4 4 4 4 4 4 5 5 4 4 2 4 3 4 3 3 3 2 3 3 2 1 0 0 0 0 0 0 0 1 2 2 3 3 3 3 2 2 1 1 2 2 2 2 2 2 1 0 0 0 0 1 1 1 2 2 2 2 2 2 2 1 1 2 1 1 1 2 2 1 1 1 1 1 2 3 2 2 2 1 1 0 1 2 4 5 5 4 4 3 2 2 3 2 3 2 5 5 5 4 4 4 3 2 2 2 2 2 2 3 4 5 4 3 2 2 2 3 1 4 4 5 5 3 3 1 1 1 1 1 1 2 3 2 1 1 0 1 1 2 4 4 6 5 6 4 5 5 5 5 4 3 2 2 3 2 4 2 3 2 2 3 3 3 3 2 2 1 1 1 2 2 3 3 4 4 4 4 3 3 4 4 5 4 4 3 3 3 2 2 2 3 3 3 2 2 2 1 1 0 0 0 0 1 2 2 2 3 2 3 1 2 2 2 2 2 2 2 2 2 2 2 2 1 1 0 1 0 1 1 1 1 1 1 2 2 2 1 0 0 0 2 2 3 3 3 4 4 3 3 2 1 0 0 0 0 0 0 0 0 0 1 2 2 2 2 3 3 3 4 5 6 6 5 3 2 1 1 1 1 1 1 1 1 1 2 2 1 0 0 0 1 2 2 1 1 0 0 0 0 1 1 2 2 2 2 2 1 1 2 1 1 0 0 0 0 0 0 0 0 1 1 2 1 2 2 2 3 3 3 3 3 3 3 3 3 3 4 5 4 3 2 1 0 0 0 0 0 1 1 1 1 1 1 2 2 3 3 4 5 6 6 5 3 3 2 2 2 2 2 2 2 2 2 2 1 1 1 2 3 3 4 4 4 3 3 3 4 4 3 2 2 1 2 2 2 2 2 2 2 2 1 2 2 3 3 2 2 2 3 2 2 2 2 2 2 2 2 2 1 1 0 0 1 2 2 2 1 1 1 1 1 2 3 2 0 
0 2 4 4 4 5 5 4 3 2 2 2 3 3 2 3 3 2 3 2 2 1 2 3 3 3 2 2 1 2 3 5 8 11 13 11 8 5 4 3 2 2 2 3 3 2 2 3 3 4 2 2 1 1 1 1 1 2 3 2 2 3 4 4 4 4 3 2 2 2 2 2 3 4 4 5 4 4 4 4 5 5 6 5 4 4 2 3 3 4 4 3 3 3 3 3 2 2 1 1 1 0 0 0 0 1 1 1 2 2 3 3 3 3 2 2 2 1 1 2 2 2 1 0 0 0 1 2 1 2 2 3 3 3 2 2 2 2 2 2 1 1 1 2 2 2 1 1 1 1 2 2 2 2 1 1 1 1 1 2 3 4 4 3 3 3 2 2 3 3 4 4 5 5 5 5 4 4 3 2 2 2 1 2 2 3 5 5 4 2 2 3 3 3 2 4 5 5 5 3 3 1 1 0 1 1 2 2 2 2 1 0 0 0 0 2 4 5 6 4 5 5 5 5 5 6 4 3 2 2 3 2 4 3 3 3 3 3 3 3 3 3 2 1 1 1 2 2 4 4 6 6 6 5 4 3 4 4 4 3 3 3 3 3 2 1 1 2 2 2 1 1 1 1 1 0 0 0 0 1 2 2 2 3 3 3 1 2 2 2 1 1 1 1 1 1 2 2 2 2 1 1 1 1 1 0 0 0 1 1 1 2 2 1 1 0 2 3 4 4 4 5 6 6 5 4 3 2 1 0 0 0 0 0 1 1 1 2 1 2 1 2 3 3 4 4 5 5 5 4 4 2 2 2 2 2 1 1 1 0 1 1 1 1 0 0 0 1 1 1 1 1 1 0 0 0 1 1 2 2 2 1 1 1 1 1 2 1 1 0 0 0 0 0 0 0 1 1 2 2 3 2 2 2 3 3 3 3 3 3 3 3 4 4 4 3 2 2 1 0 0 0 0 0 1 1 1 1 0 0 1 2 3 3 3 4 4 4 4 4 3 2 2 2 1 2 2 2 2 2 2 2 2 2 2 2 2 3 4 4 3 3 3 3 3 3 3 3 2 3 2 2 2 1 2 2 2 2 2 3 3 3 3 3 3 2 2 3 3 2 2 2 2 1 1 1 1 0 0 1 1 2 1 1 1 1 0 1 2 3 2 0 
0 2 3 4 5 5 5 4 4 3 3 4 4 5 5 5 4 3 3 3 4 4 3 4 4 3 2 1 2 3 5 6 8 8 9 6 4 4 3 3 3 3 4 4 3 3 2 3 3 3 1 1 1 1 1 1 1 2 2 2 2 2 3 4 4 5 5 3 2 1 2 3 3 3 3 3 3 3 3 3 4 5 5 5 4 3 3 4 5 5 4 3 3 3 3 4 3 3 2 2 2 1 1 1 1 1 2 3 3 4 3 3 3 2 2 2 1 1 1 2 2 2 1 1 1 1 1 2 2 2 1 2 3 3 3 2 2 2 2 2 2 2 1 2 2 2 1 1 1 2 2 3 2 2 1 1 2 2 2 2 4 5 4 3 3 3 3 3 3 4 5 6 8 8 7 5 4 3 2 1 1 1 1 1 2 3 4 4 3 2 1 2 3 3 2 3 4 4 4 3 2 1 1 1 1 0 1 1 2 2 1 1 1 1 1 2 4 5 6 4 5 4 3 5 5 6 4 3 2 1 2 3 4 4 3 3 2 2 3 2 2 2 2 1 1 2 3 2 3 3 4 3 3 3 2 2 3 4 4 3 2 2 3 2 2 1 1 2 2 1 1 1 2 1 1 0 0 0 0 2 2 3 3 3 3 3 1 2 2 2 1 1 1 1 1 2 3 3 3 3 3 3 2 1 1 1 1 1 1 1 1 3 3 3 2 3 5 7 8 6 5 6 4 4 3 3 2 2 1 1 0 0 0 1 2 2 2 2 2 2 2 3 3 4 5 4 5 3 4 5 4 2 3 2 3 2 2 1 1 1 1 2 2 2 1 1 1 1 2 2 2 1 1 1 1 1 2 3 3 3 2 1 0 1 2 2 2 2 2 2 2 2 1 1 0 1 1 1 2 3 3 3 3 2 3 4 4 5 5 4 4 3 5 6 7 6 4 2 1 1 0 0 1 1 1 1 1 1 1 0 0 1 2 3 3 4 5 6 5 4 3 2 1 2 1 2 2 2 1 1 1 1 1 0 0 1 1 2 3 3 3 2 3 3 3 3 2 3 2 3 2 2 2 2 2 1 1 1 2 2 3 4 4 4 3 2 2 3 3 3 3 3 3 3 2 2 1 0 0 1 1 1 1 1 0 0 0 1 2 3 2 0 
0 3 4 4 5 5 5 4 4 3 4 4 5 6 5 4 3 2 2 3 3 4 3 3 4 3 3 2 2 4 4 5 6 5 5 4 4 4 3 3 3 3 4 4 4 2 1 2 2 2 1 1 1 1 1 1 1 2 2 2 1 1 2 3 3 4 4 2 2 1 1 2 2 2 2 3 3 3 3 3 3 4 4 3 3 3 4 5 5 4 3 3 3 4 4 4 3 3 2 2 2 2 2 1 1 1 2 2 3 3 3 3 3 2 3 3 3 2 2 3 3 3 2 1 1 1 1 3 2 2 1 2 4 4 3 3 3 3 3 4 3 3 2 2 2 1 1 2 2 2 2 2 3 3 2 2 2 3 3 3 3 4 3 3 2 3 3 3 2 4 5 7 8 8 7 6 5 2 1 1 2 0 1 1 2 3 3 3 2 1 2 2 3 3 3 3 3 4 4 4 2 2 1 1 1 1 1 1 1 2 1 1 1 1 1 2 4 4 5 4 4 4 3 5 4 5 4 3 2 2 2 3 3 3 2 2 1 1 2 2 2 1 1 1 1 1 2 3 4 4 5 5 5 3 3 2 2 2 3 2 1 1 2 2 2 1 2 2 3 2 2 1 1 1 1 0 0 0 0 2 3 3 3 3 3 2 2 2 2 2 1 1 1 1 2 2 3 3 3 3 3 3 3 2 2 1 1 1 1 0 1 4 4 6 6 7 9 11 10 9 7 6 6 6 5 4 3 2 2 1 0 0 1 1 2 2 3 3 2 2 2 3 4 4 5 4 3 2 3 3 3 2 3 2 3 2 2 2 2 2 1 2 2 2 2 1 1 1 2 2 2 2 1 1 2 2 2 3 3 3 2 1 1 1 1 2 2 2 2 3 2 2 2 2 1 1 1 1 2 3 4 3 3 3 3 3 4 6 7 7 7 5 6 6 5 4 4 2 1 1 1 1 1 2 2 2 2 1 1 0 0 1 1 3 4 5 5 5 5 3 2 1 1 1 1 2 2 2 1 1 1 1 2 2 1 1 1 2 2 2 2 2 2 3 4 3 3 3 3 3 3 2 2 1 1 1 1 1 2 2 3 4 4 3 3 2 2 2 3 3 2 3 2 2 2 2 1 1 1 1 1 0 0 0 0 1 1 2 2 2 1 0 
0 3 5 4 4 5 5 4 3 3 3 4 6 6 6 5 4 3 3 3 3 3 3 3 3 2 3 2 4 5 5 5 5 4 4 3 3 4 3 3 3 3 4 4 4 3 2 2 2 2 2 1 1 1 1 1 1 1 1 1 1 2 3 4 4 3 3 2 1 0 1 2 2 2 2 2 2 2 2 2 2 2 3 3 3 4 4 5 5 4 3 3 3 3 3 3 3 2 2 2 2 2 1 1 1 1 2 3 3 3 3 3 3 2 3 3 3 3 2 3 3 4 4 3 2 2 2 3 2 2 2 3 4 4 4 4 3 2 2 3 3 3 2 2 1 1 2 3 3 3 3 3 3 3 3 3 3 3 3 3 3 3 3 2 3 3 3 3 3 3 4 6 7 7 6 5 3 2 1 0 1 0 1 1 2 2 2 2 1 1 1 2 2 2 2 2 2 3 3 4 3 3 3 3 2 2 2 2 2 1 1 1 1 1 1 1 3 3 4 3 3 4 3 4 3 4 3 3 2 2 2 3 3 2 1 0 0 1 1 1 0 1 1 1 1 1 2 2 4 5 5 4 3 3 3 3 3 3 3 2 2 1 2 2 3 2 4 4 4 3 3 2 2 1 1 1 0 0 0 1 2 3 3 3 2 2 2 2 2 2 1 1 1 1 2 3 4 4 4 4 4 5 3 3 2 2 2 1 1 1 1 4 6 11 11 13 14 13 13 10 8 6 4 3 3 3 2 2 1 1 0 0 1 1 2 2 2 3 3 3 2 3 3 4 4 3 2 2 3 3 2 2 3 2 3 2 2 2 2 2 2 3 4 4 3 3 2 2 3 3 3 2 2 2 3 3 4 4 4 3 2 1 1 1 1 2 2 2 2 3 3 3 2 2 2 2 2 2 2 3 4 4 4 3 3 2 3 4 5 6 6 5 5 6 6 5 4 2 2 1 1 1 2 2 2 2 2 2 1 1 1 1 1 3 4 5 5 5 4 3 2 2 1 1 2 2 2 2 1 1 2 2 2 2 2 2 2 1 2 2 2 2 2 2 3 3 4 3 3 2 3 3 3 3 3 2 1 1 2 3 3 3 3 2 2 2 2 3 3 3 3 3 3 4 3 3 1 1 1 1 0 0 0 0 1 1 1 1 1 1 1 0 
0 3 5 3 3 3 4 4 3 3 3 3 4 5 5 5 4 2 2 2 2 2 2 2 3 3 4 3 4 5 6 5 5 4 3 3 3 3 3 3 3 3 3 4 3 3 2 2 2 2 1 1 0 0 0 1 1 2 2 2 2 3 3 3 3 3 2 1 1 1 1 1 1 1 1 2 2 2 2 2 3 3 3 3 3 4 3 4 4 4 3 3 2 2 1 1 1 2 2 2 1 1 1 1 1 1 2 2 2 2 2 2 3 2 3 3 4 4 3 3 4 4 4 4 3 2 2 3 3 2 3 3 4 4 4 4 4 3 4 4 5 4 4 3 2 2 3 4 5 5 4 4 3 3 3 3 2 3 3 3 3 3 3 3 3 3 3 3 2 2 3 4 5 5 5 4 3 2 1 0 1 0 2 1 2 2 2 2 2 2 2 2 2 2 2 1 1 1 2 3 3 2 2 2 2 2 2 2 2 2 1 1 1 1 1 1 2 3 3 3 2 3 2 3 2 3 3 3 2 2 2 2 1 1 0 0 0 0 1 1 1 1 1 1 1 1 2 3 4 5 5 4 3 3 3 3 3 3 3 3 2 2 3 2 3 3 5 4 5 5 4 3 1 1 1 1 0 0 0 1 2 2 2 2 2 1 1 1 1 1 1 1 1 1 2 3 4 5 4 5 4 5 4 3 3 3 2 2 1 0 0 4 7 13 16 16 18 12 13 10 10 8 6 5 4 4 2 2 1 1 0 0 0 1 2 2 2 2 2 2 1 1 2 3 3 2 2 2 2 2 2 1 2 2 2 1 2 3 2 3 3 3 4 4 4 4 3 2 2 3 3 2 2 2 3 3 4 4 3 3 2 2 2 2 1 2 1 2 2 3 3 3 2 2 2 2 2 2 2 3 3 3 3 3 2 2 3 5 7 8 8 6 5 4 4 4 3 2 1 1 1 1 1 1 2 2 2 2 1 1 1 1 2 2 3 3 4 4 4 3 2 2 2 1 1 2 2 2 1 1 2 2 2 2 2 2 2 2 2 2 2 1 2 2 4 4 5 3 4 3 4 4 4 4 3 2 1 1 2 3 3 3 2 1 1 2 2 2 3 3 3 3 3 3 3 2 1 1 1 1 0 0 0 1 1 1 1 0 0 0 0 0 
0 4 5 4 3 4 4 4 4 3 3 3 3 3 5 5 5 3 2 2 1 1 1 2 3 3 4 3 4 6 6 7 6 5 6 6 5 5 4 3 2 2 2 2 2 2 2 3 2 2 1 0 0 0 0 0 1 1 2 2 2 3 4 4 3 2 2 1 1 1 1 1 1 2 2 2 2 2 1 2 3 3 3 3 3 4 3 4 3 3 3 3 2 1 0 0 0 0 0 1 1 1 0 0 0 1 2 2 1 1 1 2 2 2 3 3 3 3 3 3 4 5 5 5 4 3 3 3 3 2 2 3 3 4 4 3 3 2 2 3 3 3 3 3 3 3 4 5 6 6 5 4 3 3 3 2 2 2 2 3 3 3 3 3 4 4 3 3 3 2 3 3 4 3 2 3 2 2 1 0 1 0 2 1 2 2 3 3 3 3 2 3 3 2 1 0 0 0 1 2 2 2 2 2 2 2 3 3 2 2 1 1 1 1 1 1 1 2 1 1 1 1 1 2 2 2 2 2 2 2 2 1 1 0 0 0 0 0 1 1 1 1 1 1 1 1 1 2 4 5 5 4 4 4 4 3 3 2 2 3 3 2 3 2 3 3 5 5 6 5 4 3 1 2 1 1 0 0 0 1 2 2 2 1 2 1 2 1 1 0 0 1 1 1 2 3 4 5 5 5 5 5 5 4 3 3 2 2 2 2 2 5 7 13 16 16 16 15 21 21 18 10 6 3 3 3 3 2 2 1 0 0 0 1 1 1 1 1 2 1 1 0 1 2 3 2 3 2 3 2 2 2 3 2 2 1 2 3 3 3 3 4 5 5 5 5 4 4 3 3 3 2 2 1 2 3 3 4 3 3 2 2 2 2 2 2 1 2 1 2 2 2 2 1 1 1 1 2 2 2 2 3 3 2 2 2 2 3 3 4 5 5 6 5 5 4 3 2 1 1 1 0 1 1 1 2 1 1 1 1 1 1 2 2 2 2 3 3 3 3 3 2 1 1 1 2 2 2 2 2 3 3 3 4 4 4 3 2 2 1 2 1 1 3 4 4 5 4 4 3 3 4 4 4 3 2 2 1 2 3 3 1 1 0 1 2 2 2 2 2 2 3 3 2 2 2 2 1 1 1 1 0 1 1 1 1 0 0 0 0 0 0 
0 3 5 4 4 4 5 5 4 4 3 2 2 3 5 5 5 3 2 2 1 2 1 2 3 4 4 2 3 6 7 8 8 7 6 6 6 6 5 4 3 2 2 2 2 2 2 3 3 2 1 0 0 0 0 0 0 1 1 2 3 4 4 4 4 3 3 1 2 1 1 1 1 1 2 2 2 2 1 1 3 3 3 3 3 4 3 4 3 3 2 1 1 1 1 0 0 0 0 0 0 0 0 1 1 1 2 2 1 0 0 1 2 3 3 3 3 2 3 3 4 4 4 4 3 2 2 2 2 3 2 3 3 4 3 3 3 3 3 3 3 3 3 3 3 4 5 6 6 6 6 5 3 2 2 2 2 2 2 2 3 3 3 3 3 3 3 2 2 2 3 2 2 2 2 2 2 1 1 0 1 0 2 2 3 2 2 3 3 3 2 3 3 3 1 0 0 0 0 1 1 1 1 1 1 1 2 2 2 2 2 2 2 2 2 2 2 1 1 0 0 0 1 1 1 1 1 2 2 2 1 1 0 0 0 0 0 0 0 1 1 2 1 2 2 2 2 3 4 4 4 4 3 3 3 2 2 2 3 3 2 2 3 2 3 2 4 4 5 5 4 3 1 2 1 1 0 0 0 0 1 1 1 1 2 1 2 2 1 0 0 0 1 1 2 2 3 5 5 5 6 6 5 4 3 2 2 2 2 3 3 5 7 13 14 16 19 26 33 36 30 17 7 3 4 3 2 2 2 1 0 0 0 0 1 1 1 1 1 1 1 0 0 1 3 2 3 2 3 2 2 3 3 3 4 2 3 4 3 3 3 4 5 6 6 5 4 5 3 3 2 2 2 2 1 2 2 3 3 2 2 2 2 2 2 2 2 2 1 2 3 3 2 1 0 1 1 2 1 1 1 2 3 2 3 3 3 3 4 5 5 5 4 4 4 4 3 2 1 1 1 1 1 1 1 2 1 1 0 0 1 1 1 2 2 1 2 3 4 3 3 1 1 1 1 2 2 2 2 3 4 4 5 5 5 4 4 3 2 2 1 1 1 3 4 5 5 4 4 3 3 4 3 3 3 2 2 2 2 2 2 1 1 1 1 1 1 2 2 2 2 2 2 2 2 2 1 1 1 1 1 1 1 1 1 1 0 0 0 0 0 0 
0 3 5 4 4 4 5 5 5 4 4 3 3 3 4 4 3 3 2 2 2 2 1 3 4 4 3 2 3 6 7 8 8 8 8 8 8 7 6 5 3 2 2 2 1 2 2 3 3 2 1 0 0 0 0 0 0 1 1 2 3 4 5 5 4 3 3 1 2 1 2 1 1 1 2 2 2 2 1 2 3 4 4 3 3 3 4 4 3 3 2 1 0 0 0 0 1 1 1 1 1 1 1 1 2 2 2 2 1 1 1 1 1 2 3 3 3 2 4 4 4 3 3 4 3 2 2 2 3 3 3 3 3 3 2 2 2 2 3 3 3 3 3 4 4 4 5 5 6 6 6 5 4 3 3 3 3 3 3 3 3 3 3 3 4 3 3 3 3 3 3 3 2 2 1 1 1 1 1 0 1 0 2 2 3 2 2 2 2 3 3 3 3 2 1 0 0 0 0 1 1 2 2 2 2 1 1 2 2 2 2 2 2 2 2 2 2 2 1 1 0 0 1 1 2 2 2 2 2 2 2 1 0 0 0 0 0 0 0 1 2 2 1 1 2 2 2 2 3 4 4 4 4 4 3 2 2 2 2 2 2 1 3 3 3 2 3 3 4 3 3 3 2 2 1 0 0 0 0 0 1 1 1 1 1 1 2 2 2 1 0 0 1 2 3 3 4 4 4 5 5 5 4 4 2 2 1 2 2 3 3 5 8 12 13 14 21 34 46 51 34 22 6 2 2 2 2 2 2 1 0 0 0 0 1 1 2 1 1 1 1 1 0 1 3 2 3 1 2 2 3 3 4 3 4 3 4 4 3 3 3 4 5 5 4 5 3 4 3 2 2 2 2 2 2 2 2 3 3 3 3 2 2 2 2 3 3 3 3 2 2 3 3 2 1 1 1 1 1 1 2 2 3 2 3 3 4 3 2 3 4 4 5 5 5 4 4 3 2 2 1 1 1 1 1 2 1 1 0 0 1 1 2 2 2 1 2 3 4 3 2 1 1 1 1 2 2 2 2 2 3 4 4 4 4 4 4 3 2 2 1 1 1 3 4 5 6 5 4 3 3 3 3 3 3 2 2 2 2 3 3 2 1 1 1 1 1 1 2 2 2 1 1 1 1 2 1 1 0 1 1 1 1 1 1 1 1 1 0 0 0 0 
0 3 5 5 4 5 5 5 5 5 4 3 3 4 4 4 2 2 2 2 2 2 2 3 3 3 4 3 4 6 7 8 7 6 7 8 7 7 7 6 4 3 2 2 1 1 2 3 3 2 1 1 0 0 0 0 0 0 1 2 3 4 4 4 4 3 3 2 3 1 2 1 1 1 1 2 2 1 1 2 3 4 5 4 4 3 4 3 3 2 1 1 1 1 1 1 1 1 1 1 1 2 2 2 1 1 1 1 1 1 1 2 2 3 3 3 3 3 5 4 3 3 3 3 3 2 2 3 3 3 3 3 2 3 2 3 3 3 3 3 2 2 2 3 3 3 4 4 5 5 5 5 4 4 4 4 4 4 4 4 4 3 3 3 3 3 2 2 3 3 3 2 1 1 0 0 1 1 1 1 1 1 2 3 3 2 1 1 2 2 2 3 3 2 1 0 0 0 0 1 1 2 2 2 2 1 2 2 2 2 2 1 1 1 1 2 2 2 2 1 1 1 1 1 1 1 2 2 2 2 2 1 1 0 0 0 0 0 0 1 1 1 1 1 2 2 2 2 3 4 5 4 4 3 3 2 2 2 2 2 2 2 3 3 3 3 2 2 3 3 3 3 3 2 1 1 0 0 0 1 1 1 2 1 1 1 2 2 2 1 0 0 1 2 3 3 3 3 3 4 4 4 3 3 2 2 1 1 2 3 3 5 9 12 12 16 21 37 45 55 35 22 5 2 1 1 2 2 1 1 0 0 0 0 1 1 2 1 1 1 1 1 1 1 3 2 3 2 3 3 3 3 4 3 3 3 3 3 3 3 3 4 7 7 5 4 3 4 3 2 2 3 3 3 2 2 2 2 2 2 2 3 3 3 3 3 3 3 3 2 2 3 3 2 1 1 1 1 1 0 1 2 2 3 3 3 4 4 4 4 4 4 4 4 4 3 3 2 2 2 2 1 1 2 2 2 1 1 1 1 1 1 1 1 1 1 2 2 3 3 2 1 1 1 1 1 1 1 2 2 3 4 4 4 4 4 4 3 2 1 0 0 0 2 3 5 5 4 4 3 2 3 3 3 3 2 2 2 2 3 4 3 2 1 1 0 0 1 1 1 1 2 2 3 2 2 2 1 0 1 1 2 2 2 1 1 1 1 1 1 0 0 
0 3 5 4 4 4 4 4 5 7 8 6 5 4 4 3 2 2 2 3 3 3 2 2 3 3 3 3 4 5 7 7 5 4 4 5 5 6 5 5 4 3 2 2 1 2 3 3 3 2 2 2 2 1 1 0 0 0 1 2 3 5 6 5 4 2 2 2 3 2 2 1 1 1 2 2 2 1 2 2 4 4 5 4 3 3 3 3 4 3 3 2 2 2 2 2 2 3 2 3 2 2 2 3 2 2 2 2 2 2 2 2 2 3 3 3 3 4 5 6 5 4 4 3 2 2 1 2 2 2 2 2 2 2 2 2 2 2 2 2 1 1 1 2 2 2 3 3 4 4 3 3 3 4 4 5 5 5 4 4 3 3 4 4 5 4 4 3 3 4 3 2 1 1 0 0 1 1 1 1 1 2 3 3 3 1 0 0 2 3 3 3 2 1 0 0 0 0 1 1 2 2 3 2 2 2 2 2 3 3 2 2 1 0 1 1 2 3 3 3 2 2 2 3 4 4 3 2 2 2 2 2 2 1 1 0 0 0 0 0 1 1 1 1 1 1 1 2 4 4 5 4 3 3 2 2 2 2 2 2 2 2 3 3 3 3 2 1 1 1 2 2 3 3 2 2 1 1 1 1 2 2 3 2 2 1 2 3 3 1 1 1 2 2 3 3 3 2 2 2 3 3 2 2 3 3 2 2 2 2 2 6 9 12 13 15 18 31 29 34 22 15 4 2 1 1 1 2 2 1 1 0 0 0 1 2 2 1 1 1 2 2 2 2 3 3 4 3 3 3 3 3 3 3 4 3 2 2 2 2 4 4 5 5 4 3 2 2 2 2 3 3 4 5 3 3 2 3 4 3 3 3 3 3 3 3 4 5 5 4 3 3 3 3 2 2 1 1 1 1 1 2 2 2 3 3 4 4 4 3 3 3 4 4 5 5 4 3 3 3 2 2 2 2 2 1 1 1 2 2 3 3 2 2 1 1 1 2 2 2 3 2 2 2 3 3 3 1 1 1 1 2 2 2 2 2 3 3 2 1 1 0 0 1 3 4 4 4 2 1 2 2 3 3 3 2 2 2 3 4 5 4 3 2 1 1 1 2 3 3 3 3 3 3 3 3 2 2 2 2 3 3 3 2 1 1 1 1 1 1 0 0 
0 3 5 4 4 4 4 4 4 6 8 7 6 5 4 3 2 1 2 2 3 3 3 2 2 2 3 2 3 4 6 7 6 4 4 5 5 5 5 4 3 3 2 1 1 2 3 3 2 1 2 2 2 2 1 1 0 1 1 2 2 3 3 3 3 2 2 2 2 2 2 1 1 1 1 1 1 1 2 2 3 4 4 4 3 2 3 3 3 3 3 3 3 3 3 2 2 2 1 2 2 2 2 2 2 2 2 2 2 2 2 3 3 3 3 3 3 4 5 6 5 4 4 3 2 1 1 1 1 0 1 1 1 2 2 2 3 2 2 1 0 0 1 1 1 2 2 2 2 2 2 2 3 4 5 6 6 5 4 4 3 3 4 5 5 4 3 2 3 3 3 3 2 1 1 1 1 1 1 2 2 2 3 3 2 1 1 1 2 2 2 2 1 1 0 0 0 1 1 1 1 2 2 2 2 1 1 2 3 3 3 2 1 0 0 1 2 2 2 2 2 2 2 3 3 2 2 2 2 2 2 3 3 2 1 1 0 0 0 0 1 1 1 0 0 1 1 3 4 5 4 4 3 2 2 2 3 3 3 2 2 2 3 3 3 2 1 1 1 1 1 2 2 3 3 3 2 2 2 2 2 2 3 3 2 1 2 3 3 2 1 1 2 2 2 2 2 1 1 1 2 1 2 2 2 3 3 2 2 3 2 7 8 11 10 10 14 17 19 21 14 9 3 2 1 1 2 2 2 1 1 1 1 1 2 2 2 2 1 1 1 2 2 2 3 4 5 3 3 3 2 2 2 2 2 2 2 2 2 2 3 4 5 4 4 3 3 4 3 3 3 3 4 4 3 3 2 3 3 3 3 3 3 3 3 3 4 5 5 4 3 2 2 1 1 1 1 1 1 1 2 2 2 2 2 2 3 3 3 3 3 3 4 4 4 4 3 3 3 3 3 3 3 3 2 1 1 1 2 2 2 2 2 2 1 1 1 1 2 2 3 2 2 3 4 4 4 2 2 1 1 1 2 2 2 3 2 2 1 1 1 1 1 1 1 2 3 3 2 1 1 1 2 2 3 3 2 2 2 3 4 3 3 2 2 2 2 3 3 3 3 3 3 3 3 3 3 3 3 3 4 3 3 2 2 1 1 1 1 1 0 0 
0 4 5 4 3 3 3 3 3 5 8 8 8 7 5 4 2 2 3 5 5 5 3 2 2 2 2 3 3 5 7 9 7 5 4 3 3 4 4 3 2 1 1 1 2 3 3 3 3 2 2 2 2 2 1 1 1 1 1 2 2 2 3 3 3 2 3 3 3 2 2 1 2 1 1 1 1 1 2 1 2 3 3 3 2 2 2 2 3 3 4 3 3 3 4 4 4 3 2 1 1 1 1 1 1 1 1 2 2 1 1 2 3 3 3 2 2 3 4 5 4 4 3 2 1 0 0 0 0 0 0 1 1 1 1 2 2 2 2 1 1 1 1 1 2 2 2 2 1 1 1 2 2 3 4 5 5 4 3 2 2 3 4 5 6 5 4 3 3 3 3 3 3 2 1 1 1 1 1 2 2 2 2 2 2 1 1 1 2 2 1 1 1 0 0 0 0 1 1 1 1 2 2 2 2 1 1 1 3 3 3 2 1 1 1 1 2 2 3 3 2 2 2 3 4 4 3 2 2 2 2 3 3 3 2 2 1 1 1 1 1 1 1 0 0 1 2 3 4 3 3 3 2 2 2 2 2 3 3 2 2 2 2 2 2 1 0 0 0 0 0 1 2 3 3 3 2 2 2 2 2 2 3 3 3 2 3 4 4 3 1 1 1 1 1 1 1 1 1 1 1 1 1 2 3 3 3 3 3 4 4 9 8 10 9 8 13 11 12 8 6 4 3 2 2 1 1 2 2 2 2 2 2 1 2 2 2 1 1 1 2 2 2 2 3 4 5 4 3 2 2 2 3 3 4 3 2 2 2 3 3 4 4 3 3 2 3 3 3 3 3 3 4 5 4 3 2 3 3 2 3 3 3 3 3 3 4 4 4 3 2 2 1 1 1 1 1 1 1 1 2 2 2 1 1 1 1 1 2 2 2 3 3 3 3 3 3 3 3 3 3 3 3 3 3 2 2 1 2 2 2 2 2 2 1 1 1 1 1 2 2 2 3 3 4 5 5 4 2 1 1 1 1 2 3 3 3 3 2 2 2 2 1 1 1 1 2 2 2 2 2 2 1 1 2 2 2 2 3 2 3 2 2 2 2 3 3 3 4 4 4 4 3 3 3 3 4 3 3 3 3 3 2 2 1 1 1 1 2 2 1 0 
0 4 5 4 3 3 3 2 2 3 5 6 7 7 6 5 2 2 3 4 5 5 4 3 2 3 3 4 4 7 9 10 8 5 4 3 3 4 4 3 2 1 1 1 2 3 4 4 3 2 2 1 1 2 1 2 2 2 2 2 2 2 2 2 2 2 3 2 2 2 2 2 2 2 1 1 1 1 1 1 2 2 2 2 2 2 2 2 2 2 3 3 3 4 4 4 3 2 1 1 0 0 0 1 1 1 1 1 1 1 1 1 2 2 2 2 1 2 3 3 3 2 1 0 0 0 0 0 0 0 0 1 1 1 2 2 3 2 2 2 1 1 1 2 2 2 2 2 1 2 2 2 3 4 4 5 5 4 3 2 2 3 4 5 5 5 4 2 2 2 3 3 3 2 1 1 1 1 1 1 1 2 2 2 2 2 2 2 2 1 1 1 1 1 1 0 1 1 1 1 1 1 2 2 2 1 1 2 3 3 3 2 2 1 1 1 2 1 2 1 1 1 1 2 3 2 2 2 2 2 2 2 3 3 2 2 2 2 2 2 2 2 1 0 0 1 3 3 3 3 3 2 2 2 2 3 4 5 5 4 4 4 4 3 2 1 0 0 0 0 0 1 2 2 3 2 2 1 2 2 2 2 3 4 4 4 5 5 4 3 1 1 1 1 1 1 1 1 0 0 1 0 1 1 2 3 3 3 4 4 5 9 9 9 9 8 12 12 12 9 6 4 4 3 2 1 1 1 1 1 1 1 1 1 1 1 2 1 1 0 1 1 2 2 4 4 5 4 3 1 2 2 3 3 4 3 3 2 2 2 4 4 4 3 3 2 3 2 3 2 3 3 4 4 3 2 2 2 2 2 3 3 4 4 4 3 3 3 3 3 2 2 1 1 1 1 1 1 1 1 2 2 1 1 0 1 1 1 1 2 3 3 2 2 2 2 1 2 2 2 2 2 2 2 3 3 2 2 2 2 2 3 2 2 1 1 1 1 1 2 2 2 3 3 4 5 5 4 3 2 1 1 2 3 3 3 2 2 1 2 2 2 3 2 2 2 2 2 3 3 2 2 2 2 2 2 2 2 2 2 2 1 2 2 3 3 3 3 4 4 4 4 4 4 4 4 4 3 2 2 2 2 2 2 1 2 1 1 1 1 0 0 
0 3 4 4 2 3 3 2 2 3 3 5 6 7 6 5 4 5 6 7 6 5 4 2 2 4 5 5 5 7 10 9 8 5 4 3 4 4 5 4 2 1 0 1 2 4 4 4 3 3 2 1 0 1 1 1 2 2 2 2 2 2 2 2 2 3 3 3 2 2 2 2 2 1 1 1 1 2 2 2 1 1 1 1 2 2 2 1 1 2 3 3 3 3 4 5 4 2 1 1 0 0 0 0 0 0 0 1 1 0 0 0 1 1 1 1 1 1 1 2 1 1 0 0 0 0 0 0 0 0 0 1 1 2 2 2 2 2 2 2 2 2 2 2 2 2 2 2 1 1 2 3 3 3 3 3 3 3 3 2 2 3 3 4 4 4 3 3 2 2 2 2 2 2 1 1 1 1 1 1 1 1 1 2 1 1 1 1 1 1 1 1 1 1 1 1 1 1 1 1 1 1 2 2 2 2 2 2 3 3 2 2 2 2 2 2 2 2 2 1 1 1 1 1 2 2 3 3 3 2 1 2 2 2 2 2 2 2 2 2 3 2 1 0 0 1 3 3 4 3 3 3 2 2 2 2 3 4 4 4 4 4 3 3 2 1 0 0 0 0 1 1 2 2 3 2 2 1 1 1 2 2 4 4 5 6 6 6 4 2 1 1 2 1 1 1 1 1 0 0 0 0 0 1 2 3 3 4 5 6 6 7 8 9 10 8 10 12 13 11 8 5 4 3 2 1 1 1 1 1 1 1 1 1 1 1 1 1 1 0 0 1 1 2 3 4 4 3 2 1 2 2 3 3 4 3 3 2 2 2 3 4 4 4 3 2 2 1 2 2 3 3 3 3 3 2 1 1 1 2 3 4 4 3 4 3 3 3 3 2 2 1 1 1 1 1 1 0 0 1 2 2 1 0 0 0 1 1 2 2 3 2 2 1 1 0 0 0 0 0 0 0 1 2 3 3 2 2 2 2 2 2 1 1 1 0 1 1 1 1 1 1 2 2 3 3 4 4 4 3 3 3 3 3 2 2 3 3 3 3 3 4 4 4 4 3 3 3 3 2 2 2 2 2 2 2 2 2 2 2 1 1 1 2 2 2 2 2 3 3 3 3 4 4 5 4 3 3 2 1 1 1 1 1 1 0 0 1 1 1 1 0 
0 3 5 4 3 3 3 3 3 3 4 4 5 6 5 5 5 6 7 8 7 6 4 3 3 6 7 7 6 7 8 8 6 3 2 2 3 3 4 3 2 1 0 1 2 4 4 4 3 3 2 1 0 0 1 1 2 2 2 2 3 3 3 4 3 4 4 4 4 3 3 3 2 1 1 1 2 2 2 1 1 1 1 1 2 2 2 2 2 4 4 4 4 4 5 6 5 3 2 1 1 1 0 0 0 0 0 1 1 0 0 0 0 0 1 0 1 1 2 1 2 1 1 1 1 1 1 0 0 0 0 0 1 1 2 2 2 1 1 1 2 2 2 2 2 3 2 2 1 2 2 3 4 3 3 3 3 3 2 2 2 2 3 3 3 3 2 2 2 2 2 3 2 2 1 1 1 1 1 1 0 1 1 2 1 2 1 1 2 2 2 2 2 1 1 1 2 2 1 1 1 2 3 3 3 2 2 2 2 2 1 1 1 2 2 2 3 2 2 1 1 1 1 2 2 3 3 3 3 2 1 1 1 2 2 2 2 2 2 2 2 2 2 1 1 2 3 3 3 2 3 2 2 1 1 2 3 4 5 4 5 5 5 4 3 1 1 0 0 0 1 1 3 2 3 2 2 2 1 2 3 4 5 5 6 6 6 5 3 1 1 2 2 2 1 1 1 1 1 0 0 0 0 1 2 3 3 4 6 6 6 6 6 9 11 11 12 13 14 12 9 5 5 3 2 1 1 2 1 1 1 1 1 1 1 1 1 1 0 0 0 0 1 3 4 4 4 3 2 1 2 2 3 3 4 4 3 2 2 3 3 4 4 4 4 3 2 2 3 2 2 2 3 2 2 2 1 1 2 3 4 4 4 4 4 3 3 3 3 3 2 2 1 1 1 1 1 1 1 1 2 1 1 0 0 1 1 1 2 2 2 2 1 1 0 0 0 0 0 0 0 0 0 1 2 2 2 2 3 3 3 2 2 2 1 1 1 1 1 0 1 2 2 3 3 3 3 3 3 3 3 3 3 3 2 2 3 3 4 4 4 4 4 3 3 3 3 2 2 1 1 2 3 3 3 3 2 2 1 1 1 1 1 1 2 2 2 2 3 3 3 3 4 5 4 4 2 3 2 2 2 2 2 2 1 1 1 1 1 1 1 0 
0 3 4 3 2 3 3 3 3 3 4 4 4 4 4 5 5 6 7 8 8 7 6 6 6 8 8 7 6 6 6 6 4 3 3 2 3 4 4 3 2 1 1 2 3 4 5 4 4 3 3 1 0 0 1 1 2 2 2 3 2 3 3 3 3 3 3 3 3 3 3 3 2 1 0 1 2 2 2 2 2 2 2 1 2 2 2 2 2 3 3 4 4 4 5 5 4 3 2 2 2 2 1 0 0 0 1 1 1 0 0 1 1 1 1 0 1 1 2 1 2 1 2 1 1 1 1 0 0 0 0 1 1 2 2 2 1 1 1 1 2 2 2 2 3 3 3 2 2 2 3 4 4 3 3 3 3 3 2 2 2 2 2 2 2 2 2 1 2 2 2 2 2 2 2 1 1 1 1 1 0 0 1 1 2 1 1 1 1 2 3 3 2 1 1 1 2 2 2 2 2 3 3 3 3 2 2 3 3 3 2 2 1 2 2 2 3 3 2 1 1 1 2 2 2 2 3 3 3 3 2 3 3 2 1 1 1 2 1 1 2 2 2 1 1 2 3 3 3 3 3 2 2 2 2 2 2 3 3 3 3 3 3 3 2 1 1 1 0 0 1 1 3 2 3 2 2 2 2 3 4 5 6 7 7 7 7 5 3 2 2 3 3 2 2 1 1 1 1 0 0 0 0 1 2 2 4 5 7 6 5 5 6 9 12 13 12 13 14 12 9 6 5 4 2 2 1 2 1 1 1 1 1 1 1 1 2 1 1 0 0 0 1 3 4 5 5 3 3 1 2 2 3 3 4 4 3 3 3 3 3 3 4 4 3 2 2 2 2 2 2 2 2 2 2 1 1 1 2 3 4 4 4 3 3 3 3 3 3 3 2 2 1 2 1 1 1 1 1 1 2 1 1 1 1 2 1 2 2 2 2 1 1 1 1 1 1 1 1 1 0 0 0 1 2 2 2 2 3 3 3 2 1 1 1 1 1 1 1 1 1 2 2 3 3 3 2 3 3 3 3 2 2 2 2 2 3 4 5 6 6 6 5 4 4 3 3 2 1 0 0 1 2 3 3 3 2 2 1 1 1 1 1 1 2 2 2 3 3 3 3 2 3 4 3 4 2 2 2 2 2 3 2 2 1 1 0 1 1 1 1 0 
0 2 4 3 3 2 2 2 3 3 4 4 3 3 3 3 4 5 6 7 10 11 12 11 12 12 11 8 6 6 5 4 3 3 3 3 3 4 3 3 2 2 3 3 4 5 5 4 4 4 3 2 1 1 2 2 2 2 2 2 1 2 2 3 3 4 5 5 4 3 3 4 2 1 1 1 2 2 2 2 2 2 2 2 2 2 1 2 2 4 5 5 4 4 6 7 6 4 2 2 2 2 1 1 1 1 1 1 1 1 1 1 1 1 2 1 1 1 1 1 1 1 2 1 1 1 1 1 1 1 1 1 1 1 1 2 1 1 1 1 2 2 2 3 3 3 2 2 3 3 4 4 3 3 2 2 2 1 1 1 1 2 1 1 1 1 1 0 1 1 2 2 2 2 2 2 2 2 1 1 1 1 1 1 2 2 2 2 2 2 3 3 2 2 1 2 2 2 1 2 2 3 3 3 2 2 1 2 3 3 2 2 2 2 2 3 4 3 2 1 1 1 2 2 2 3 3 3 4 4 4 4 4 3 2 2 1 1 1 1 2 2 2 2 2 2 3 3 2 2 2 2 2 2 2 2 3 3 4 3 3 4 4 4 3 1 1 1 1 1 1 1 2 2 3 2 2 2 2 3 4 5 5 6 6 6 5 4 3 2 2 2 2 2 1 1 1 1 1 0 0 0 0 1 2 2 3 4 5 6 6 6 7 10 11 13 13 13 14 11 8 5 4 4 2 2 2 3 2 2 2 1 1 1 1 1 2 1 1 0 0 1 1 2 4 5 6 4 3 2 2 3 3 3 4 3 3 3 3 4 4 3 4 3 3 2 2 2 2 1 1 1 2 2 2 1 1 1 2 3 3 4 3 2 2 2 2 3 2 2 2 2 2 2 2 1 1 2 2 2 2 1 1 1 1 1 1 2 2 1 1 1 1 1 1 2 2 2 2 1 0 0 0 1 2 2 2 2 3 3 3 2 2 2 2 2 2 1 1 1 2 2 3 3 3 3 2 3 2 3 3 2 2 2 2 3 4 6 7 7 7 6 5 3 3 2 2 2 1 1 0 1 2 3 3 3 2 2 2 1 1 1 1 1 1 2 3 3 3 3 3 2 2 3 2 3 2 2 2 2 2 2 2 2 2 1 1 1 2 2 1 0 
0 1 2 3 3 3 3 3 3 3 3 3 3 3 3 2 3 3 3 6 11 15 17 15 16 14 14 11 8 6 5 3 2 2 2 2 2 3 3 3 2 2 3 4 5 5 4 4 4 3 2 2 1 1 2 2 3 3 3 3 2 2 2 2 2 2 3 3 3 3 3 3 3 2 1 2 2 3 3 2 2 2 2 2 1 2 1 2 2 2 3 3 3 4 4 3 3 3 3 3 2 2 2 1 1 1 1 1 1 1 1 1 2 2 2 2 2 2 2 1 1 1 1 1 1 1 1 1 1 1 2 2 2 3 2 2 1 1 0 1 1 1 1 2 3 3 3 2 3 4 4 4 4 4 3 3 2 2 1 1 1 2 2 2 1 1 0 1 1 2 3 3 2 2 2 2 2 2 1 2 1 2 2 3 3 3 2 2 2 2 2 3 2 2 1 2 2 2 2 3 3 3 3 3 2 3 3 4 4 4 4 3 2 2 2 3 3 2 1 0 1 1 2 2 2 2 4 5 5 5 4 4 4 3 3 2 1 1 1 1 2 2 2 1 1 2 3 3 3 2 2 2 2 3 3 3 3 3 3 3 3 3 3 3 3 2 1 1 1 1 2 2 2 2 3 2 2 2 3 3 4 4 5 6 7 7 8 6 5 3 3 2 2 3 3 3 2 2 1 1 0 0 0 1 1 2 3 4 5 6 6 7 8 9 11 12 13 12 12 9 6 4 4 3 2 3 2 3 2 2 1 1 1 1 2 2 1 1 1 1 1 1 2 2 3 3 4 3 3 2 3 3 3 3 3 2 3 2 3 3 4 3 4 2 2 2 2 2 1 1 1 1 2 2 2 2 2 3 3 3 4 4 3 2 1 1 1 2 2 2 2 3 4 4 3 2 2 3 3 2 2 2 2 2 2 1 2 2 2 1 1 1 1 1 2 3 3 3 3 2 1 0 0 1 2 2 2 2 3 3 4 3 3 2 3 2 3 1 2 2 2 2 3 3 3 2 2 3 3 2 2 1 2 1 2 3 4 5 6 6 7 6 4 3 3 2 1 1 1 1 1 1 1 1 1 1 2 1 1 1 1 1 1 1 1 2 3 3 3 2 3 2 2 2 2 2 2 2 2 3 3 3 3 2 2 2 1 2 2 2 1 0 
0 0 1 2 3 3 3 3 3 3 3 3 3 2 2 1 3 3 3 7 13 18 19 16 18 17 17 13 9 7 5 3 2 4 4 4 4 4 4 3 2 2 3 4 4 3 3 3 3 3 2 2 2 2 2 3 3 3 3 3 3 3 2 2 2 2 3 4 3 3 3 3 2 2 1 2 2 3 3 3 3 2 2 2 1 2 1 2 2 3 3 3 3 3 3 4 3 3 2 2 2 2 2 2 2 1 1 1 1 1 1 2 2 2 3 3 3 3 2 1 1 1 1 1 1 1 2 2 2 2 2 2 3 3 2 2 1 2 1 1 1 0 0 1 2 2 2 2 3 4 5 5 4 4 3 3 2 1 1 1 2 2 2 2 2 2 1 1 2 3 4 3 3 3 3 3 3 2 2 2 2 4 3 4 4 4 5 4 3 2 2 3 3 2 1 1 1 1 1 2 2 3 3 3 4 4 5 5 4 4 3 3 2 2 2 2 3 1 1 1 1 1 2 1 2 3 4 4 4 4 4 4 4 4 3 2 1 1 1 1 2 2 2 1 1 2 2 2 2 2 2 1 2 2 3 4 4 5 6 5 5 5 5 4 3 2 2 2 2 2 2 2 2 2 3 2 2 2 3 3 3 3 3 4 5 5 5 4 4 3 3 2 2 3 3 3 3 2 2 1 1 1 1 1 1 1 2 3 4 4 6 7 7 8 8 9 9 9 8 6 4 3 3 3 3 3 2 2 2 1 1 1 1 2 2 2 1 1 1 1 1 1 2 2 2 3 3 3 3 3 2 2 2 2 2 2 2 2 2 3 4 4 4 2 2 1 1 1 1 1 1 1 2 2 2 3 3 3 3 3 3 3 2 2 1 1 2 2 2 2 3 3 3 4 4 3 2 3 3 3 2 2 1 2 1 2 2 2 1 1 0 1 1 1 1 2 3 3 2 2 1 1 0 1 1 2 2 2 2 3 3 3 4 3 5 2 3 1 2 2 2 2 2 2 2 2 3 3 3 3 3 2 2 1 2 2 3 4 5 5 4 4 4 4 2 1 1 1 1 1 2 2 2 1 1 0 0 1 1 1 1 1 2 1 2 2 3 3 2 2 1 1 1 1 2 2 3 3 2 2 2 2 2 2 2 1 1 2 2 2 1 0 
0 1 2 2 2 3 3 3 3 3 3 3 3 2 2 1 2 2 3 8 15 21 20 16 17 18 19 13 8 5 4 3 3 3 3 3 3 3 3 3 2 2 2 2 2 2 2 2 2 2 2 2 2 2 2 3 3 3 3 3 2 2 2 2 2 2 2 2 3 2 3 2 2 1 1 2 2 3 2 2 1 1 1 1 2 2 1 1 1 1 1 1 1 1 1 1 2 3 3 3 3 3 3 2 2 1 1 1 1 1 2 2 3 3 2 2 3 3 3 2 1 1 1 1 1 2 2 3 3 3 3 3 3 3 3 3 2 2 1 1 0 0 0 1 3 3 3 2 2 3 4 4 4 4 3 2 1 1 1 2 2 2 2 2 2 2 1 2 3 4 4 4 4 4 4 3 3 3 3 3 3 5 4 5 4 4 5 6 5 4 2 2 2 2 1 0 0 0 1 2 3 4 4 5 5 5 5 6 5 3 2 2 2 3 3 2 2 0 1 1 1 1 1 1 2 3 4 5 6 5 4 3 3 3 4 4 3 3 2 2 1 1 1 1 1 1 1 1 2 2 2 1 2 2 3 3 3 4 4 3 3 3 3 3 3 2 2 2 1 1 1 2 2 3 3 2 2 2 3 3 2 2 3 4 5 6 5 5 4 4 4 3 3 3 4 4 3 2 2 2 2 1 1 1 1 1 1 2 3 4 4 5 6 6 6 6 6 6 6 5 4 3 3 3 3 3 3 3 3 1 1 1 1 2 2 2 1 1 1 1 1 2 2 2 2 2 1 2 2 2 2 2 2 2 2 2 1 2 2 3 3 3 4 2 2 2 2 2 2 1 2 1 1 1 2 4 4 4 3 3 3 3 2 1 1 1 1 1 1 2 2 3 4 5 5 4 3 4 3 3 2 2 1 2 2 2 2 2 1 1 1 1 1 1 2 2 4 4 3 2 1 1 1 1 1 1 1 1 2 2 2 2 3 3 5 3 3 1 1 1 2 2 2 2 2 1 3 3 3 3 3 2 2 1 1 1 2 3 3 3 3 3 3 3 2 2 1 1 1 2 2 2 2 1 1 0 0 0 0 1 2 2 3 3 3 3 3 3 3 2 1 1 1 1 3 3 3 3 3 3 2 2 2 2 2 1 1 1 1 1 1 0 
0 1 2 2 1 2 2 2 1 1 1 2 2 1 1 1 2 4 5 10 15 20 19 16 16 18 18 14 10 7 5 4 4 4 4 3 3 3 3 3 3 3 3 3 3 3 2 3 3 3 3 3 3 4 4 5 4 4 4 3 2 2 2 2 2 2 2 2 2 2 2 2 1 1 1 2 2 2 2 1 0 0 1 1 2 2 1 1 0 0 0 0 0 0 1 1 2 2 2 2 2 2 2 2 2 1 1 1 1 1 2 3 3 2 1 1 2 3 3 2 1 1 1 1 1 3 3 3 3 3 3 4 3 3 3 3 2 2 1 0 0 0 0 1 2 3 3 3 3 4 4 4 4 3 2 1 0 0 1 2 3 2 1 1 1 2 2 2 3 3 4 5 5 6 5 4 3 2 3 3 4 6 4 4 3 4 5 5 5 5 6 6 4 2 1 0 0 0 1 1 2 3 5 6 6 6 5 5 4 3 2 2 3 3 3 3 2 1 1 1 2 2 1 1 1 2 4 5 6 6 5 4 4 3 3 3 3 3 3 2 1 1 1 1 1 1 1 1 2 2 2 1 2 3 3 3 4 4 5 4 4 4 3 3 2 2 2 2 2 1 1 2 2 3 2 1 1 2 3 3 3 3 3 3 3 3 3 3 3 4 4 3 4 3 4 3 3 2 2 2 2 2 1 1 1 1 1 2 2 3 2 3 4 5 5 4 4 4 4 4 3 3 4 3 3 3 4 4 3 2 1 1 2 2 2 2 1 1 1 1 1 2 2 2 2 2 2 2 2 2 2 2 2 2 2 1 1 1 2 2 3 3 3 2 2 2 2 2 2 2 2 1 1 1 2 4 4 4 3 3 2 2 2 1 1 1 1 1 1 2 2 3 4 5 7 7 7 6 5 4 3 2 1 1 2 2 2 2 0 1 1 1 1 0 1 2 3 4 3 2 1 2 2 2 1 1 1 1 2 2 1 1 3 3 5 2 3 1 1 1 1 2 1 2 2 1 2 2 3 3 3 2 2 1 1 1 2 2 2 2 2 3 3 3 3 2 1 1 1 1 2 2 1 1 1 1 1 0 1 1 2 3 3 3 3 3 3 3 2 2 1 1 1 2 3 3 3 3 2 2 2 2 2 2 2 1 1 0 1 1 1 0 
0 2 2 2 1 1 1 2 1 1 0 1 1 0 0 1 2 4 4 9 14 18 18 16 16 16 14 9 5 4 4 3 3 3 3 2 2 2 3 3 3 3 2 2 2 2 2 3 4 5 5 4 4 5 5 6 6 5 4 4 3 2 2 2 2 2 2 2 2 1 2 1 1 1 1 2 2 2 1 0 0 0 0 1 2 2 1 0 0 0 0 0 0 0 0 1 3 4 4 4 3 3 3 3 2 1 1 1 1 2 3 3 3 2 1 1 1 2 2 2 2 1 1 2 2 3 3 4 3 3 3 3 3 3 3 3 2 1 0 0 0 0 0 1 2 4 4 4 5 5 4 4 3 2 1 1 1 1 2 2 3 2 1 1 1 1 2 2 2 3 3 5 6 6 5 4 3 2 2 2 4 5 4 4 2 2 3 4 4 5 5 5 4 3 1 0 0 1 1 1 3 5 8 8 6 6 5 6 5 3 3 3 3 4 4 4 3 2 2 2 2 2 1 2 1 3 4 6 7 7 6 5 5 5 6 6 5 4 3 3 1 0 0 1 1 0 1 0 2 2 2 1 2 3 3 2 2 2 3 2 2 2 2 2 1 1 1 1 1 1 2 2 3 3 3 2 2 3 3 3 2 1 2 3 3 3 3 3 3 4 4 3 4 4 4 3 2 2 2 2 1 1 0 1 1 1 1 1 1 1 2 2 3 4 5 4 4 3 3 4 4 5 5 4 3 3 4 4 3 2 1 1 1 2 2 2 2 2 1 1 1 2 3 3 2 2 2 3 3 2 2 2 2 2 1 1 0 1 1 2 3 3 3 3 2 2 2 2 3 2 2 2 1 1 2 3 4 3 2 2 2 2 2 1 1 1 1 1 1 2 2 3 3 5 6 7 6 7 6 5 3 2 1 2 3 3 2 1 0 1 1 2 1 1 1 1 3 3 3 3 2 2 2 2 1 1 1 2 3 2 2 2 3 3 5 2 3 1 2 1 2 2 1 2 1 2 2 2 3 3 3 3 2 1 1 1 1 1 1 1 1 2 2 3 3 3 2 1 1 1 1 1 1 1 1 1 1 1 1 2 3 4 3 3 3 3 3 2 2 2 1 2 2 3 3 3 3 2 2 1 1 1 1 2 1 1 0 0 1 1 1 0 
0 2 2 2 2 2 2 2 1 1 0 0 0 0 0 1 2 5 4 7 10 12 14 12 13 13 11 8 6 5 5 4 3 3 3 3 2 2 2 3 4 3 3 3 4 4 5 6 7 7 6 5 5 6 7 8 8 7 7 6 5 4 3 3 3 3 3 2 1 1 1 1 1 1 1 2 2 1 0 0 0 0 0 1 2 2 1 0 0 0 0 0 0 0 0 1 2 3 4 4 3 3 3 2 2 2 1 1 1 2 3 3 2 1 0 1 1 2 2 1 1 2 2 3 2 3 4 4 4 3 2 3 3 3 2 2 1 0 0 0 0 0 0 1 3 4 5 5 6 5 5 4 3 2 2 1 1 1 2 3 3 2 1 0 0 0 1 1 2 3 5 6 6 6 5 4 3 2 2 2 4 4 4 3 2 2 2 2 2 5 6 7 5 3 1 1 1 1 1 2 2 4 7 8 7 6 5 6 5 4 4 4 3 3 3 4 4 3 3 3 3 3 2 3 2 3 4 6 7 6 6 5 5 5 5 5 4 3 2 2 1 0 0 0 0 0 0 0 2 2 2 2 3 3 2 1 2 3 3 2 1 2 1 1 1 1 1 2 2 2 2 2 3 3 3 2 2 3 3 3 2 2 2 2 2 2 2 2 3 3 3 3 4 4 4 3 2 2 2 2 1 1 1 1 1 1 1 0 1 2 2 2 2 3 4 5 4 4 3 3 5 6 6 4 3 2 3 3 3 2 1 1 2 2 3 3 3 3 2 1 2 2 3 2 2 2 2 3 3 3 3 2 2 1 0 0 0 0 0 2 3 4 4 3 2 2 2 2 3 3 2 2 1 1 1 2 3 3 2 2 2 2 2 2 2 2 1 1 2 2 3 3 3 4 5 6 8 9 8 7 5 3 2 2 3 3 2 1 0 1 1 2 1 1 1 2 3 3 3 3 2 3 2 3 2 2 2 3 3 3 2 3 4 3 5 3 4 2 2 2 2 2 2 3 1 2 1 2 2 3 3 2 2 1 1 1 1 1 1 1 1 2 2 3 3 3 2 1 0 0 0 0 0 0 1 1 1 1 2 3 3 3 2 2 2 2 2 2 1 2 2 2 3 3 3 3 2 2 1 1 1 2 1 2 1 1 0 0 1 1 1 0 
0 1 2 2 1 2 1 2 1 1 0 0 0 0 0 2 2 4 5 7 9 9 10 9 11 10 8 6 4 3 3 3 4 5 4 4 3 2 2 2 3 3 3 3 4 4 5 6 8 7 6 5 5 7 8 8 8 8 7 7 6 5 4 3 3 3 3 3 2 1 1 1 2 1 2 2 2 1 1 0 0 0 0 1 2 2 1 1 0 0 0 0 0 0 0 1 3 5 6 5 4 4 3 3 2 2 2 2 2 2 3 2 1 0 0 1 2 2 2 1 1 2 3 3 2 3 3 4 3 2 2 2 2 2 1 1 1 0 0 0 1 0 1 2 3 4 5 6 6 6 5 4 3 2 2 2 2 2 2 3 3 2 1 1 0 0 1 1 2 3 4 5 5 4 4 4 4 2 2 2 3 4 3 3 3 3 3 3 3 4 5 5 4 2 1 1 1 1 1 1 2 4 7 9 9 8 7 6 5 4 5 4 4 3 3 4 4 3 4 3 4 4 2 3 2 3 4 5 6 6 5 5 5 5 5 5 4 3 2 2 1 0 0 0 0 0 0 1 2 2 2 3 3 3 2 2 2 2 2 1 1 1 1 1 1 1 1 1 2 2 2 2 3 3 3 3 3 3 3 3 2 2 2 2 2 2 3 2 2 2 2 3 4 4 3 2 2 1 1 1 1 1 1 1 1 1 0 0 1 2 2 2 2 3 3 5 4 4 3 3 5 6 6 5 3 2 3 3 3 2 1 2 2 3 4 4 4 4 3 2 2 2 2 3 2 2 2 3 3 3 3 2 2 1 0 0 0 0 0 2 3 4 5 3 3 2 2 3 3 3 2 2 1 1 1 1 2 2 2 2 2 3 3 3 2 2 1 1 2 2 3 3 3 4 5 5 6 7 8 7 5 3 3 3 3 2 1 1 1 1 1 1 1 1 2 2 3 3 3 3 3 3 2 3 3 4 4 4 3 3 2 3 3 3 5 3 4 2 3 2 3 2 2 3 2 2 1 2 2 3 3 2 2 2 1 1 1 1 1 1 1 2 2 3 3 3 1 0 0 0 0 0 0 0 1 1 1 1 2 3 3 3 2 2 1 1 1 2 2 2 2 3 4 4 4 3 2 1 1 1 2 2 1 2 1 0 0 1 1 1 0 0 
0 1 2 1 1 1 1 1 1 1 0 0 0 0 1 2 3 4 5 7 9 8 9 8 9 9 7 6 5 4 4 4 4 4 4 3 2 2 2 3 4 4 4 4 5 6 6 7 7 6 5 4 5 7 8 8 7 7 7 6 6 6 5 3 3 3 3 3 3 2 2 2 2 3 3 2 2 1 1 0 0 0 1 1 2 2 1 1 0 1 1 1 0 0 0 1 3 4 4 5 5 5 3 2 1 1 2 3 3 3 3 2 1 0 0 1 2 2 1 1 1 3 4 3 3 3 4 5 4 2 2 2 1 1 1 1 1 1 1 1 1 1 2 3 4 6 5 5 5 5 4 3 3 2 2 2 2 2 3 2 2 1 1 1 1 1 1 2 2 3 3 4 3 3 3 3 3 3 3 3 4 4 2 2 3 4 5 4 4 4 4 4 3 2 1 0 0 1 1 1 1 3 6 8 9 9 7 6 5 4 5 5 4 3 2 3 4 3 3 3 3 3 3 2 2 2 3 4 4 4 4 3 3 3 4 4 3 3 3 3 2 2 1 0 0 0 0 1 2 2 3 3 4 3 2 2 2 2 2 1 1 1 1 2 1 2 1 2 2 2 2 1 2 3 4 4 3 3 4 3 3 2 2 2 2 2 3 2 2 2 3 4 4 3 3 2 2 2 1 2 2 2 1 1 1 1 1 1 1 2 2 2 1 2 3 4 4 3 3 3 4 5 5 4 3 2 2 3 2 1 1 2 3 3 3 4 4 4 3 2 1 2 2 2 2 1 1 2 3 3 3 2 1 1 0 0 0 0 0 1 3 3 4 3 3 2 2 3 3 3 3 2 2 1 1 1 2 2 2 2 2 2 2 3 2 2 2 2 3 3 3 3 3 4 4 4 5 6 6 6 6 4 3 3 3 2 1 1 1 1 1 1 1 1 2 2 3 3 3 3 2 3 3 3 4 4 4 3 2 2 2 2 3 3 4 3 4 2 3 2 3 2 2 2 2 2 1 1 1 2 2 2 1 1 1 1 1 1 1 1 2 2 2 3 3 2 2 0 0 0 0 0 1 1 1 1 1 0 2 2 3 2 2 2 2 1 2 2 3 3 3 2 3 4 4 3 2 2 2 2 1 1 1 1 1 0 0 1 1 1 0 0 
0 0 1 1 1 1 1 1 1 1 0 0 0 0 1 2 3 4 5 7 8 8 8 6 7 6 5 5 4 4 4 4 6 6 5 4 3 3 3 3 4 4 4 5 6 6 7 7 6 5 4 4 6 8 8 8 7 7 7 7 7 7 6 5 4 4 4 3 3 2 3 3 3 3 3 2 2 2 2 2 2 2 2 2 2 3 2 2 1 1 1 1 1 1 1 2 3 4 5 5 5 4 3 2 1 1 2 3 4 4 4 2 1 0 1 1 2 2 1 2 2 3 4 3 3 2 3 3 3 2 2 2 2 1 1 1 2 2 2 3 4 4 3 3 3 4 4 4 4 4 3 3 3 2 2 2 2 2 3 2 2 1 2 2 2 1 2 2 3 3 3 4 4 4 3 3 4 3 4 3 3 4 2 2 3 4 4 4 4 5 5 4 3 2 1 1 1 1 1 1 1 3 5 7 8 8 7 5 4 3 4 4 4 3 3 3 3 2 2 2 2 2 2 2 2 1 2 3 4 5 4 3 2 2 2 2 2 3 3 3 2 2 1 1 1 0 0 1 2 2 3 4 4 3 3 4 3 3 2 2 2 2 2 2 2 2 1 1 2 2 2 2 2 2 3 3 3 2 3 3 3 3 3 3 3 4 4 3 2 2 3 4 5 4 3 2 2 2 1 1 1 1 0 1 1 1 1 1 2 2 2 2 2 3 3 4 3 3 2 3 3 3 4 4 3 2 2 2 2 2 2 3 3 4 3 3 3 3 3 2 2 2 2 3 2 2 1 2 2 2 2 2 1 1 1 0 0 0 1 1 2 2 3 3 2 2 2 2 3 3 3 3 3 2 2 1 2 2 2 1 1 2 3 3 3 2 3 3 3 3 3 3 5 6 7 6 6 6 6 6 4 3 4 3 3 2 1 2 1 1 1 1 1 1 2 2 3 2 2 3 2 3 3 4 4 4 4 4 2 2 1 2 2 2 3 3 3 3 3 2 2 2 2 2 2 2 1 1 1 1 2 2 2 1 2 2 2 2 2 2 3 3 2 2 2 2 2 1 1 0 0 1 2 2 2 1 1 1 2 2 4 3 3 3 2 2 2 3 3 4 4 4 4 4 4 3 3 3 2 2 2 3 2 2 1 0 0 1 1 1 0 0 
0 1 1 1 1 1 1 1 1 1 0 0 0 0 1 2 3 4 4 7 8 7 7 5 6 5 5 4 4 4 4 4 5 4 3 2 2 3 3 4 4 3 4 5 6 6 6 6 6 5 5 6 8 9 10 9 8 8 8 8 8 9 8 7 7 6 5 3 2 2 3 4 5 4 4 2 2 2 2 3 3 3 2 2 2 2 2 2 2 1 2 1 1 1 1 2 3 4 4 5 6 6 5 4 3 3 3 4 4 5 5 4 2 2 2 2 2 2 1 2 2 3 4 3 3 2 3 3 2 2 2 2 2 2 1 1 2 2 3 4 5 5 4 4 4 5 4 4 4 5 4 4 3 3 2 2 3 2 3 1 2 1 2 2 2 2 2 3 3 3 2 3 3 3 3 3 4 3 3 3 3 3 2 2 3 3 4 5 4 4 3 3 2 1 1 1 1 1 1 1 2 3 4 6 7 7 6 4 3 3 2 2 2 3 3 3 2 2 0 0 1 1 1 1 1 1 1 2 3 4 3 3 3 3 4 4 4 5 5 5 5 5 4 2 1 1 2 3 4 4 4 4 3 3 3 3 3 2 2 3 2 3 3 3 2 1 1 1 1 2 2 2 1 2 2 2 2 1 2 2 3 3 3 3 4 4 4 3 3 2 3 4 4 4 3 2 2 1 1 1 1 0 0 0 0 1 1 2 2 2 2 2 2 3 4 4 3 2 2 2 2 2 3 3 3 2 2 2 3 3 3 3 3 3 2 2 1 2 2 2 1 1 2 3 2 3 2 2 2 2 2 2 1 1 1 1 1 1 1 1 2 2 2 2 1 1 1 2 2 3 3 3 4 3 3 2 2 2 2 2 2 3 3 3 3 2 3 3 3 3 2 2 3 4 4 4 3 2 2 3 3 3 3 3 3 2 2 2 1 1 0 1 2 2 3 2 2 2 2 2 1 2 3 4 4 3 3 3 3 3 1 2 1 2 2 2 2 3 3 3 2 2 2 2 2 2 2 1 1 1 2 2 2 2 2 2 3 3 3 3 4 3 3 2 2 2 3 2 1 1 2 2 2 2 2 1 1 1 2 2 3 3 3 3 3 3 2 3 3 4 4 4 5 4 3 3 3 3 3 3 3 3 3 2 1 1 1 1 1 1 0 0 
0 0 1 1 1 1 2 2 2 2 1 0 0 0 1 2 2 3 2 4 4 5 5 4 4 3 3 3 3 3 3 3 3 4 3 3 3 3 4 3 3 2 4 5 6 6 6 5 5 6 7 8 9 10 10 9 9 8 8 8 8 9 9 8 9 8 6 3 1 2 4 6 6 4 3 2 2 2 3 4 4 4 3 2 2 2 3 2 2 1 1 1 1 1 1 2 3 5 5 7 6 5 4 4 3 3 4 4 4 5 5 5 4 3 3 3 3 2 2 3 4 4 5 3 4 3 2 3 2 2 2 2 2 2 2 1 2 3 4 5 6 6 5 4 3 3 3 3 3 3 3 3 3 3 3 2 3 2 2 1 1 1 2 2 3 3 2 2 3 3 4 4 4 4 4 4 4 3 3 3 3 3 2 2 3 4 4 4 4 5 4 3 2 2 2 2 1 1 1 1 2 2 3 3 3 3 3 2 2 2 1 2 2 2 3 3 2 1 0 0 0 0 0 1 1 1 1 1 2 3 2 3 2 2 3 3 3 4 4 4 4 4 3 3 2 2 3 4 4 4 4 4 3 3 3 3 3 3 3 3 4 5 4 3 3 1 1 1 2 3 3 2 1 1 1 1 1 1 1 1 2 3 3 3 3 3 3 3 3 3 4 4 4 4 3 3 2 1 0 0 0 0 0 0 0 0 1 2 3 3 3 3 3 3 4 3 2 2 1 2 1 2 2 2 2 2 2 2 3 3 4 3 4 3 3 2 2 2 2 2 2 2 2 3 3 4 3 3 3 3 3 2 2 2 1 1 1 1 1 1 2 2 1 1 1 0 0 0 1 2 3 4 4 3 3 1 2 2 3 3 3 3 3 4 3 2 3 3 3 2 2 3 4 3 3 3 3 3 3 2 2 2 3 3 4 3 3 3 2 1 0 1 2 2 2 2 2 2 2 2 1 2 2 3 2 3 4 4 3 4 2 2 2 1 1 1 2 3 2 3 2 3 2 2 1 1 2 2 2 2 2 3 3 3 2 2 3 3 4 4 4 4 3 2 3 2 2 3 2 3 3 3 3 2 2 2 1 1 2 2 3 3 3 4 4 3 3 2 2 3 4 5 4 4 3 3 3 3 3 4 4 4 3 3 2 1 1 1 1 1 0 0 
0 1 1 1 1 1 2 3 2 2 2 1 1 0 1 2 2 2 3 4 4 4 3 3 3 4 4 4 4 4 4 4 3 3 3 2 2 2 3 3 2 2 3 5 6 5 5 5 6 7 8 9 10 10 10 9 8 8 7 7 7 7 8 8 10 9 8 5 2 2 5 7 7 4 3 2 2 3 4 4 4 3 3 3 2 2 2 2 1 1 1 1 1 1 1 2 2 3 4 4 5 6 6 6 5 5 4 3 3 4 4 4 4 3 3 3 3 2 2 3 4 4 5 4 4 4 3 3 3 2 2 2 2 2 2 2 2 3 4 5 6 6 5 4 3 3 4 4 4 4 4 4 4 4 4 2 3 1 2 1 0 0 1 2 3 3 2 3 4 5 5 4 4 3 4 4 4 2 2 2 3 3 3 3 3 3 4 5 5 5 5 4 3 3 2 2 2 1 1 2 2 2 2 2 2 2 2 1 1 1 1 1 2 2 3 2 2 2 1 0 0 0 0 1 1 1 1 1 2 3 2 4 4 5 5 6 6 7 7 8 8 7 5 3 2 3 4 6 6 5 4 4 3 3 3 3 3 3 3 5 5 5 4 3 2 2 1 1 1 2 2 2 2 1 1 1 1 1 1 1 2 2 2 2 1 1 2 3 4 4 4 4 3 3 2 2 1 1 0 0 0 0 0 0 0 0 1 1 3 3 3 3 3 3 3 2 1 1 1 2 2 3 2 2 2 2 2 3 4 3 4 3 3 3 2 3 2 2 3 2 2 2 2 3 3 4 4 4 4 3 3 2 2 2 1 2 1 1 1 2 2 2 2 1 1 1 0 1 1 2 2 3 3 2 3 1 2 2 3 3 3 4 3 3 3 2 1 2 2 2 2 2 2 2 2 1 1 1 1 1 1 2 3 4 4 3 3 3 2 1 1 2 2 3 3 3 2 3 2 2 2 2 2 3 2 3 3 3 4 4 3 3 2 1 1 1 1 2 2 2 3 3 3 2 1 1 2 2 2 2 2 3 3 3 3 3 3 3 4 4 4 3 3 3 3 3 2 3 3 4 4 4 4 2 3 2 1 1 2 2 2 3 3 3 4 3 2 2 1 2 3 3 3 2 3 3 4 3 4 4 5 5 3 3 2 1 2 1 1 2 1 0 
0 1 1 1 1 1 2 3 3 2 2 1 1 1 1 2 2 2 3 3 4 4 4 5 4 4 4 4 4 4 3 2 2 2 3 2 3 3 3 3 4 4 5 6 6 5 5 5 7 7 8 8 9 10 9 8 7 7 7 6 6 6 7 7 10 11 10 7 5 4 6 7 7 4 2 2 2 3 3 4 3 3 3 3 2 1 1 2 1 1 2 2 2 2 1 1 2 3 4 5 5 5 5 5 5 5 5 4 3 3 4 5 4 3 2 2 2 2 2 3 5 5 6 4 4 4 4 3 3 2 1 1 2 2 2 2 2 3 4 5 6 6 5 4 3 3 3 2 2 2 2 3 4 4 5 3 3 1 1 1 0 0 1 2 3 3 3 3 4 5 6 6 6 6 6 5 3 1 1 2 3 3 3 3 4 5 5 6 6 6 5 4 3 3 2 2 2 2 1 1 1 1 1 1 1 1 0 0 0 0 1 1 2 2 2 2 2 2 1 0 0 0 0 0 2 2 2 1 1 2 2 3 3 4 4 5 5 6 6 6 6 5 4 3 2 3 5 6 6 5 3 2 2 2 2 2 3 3 4 5 6 6 5 4 3 2 1 1 2 2 3 2 2 1 1 1 1 1 1 1 1 2 1 1 1 1 2 2 3 4 4 4 3 2 2 3 1 1 0 0 0 0 0 0 0 0 0 1 2 2 2 2 3 3 3 2 1 0 1 2 2 3 3 2 2 2 2 3 4 3 4 3 3 4 2 3 2 3 3 2 2 2 2 3 3 3 4 4 4 3 2 1 1 1 2 2 1 1 1 2 2 2 2 1 1 1 1 1 1 2 2 3 4 3 3 2 2 2 3 4 4 3 3 4 3 2 1 1 1 1 2 3 3 2 2 1 1 1 1 1 1 2 4 4 4 4 4 3 3 1 1 2 3 3 4 3 3 3 3 2 1 2 2 2 2 2 2 3 4 4 4 3 3 2 1 0 0 1 1 2 2 2 2 2 2 1 1 2 2 2 2 3 3 3 2 2 2 3 3 4 4 3 3 4 4 5 3 4 4 6 6 4 5 2 3 1 1 1 1 2 2 3 3 3 4 4 3 2 1 2 2 2 1 1 2 3 3 2 4 4 5 5 3 3 2 1 1 1 1 2 1 0 
0 1 1 1 1 1 2 2 2 2 2 1 1 1 2 3 3 4 5 5 6 4 4 3 3 4 4 4 4 4 4 3 3 2 3 3 3 4 5 5 6 7 8 8 8 7 7 7 8 8 8 8 9 9 8 8 7 8 7 6 6 6 6 7 10 11 11 9 7 6 8 8 7 5 3 3 3 3 2 3 2 2 3 2 2 2 1 2 1 2 2 2 2 2 1 1 2 3 3 3 3 4 6 6 5 4 4 3 3 3 3 4 3 3 2 1 1 0 1 2 4 4 5 3 4 3 3 3 2 1 1 1 2 2 2 2 2 2 3 4 6 6 5 4 3 3 3 3 2 2 2 4 5 5 5 3 3 2 1 1 0 0 0 1 3 3 3 3 4 6 7 7 7 7 6 4 2 1 0 1 2 3 3 4 5 5 6 7 7 7 5 5 3 2 2 2 2 2 2 2 1 1 0 0 0 0 0 0 0 0 0 1 2 2 1 1 1 1 1 0 0 0 0 0 2 2 2 2 1 2 2 4 5 7 7 7 7 7 7 8 9 8 6 4 3 3 4 4 4 4 3 3 2 1 1 2 2 3 5 5 6 6 5 4 3 2 2 1 1 2 2 2 2 1 1 1 0 1 1 1 2 2 2 1 1 1 1 2 3 3 3 3 3 2 2 3 1 1 0 0 0 0 0 0 0 0 0 1 2 2 2 2 3 3 2 1 0 1 1 2 2 3 3 3 2 2 3 3 3 3 3 3 3 3 2 2 3 3 3 2 2 2 2 2 2 2 2 2 2 2 2 1 1 1 1 1 2 2 2 2 2 2 2 2 2 2 2 2 2 3 3 4 4 4 4 3 2 3 3 4 4 4 4 4 4 2 1 1 1 1 2 2 2 2 1 2 1 1 1 1 1 2 4 4 4 3 3 3 3 2 2 3 4 4 5 4 4 3 2 2 1 2 2 2 1 2 3 3 4 5 5 4 3 2 1 0 0 0 1 1 1 2 2 2 2 2 2 2 2 2 2 3 2 2 2 2 3 4 4 5 4 5 5 6 6 6 5 6 5 7 7 5 5 2 2 1 1 1 1 2 2 2 2 3 3 3 3 2 1 1 1 1 1 1 2 3 3 2 3 4 4 4 3 2 1 1 1 1 1 2 0 0 
0 1 2 2 1 1 2 3 4 4 4 3 3 2 3 3 5 6 7 6 6 5 4 4 4 4 4 4 3 3 3 2 3 2 3 3 5 5 6 7 8 10 10 10 9 9 9 9 9 8 7 7 7 8 7 7 6 7 7 6 6 7 7 7 10 11 11 8 7 7 8 9 7 6 3 3 2 2 2 2 3 3 3 2 2 2 2 1 1 2 2 2 2 2 2 2 3 3 3 3 3 5 5 5 5 5 4 4 4 4 4 5 4 3 2 1 0 0 0 2 4 4 5 3 3 3 3 2 2 1 1 1 1 2 2 2 2 2 3 4 5 5 4 4 4 4 4 3 3 2 2 4 6 6 6 4 4 2 1 1 1 0 1 1 2 3 3 3 3 4 6 7 8 9 7 5 2 1 1 1 2 2 3 4 5 5 6 6 5 5 3 3 2 2 1 2 2 2 2 2 1 0 0 0 0 0 0 0 0 0 0 1 2 2 2 1 1 2 2 1 0 0 1 1 2 2 2 2 1 2 2 4 4 6 6 7 7 6 7 7 8 7 6 4 3 3 4 4 4 4 3 3 2 1 1 1 2 3 4 5 6 6 5 4 3 2 2 2 2 2 2 2 2 1 0 0 0 0 1 2 2 2 2 2 2 2 2 2 2 3 3 2 2 2 2 3 2 1 0 0 0 0 0 0 0 0 1 1 2 2 1 2 2 2 2 2 1 2 1 2 2 3 4 3 3 3 3 3 2 2 1 2 2 2 2 2 3 3 3 2 1 2 2 2 1 1 2 2 2 1 1 1 1 1 1 1 1 1 2 2 2 2 2 2 2 2 2 2 2 3 3 4 5 4 5 4 4 4 4 4 4 4 4 4 3 2 2 1 1 2 2 2 2 2 2 2 2 1 1 1 1 2 3 4 4 3 3 3 2 2 2 3 4 4 4 3 3 3 2 2 1 2 2 2 2 2 3 3 5 5 5 4 4 2 2 1 0 0 1 1 2 2 2 3 3 3 3 2 2 2 2 2 2 2 1 2 3 4 5 5 7 8 7 7 6 6 5 6 6 7 7 5 4 2 1 1 0 0 0 1 1 2 2 3 3 3 2 2 1 1 2 1 1 1 1 2 2 3 2 3 3 3 3 2 2 1 0 1 1 2 1 0 
0 1 2 2 2 2 3 3 4 4 4 4 4 3 4 7 11 16 16 13 9 8 7 6 4 3 3 3 3 3 3 3 3 2 3 4 5 6 7 8 9 10 10 9 9 9 10 10 9 7 7 6 7 7 6 6 6 6 6 6 6 6 6 6 9 10 10 8 6 8 9 9 8 6 5 4 3 2 2 2 3 3 3 3 2 2 2 2 1 1 2 2 2 1 2 3 5 5 5 4 4 4 4 3 3 3 3 4 4 4 4 5 4 3 2 1 0 0 0 2 3 4 5 3 3 2 3 3 2 1 1 1 2 2 2 1 1 2 2 4 4 4 3 3 3 4 4 3 3 2 2 4 6 6 6 4 4 2 2 2 2 2 2 1 2 3 3 3 3 4 5 6 6 5 5 3 2 0 0 1 1 1 2 3 5 5 5 4 4 3 2 3 2 2 1 1 1 2 2 2 1 1 0 0 0 0 0 0 0 0 0 1 2 2 2 2 2 2 3 2 1 1 1 1 2 2 2 2 2 2 2 3 3 4 4 4 4 4 4 6 7 8 6 4 3 2 2 2 2 3 3 3 2 1 1 2 2 3 3 4 4 4 4 3 2 2 2 2 2 2 3 2 2 1 0 0 0 0 1 1 2 2 2 2 1 1 2 3 4 3 4 3 3 3 3 3 2 1 1 1 1 1 1 1 1 1 1 2 2 2 2 2 3 2 3 2 2 3 2 3 2 2 3 3 3 3 3 2 1 0 1 1 1 2 2 2 3 3 3 2 2 2 2 2 1 2 3 3 3 2 1 1 1 1 1 1 1 1 1 1 1 1 2 2 2 2 2 3 2 3 3 4 4 4 5 4 5 5 6 6 5 4 4 5 4 3 2 2 2 2 2 1 1 1 1 1 1 1 1 1 1 1 2 3 3 3 3 3 3 2 2 2 3 3 3 3 3 3 2 1 1 2 1 2 2 2 3 4 4 4 4 3 3 2 2 1 1 1 1 2 2 2 2 2 2 3 3 2 2 1 1 2 2 2 2 3 4 5 6 7 8 9 8 8 7 7 6 8 7 8 7 5 4 2 1 1 0 0 0 1 1 1 2 2 2 2 2 2 2 1 1 1 1 1 1 2 1 2 1 2 2 2 2 2 2 1 1 1 1 2 1 0 
0 2 3 3 3 3 3 3 4 5 6 6 5 4 5 13 20 28 24 20 12 9 9 7 5 3 2 2 2 3 4 4 3 3 3 4 5 5 6 7 9 9 8 7 7 9 10 9 8 7 6 7 7 7 6 5 6 6 7 6 5 5 5 6 8 10 10 7 6 8 9 9 8 6 5 4 2 2 2 2 3 4 4 4 3 3 3 2 1 1 2 2 2 2 2 4 5 6 5 4 4 3 3 4 4 3 3 3 3 4 4 4 3 2 1 1 1 1 1 2 3 4 4 4 3 2 3 3 2 2 1 1 2 2 2 2 2 2 3 2 3 2 2 3 4 5 6 5 4 3 2 4 6 6 7 5 4 3 2 2 3 3 3 2 1 2 3 3 3 4 4 5 6 6 6 4 2 0 0 1 1 2 2 3 4 5 5 4 3 2 3 3 3 2 2 1 1 1 2 2 2 1 1 1 1 0 0 0 0 0 0 1 2 2 2 2 3 5 8 7 5 3 1 2 2 2 2 1 1 2 2 2 3 4 5 5 4 4 5 5 6 6 5 3 2 2 2 3 3 4 4 4 3 2 2 2 2 2 2 3 4 4 3 2 1 2 2 2 2 2 2 2 2 1 1 0 0 1 2 2 2 2 2 3 3 4 5 5 5 4 4 4 4 4 3 3 2 1 1 1 1 1 1 2 2 2 2 2 2 2 2 2 3 2 3 2 3 3 2 3 3 3 2 2 2 2 2 2 0 0 0 1 1 2 2 2 3 3 2 1 1 2 2 3 3 4 4 4 3 3 2 1 2 1 1 1 1 1 2 2 2 2 2 2 2 2 2 2 2 3 3 4 4 4 5 4 4 4 5 4 4 4 3 3 2 1 1 1 1 1 1 1 1 1 1 1 1 1 1 0 1 1 2 3 2 2 2 2 2 3 3 3 2 2 2 2 2 2 2 3 3 3 2 2 1 1 2 3 4 4 3 3 3 2 2 1 1 1 1 2 2 2 2 2 2 3 3 2 2 0 0 1 2 2 3 3 4 5 5 7 8 8 8 6 5 5 5 7 6 8 7 5 4 2 1 1 0 0 1 1 1 1 2 2 2 2 2 2 2 1 2 2 2 1 1 1 1 1 1 2 2 2 3 3 2 1 1 1 2 2 1 0 
0 2 3 3 3 3 3 3 2 2 3 4 4 4 5 17 24 37 32 26 18 12 13 9 7 3 2 3 3 4 4 4 4 3 3 4 4 4 5 6 8 8 7 6 6 8 9 9 7 7 7 8 8 7 6 4 5 5 7 6 5 5 4 5 7 9 9 7 7 9 10 10 7 6 5 5 3 2 2 2 2 3 4 4 4 3 3 2 2 1 1 1 1 1 2 4 5 5 5 4 4 3 3 2 2 3 3 3 2 3 3 3 2 2 1 1 1 1 1 1 2 3 4 3 3 2 2 2 2 2 1 1 2 2 2 2 2 1 2 2 2 1 2 3 4 5 5 4 3 2 3 5 6 6 6 4 3 2 2 3 4 4 3 2 1 2 2 2 3 3 4 4 3 3 3 2 1 1 1 1 2 2 2 3 4 5 4 3 3 3 3 3 3 2 2 1 1 1 1 2 2 1 1 1 1 0 0 0 0 0 0 1 2 2 2 2 5 9 11 11 9 6 3 2 2 3 3 3 3 3 3 3 2 1 1 1 1 1 1 2 3 4 3 2 2 2 2 3 2 3 3 4 3 2 2 2 2 2 2 2 2 3 2 3 2 2 2 2 2 2 2 2 2 2 1 0 1 1 1 2 2 2 2 3 4 5 5 5 6 4 4 4 4 4 4 4 3 3 3 3 3 3 4 4 3 3 2 2 2 2 2 2 3 2 3 2 3 2 2 2 2 2 2 2 1 2 2 1 1 0 0 1 1 2 2 3 3 3 2 2 2 2 2 3 3 4 4 4 3 3 2 1 1 2 2 2 2 2 2 2 2 2 2 2 2 2 2 2 2 3 3 3 3 3 4 3 3 3 4 4 3 3 3 2 2 1 0 0 0 0 1 1 1 1 1 1 0 0 0 1 1 1 1 2 2 2 3 2 2 2 3 3 2 1 1 3 3 3 3 3 3 2 2 2 1 1 2 3 4 3 3 3 2 1 1 1 1 1 1 2 2 1 1 1 0 1 2 2 1 0 0 1 2 2 3 3 5 6 5 5 6 6 6 5 5 6 5 6 6 8 7 5 4 2 1 1 1 1 1 2 2 2 2 2 2 2 2 2 2 2 2 1 1 1 2 1 1 1 1 2 3 3 3 3 2 2 1 1 2 2 1 0 
0 2 3 3 3 3 3 2 2 3 3 3 3 3 5 19 28 42 39 28 19 12 10 9 6 3 2 2 2 3 4 3 3 4 4 4 4 4 5 6 7 7 5 5 7 9 9 8 6 7 8 8 7 6 6 5 5 5 6 7 6 4 3 4 6 8 8 7 8 10 11 10 6 5 4 4 3 2 2 2 2 3 4 4 4 3 2 2 2 2 2 1 1 1 2 3 3 4 4 3 3 2 2 2 2 2 2 2 2 2 2 2 1 1 1 1 2 2 2 2 2 2 3 3 3 3 3 3 2 1 1 1 2 2 2 2 2 1 2 1 1 1 1 3 4 6 6 7 5 4 4 5 5 5 4 4 4 2 2 3 4 4 3 2 1 1 1 2 2 3 3 3 3 3 3 3 2 1 1 1 2 2 2 3 4 6 6 5 4 4 4 4 3 2 1 1 0 0 1 1 2 1 1 1 1 1 0 0 0 0 1 1 2 2 2 3 7 11 15 14 11 8 4 2 3 3 2 2 2 2 2 2 2 2 2 2 2 2 2 2 3 3 2 2 3 4 4 5 3 4 4 5 4 3 3 2 2 2 2 2 3 3 2 3 2 3 2 2 1 1 1 1 2 2 2 2 2 2 3 2 2 3 3 4 6 8 8 7 6 4 4 3 4 4 4 4 4 3 2 2 3 3 4 4 4 3 3 2 2 2 2 2 2 3 2 2 2 2 2 2 2 2 2 1 1 2 2 2 1 0 1 1 1 2 1 3 3 3 3 1 2 2 2 3 3 4 4 3 3 2 2 2 2 2 2 1 2 2 2 3 2 2 2 2 2 2 2 2 2 2 2 3 3 3 3 2 2 2 2 2 3 2 2 1 1 0 0 0 0 0 1 1 1 1 1 1 1 0 0 1 1 2 2 2 2 2 2 2 2 3 3 3 3 2 2 3 3 3 3 3 4 4 3 2 1 1 2 2 2 2 2 3 2 1 1 1 1 2 2 2 1 0 0 0 0 1 2 2 1 0 0 1 2 3 3 3 5 6 6 5 5 5 5 4 4 4 5 5 5 5 4 4 3 2 2 2 1 2 1 2 2 2 2 1 2 2 2 2 1 1 2 2 2 2 1 1 1 1 1 2 2 3 3 3 2 2 1 2 2 2 1 0 
0 1 2 2 2 2 2 2 2 2 3 3 3 2 4 12 21 31 31 25 15 10 7 7 4 3 2 2 2 3 3 3 3 4 4 3 3 4 6 7 7 7 6 7 9 9 9 7 6 6 7 6 5 4 5 4 5 5 6 6 6 4 3 3 5 6 7 6 9 11 12 10 6 4 4 4 4 2 2 2 2 2 3 3 3 2 2 2 2 2 2 1 1 1 2 2 2 2 2 2 2 3 3 3 2 2 1 1 2 2 1 1 1 2 2 2 2 2 2 2 3 3 3 3 4 4 3 3 1 0 1 1 1 2 2 2 2 1 1 1 0 0 1 3 5 6 7 7 6 5 5 5 4 4 4 3 3 3 3 3 3 3 2 2 1 1 1 2 2 3 3 3 3 2 2 2 1 1 1 1 1 2 2 3 5 6 6 5 4 4 4 4 3 2 0 0 0 0 0 1 1 1 1 1 1 0 0 0 1 0 1 1 2 2 1 4 8 12 16 15 12 9 4 3 2 3 3 3 2 3 3 3 2 1 1 1 1 1 1 2 3 3 2 2 3 4 5 5 4 4 4 4 4 3 3 3 2 2 2 2 2 3 3 3 3 2 2 1 1 1 2 2 2 2 2 2 2 2 2 2 2 2 2 3 4 5 4 5 4 4 4 3 3 4 4 6 5 5 4 4 4 5 5 4 4 3 3 2 2 2 2 2 3 2 3 2 2 2 1 2 2 1 1 1 1 2 1 2 1 1 1 1 1 1 1 2 3 3 3 2 2 2 2 2 3 3 3 2 2 2 2 2 2 2 1 1 1 2 2 2 1 1 1 1 2 2 2 2 2 2 2 2 2 2 3 2 2 1 2 2 2 2 1 1 1 1 1 1 1 1 1 1 1 1 1 1 1 1 1 1 1 2 2 3 3 2 2 2 2 3 4 4 3 2 3 4 5 5 5 5 4 4 4 4 2 2 2 3 3 3 2 3 2 1 1 1 1 2 2 2 1 0 0 0 0 0 1 2 2 0 1 1 2 2 2 3 5 6 6 6 5 5 5 3 5 4 5 3 4 4 3 4 2 2 2 2 2 2 1 1 2 1 1 1 1 1 2 2 1 1 1 1 1 1 1 1 1 1 2 2 2 2 2 3 3 2 2 2 1 1 0 0 
0 1 2 1 1 1 2 2 2 3 3 3 3 3 4 9 18 23 23 18 10 6 5 5 3 2 1 1 2 2 2 2 3 4 4 3 3 4 6 7 7 7 7 8 10 10 8 5 4 5 5 4 3 3 5 6 6 6 6 6 6 5 3 3 5 6 6 7 10 12 12 9 5 3 3 4 4 2 2 2 3 2 3 3 3 2 1 1 2 2 2 2 2 2 2 3 2 2 2 2 2 2 2 2 2 1 1 1 2 2 2 1 1 1 1 2 2 2 1 2 3 3 4 4 4 5 3 3 1 0 0 1 1 2 2 2 2 1 1 0 0 0 2 2 5 6 8 8 7 6 6 5 4 3 3 4 4 4 3 3 3 2 2 2 2 1 2 2 3 3 3 2 2 1 1 2 1 1 1 1 1 2 1 3 4 6 6 5 4 4 5 5 3 1 0 0 0 0 0 1 1 2 2 2 2 3 3 2 2 1 1 1 2 2 1 3 7 9 12 11 9 6 3 3 2 3 3 2 2 2 2 3 3 3 3 3 3 3 3 3 3 3 3 3 4 7 8 8 6 4 4 4 4 4 4 4 3 3 2 2 2 2 2 2 2 1 1 1 2 2 2 2 1 2 2 2 2 2 2 2 3 3 4 4 5 5 5 5 5 4 4 3 3 3 4 5 4 4 3 2 3 4 4 3 3 3 3 2 2 2 2 2 3 3 3 2 1 2 1 2 1 1 1 1 2 2 1 1 1 1 1 1 1 1 1 2 3 4 3 2 2 2 1 2 2 2 3 2 2 2 2 2 2 1 0 0 1 1 2 1 1 1 0 1 2 2 2 2 1 1 1 1 2 2 2 2 1 1 1 1 2 2 1 1 1 2 2 2 2 1 1 1 1 0 0 1 2 2 2 2 2 2 2 2 2 2 2 3 3 2 3 3 3 3 3 3 3 4 5 5 5 5 4 3 3 3 3 3 2 2 2 3 2 1 1 1 1 1 2 2 1 0 0 0 0 0 2 2 2 0 1 2 3 3 2 2 4 6 7 7 5 5 6 4 7 5 7 4 4 3 2 3 3 3 2 2 2 2 1 1 1 1 1 0 0 1 1 1 1 2 2 2 2 1 1 1 2 2 2 1 1 1 2 2 2 2 2 2 2 2 1 0 
0 1 2 1 1 1 2 2 2 3 3 3 3 4 5 7 12 15 15 10 5 3 3 4 2 1 1 1 2 2 2 2 3 4 4 2 2 4 6 8 7 8 8 10 10 9 7 5 4 4 3 3 2 4 5 6 6 6 6 5 5 5 5 5 5 6 7 9 11 13 11 7 4 2 3 4 4 2 2 2 2 2 2 2 3 2 1 1 2 2 3 2 3 2 2 2 2 2 2 2 2 3 3 2 1 0 0 1 2 2 1 1 0 1 1 2 2 2 1 2 2 3 3 3 3 4 3 3 1 0 0 1 1 1 2 2 2 1 1 1 1 1 2 2 4 6 8 9 7 6 6 6 5 4 4 5 5 4 4 3 2 2 2 2 2 2 3 3 3 4 4 3 3 2 1 1 1 1 1 1 1 1 2 3 4 5 5 4 3 3 4 5 3 1 0 0 0 0 0 1 2 3 3 4 4 4 4 3 3 2 2 2 2 2 2 2 5 8 10 10 7 4 2 2 3 3 3 2 2 3 3 3 3 3 3 4 4 4 3 3 3 2 3 4 5 7 8 8 7 6 6 5 5 5 5 5 3 3 3 2 2 2 2 2 2 1 1 1 2 2 2 2 1 2 2 2 3 3 3 3 3 3 3 3 3 3 3 3 2 2 2 3 3 3 3 4 4 4 5 4 5 4 4 3 3 2 3 2 2 2 2 2 3 2 3 2 1 2 1 2 2 1 1 1 2 2 1 1 1 1 1 1 1 1 1 2 3 3 3 2 1 2 1 1 1 2 2 2 2 2 3 3 2 1 0 1 1 1 1 1 1 1 0 1 2 3 2 2 1 1 2 1 1 2 1 2 1 1 1 1 2 2 1 1 1 2 2 2 2 1 1 1 1 0 0 0 2 3 3 2 1 2 2 2 2 2 2 2 2 3 3 3 3 3 3 4 4 6 6 6 6 6 6 4 4 3 4 3 3 3 3 2 2 1 1 1 1 1 2 2 2 0 0 0 0 0 2 2 2 0 1 1 2 2 2 1 3 5 6 7 6 6 7 6 7 4 5 3 3 3 2 3 3 3 2 2 2 2 1 1 1 2 1 1 0 0 1 1 2 2 2 2 2 1 1 1 1 1 1 2 2 2 2 3 2 2 1 1 1 1 0 0 
0 2 2 2 2 2 3 3 3 2 2 2 3 4 4 7 9 10 9 7 5 4 4 3 2 1 1 1 2 2 1 1 3 4 4 2 2 4 6 7 7 8 10 10 10 8 5 3 3 4 4 3 3 3 4 5 5 6 6 5 5 4 5 6 7 8 9 11 13 13 9 5 2 2 3 4 4 2 2 2 2 1 1 2 2 2 1 1 1 2 2 3 3 3 3 2 2 2 2 2 2 2 2 2 1 1 0 1 2 2 2 1 0 0 0 1 2 2 2 2 2 2 3 3 4 4 4 3 1 0 1 1 1 2 2 2 2 1 2 1 1 2 2 2 3 5 7 9 8 7 7 6 5 4 5 5 7 6 5 3 3 3 3 3 3 3 3 3 3 4 4 3 3 2 2 1 1 1 1 1 2 1 2 2 4 5 5 4 3 3 4 4 3 1 0 0 0 0 0 1 2 2 3 3 3 4 4 4 3 2 2 2 2 2 2 2 3 5 7 7 6 4 3 3 3 3 4 3 3 3 3 4 3 3 3 3 3 3 3 2 3 3 3 3 5 7 9 9 8 7 6 6 6 6 5 4 3 3 2 2 1 1 1 1 1 1 1 1 1 2 1 1 1 1 1 2 3 3 3 3 3 4 4 4 4 4 3 2 1 2 2 3 3 3 3 3 3 3 3 3 3 3 3 3 3 2 3 2 2 2 2 3 3 2 2 1 1 1 2 2 1 0 1 1 1 2 1 1 1 1 1 1 1 1 1 2 3 3 3 2 1 1 1 1 1 1 2 2 3 3 3 3 2 1 0 1 1 1 0 1 1 1 1 1 2 3 2 2 1 1 2 2 1 1 1 1 0 1 1 1 2 2 1 1 1 1 1 1 1 1 1 1 1 1 0 1 3 4 3 2 1 1 1 1 1 1 2 2 2 2 2 2 3 3 3 3 3 5 6 6 6 6 6 5 5 3 3 2 2 2 2 2 1 1 2 2 1 1 2 3 2 1 0 0 0 0 1 2 2 0 1 1 2 2 2 2 2 5 6 7 5 6 7 6 6 4 5 3 3 3 2 4 4 3 2 2 2 2 2 1 2 2 3 2 1 1 1 1 2 2 3 3 3 3 3 3 3 3 2 3 3 3 3 3 2 1 1 1 1 1 1 0 
0 1 2 2 3 3 3 3 3 3 4 4 3 3 4 7 8 9 7 5 5 5 4 3 2 1 1 1 2 2 1 2 3 4 3 2 2 4 6 6 7 8 10 11 10 7 5 4 3 4 4 3 3 4 4 4 4 4 5 5 5 4 5 6 7 9 11 13 14 12 7 4 2 2 3 4 4 3 2 2 2 2 1 2 2 2 2 1 1 2 2 3 3 3 3 2 2 2 3 3 2 2 2 2 2 1 1 1 2 2 2 1 0 0 1 1 1 2 2 2 1 1 2 3 3 3 3 3 2 1 1 1 1 1 1 2 2 1 1 1 2 2 1 2 1 3 5 8 8 7 7 6 5 4 5 6 6 5 5 4 3 3 3 2 2 2 2 3 3 3 3 4 3 3 2 1 1 1 1 1 1 1 1 2 3 4 5 4 3 3 3 3 2 1 0 0 0 0 0 1 2 3 4 4 4 4 4 3 3 2 2 2 2 2 2 2 3 5 6 8 6 6 3 3 3 2 2 2 2 2 3 2 2 3 2 3 3 3 3 2 1 1 1 2 4 5 6 7 8 7 8 7 6 7 6 5 3 3 2 2 2 2 2 3 3 2 2 1 1 1 1 1 1 1 2 3 4 4 4 5 5 5 5 5 5 5 3 3 1 2 2 3 3 3 3 2 3 4 6 6 6 5 4 3 2 2 2 1 1 1 2 2 2 2 1 1 1 1 2 1 1 1 0 1 1 1 1 1 2 2 1 1 1 1 1 1 2 3 3 2 1 1 1 1 1 1 1 2 2 2 3 3 2 1 1 1 1 1 0 1 1 1 1 1 2 3 2 2 1 2 3 2 2 1 1 1 1 0 1 1 2 2 1 1 0 1 1 1 1 1 1 1 1 1 2 2 3 3 3 3 1 1 1 1 1 1 1 2 3 2 3 2 4 4 3 4 3 4 4 5 5 5 4 4 3 3 2 2 2 2 2 2 1 2 2 2 1 1 2 3 2 1 1 0 0 1 1 1 1 0 0 0 1 1 1 2 2 4 5 6 4 5 6 6 6 3 3 2 2 3 2 4 3 3 2 1 2 3 3 3 3 4 4 4 4 2 1 2 2 2 2 2 2 2 2 2 2 2 2 2 3 3 3 3 2 2 1 1 1 1 1 0 
0 1 2 2 3 4 4 3 3 3 3 3 2 2 2 4 5 6 6 5 5 5 4 3 1 0 1 1 2 1 1 2 2 3 3 2 3 4 6 6 6 8 10 11 10 8 6 4 3 4 3 3 3 4 5 5 4 5 6 6 4 3 4 6 8 10 12 14 14 12 7 4 2 2 3 4 3 3 2 2 2 2 1 2 3 2 1 1 1 1 2 2 2 2 2 2 2 3 3 3 3 3 3 3 3 2 1 1 2 2 2 2 2 3 2 2 2 2 2 2 1 2 3 3 3 3 4 3 3 2 1 1 1 1 1 1 1 1 1 1 1 1 1 1 1 2 3 5 6 6 6 4 4 4 4 5 7 8 5 4 4 4 3 2 2 2 2 2 3 3 4 4 3 3 2 2 2 2 2 3 3 3 3 2 3 4 4 4 3 3 2 2 1 0 0 0 0 0 0 1 2 2 2 2 2 2 1 1 1 1 1 1 2 2 2 3 3 6 6 10 6 8 3 4 2 2 2 1 1 1 1 2 2 3 3 3 3 4 3 2 2 1 1 1 1 2 3 4 5 5 5 5 5 4 3 2 2 2 2 2 2 2 3 3 4 3 3 2 2 2 2 2 1 1 2 2 3 3 3 3 4 5 5 5 5 4 3 3 2 3 3 3 2 2 2 3 3 3 4 3 3 3 3 3 3 2 2 1 0 0 1 1 2 1 1 1 1 1 2 2 2 1 0 0 0 0 1 1 2 2 1 1 1 2 2 2 2 3 2 2 1 1 1 1 2 2 2 2 2 2 3 3 3 2 2 1 1 1 0 1 1 1 1 1 2 2 2 2 2 2 3 2 2 2 2 2 1 1 2 2 2 2 2 1 1 0 1 1 1 1 1 1 1 2 2 2 3 3 3 2 2 2 2 2 2 2 1 1 3 3 5 3 4 4 4 5 4 5 5 5 5 5 5 5 5 4 3 3 3 3 3 3 3 3 3 2 1 1 3 2 3 2 2 1 1 1 1 1 1 0 0 0 1 2 2 3 3 4 5 4 3 3 5 5 6 3 3 2 2 3 3 4 3 3 3 4 4 5 5 5 7 7 7 6 4 4 3 2 2 2 2 2 2 2 2 2 2 2 2 2 2 2 2 2 2 2 2 1 1 1 0 0 
0 1 3 3 3 3 3 3 3 3 3 3 2 2 2 3 4 4 4 3 4 4 3 3 2 1 1 0 1 1 1 2 2 3 2 2 3 4 5 6 6 7 9 10 10 9 6 4 4 4 4 4 4 6 6 5 5 5 5 5 4 4 5 7 8 10 12 14 13 10 6 4 3 3 4 4 3 2 1 2 2 2 2 2 2 2 1 1 1 1 2 2 2 2 2 2 2 3 3 3 3 3 3 3 3 2 1 1 1 2 2 3 4 4 4 3 3 3 2 2 2 2 3 3 3 3 3 3 3 2 1 0 0 0 1 1 1 1 0 0 0 0 0 0 1 1 2 3 3 3 3 3 2 2 3 4 4 5 4 4 3 4 3 2 1 1 1 2 2 3 3 3 2 2 1 2 2 2 3 4 4 3 3 2 2 3 3 4 3 3 2 2 1 0 0 0 0 0 0 1 3 4 4 4 4 4 3 2 1 1 1 1 1 1 2 3 3 7 5 10 5 7 3 3 1 1 0 0 0 0 0 1 2 2 4 4 4 4 3 3 1 1 0 0 0 1 1 2 3 4 4 3 3 3 3 2 1 1 1 1 1 2 2 3 3 3 4 3 3 3 3 3 2 2 2 2 3 3 3 3 4 5 5 6 5 5 5 4 3 3 3 2 1 1 2 2 3 4 5 5 5 5 4 3 2 1 1 0 0 0 0 0 1 1 1 1 1 2 2 2 2 2 1 0 0 0 0 1 2 2 1 1 1 1 2 2 2 2 2 2 2 2 1 2 1 1 1 1 1 1 1 2 3 2 2 2 1 1 1 1 1 2 2 2 2 2 2 1 2 2 2 2 2 1 1 2 2 1 2 2 2 2 2 1 1 0 1 1 1 2 1 1 1 2 2 2 2 2 2 2 2 2 2 2 2 2 1 2 3 3 4 3 4 5 4 4 3 3 3 3 3 3 3 2 2 3 3 3 3 3 3 3 3 3 2 2 1 2 3 3 3 2 3 2 2 1 1 1 0 0 0 0 1 2 3 3 3 4 4 3 2 2 4 4 5 3 3 2 2 2 3 3 3 4 4 6 9 11 11 10 9 9 9 9 7 6 4 3 4 3 2 2 1 2 1 1 1 2 2 1 1 1 2 2 3 3 2 1 1 1 0 0 
0 2 3 3 3 2 3 3 3 3 3 2 2 2 2 2 3 3 3 2 2 2 3 3 2 1 0 0 1 1 2 2 2 3 3 2 3 4 6 6 6 7 7 9 10 9 8 6 5 4 3 3 4 6 7 7 6 5 5 4 4 5 7 9 10 10 12 13 12 9 6 4 4 4 5 5 3 2 1 1 1 2 2 2 2 1 1 1 1 2 2 2 1 1 1 2 3 3 2 3 3 3 3 3 2 2 1 1 1 1 2 4 6 6 6 5 4 3 2 3 4 5 5 5 5 5 5 4 3 1 0 0 0 0 1 1 1 0 0 0 0 0 0 0 1 1 1 0 0 0 1 1 2 3 3 4 5 6 4 3 3 3 2 2 1 1 2 3 3 3 3 2 1 1 1 1 2 3 3 4 4 4 3 2 2 2 2 2 2 2 1 1 1 1 0 0 0 0 1 1 2 2 3 3 3 2 2 2 2 2 1 1 0 0 1 3 3 6 5 8 4 5 2 2 1 1 0 0 0 0 0 0 1 2 3 4 4 3 3 4 2 1 0 0 0 0 0 0 1 2 2 2 2 2 1 1 1 1 1 1 1 2 2 2 3 3 3 3 3 3 3 3 3 3 2 2 2 1 1 2 2 3 3 3 3 3 3 3 4 4 3 2 1 2 3 3 3 3 3 3 4 4 3 3 2 1 1 1 0 0 1 1 2 2 2 1 2 2 2 3 2 2 1 0 0 0 0 0 1 1 1 1 1 1 1 2 2 2 1 2 2 2 2 2 1 1 0 0 0 0 1 2 3 3 2 2 1 1 1 2 2 3 3 3 2 2 1 1 2 2 2 2 1 1 1 2 3 4 4 4 4 3 2 2 2 1 1 1 1 2 0 0 0 1 1 1 1 1 1 2 2 2 2 2 2 2 2 2 2 3 4 5 4 5 4 4 3 3 3 3 3 3 3 3 4 4 4 4 4 4 4 4 4 3 2 2 2 2 3 3 3 3 4 3 3 1 1 1 1 1 1 1 1 2 2 3 4 4 3 2 1 1 2 3 4 3 2 1 2 2 3 3 5 6 8 11 14 18 24 23 18 15 10 10 7 5 5 4 4 3 2 2 1 1 1 2 2 3 3 3 3 3 3 3 3 3 2 1 1 0 0 0 
0 2 3 3 2 2 2 2 3 3 3 2 2 2 1 2 2 3 2 2 2 2 2 3 2 1 0 0 1 1 2 2 2 3 3 3 4 4 6 6 6 6 7 9 10 10 9 7 6 6 6 5 5 5 5 5 6 5 5 5 5 8 10 11 11 10 11 11 10 7 5 4 5 5 6 5 4 3 2 2 1 1 2 2 2 2 1 1 1 1 1 1 1 1 2 2 3 3 3 3 2 3 2 2 2 1 1 1 1 1 1 3 5 6 6 6 5 4 4 5 6 6 6 5 5 5 5 4 3 2 1 0 0 0 1 1 1 0 0 0 0 0 0 1 1 1 0 0 0 0 1 1 2 3 3 4 4 5 4 3 2 2 2 1 1 1 2 3 3 2 2 2 2 1 1 1 1 2 2 3 3 3 2 1 1 1 2 1 1 1 1 1 1 1 1 1 1 1 1 2 2 3 3 3 3 3 3 3 3 2 1 1 0 0 1 3 3 5 4 5 3 4 2 2 1 1 0 0 0 0 0 0 1 2 3 3 3 3 3 4 2 1 0 0 0 0 0 0 2 2 3 2 2 2 1 1 1 1 0 0 0 1 1 1 2 2 2 2 2 2 2 2 2 3 3 2 2 2 1 1 2 2 3 3 3 3 3 3 3 3 2 2 2 2 2 3 3 3 3 4 4 4 4 2 1 1 1 1 1 1 1 2 2 2 2 2 2 2 3 3 2 2 1 0 0 0 0 0 0 0 0 0 0 0 1 1 2 1 1 1 2 2 2 2 1 0 0 0 0 0 1 1 2 2 2 2 1 1 1 2 3 3 3 3 2 2 1 1 1 1 1 0 0 0 1 2 3 3 3 3 3 3 3 3 3 2 1 1 1 1 0 0 0 1 1 1 1 1 1 2 2 2 2 2 2 2 2 3 4 5 5 6 5 6 5 4 3 2 2 2 2 2 2 2 2 2 2 2 2 2 2 2 2 3 2 2 2 3 3 3 3 3 4 3 3 1 1 1 1 1 1 1 1 1 1 2 3 3 2 1 0 0 1 2 3 2 1 1 1 1 2 3 4 6 10 13 27 41 48 45 34 24 14 12 8 7 6 5 5 3 2 1 1 0 1 2 3 4 4 4 4 4 4 4 4 4 3 2 1 0 0 0 
0 2 2 2 1 1 1 1 3 3 3 2 2 2 2 2 2 1 1 1 1 1 2 3 2 1 0 0 1 1 2 2 2 3 3 3 4 5 6 6 5 5 6 9 11 11 10 9 8 8 7 6 5 5 6 4 6 5 6 6 7 9 11 11 10 9 10 10 9 7 5 5 5 6 6 5 4 3 2 2 2 2 2 2 2 2 2 1 1 1 1 1 1 1 1 2 3 3 3 2 2 2 2 1 2 1 1 1 1 0 1 2 4 6 6 5 4 3 3 4 6 6 7 7 8 8 8 7 4 3 2 1 1 1 1 1 0 0 0 0 0 0 0 1 1 0 0 0 0 0 0 1 3 3 4 5 5 5 4 3 1 1 1 1 1 2 3 3 3 2 2 1 1 1 1 1 1 1 1 1 1 1 1 1 1 1 1 1 1 1 1 1 1 1 1 1 1 1 1 1 2 1 1 1 1 1 2 3 3 2 1 1 1 1 1 2 3 4 3 4 2 3 2 2 1 2 0 0 0 0 0 0 1 2 2 3 2 2 3 3 2 1 0 0 0 0 0 1 2 2 2 2 2 2 1 1 0 0 0 0 0 0 1 1 1 1 1 0 0 1 1 1 2 2 3 2 2 2 1 1 2 2 2 2 2 3 2 2 2 2 2 2 2 3 3 3 2 2 2 2 3 2 2 2 1 1 1 1 1 1 1 2 2 3 2 2 2 3 3 3 2 2 1 0 0 0 0 0 0 0 0 0 0 0 0 1 1 1 1 1 1 1 1 1 1 0 0 0 0 0 1 1 1 1 1 1 1 1 1 2 3 4 4 4 4 3 1 1 1 1 0 0 0 0 1 3 4 5 5 5 4 4 4 3 3 3 2 1 1 1 0 0 0 1 1 2 2 2 2 1 1 1 2 2 2 2 2 3 4 6 7 7 7 6 5 4 2 1 1 1 1 0 0 1 2 3 3 3 3 3 3 3 3 3 3 3 3 3 2 2 2 2 4 3 3 2 1 2 1 1 1 1 0 0 0 1 2 3 2 1 0 0 1 1 1 1 1 1 1 2 2 3 5 6 10 19 41 56 67 67 52 37 19 14 11 8 5 4 4 4 2 1 0 0 1 2 3 4 3 3 3 3 4 4 4 4 4 3 2 1 0 0 
0 2 2 2 1 1 1 1 2 2 3 3 2 2 2 2 2 1 1 1 1 1 2 2 2 1 1 0 1 1 2 1 2 2 2 3 4 6 6 5 4 4 6 9 11 12 11 10 8 8 8 7 5 3 3 2 4 5 6 7 8 9 10 10 9 8 9 9 9 7 6 6 6 6 5 5 4 3 3 3 2 2 2 3 3 3 2 1 0 0 1 1 1 1 1 1 2 3 3 3 3 2 2 1 1 1 1 1 0 0 1 2 4 5 5 5 4 4 4 5 5 6 6 6 5 5 5 5 4 4 3 3 2 1 1 0 0 0 0 0 0 0 0 1 1 0 0 0 0 0 0 1 3 4 5 5 6 5 4 3 2 1 1 2 2 3 3 3 2 1 1 2 2 2 1 1 1 0 0 1 1 1 1 1 1 1 2 2 2 2 2 1 1 0 0 0 0 0 1 1 1 1 2 2 2 2 3 3 3 2 1 1 1 1 1 2 3 4 3 4 3 3 2 2 2 2 1 0 0 0 0 1 1 2 2 3 3 3 3 3 2 0 0 0 0 0 0 1 2 2 2 2 2 2 1 0 0 0 0 0 0 0 0 1 1 1 0 0 0 0 1 1 2 2 3 2 2 2 1 1 2 3 3 3 3 2 2 1 1 2 1 1 2 3 3 2 2 2 2 2 2 2 2 2 1 1 1 1 2 2 2 2 1 2 2 2 3 3 3 4 3 2 1 1 0 0 0 0 0 0 0 0 0 0 0 1 1 1 1 1 1 1 1 1 1 1 1 0 1 1 1 1 1 1 1 1 1 1 1 2 3 4 5 5 4 4 2 1 1 0 0 0 0 0 1 2 3 3 3 3 4 5 6 6 5 4 3 1 1 1 1 1 1 1 1 1 2 2 2 1 1 1 2 2 2 2 2 3 5 8 9 9 8 7 6 5 3 1 0 1 1 1 1 2 3 4 4 4 4 4 4 3 3 3 3 4 3 3 2 2 2 2 4 3 3 2 2 2 2 2 0 0 0 0 0 0 1 2 2 2 1 1 1 2 1 1 1 2 1 2 2 3 3 5 8 26 57 78 92 92 79 64 36 18 12 9 6 4 4 4 2 1 0 0 1 2 3 3 2 2 2 2 3 3 4 4 3 3 2 1 1 0 
0 2 2 2 1 1 1 1 1 2 2 3 3 3 3 2 3 1 1 1 1 1 1 2 2 2 1 0 1 1 2 2 2 2 2 2 4 6 7 7 5 5 5 7 10 12 12 10 9 8 8 6 5 4 3 3 4 5 6 8 8 8 8 8 7 8 8 10 10 8 7 6 6 6 5 4 3 2 3 3 3 2 2 3 3 3 2 1 1 1 1 1 1 2 1 1 2 2 3 3 2 2 1 1 2 2 2 1 1 1 1 2 3 4 5 4 4 3 3 4 6 8 10 9 6 6 5 5 4 4 4 4 3 2 1 1 0 0 0 0 0 0 1 1 1 0 0 0 0 0 0 1 2 4 4 5 5 5 4 3 2 1 2 2 2 3 3 3 3 2 2 2 2 2 2 1 1 1 0 0 0 1 1 1 1 1 2 2 2 2 2 1 1 0 1 1 1 1 1 1 1 1 1 2 3 3 3 3 3 2 2 2 2 1 2 2 2 4 4 5 3 3 3 3 2 2 1 1 0 0 0 1 1 2 2 3 3 3 3 3 1 0 0 0 0 0 1 2 2 2 2 2 2 2 1 0 0 0 0 0 0 0 0 0 0 1 1 0 0 0 1 1 2 3 3 3 2 2 2 1 2 2 3 3 3 3 2 1 1 2 2 2 2 3 4 4 3 2 1 2 2 2 2 1 2 1 2 2 3 3 2 2 2 3 3 3 3 3 3 4 3 3 2 1 1 0 0 0 0 0 0 0 0 0 0 0 0 1 1 2 2 2 1 1 1 2 2 2 2 2 2 2 2 2 1 2 2 2 1 1 2 3 4 5 5 4 2 2 1 1 1 1 1 1 2 3 4 4 4 4 5 6 6 6 5 4 2 1 1 1 1 1 1 2 2 1 1 1 1 2 2 2 2 2 2 2 2 3 4 6 8 8 7 6 5 4 3 1 1 1 1 0 0 2 3 4 5 5 5 5 4 4 3 3 3 3 3 3 3 3 3 3 4 3 3 1 2 3 2 1 0 0 0 0 0 0 1 2 3 2 2 2 2 2 1 1 1 1 1 3 3 4 4 5 7 32 66 88 95 88 79 70 47 31 23 12 6 4 4 5 2 1 0 0 1 2 2 2 1 1 1 1 2 3 4 5 5 4 3 2 1 0 
0 2 3 3 3 3 2 1 1 2 3 5 5 5 5 4 3 1 1 1 2 2 2 2 2 2 2 1 1 1 2 2 1 2 1 2 3 5 6 6 5 5 5 6 8 9 10 10 9 9 9 8 7 6 5 5 5 5 6 7 7 7 7 7 7 8 9 10 10 7 6 6 6 6 5 5 3 2 2 3 3 3 3 3 3 3 3 3 2 1 1 1 1 1 2 2 2 2 3 3 2 2 1 2 2 3 2 2 2 2 2 4 4 6 7 9 12 14 20 24 27 27 26 24 21 16 12 9 7 6 5 5 4 3 1 1 1 1 1 1 1 1 1 1 1 1 0 0 0 0 1 1 2 3 3 4 4 4 4 3 2 2 2 2 2 3 2 3 1 1 1 2 2 2 2 1 1 1 1 1 0 0 0 1 1 1 1 2 2 2 1 1 1 2 3 3 3 2 1 0 1 1 2 2 2 2 2 3 3 2 2 2 1 1 1 1 3 4 4 5 3 3 3 2 3 2 1 1 0 1 1 2 2 2 2 3 3 3 2 2 0 0 0 0 0 0 1 2 3 2 2 2 2 2 1 0 0 0 0 0 0 0 0 1 1 1 1 1 1 1 1 2 2 2 3 3 3 2 2 1 3 2 4 3 4 3 2 1 2 2 3 3 3 4 4 5 4 3 2 3 2 2 2 2 2 2 2 2 3 3 2 3 3 3 4 4 3 3 3 3 3 3 3 2 1 0 0 0 0 0 0 0 0 0 0 0 1 1 2 2 3 3 2 2 2 2 2 2 2 2 2 2 2 2 2 2 3 2 2 2 2 4 5 6 6 5 3 3 2 2 1 0 0 1 1 2 4 5 5 5 5 5 5 5 5 4 2 1 1 2 1 2 1 2 1 1 1 0 1 2 2 2 3 3 3 2 2 3 4 5 6 6 5 4 4 3 3 2 1 1 1 0 1 2 4 5 5 5 5 5 5 4 3 2 2 3 3 3 3 4 4 3 5 3 3 2 2 3 2 2 0 0 0 0 0 0 1 1 2 2 2 2 2 2 2 2 1 2 2 3 3 4 3 6 8 32 64 92 107 106 91 73 50 31 21 10 5 4 4 4 3 1 1 1 1 2 2 1 1 2 2 2 2 3 4 5 5 3 2 1 1 0 
0 2 3 3 3 3 3 3 2 3 5 5 5 5 6 5 3 2 2 2 2 2 3 3 3 3 2 2 2 2 2 2 2 2 2 2 3 5 6 7 7 6 5 5 6 7 8 8 8 9 9 9 8 7 6 6 5 6 6 7 7 6 7 6 7 7 8 9 10 8 6 6 7 8 7 6 4 4 4 5 6 5 4 4 4 5 5 4 3 3 3 2 3 4 4 4 3 3 3 3 3 3 2 2 3 4 4 4 4 4 4 5 4 10 15 23 28 32 35 36 36 35 32 29 27 27 26 24 21 17 11 8 5 5 4 3 3 2 3 2 2 2 2 2 2 1 1 1 1 1 1 1 2 2 2 2 3 3 4 3 3 3 3 3 3 2 2 2 1 1 1 2 2 2 2 2 2 1 1 1 1 0 1 1 1 1 1 1 1 1 2 3 4 5 5 4 4 4 3 2 1 2 3 3 3 3 3 3 3 3 2 2 2 2 1 2 3 4 4 4 3 4 4 4 3 2 1 1 1 1 1 1 2 2 3 4 3 3 2 1 0 0 0 0 0 1 2 3 3 3 2 3 3 3 2 2 2 2 1 1 1 1 1 1 1 1 1 1 1 1 2 2 2 2 4 4 5 3 3 1 2 2 4 4 4 3 2 1 2 3 4 4 4 5 5 5 4 3 2 2 2 2 2 2 3 3 3 3 3 3 3 3 3 4 4 4 3 3 3 3 4 4 4 3 2 1 1 1 1 1 1 1 1 1 1 1 1 2 2 3 3 3 3 2 2 2 2 3 3 2 2 2 3 3 3 3 3 3 3 3 3 3 4 4 4 3 3 3 3 3 3 2 2 2 2 3 4 5 5 4 4 4 4 4 4 3 3 2 2 2 2 2 2 2 1 1 1 1 1 2 2 2 3 3 3 2 2 3 4 4 4 5 5 4 4 3 2 2 2 2 1 0 1 2 3 3 3 3 3 3 3 2 2 2 2 2 3 3 4 4 5 4 5 3 3 2 2 3 2 2 0 0 0 0 0 0 1 1 1 1 2 2 2 2 2 2 2 2 2 2 2 4 5 7 7 22 48 72 81 75 62 52 43 34 25 13 7 6 6 5 3 2 1 2 2 2 1 1 1 1 1 2 2 4 6 7 6 5 3 2 1 0 
0 2 4 4 4 4 4 5 5 5 6 6 7 7 7 6 4 2 2 2 3 3 3 2 3 2 2 2 1 2 2 3 2 2 2 2 3 3 4 5 5 6 5 5 5 4 5 6 7 9 9 9 8 7 7 6 6 7 8 8 9 8 8 7 7 7 8 11 12 12 9 7 6 7 8 9 6 6 5 6 6 6 5 4 4 6 6 8 6 4 3 4 4 4 4 3 3 2 3 2 3 2 3 3 4 4 4 5 5 6 6 10 14 23 28 31 32 35 45 58 63 61 57 54 52 44 33 26 25 26 23 19 12 10 7 5 5 5 4 3 2 2 2 2 2 2 1 1 1 1 1 1 1 2 2 1 2 2 3 3 3 3 3 3 3 2 1 1 0 0 0 1 2 2 1 1 1 2 2 2 1 1 1 1 1 1 1 1 1 1 2 4 5 5 5 5 6 6 5 3 3 2 3 3 3 2 2 3 3 3 2 2 1 1 1 2 3 3 4 4 3 3 4 4 4 3 2 2 2 2 2 1 2 3 4 4 3 2 1 1 0 0 0 0 1 2 3 3 3 3 2 3 3 3 2 2 2 3 2 2 1 1 1 2 2 1 1 1 1 1 1 2 2 2 4 5 7 5 3 2 2 3 4 3 3 2 2 2 3 3 4 4 5 5 4 5 4 4 3 2 2 2 3 3 3 3 2 2 2 2 2 3 3 3 4 3 3 2 3 3 3 4 4 3 3 2 2 3 3 3 3 3 3 3 3 2 2 2 2 2 2 3 3 2 2 2 2 2 2 2 2 2 2 2 2 2 2 2 3 3 4 4 5 5 5 4 3 3 3 3 3 2 2 2 3 4 5 6 6 6 5 4 3 2 3 3 3 3 3 2 3 2 1 1 1 2 2 2 2 2 1 1 2 3 3 2 2 3 4 4 3 3 2 2 2 2 2 2 2 2 1 1 1 1 2 2 2 2 2 2 2 2 2 2 2 2 2 2 3 3 5 3 5 2 3 2 2 2 2 2 0 0 0 0 0 0 0 1 1 1 2 2 2 2 2 2 2 2 2 2 2 4 4 6 8 14 28 47 63 65 50 37 29 26 19 9 5 5 5 4 3 2 1 2 2 2 1 1 1 2 2 2 2 4 5 5 5 4 3 2 1 0 
0 3 4 4 4 3 4 5 6 6 6 6 6 5 5 5 4 3 3 2 3 3 3 3 3 2 2 2 2 3 2 3 2 3 3 3 4 4 4 5 5 6 5 5 5 6 5 5 5 6 7 7 7 7 6 5 6 7 8 9 10 10 9 8 8 9 12 15 16 15 11 7 7 9 10 12 9 8 8 11 12 10 7 5 5 7 6 6 5 6 6 6 5 5 5 4 4 2 3 2 3 2 2 2 3 4 6 10 12 13 17 24 29 31 39 54 70 84 93 105 115 122 122 117 111 103 91 76 58 41 30 25 24 21 17 11 8 5 6 3 3 2 2 3 2 1 0 0 0 0 0 1 1 1 1 1 1 2 3 3 3 2 3 3 2 2 1 1 0 0 0 1 2 2 1 1 1 2 2 2 2 1 1 2 1 1 1 1 1 1 2 4 7 7 6 4 5 6 7 5 4 2 3 3 3 2 2 3 3 3 2 2 1 1 1 1 2 3 3 4 4 3 4 4 4 3 3 2 2 2 2 2 3 4 4 4 3 2 1 0 0 0 0 1 1 2 3 3 3 3 3 4 4 4 3 3 4 4 3 3 1 1 2 2 2 1 1 1 1 1 1 1 1 2 6 7 9 7 4 3 2 3 4 4 3 2 3 3 3 3 4 4 5 5 3 2 2 3 2 2 2 2 3 3 4 3 1 1 1 1 2 2 2 3 2 2 2 2 2 3 4 4 4 3 2 3 4 4 4 4 4 4 4 3 3 3 3 2 2 2 2 2 2 2 1 1 1 1 1 1 1 1 1 1 1 1 1 2 3 3 3 3 3 3 3 3 3 3 3 3 3 3 3 3 3 3 5 5 5 4 3 2 3 3 3 3 3 3 4 3 3 2 2 2 2 3 3 3 3 3 2 2 2 2 2 2 2 2 3 3 3 3 3 3 3 3 2 1 1 1 1 1 1 1 1 1 0 0 0 0 1 1 1 2 2 1 1 1 2 2 4 3 4 2 2 1 1 2 2 1 0 0 0 0 0 0 1 1 1 1 1 1 1 1 2 2 3 3 3 3 3 3 5 6 7 6 11 18 29 34 28 31 28 27 19 9 8 6 6 3 2 1 1 2 2 2 2 2 2 2 2 2 2 3 4 5 5 3 3 2 1 0 
0 2 4 4 3 3 4 6 8 10 10 8 7 7 7 5 4 2 3 2 3 3 3 2 3 2 2 1 1 3 2 4 2 3 3 3 4 4 4 4 5 6 5 6 6 7 7 6 5 6 6 6 6 6 6 6 6 7 8 9 10 10 10 10 11 12 13 15 17 16 13 9 9 12 13 14 13 14 12 10 8 8 6 7 7 8 8 8 7 6 5 5 5 4 3 3 2 2 2 2 2 2 2 2 4 4 9 11 17 27 37 38 45 60 89 105 118 125 130 140 150 156 158 154 149 141 131 121 110 96 73 44 32 27 25 19 16 8 8 5 5 3 2 2 1 0 0 0 0 0 0 0 0 1 1 0 1 2 3 3 3 2 2 2 2 2 1 0 0 0 0 1 2 2 2 2 1 2 2 2 2 2 2 2 1 1 0 0 0 0 1 3 5 5 4 3 5 6 7 5 4 2 2 2 2 1 1 2 3 3 2 1 1 1 0 1 1 2 3 3 3 2 3 4 6 6 6 5 5 4 4 4 4 4 5 5 3 2 1 0 0 1 1 1 2 2 2 2 2 2 3 3 4 4 3 3 4 4 3 3 2 2 2 2 2 1 1 1 1 1 1 1 2 2 7 8 10 9 5 4 3 3 5 3 2 2 3 3 3 3 3 3 4 4 3 2 1 2 2 1 1 1 2 3 3 2 1 1 1 2 2 2 2 3 2 2 2 1 2 2 3 4 3 2 2 3 4 5 5 6 6 5 5 5 5 4 3 2 2 2 2 2 2 1 1 1 1 1 1 1 1 1 1 1 1 1 1 1 2 2 2 2 2 2 3 3 3 3 4 4 4 4 3 2 3 3 4 4 4 4 4 4 4 4 4 3 4 4 4 5 4 3 2 2 2 3 3 4 3 3 2 2 2 2 2 1 1 2 3 3 3 2 2 2 3 3 2 1 0 1 1 2 1 1 1 1 0 0 0 0 1 1 1 1 1 1 1 1 2 2 4 2 3 1 1 1 1 1 1 1 0 0 0 0 0 0 1 1 1 1 1 0 1 1 2 2 3 3 3 3 3 3 5 6 8 8 9 8 14 22 24 32 29 26 15 6 5 4 4 2 2 1 1 1 2 1 2 2 2 2 2 2 2 3 4 4 4 2 3 1 1 0 
0 2 4 4 3 2 3 5 8 8 9 10 13 13 11 9 6 2 3 1 3 2 3 2 2 2 2 2 2 3 3 3 2 3 3 3 3 3 3 4 6 6 6 6 7 8 9 8 7 6 5 5 5 5 5 6 7 8 9 9 8 8 8 9 10 11 13 16 18 20 23 27 29 31 32 31 28 26 25 23 20 14 9 8 7 8 8 7 7 6 6 5 3 3 3 3 3 2 2 1 1 1 2 2 4 5 13 20 39 44 48 60 88 109 127 138 148 153 155 156 155 154 151 148 148 149 153 155 151 140 123 97 68 40 29 23 20 14 11 7 6 4 4 3 2 0 0 0 0 0 0 0 0 0 1 0 1 2 3 3 2 1 1 1 1 1 1 0 0 0 0 1 2 2 2 2 2 2 2 3 2 2 2 2 1 1 0 0 0 0 0 3 5 5 5 4 4 4 4 3 2 1 1 2 1 0 0 1 2 2 1 1 1 1 0 0 0 1 2 3 3 2 2 3 5 5 5 5 4 4 3 3 4 4 5 4 3 2 1 1 1 1 1 2 2 2 1 1 1 1 2 3 4 3 3 3 3 3 3 3 2 2 2 2 2 2 2 1 1 1 1 1 2 2 8 8 11 10 6 5 3 3 5 4 3 4 3 4 3 2 2 3 3 3 2 2 2 2 2 2 1 1 2 2 2 2 1 1 1 1 2 2 2 2 2 2 2 1 1 1 3 3 4 2 2 2 3 4 4 4 4 4 4 4 4 3 2 2 2 2 2 2 1 1 1 1 1 1 1 1 1 1 1 1 1 1 1 1 1 1 1 1 2 2 3 3 4 5 5 6 5 5 3 3 2 2 2 2 2 2 2 3 3 4 4 4 4 4 4 5 4 4 3 2 3 2 3 3 3 3 2 2 1 1 1 0 1 1 2 3 4 4 4 3 3 3 2 1 1 1 1 1 1 1 1 0 0 0 0 0 1 1 1 1 1 1 1 1 2 2 3 2 2 2 2 2 1 1 1 0 0 0 0 0 0 0 1 2 1 1 0 0 0 1 2 2 3 3 4 4 3 3 5 6 9 8 9 8 11 17 21 29 25 24 12 6 4 4 4 2 1 1 1 1 1 1 1 1 2 2 2 1 2 3 3 4 4 2 2 1 1 0 
0 2 3 3 3 2 3 5 8 11 15 17 17 15 14 12 9 4 2 1 3 3 2 2 2 2 2 1 1 3 3 3 3 3 4 4 4 4 3 4 6 7 8 6 6 8 8 9 8 7 5 4 5 5 6 7 7 8 9 9 7 6 7 9 11 15 20 28 34 33 27 26 31 39 39 36 33 29 24 21 21 23 22 18 12 10 9 7 7 5 5 4 4 4 4 3 3 3 2 2 2 2 2 3 5 10 21 28 40 50 74 108 130 146 150 140 132 127 122 114 101 93 91 92 100 110 121 131 143 154 156 142 111 74 44 28 24 21 15 10 8 5 4 3 2 1 0 0 0 0 0 0 0 0 1 1 1 2 3 3 2 2 2 1 2 2 1 1 0 0 0 1 2 2 2 2 2 2 1 2 2 2 2 2 1 1 0 0 0 0 0 2 3 4 4 2 2 3 3 3 2 1 1 1 1 0 0 1 2 2 2 2 2 2 1 0 0 1 2 3 3 3 3 4 6 7 7 7 7 6 6 5 5 5 4 4 3 2 1 1 1 1 1 2 2 3 2 1 1 1 2 3 3 3 2 3 3 3 2 2 2 2 2 2 2 2 2 2 2 2 1 2 3 3 7 8 10 10 7 5 3 3 5 5 4 4 4 4 3 2 2 2 3 3 2 2 2 2 2 1 1 1 1 2 2 1 1 1 1 2 2 2 2 2 2 2 2 1 2 1 3 4 4 3 2 3 2 3 3 4 4 4 4 4 4 3 3 3 3 3 3 3 2 2 2 2 2 2 2 2 2 2 2 2 2 2 1 1 1 1 1 2 2 3 3 4 5 5 6 7 7 6 5 3 2 2 2 2 2 2 2 3 4 5 5 5 4 3 3 4 3 4 3 2 2 2 2 3 3 3 2 2 1 0 0 0 0 1 3 4 5 5 5 4 4 3 3 2 2 2 1 1 1 1 1 1 1 1 1 1 1 1 1 1 1 1 1 1 2 2 2 2 2 2 2 2 2 1 1 0 0 0 0 0 0 0 1 1 1 1 0 0 0 1 2 3 3 4 4 4 4 3 4 6 9 10 8 7 11 18 25 29 22 19 8 6 5 5 4 2 1 1 1 1 1 1 1 1 1 1 1 1 1 3 3 4 4 2 2 1 1 0 
0 1 3 3 2 2 2 4 6 8 12 16 21 23 23 17 11 5 2 2 3 3 3 3 3 3 2 1 1 3 3 4 3 3 3 3 2 2 2 3 5 6 7 6 5 6 7 10 10 8 6 5 6 6 7 7 7 9 8 9 6 7 9 13 19 23 26 27 34 48 68 89 101 110 108 101 92 82 70 55 39 31 27 25 21 14 9 7 6 5 5 4 4 3 3 3 3 3 2 2 2 2 2 3 7 18 27 37 53 86 119 149 161 155 126 91 73 65 66 69 66 62 57 53 51 53 64 76 95 113 139 155 148 113 72 39 28 25 22 14 8 5 5 5 4 2 1 0 0 0 0 0 0 1 1 1 1 2 3 3 2 1 1 1 2 2 2 1 0 0 1 1 2 2 2 3 2 2 1 1 2 2 2 2 1 1 0 0 0 0 0 2 4 5 4 3 2 2 2 3 2 1 1 1 1 1 1 2 3 3 2 1 1 2 1 1 1 1 2 2 3 2 3 3 4 5 5 5 4 3 3 3 3 4 4 3 3 2 1 1 1 1 1 2 2 3 2 1 1 2 3 4 3 2 1 2 2 2 2 2 2 2 2 2 2 2 1 1 1 1 1 2 3 3 6 7 10 9 8 6 3 3 4 4 4 4 4 4 3 1 2 2 3 3 2 2 2 2 2 1 1 1 1 1 1 1 1 1 2 2 2 2 2 2 2 2 2 1 2 2 3 3 4 3 3 3 2 3 2 3 4 4 4 3 3 3 3 3 2 2 2 2 1 1 1 1 2 2 2 2 2 2 2 2 2 2 1 0 0 1 2 2 3 3 3 4 5 6 6 7 6 6 5 3 2 2 2 3 3 3 2 2 3 3 4 4 4 3 2 2 2 2 2 2 1 1 1 2 2 2 2 2 1 0 0 0 0 1 2 3 4 4 5 4 3 3 3 3 2 2 1 1 1 1 1 1 1 1 1 1 1 1 1 1 1 1 1 2 2 2 2 2 3 3 3 3 2 1 1 0 0 0 0 0 0 0 1 1 1 1 0 0 0 1 2 2 3 4 4 4 3 2 3 5 8 9 9 11 16 17 23 21 18 14 6 7 5 6 5 3 2 1 1 1 1 1 1 1 1 1 1 1 2 3 3 4 4 3 3 2 1 0 
0 2 3 3 2 2 2 3 4 8 12 17 21 20 18 14 11 4 3 3 4 4 3 3 3 3 3 1 1 2 2 4 4 4 4 4 3 3 2 2 5 6 6 5 4 4 6 9 10 10 8 8 8 8 8 8 7 9 7 9 7 12 16 23 28 30 41 62 94 113 123 129 132 136 135 133 130 124 114 102 90 78 58 37 24 18 15 9 6 4 5 4 4 5 5 5 4 4 3 3 3 3 3 4 14 30 35 55 84 128 161 173 154 114 73 44 41 49 70 84 90 95 100 102 98 84 73 59 60 61 87 119 146 148 117 72 46 29 28 19 11 6 7 6 7 5 3 1 1 0 0 0 1 2 2 2 2 3 3 3 2 1 1 2 2 2 2 1 0 0 1 2 2 2 3 3 2 1 1 1 2 2 1 1 1 1 0 0 0 0 1 2 4 5 4 2 2 2 3 4 3 2 1 2 2 2 1 2 2 2 1 2 1 2 1 1 1 1 2 2 3 2 2 3 4 6 7 7 7 7 7 6 4 3 3 3 3 3 2 1 1 1 1 2 2 2 2 1 2 3 4 4 3 2 1 2 2 2 2 2 2 2 2 2 2 1 1 1 1 1 2 2 3 3 6 5 9 9 8 7 3 5 5 6 6 5 4 3 2 1 1 2 2 2 2 2 2 1 1 1 1 1 1 0 0 1 1 1 1 2 2 2 2 3 2 2 1 1 2 2 3 3 3 2 2 3 2 3 3 4 4 4 4 3 3 2 3 3 4 4 4 3 2 2 2 1 1 1 1 2 1 2 2 2 2 2 1 0 0 1 2 3 3 3 2 3 4 4 5 5 6 5 4 3 2 2 3 3 4 4 3 3 3 3 4 3 3 2 2 1 2 1 1 1 1 1 1 2 2 2 2 2 1 0 0 0 0 1 2 3 4 4 4 4 4 3 3 3 3 3 2 2 2 2 2 2 2 2 2 2 1 1 1 1 1 1 1 2 2 2 2 1 2 2 2 2 2 1 1 1 0 0 0 0 0 0 1 1 2 1 0 0 0 1 2 2 3 4 4 4 4 4 5 6 8 9 8 9 19 21 34 25 21 14 6 8 5 7 5 3 2 1 2 1 1 1 1 1 1 1 1 1 2 2 3 3 3 3 3 2 1 0 
0 2 3 3 3 2 1 3 4 8 9 12 15 16 17 13 8 4 5 4 4 5 4 5 5 4 3 1 1 2 2 4 4 5 3 3 2 2 2 2 4 5 5 5 4 4 5 8 10 11 10 9 9 8 8 8 7 8 7 8 10 20 27 33 37 51 80 102 124 140 152 153 148 142 139 140 141 142 141 137 127 115 97 74 46 27 20 17 12 7 6 5 5 5 4 3 3 3 3 4 4 5 6 12 25 38 49 92 130 171 172 143 100 62 49 53 74 86 93 96 101 111 119 125 123 114 113 93 82 54 48 71 108 143 150 117 74 37 28 24 17 8 9 7 10 6 6 3 2 1 1 1 2 2 2 2 2 3 3 2 2 1 1 2 2 2 1 1 1 1 2 3 4 4 4 3 2 1 1 1 2 2 2 3 3 2 2 2 2 2 2 3 4 4 3 2 2 4 5 5 4 3 3 3 4 4 3 3 3 3 2 3 3 3 3 2 2 2 1 1 1 1 2 2 4 5 6 6 6 5 5 4 4 4 4 4 3 3 2 2 2 2 2 2 2 2 1 1 2 3 3 4 3 2 2 2 3 3 3 2 3 3 3 2 2 1 1 1 1 1 2 3 4 4 6 6 9 9 8 7 3 4 4 5 5 4 3 2 2 1 1 2 2 2 2 1 1 0 0 0 0 0 0 0 0 1 1 1 2 2 3 3 3 3 2 1 1 1 2 2 3 3 3 2 1 2 2 2 3 4 6 6 4 3 2 2 2 2 2 2 2 2 1 1 1 1 1 1 1 1 1 2 2 2 1 1 1 0 0 1 3 4 4 3 2 2 2 3 4 5 5 4 3 3 2 2 2 3 4 5 4 3 3 3 3 2 3 2 3 1 1 0 0 1 1 1 2 2 2 2 2 2 1 1 0 0 1 1 1 2 2 2 2 2 3 3 4 4 4 3 3 3 3 3 2 2 2 2 2 2 2 2 1 1 0 0 1 2 2 2 1 1 2 2 2 2 2 1 2 1 1 0 0 0 0 1 1 2 2 1 1 1 1 1 2 2 2 3 3 3 2 4 4 7 7 8 9 10 19 18 27 24 22 15 7 10 6 7 6 4 3 2 2 3 3 2 2 3 3 2 2 2 2 2 2 2 3 3 3 2 1 0 
0 1 3 3 3 2 2 3 4 6 7 8 10 10 10 6 5 3 4 4 3 4 3 5 5 5 4 2 1 2 2 4 4 4 3 3 2 2 2 2 3 3 4 5 5 5 4 6 7 10 10 9 8 6 6 6 7 8 8 9 16 26 30 39 62 96 124 143 151 146 132 115 99 91 90 94 98 107 118 131 142 143 131 108 79 56 36 26 20 12 7 8 7 6 5 4 3 2 2 5 6 10 13 26 33 45 79 133 173 180 141 96 66 57 79 97 112 114 111 109 108 111 116 129 134 130 122 103 101 77 55 44 63 113 153 151 113 61 33 28 25 13 10 7 12 8 6 3 2 2 2 1 2 1 2 2 3 3 3 2 1 1 1 2 2 2 1 1 1 2 3 4 5 5 4 3 2 1 2 2 2 2 3 4 4 3 3 3 3 3 3 3 4 4 3 2 2 3 3 4 4 4 4 4 5 4 5 3 3 3 3 4 4 4 3 3 2 1 1 1 1 1 1 3 4 5 5 6 6 6 6 5 5 4 4 3 3 3 3 3 3 2 3 2 2 1 0 1 2 2 3 3 3 3 3 3 2 2 2 2 2 2 2 2 1 1 1 1 2 2 2 3 4 4 6 6 7 8 7 6 4 5 5 5 5 4 3 2 1 0 1 1 2 2 2 1 1 0 0 0 0 0 0 0 1 1 2 1 2 2 3 3 3 3 2 1 1 0 1 1 2 2 2 1 0 1 1 2 3 4 5 5 4 3 2 1 2 2 3 3 3 2 2 2 2 1 1 1 1 2 1 1 1 2 2 2 2 1 1 2 4 5 5 3 2 2 1 2 3 5 5 4 3 3 3 3 3 3 3 4 4 4 3 3 3 2 3 3 3 2 1 1 0 1 1 2 2 2 2 2 2 1 1 1 1 1 1 1 2 2 2 3 4 3 3 3 5 4 5 4 3 4 4 3 3 2 1 2 2 3 3 3 2 1 0 0 0 1 1 1 1 1 1 1 2 2 2 1 2 1 1 0 0 0 0 1 1 2 2 2 1 1 2 2 2 2 2 3 3 2 2 5 7 10 8 7 7 8 18 24 36 36 30 25 12 10 7 7 7 5 3 2 2 3 3 3 3 4 4 4 3 3 2 1 1 2 2 2 2 2 1 0 
0 1 2 3 3 3 2 3 4 4 5 4 5 3 4 3 3 3 3 3 2 3 3 4 5 4 3 2 2 2 2 4 4 4 3 3 3 3 4 3 3 3 3 4 4 4 3 3 5 7 8 8 6 5 5 5 6 7 8 13 23 29 43 72 107 140 153 144 121 97 77 62 49 45 46 48 51 56 68 86 105 126 139 139 123 94 65 42 26 23 14 11 7 8 6 4 3 1 2 7 8 14 20 37 41 64 110 167 182 149 96 64 72 93 121 131 127 110 90 80 72 67 67 86 99 110 103 97 100 94 77 54 41 74 132 158 144 86 49 32 32 18 10 8 11 9 7 4 2 2 2 2 2 1 1 2 3 3 2 2 1 1 1 2 2 2 1 1 2 2 4 4 4 4 3 2 1 1 2 2 2 3 4 5 5 5 5 5 6 6 5 5 4 4 3 2 3 4 4 5 4 4 5 5 7 6 5 5 4 4 5 6 7 7 5 4 2 2 1 1 1 1 1 2 2 3 4 4 4 4 3 3 3 4 4 3 4 4 4 4 5 4 3 2 1 0 0 1 2 2 3 2 3 3 3 3 2 2 1 1 2 2 2 1 2 2 2 3 3 3 3 4 4 5 5 5 5 6 6 6 5 6 7 7 6 4 2 1 1 1 1 1 1 1 1 1 0 0 0 0 0 0 0 0 1 1 2 1 2 2 3 3 3 3 2 1 0 0 0 1 1 2 1 1 0 0 0 2 3 5 6 6 4 3 2 2 2 2 2 2 2 2 2 2 2 1 1 1 1 2 2 2 2 2 1 1 1 2 2 3 4 5 5 3 2 1 1 2 3 5 5 4 3 4 4 4 3 3 4 5 6 5 4 3 2 2 2 3 4 4 3 2 1 1 1 2 2 2 3 2 2 1 1 1 1 1 2 2 2 2 2 3 3 3 4 3 6 5 6 4 4 4 4 4 3 1 1 2 3 3 4 4 3 2 0 0 1 1 1 1 1 1 2 2 2 2 2 1 1 1 1 0 0 0 0 0 1 1 1 1 1 1 2 2 2 1 2 2 2 1 1 3 5 7 8 6 8 8 19 23 31 35 29 27 16 14 12 8 9 6 4 3 2 3 3 3 3 3 4 4 3 3 3 2 1 1 1 1 1 1 0 0 
0 1 2 3 3 3 2 2 4 3 5 3 4 2 2 3 2 2 2 1 1 1 2 3 4 4 3 2 2 3 3 4 4 4 4 3 2 2 3 3 3 3 2 2 2 2 2 2 3 4 6 6 6 6 5 5 5 7 11 20 25 38 68 106 140 152 136 101 71 52 41 36 32 34 35 34 32 32 36 45 58 76 101 125 145 136 102 66 32 24 19 18 9 9 7 6 4 2 4 8 10 15 27 41 53 91 138 179 159 117 78 83 104 122 132 123 106 83 67 58 48 42 44 56 62 70 54 62 73 100 98 78 52 48 98 146 162 116 73 38 35 22 11 8 9 7 5 3 2 3 2 2 2 2 1 2 2 2 2 2 1 1 2 2 2 1 0 0 1 2 3 3 3 3 3 2 1 1 1 2 2 3 4 5 6 5 6 6 6 6 5 5 3 3 3 2 2 2 2 3 3 4 4 5 5 6 5 4 3 3 5 6 7 7 6 4 3 2 1 0 0 0 1 1 2 3 2 1 1 2 2 3 3 3 4 3 4 5 6 5 5 4 3 2 0 0 0 1 2 2 3 3 3 4 4 3 2 1 1 1 1 1 1 1 2 2 3 3 3 3 4 4 4 4 4 4 4 4 4 4 5 5 6 5 5 3 2 1 1 1 1 1 1 1 1 1 1 0 0 0 0 0 0 1 1 2 2 2 2 2 2 3 2 2 1 1 0 0 0 0 1 1 2 1 1 1 1 1 2 3 4 5 5 4 4 3 2 2 3 2 2 2 3 3 2 1 1 1 2 2 2 2 2 2 2 2 2 2 3 3 4 4 4 3 1 1 1 2 3 4 4 3 3 4 4 4 4 3 3 4 6 6 4 3 2 2 2 3 3 3 3 2 2 2 1 1 1 2 3 2 2 1 1 2 2 2 2 2 2 2 3 3 4 4 4 4 6 5 5 3 3 4 4 3 2 1 1 2 2 3 3 4 3 2 1 1 1 1 1 0 0 1 2 2 2 2 2 1 1 1 1 0 0 0 0 0 0 0 0 0 0 0 1 2 2 1 1 1 1 1 1 3 5 7 8 5 7 7 19 28 37 46 38 37 21 14 12 8 10 6 5 3 1 2 2 3 3 3 3 3 3 3 3 2 1 0 0 0 0 0 0 0 
0 2 3 3 2 2 2 3 3 3 4 2 3 2 2 3 3 2 1 1 1 2 2 2 3 2 2 2 2 2 2 3 3 4 4 5 6 6 6 5 4 3 2 1 1 1 1 1 2 2 4 5 6 6 6 6 5 10 17 26 35 68 106 144 152 127 88 54 39 35 34 35 34 36 36 34 32 31 32 35 39 46 62 86 122 147 137 99 55 32 23 20 11 8 8 6 5 3 6 8 11 15 33 38 68 115 160 166 124 92 85 106 117 118 108 89 75 52 51 47 47 36 36 43 50 52 31 39 53 93 112 109 80 58 71 125 164 142 98 47 33 25 15 8 11 7 6 3 2 2 2 2 2 2 1 2 2 2 2 2 2 3 3 3 2 1 1 1 1 2 3 2 2 2 2 2 1 1 1 1 2 3 4 5 5 5 6 5 5 5 5 5 5 4 3 2 2 2 2 2 3 3 4 5 5 5 4 3 2 2 3 5 6 6 5 4 3 2 1 0 0 0 0 1 1 2 2 2 2 2 2 2 3 3 3 3 4 6 6 5 5 4 4 2 1 0 1 2 3 4 4 4 5 5 5 4 3 1 1 1 1 0 0 1 2 3 3 4 4 4 4 4 4 3 2 2 1 2 3 5 6 7 7 7 6 4 3 1 1 1 1 2 1 1 1 1 2 2 2 2 2 2 2 2 2 2 2 2 3 2 2 2 2 2 2 1 1 0 0 0 0 1 2 2 1 1 1 1 2 4 5 5 6 6 5 4 3 3 3 2 2 3 3 3 2 2 2 1 2 2 3 2 2 1 1 1 2 2 2 3 4 4 3 2 1 1 1 2 3 4 4 3 3 3 3 3 3 3 3 4 5 6 5 3 2 1 2 3 4 4 4 4 3 2 1 2 2 3 3 2 2 1 2 2 3 3 3 2 2 2 2 3 3 3 4 4 5 5 5 4 4 3 3 2 2 1 2 2 2 2 2 3 3 2 1 1 1 1 0 0 0 1 1 1 1 1 1 1 2 2 1 0 0 0 0 0 0 0 0 0 0 0 0 1 1 0 0 1 1 0 0 1 2 4 5 5 6 7 15 23 29 37 28 29 17 15 11 7 8 5 5 2 1 1 1 2 3 3 3 3 3 4 4 3 1 0 0 0 0 0 0 0 
0 2 3 3 2 1 1 2 2 3 3 3 4 3 3 3 3 3 2 1 1 1 2 2 2 2 2 2 2 2 1 2 2 3 4 5 5 5 5 4 4 3 2 1 1 1 1 1 2 2 3 4 5 6 5 6 4 15 24 35 61 102 141 152 122 80 48 36 34 33 29 25 22 21 21 19 22 24 25 28 33 38 41 50 82 123 148 130 83 45 25 20 14 7 8 7 6 5 8 9 13 21 36 42 96 139 172 143 103 85 103 112 98 81 67 54 51 46 53 40 38 27 35 39 50 49 36 38 47 77 115 137 117 85 60 103 155 158 117 63 34 28 20 8 8 4 4 2 2 1 2 1 2 1 2 1 2 2 2 2 2 3 3 3 2 1 1 1 2 2 3 3 2 3 2 2 0 1 1 1 2 3 4 4 5 5 5 5 4 4 4 4 3 3 2 2 2 1 1 2 3 3 5 5 5 4 3 2 2 2 3 3 5 5 4 3 2 2 1 0 0 0 0 1 1 2 2 2 2 2 2 2 3 3 3 4 4 5 5 4 5 4 4 2 1 0 1 1 2 3 3 3 4 4 4 3 3 2 2 1 1 1 0 2 2 3 3 3 3 3 4 4 4 3 2 1 1 2 3 4 4 5 6 6 5 3 2 2 2 2 2 2 2 2 2 3 3 2 2 2 2 2 2 2 2 2 2 2 3 3 2 2 2 1 1 1 1 1 1 1 1 1 2 3 2 2 1 1 2 3 5 6 7 7 6 5 3 3 3 3 3 3 3 2 2 2 2 2 2 3 3 3 2 2 2 2 2 2 2 3 4 4 3 3 2 2 2 3 3 4 3 2 1 2 2 3 3 2 3 3 4 5 4 3 2 2 3 3 4 4 5 4 3 2 1 1 2 3 3 3 2 1 2 3 3 3 3 2 2 2 3 3 3 2 3 3 4 5 5 5 5 4 3 2 1 1 1 2 1 1 2 3 2 1 0 0 0 0 0 0 1 1 1 1 0 0 1 1 2 2 1 1 0 0 0 0 0 0 0 0 0 0 0 1 1 0 0 1 1 0 0 1 2 5 4 5 4 5 10 17 22 29 25 28 15 11 6 5 6 4 3 2 1 1 1 2 2 2 2 2 3 3 3 3 1 0 0 0 0 0 0 0 
0 3 5 3 2 2 2 2 2 2 2 3 3 3 3 3 3 3 2 2 2 2 2 2 2 2 3 3 3 3 2 2 2 3 4 5 6 6 5 4 3 2 2 2 1 2 1 1 1 2 3 4 4 5 4 6 7 23 27 51 93 137 157 128 81 46 33 32 29 24 19 15 13 14 15 14 16 18 21 24 32 37 40 39 49 82 129 147 119 68 29 18 17 11 9 7 5 5 7 11 13 31 39 54 112 155 165 119 86 90 108 94 68 54 48 45 46 43 40 34 38 28 37 30 39 35 31 30 38 53 101 138 143 110 67 82 137 159 128 75 35 28 22 12 9 5 4 2 2 1 1 1 1 1 2 1 1 1 1 2 2 3 3 3 2 2 2 3 3 3 4 3 3 3 3 2 1 1 1 1 2 2 3 4 4 3 3 3 2 2 2 2 3 3 2 2 1 1 1 2 3 4 5 5 5 4 4 3 3 3 3 3 4 4 4 3 3 2 1 0 0 0 0 1 1 2 2 2 2 2 2 2 2 4 5 5 5 4 4 4 4 4 4 2 1 1 1 1 2 3 2 3 3 4 4 4 3 2 3 2 1 1 1 2 2 3 3 3 4 3 3 3 3 2 1 0 1 2 3 3 4 5 5 5 4 3 2 2 2 2 2 2 3 3 3 3 3 3 3 3 3 3 3 3 3 2 2 2 2 3 2 3 2 2 2 2 1 1 1 2 2 2 3 4 4 3 2 2 2 3 4 5 6 7 6 5 4 3 3 2 2 3 3 3 3 3 3 2 2 3 2 3 3 3 4 4 5 5 6 6 6 5 3 2 1 2 2 3 3 4 3 2 1 2 2 3 3 3 3 2 3 4 4 4 3 3 3 3 4 4 5 4 4 3 2 2 2 3 3 2 2 2 2 3 3 3 3 2 2 2 2 2 2 2 2 3 4 5 5 5 5 4 3 2 1 1 1 1 1 2 2 2 1 0 0 0 0 0 0 1 1 1 1 0 0 0 0 1 2 2 2 1 1 1 1 1 1 0 0 0 0 0 0 1 1 1 1 1 1 1 1 1 2 4 3 4 3 4 7 10 14 18 14 13 8 7 4 3 3 2 2 1 2 2 2 2 2 2 2 3 3 4 3 2 1 0 0 0 0 0 0 0 
0 3 4 3 2 2 2 2 2 1 1 2 2 2 2 2 3 2 2 2 1 1 1 1 1 2 3 4 4 3 2 2 2 3 4 4 4 4 3 3 2 2 2 1 1 2 2 2 1 2 4 5 5 5 3 5 12 29 36 82 120 156 142 91 50 32 32 30 23 19 16 14 14 14 15 15 16 17 17 19 27 33 37 37 34 53 96 138 142 98 46 18 15 10 7 6 4 4 5 11 15 39 37 72 125 166 154 106 77 97 101 78 54 49 49 49 44 32 27 29 39 32 42 35 42 36 33 32 41 43 89 129 148 119 76 70 121 151 132 83 38 26 20 12 6 3 3 1 1 1 1 1 1 1 1 1 1 0 0 1 1 2 2 2 2 3 3 3 4 3 4 3 3 2 3 3 2 1 1 2 2 2 3 3 5 5 5 5 4 3 3 3 2 2 1 2 2 2 2 3 4 3 4 4 5 5 5 5 4 4 3 4 4 5 4 3 2 2 1 0 0 0 1 1 1 1 1 2 2 1 1 1 2 4 5 6 5 3 3 3 4 4 3 2 1 1 1 1 3 3 3 3 3 4 4 3 3 3 3 2 2 1 1 2 2 3 4 4 4 4 3 3 2 2 1 1 1 2 2 3 4 5 5 5 4 3 3 3 2 2 2 2 2 2 3 3 2 2 2 2 2 2 2 3 3 2 2 2 2 3 3 3 2 2 2 1 1 1 2 2 3 3 3 4 3 3 2 2 2 2 3 4 4 5 5 5 5 4 3 2 3 3 3 3 3 3 3 3 3 2 2 3 4 5 5 6 6 7 8 8 7 5 2 2 1 2 2 3 3 5 4 3 3 3 4 4 5 5 5 5 5 5 6 6 5 5 5 4 4 4 4 4 3 3 2 2 2 3 3 3 2 2 2 3 3 3 3 3 2 2 2 1 2 1 1 2 3 5 6 6 5 5 4 3 2 1 1 1 1 2 2 2 1 0 0 0 0 0 0 1 1 1 1 0 0 0 0 1 1 2 2 2 1 1 1 1 1 1 1 0 0 0 0 1 1 1 1 1 1 1 1 1 3 3 4 3 3 4 7 7 8 7 7 8 7 5 4 3 3 2 1 2 2 2 2 1 1 1 2 2 3 3 3 2 1 1 1 0 0 0 0 0 
0 4 5 4 3 3 3 2 2 1 1 2 2 2 2 1 2 2 2 1 0 0 1 1 1 2 4 5 5 4 4 3 2 3 4 4 3 3 3 3 2 1 1 1 1 1 2 2 3 3 5 6 7 6 5 10 22 32 52 104 143 155 110 57 31 27 28 24 18 16 15 15 15 14 13 13 13 14 13 13 20 24 32 40 35 38 61 112 143 122 69 26 17 15 9 6 4 4 4 10 16 40 35 83 132 166 142 87 76 102 93 69 39 46 52 52 41 31 30 25 37 29 35 30 33 36 33 37 45 44 73 111 134 113 76 56 98 134 128 88 41 24 20 12 5 3 3 1 1 1 1 2 2 2 1 1 1 0 1 1 1 1 1 1 2 3 3 3 4 3 3 2 2 1 2 3 3 2 2 2 3 2 3 3 5 5 5 5 5 5 5 4 4 3 3 3 2 2 2 3 3 3 3 4 6 7 6 5 5 4 4 4 4 4 3 3 2 2 1 1 1 1 1 1 1 2 1 1 1 1 0 1 3 5 6 6 4 3 3 4 4 3 1 1 1 0 0 1 2 2 2 2 3 4 4 4 4 3 3 2 1 1 1 2 2 2 3 4 5 4 4 3 3 2 2 2 2 1 1 1 2 3 3 3 2 2 2 2 1 1 1 1 2 3 3 2 2 2 1 1 1 1 2 3 3 3 2 2 2 3 3 4 4 4 4 2 1 1 1 2 2 3 3 4 3 3 2 2 2 2 2 3 3 3 4 4 4 4 4 4 4 4 4 4 5 3 4 3 4 2 2 3 5 6 7 7 7 8 8 7 6 4 2 1 1 1 1 2 3 4 4 3 3 3 4 4 4 5 5 5 5 5 5 5 5 4 3 3 2 2 2 2 2 2 2 1 2 3 3 2 2 2 2 2 2 3 3 2 2 2 2 1 1 1 1 1 3 4 5 5 6 6 4 3 2 2 2 2 1 2 2 2 1 1 0 0 0 0 1 1 1 1 1 1 1 1 1 1 1 1 1 1 1 1 2 2 1 1 1 1 1 1 1 1 1 1 1 1 2 2 2 2 3 3 4 3 4 5 7 7 7 5 4 4 4 5 4 3 2 1 2 2 2 3 2 2 2 1 2 2 3 3 3 2 2 2 2 1 0 0 0 0 
0 3 4 3 3 3 3 3 2 1 1 1 1 1 2 1 2 1 2 1 0 0 1 1 2 3 5 5 6 4 4 3 3 3 4 4 4 3 3 2 2 2 1 1 0 0 1 2 3 3 6 6 8 7 8 15 30 35 78 125 159 140 80 38 28 29 25 19 15 13 12 12 11 9 9 8 8 9 9 12 18 18 21 31 35 35 41 86 134 138 94 40 16 15 7 6 4 5 4 8 16 35 32 81 134 162 142 81 86 104 91 73 54 71 75 71 49 33 27 25 37 31 35 36 34 41 39 40 47 44 67 91 106 91 64 47 86 125 127 90 44 22 21 11 4 3 2 1 1 2 1 2 1 1 1 1 1 1 1 1 2 1 0 1 2 2 3 3 2 2 2 2 1 1 2 3 3 2 2 2 2 2 2 3 4 5 6 6 6 6 6 5 4 3 3 3 3 3 3 3 2 2 2 3 4 5 6 4 4 2 3 3 3 3 3 3 3 2 3 3 3 2 2 2 2 2 1 2 1 1 1 2 3 5 6 5 4 3 4 4 3 2 0 0 0 0 0 1 3 3 3 4 4 5 5 5 5 4 3 2 1 2 2 2 2 2 2 3 4 4 4 3 3 2 2 2 2 1 1 1 2 3 3 3 2 2 1 2 2 1 1 1 2 2 3 3 2 2 1 1 1 1 2 2 2 2 1 2 3 3 3 4 3 3 3 2 2 1 1 2 2 2 2 3 2 2 1 1 1 1 1 1 1 1 2 3 5 6 7 7 6 6 5 4 5 3 5 3 4 2 3 4 6 6 6 6 6 6 6 6 4 3 2 1 1 1 1 2 4 5 4 4 4 5 4 4 4 4 5 5 5 6 6 5 5 4 4 3 3 3 2 2 2 2 1 1 2 3 3 2 2 2 1 1 2 2 2 2 3 2 2 2 2 1 2 1 3 3 5 5 5 5 4 3 2 2 2 2 1 2 2 2 2 1 1 1 1 1 1 1 1 1 1 1 1 1 1 2 2 1 1 1 1 1 1 1 1 1 1 1 1 1 1 1 2 1 1 1 2 2 3 3 3 3 3 2 4 5 6 7 5 4 3 4 4 5 4 3 2 1 2 3 3 3 2 3 2 2 3 3 4 4 4 3 3 2 2 1 0 0 0 0 
0 2 4 3 2 3 3 2 1 1 1 1 1 2 1 1 2 1 1 1 1 1 2 2 2 4 6 5 6 3 4 3 3 3 4 5 4 3 3 2 2 1 1 0 0 0 0 1 3 4 5 5 8 6 10 20 33 43 94 140 160 121 58 31 30 30 22 17 12 9 7 7 6 4 3 2 3 5 7 10 15 18 19 27 35 37 31 65 121 144 115 60 21 19 11 8 6 9 6 8 17 29 30 73 136 163 151 90 99 111 99 70 43 51 56 57 45 31 26 31 39 31 21 30 30 44 49 51 61 47 61 75 88 75 51 34 70 117 127 93 52 27 28 14 5 2 1 1 1 2 1 2 1 2 2 1 1 1 1 2 1 1 0 0 2 2 2 2 1 1 1 1 1 1 1 3 3 3 3 3 3 2 2 2 3 4 5 6 6 7 5 5 4 3 3 2 2 2 1 2 2 2 2 3 4 5 6 5 4 2 2 1 1 1 2 2 2 3 3 4 4 3 2 2 2 2 2 2 2 2 1 3 4 6 5 4 3 3 4 3 2 0 0 0 0 0 0 1 2 2 2 3 3 4 5 6 7 6 4 2 1 2 2 3 2 2 1 1 1 2 2 3 3 3 2 2 2 2 1 1 2 2 2 1 1 1 1 1 2 2 2 2 2 2 3 3 2 1 1 1 1 1 1 2 2 2 2 2 2 3 2 3 4 5 4 3 3 3 2 2 1 2 2 2 1 1 0 1 1 2 2 1 2 2 3 3 6 7 9 9 8 7 6 5 4 3 5 4 4 3 5 5 5 4 4 4 4 3 3 3 3 3 2 2 1 2 2 2 2 3 3 3 3 3 3 3 2 2 3 5 5 4 4 3 3 3 3 3 3 3 3 3 2 1 1 1 2 3 2 2 1 1 1 1 1 1 1 2 3 3 3 2 2 2 3 2 2 2 3 4 4 4 3 2 1 2 2 2 1 1 3 3 3 3 3 3 3 3 2 2 1 1 0 1 1 1 2 2 2 2 2 1 1 1 2 2 1 1 0 0 1 1 1 1 1 1 1 1 2 2 3 3 3 2 2 2 3 4 4 4 3 3 3 4 4 4 3 2 2 2 2 2 2 3 3 3 3 3 3 3 3 4 3 3 3 3 2 1 1 1 0 0 
0 1 2 2 2 3 3 3 2 1 1 2 2 2 2 2 1 1 1 2 2 3 3 3 4 6 7 7 6 5 5 3 3 3 5 5 4 3 2 3 2 1 1 0 0 0 0 1 2 4 5 5 7 6 11 24 32 53 102 151 152 103 44 30 33 28 17 13 9 7 6 6 5 3 2 1 2 4 6 9 12 16 19 23 33 38 32 53 109 143 129 73 30 20 15 9 7 10 8 8 19 26 29 63 136 171 158 106 105 129 131 111 98 106 102 83 55 24 26 32 46 51 45 38 30 37 45 38 37 27 43 59 77 70 47 35 71 120 128 91 49 26 29 13 5 2 1 1 2 2 2 2 2 2 2 2 1 1 1 1 1 1 0 1 2 2 2 2 1 2 2 2 2 2 2 3 3 4 3 2 2 2 2 2 3 3 5 5 5 5 4 4 3 2 2 1 1 2 1 1 1 2 2 3 3 4 4 4 4 3 1 1 1 1 2 2 2 3 4 4 5 4 3 3 2 2 2 3 2 3 2 4 4 5 4 4 4 4 4 3 1 0 0 0 0 0 0 1 2 3 3 3 4 4 4 5 7 7 6 3 1 2 3 4 3 2 1 0 0 1 1 3 3 3 2 2 2 1 2 2 2 1 1 1 1 1 1 2 2 2 2 2 2 2 2 3 2 1 1 1 1 1 1 1 1 1 1 1 2 2 2 2 3 3 3 2 2 2 2 2 2 1 1 1 0 0 0 1 1 1 1 0 1 1 2 3 6 8 10 11 10 9 6 4 2 3 4 4 4 3 4 5 5 4 3 3 3 2 2 2 2 2 2 2 3 3 3 4 5 6 6 7 8 8 7 6 4 4 4 4 4 3 3 3 3 3 3 3 3 3 3 2 1 1 0 0 2 2 2 2 1 1 2 1 1 1 1 2 3 4 4 3 3 2 3 2 3 2 2 2 3 3 2 1 1 2 2 2 1 1 2 3 3 3 3 3 3 3 3 2 1 0 0 0 0 0 1 1 2 2 2 2 1 1 2 2 1 1 0 0 0 0 0 1 1 0 1 1 2 2 2 2 2 2 1 1 1 1 2 2 2 2 2 3 4 4 3 3 2 2 2 3 2 3 2 3 3 3 3 3 3 4 3 3 3 3 3 2 2 2 1 0 
0 1 1 1 2 3 3 3 2 2 2 2 2 2 1 2 1 2 2 2 3 3 3 3 3 6 7 8 7 6 5 3 3 3 4 5 4 3 3 3 2 1 1 0 0 0 0 1 2 3 4 5 6 6 11 25 29 62 111 157 140 84 36 30 34 24 14 11 8 7 7 8 6 4 3 2 3 3 5 8 8 12 16 20 30 34 31 45 97 142 140 86 39 21 21 11 10 10 11 8 21 25 30 55 130 179 174 131 104 128 145 132 124 127 125 105 71 36 34 43 70 60 52 40 39 36 42 41 42 34 37 57 84 87 68 52 85 126 125 84 44 26 29 13 6 1 1 2 3 3 2 2 2 3 3 2 2 1 1 1 1 1 1 1 2 2 2 2 1 2 2 2 2 2 2 3 4 4 4 3 2 3 2 3 3 4 5 5 5 5 3 3 2 1 1 1 1 1 1 2 2 2 2 2 2 2 3 4 4 3 2 1 1 1 2 1 2 2 3 4 4 4 3 2 2 3 4 4 3 2 2 4 4 4 3 4 4 4 4 2 1 0 0 0 0 0 1 2 2 3 3 4 5 6 6 7 8 8 6 3 1 2 3 4 3 2 2 0 0 0 0 2 3 4 3 2 3 2 2 2 1 1 1 1 1 1 2 3 3 3 2 2 2 2 2 2 1 1 0 0 0 0 1 1 1 2 1 1 1 1 1 1 3 4 5 4 4 5 4 3 2 1 0 0 0 0 0 1 1 2 1 1 1 2 3 3 6 8 9 9 8 8 6 3 1 3 4 4 3 3 5 4 4 2 2 2 2 1 1 2 2 3 3 3 3 3 3 4 4 5 6 8 9 9 8 7 5 6 6 6 5 3 2 1 2 3 3 3 3 3 3 2 1 0 0 0 2 2 2 1 1 1 2 2 2 1 2 3 3 4 5 3 4 2 3 2 2 2 2 1 2 2 1 0 1 2 2 2 1 1 2 3 3 4 4 4 4 4 4 3 1 0 0 0 0 0 0 1 1 2 2 2 2 1 1 1 1 0 0 0 0 0 0 0 0 0 0 1 2 2 1 1 1 1 1 1 0 0 1 1 1 1 2 3 3 2 2 2 3 2 2 2 2 2 2 3 3 3 4 4 3 4 3 3 3 3 3 3 3 4 2 0 
0 1 2 2 2 3 3 3 2 3 3 3 3 3 2 2 1 2 2 3 3 3 3 2 3 5 6 7 7 7 6 4 3 4 4 5 4 3 3 3 2 2 1 0 0 0 0 1 2 3 4 4 6 5 10 24 25 67 117 157 130 69 31 29 33 22 13 11 8 8 8 9 8 4 4 2 3 3 5 6 7 9 14 17 27 33 28 38 87 138 146 96 46 22 25 11 11 8 12 8 20 25 32 49 112 170 180 143 106 106 127 136 147 157 156 146 111 72 45 39 53 59 72 57 50 35 34 26 21 17 29 62 93 93 81 71 110 134 115 71 33 23 23 10 4 1 2 2 3 3 3 2 3 3 3 3 3 2 1 1 1 2 2 2 2 2 2 1 1 2 2 2 2 2 2 3 4 4 4 3 3 4 3 4 5 5 5 6 6 7 6 4 2 1 1 1 2 2 2 2 2 3 3 3 3 3 3 3 4 4 2 1 1 2 2 2 1 1 2 2 3 3 2 2 3 4 5 5 3 2 2 3 3 3 3 4 4 4 3 1 0 0 0 0 0 0 1 2 2 2 3 4 5 6 5 6 7 7 5 3 1 2 3 3 3 3 2 1 0 0 0 2 3 5 5 4 4 3 3 2 1 1 1 1 2 2 3 3 3 2 1 1 2 2 2 2 1 0 0 0 0 0 0 1 2 2 2 2 2 2 2 3 4 4 4 4 4 4 4 3 2 2 1 0 0 0 0 1 2 2 2 2 2 2 3 2 5 7 8 8 7 7 5 3 1 4 4 5 3 2 5 4 5 2 2 2 2 2 2 2 3 3 4 4 4 4 4 5 6 7 9 9 9 9 8 8 7 7 7 6 4 2 1 2 2 3 3 3 3 2 2 1 0 0 0 1 2 2 2 2 1 2 2 2 2 1 1 2 3 5 6 4 4 2 2 2 2 2 2 2 2 2 1 0 0 2 2 2 1 1 2 2 3 4 4 4 4 4 4 3 1 0 0 0 0 0 0 0 1 1 1 1 2 2 2 1 0 0 0 0 0 0 0 0 0 0 1 1 2 2 1 1 1 1 1 1 0 0 0 1 1 1 2 2 3 2 2 2 3 2 2 2 2 2 2 2 2 3 3 3 3 4 4 3 3 3 3 3 4 4 3 0 
0 1 2 2 3 3 3 3 3 3 3 3 3 3 3 2 2 2 2 3 3 2 2 2 2 4 5 6 6 6 5 4 3 3 4 4 3 3 3 3 3 2 1 0 0 0 0 1 2 2 3 4 5 4 9 23 23 72 123 157 124 61 27 29 30 19 13 10 7 7 7 8 8 5 5 2 3 3 5 5 5 8 14 15 23 32 26 30 78 133 149 101 49 22 29 14 13 9 11 7 14 22 32 39 85 144 187 171 131 97 91 99 109 116 131 150 142 128 95 75 65 56 56 48 53 38 39 29 28 33 44 78 101 96 99 90 127 135 102 60 26 22 18 8 4 2 3 3 4 3 3 3 3 3 4 3 3 2 1 2 2 2 3 3 3 2 2 2 2 2 2 2 1 1 2 3 4 3 4 3 4 5 5 6 6 6 6 6 7 7 6 5 2 1 1 2 2 2 2 2 3 3 4 4 3 3 3 3 3 4 3 2 2 3 3 3 3 3 3 4 4 4 3 3 4 5 6 6 3 3 3 4 4 3 3 3 3 3 1 0 0 0 0 0 0 1 2 2 2 2 2 3 4 5 5 5 6 6 5 3 2 2 3 2 3 3 3 2 0 0 1 2 3 4 4 4 4 4 3 2 2 1 2 2 2 2 3 4 3 2 1 1 2 2 3 2 2 1 0 0 0 0 0 1 2 3 3 2 3 3 3 3 4 6 5 5 4 5 4 3 3 2 1 1 0 0 0 1 2 2 2 2 2 2 3 3 5 7 7 7 5 6 4 3 2 4 4 5 3 2 5 5 5 2 1 1 1 1 2 2 3 4 5 5 4 3 3 4 6 6 8 8 8 7 7 6 6 7 7 6 4 3 2 2 2 3 4 3 3 2 1 0 0 0 1 2 3 3 2 2 1 2 2 2 2 2 1 2 3 5 6 4 4 1 1 1 1 1 1 2 2 2 1 0 0 2 2 2 1 1 2 3 3 3 3 3 3 3 3 2 1 0 0 0 0 0 0 0 1 1 1 1 2 2 2 2 1 0 0 0 0 0 0 0 1 1 1 2 2 2 1 1 1 1 1 1 0 0 1 1 1 1 2 2 2 2 2 2 3 2 2 3 2 2 2 3 3 3 3 3 4 4 4 3 3 3 4 4 4 4 2 0 
0 1 2 1 2 3 3 3 2 3 3 3 4 4 3 2 1 1 2 2 2 2 1 1 2 3 4 5 4 4 4 3 3 3 4 3 3 2 2 2 2 1 1 0 0 0 1 1 2 1 2 3 4 3 7 22 22 74 126 157 123 60 27 28 27 18 15 11 7 7 7 8 7 3 3 1 3 3 5 5 5 9 12 16 21 30 28 27 74 130 149 102 49 19 25 12 10 10 9 7 8 17 28 33 59 106 166 191 169 125 85 65 70 80 89 113 132 150 129 94 60 42 56 54 64 38 31 25 28 44 63 89 93 82 81 92 130 127 90 51 23 21 16 7 5 3 3 3 4 4 4 3 3 3 3 3 3 2 2 2 2 2 2 3 2 2 2 2 2 2 2 2 1 1 2 3 4 4 5 5 5 5 5 6 6 5 6 6 8 9 7 5 3 1 1 2 2 2 2 2 2 3 3 3 3 3 3 2 2 3 3 2 2 4 5 5 5 5 5 5 5 4 4 5 6 6 6 6 5 5 4 4 4 3 3 4 3 2 1 0 0 0 0 0 1 1 2 2 2 2 2 3 4 5 5 5 6 5 5 2 1 2 2 2 3 2 3 2 1 0 1 2 3 4 5 5 5 5 4 3 3 1 2 2 2 2 3 4 4 3 2 2 1 2 3 3 3 3 2 1 1 0 1 2 3 4 4 4 4 5 5 6 5 5 5 5 4 4 4 3 2 2 1 1 0 0 1 1 2 3 3 3 4 4 4 4 4 6 6 7 5 5 4 3 3 5 4 5 3 3 6 5 5 2 1 1 2 2 3 3 4 4 5 6 4 4 3 5 5 6 7 6 5 4 4 5 6 5 5 5 5 5 4 4 3 4 4 4 4 3 2 1 1 1 2 2 2 2 2 2 2 2 2 3 2 2 1 2 3 4 5 4 4 1 1 1 2 1 1 2 2 2 1 0 0 1 2 2 2 1 2 3 3 2 2 2 2 2 2 2 1 0 0 0 0 0 0 1 1 1 1 1 1 2 2 2 2 1 0 1 0 1 1 1 1 1 2 2 2 2 1 1 1 1 2 1 1 1 1 2 3 2 3 3 3 2 2 3 3 3 3 3 2 2 3 3 3 3 3 2 3 4 4 4 3 3 4 4 4 4 1 0 
0 1 3 2 3 3 3 2 2 3 3 3 4 5 4 3 2 1 1 1 1 1 1 2 4 4 4 4 4 3 3 2 3 2 2 2 2 3 3 4 3 2 1 1 0 0 1 1 2 2 2 2 3 3 5 22 24 77 130 158 124 62 27 28 26 16 16 12 8 7 7 7 5 3 2 1 2 3 5 7 7 10 12 16 22 31 28 28 74 130 147 100 44 17 22 13 8 10 6 7 6 11 21 29 44 74 123 171 192 174 137 110 94 86 83 103 114 142 150 134 97 54 53 40 49 33 32 36 43 65 88 91 79 76 68 92 121 112 84 45 23 19 12 6 5 5 3 3 4 4 4 3 3 3 3 3 3 2 2 2 2 3 3 3 3 2 2 2 2 1 2 2 2 3 4 5 6 6 6 5 5 4 4 5 6 5 6 6 7 8 6 4 2 1 1 2 2 2 2 2 3 4 4 4 4 3 3 3 3 4 4 4 4 5 6 6 6 6 6 6 6 5 5 6 6 5 6 6 6 6 4 5 5 5 5 4 3 2 2 1 0 0 1 1 2 3 3 4 5 5 4 5 5 6 5 5 7 6 5 3 2 3 2 2 2 2 2 2 1 1 1 2 1 1 2 2 3 3 3 2 2 2 2 1 1 2 2 3 3 2 2 2 2 2 2 4 6 4 5 2 2 1 2 2 3 3 2 2 3 3 3 4 5 6 5 5 4 4 4 3 3 2 2 2 2 1 1 1 2 3 3 3 3 4 4 4 4 6 5 6 5 4 3 3 3 5 5 5 4 4 6 6 5 2 1 1 2 3 3 2 2 3 5 6 5 5 3 4 4 5 6 5 5 4 5 5 5 4 4 3 4 5 5 5 4 4 4 4 3 2 1 1 2 2 3 4 3 3 3 2 2 2 3 3 3 2 2 2 3 3 4 3 3 2 2 2 2 2 1 2 2 2 1 1 1 1 2 2 2 2 3 3 3 2 1 1 1 1 1 1 1 1 0 0 0 0 0 1 1 1 1 1 1 2 2 3 2 2 1 1 1 1 1 1 1 2 2 2 2 2 1 2 2 2 2 1 0 1 2 2 3 3 4 3 3 3 3 4 4 4 3 4 3 3 3 3 3 2 2 2 3 3 4 4 3 2 3 3 3 2 1 0 
0 2 3 2 3 3 3 2 2 2 2 4 4 5 4 2 2 1 1 1 1 1 2 2 4 4 4 3 3 3 3 2 2 3 3 2 2 2 2 2 2 2 1 1 1 1 1 2 2 1 1 2 2 3 4 21 28 77 135 159 129 66 28 28 26 17 16 13 9 8 7 6 4 1 2 1 2 4 5 8 7 9 14 14 23 32 30 34 81 134 146 98 41 17 17 11 6 9 5 6 4 7 13 23 35 50 86 126 164 181 163 135 115 115 112 112 110 128 139 142 117 66 55 43 49 37 33 41 61 84 95 83 66 57 62 94 115 102 79 40 25 20 11 9 7 6 4 3 4 5 6 5 4 3 3 3 3 2 2 2 2 2 3 2 2 3 3 3 2 2 2 2 2 3 3 4 5 5 5 4 3 2 2 2 4 5 7 6 5 5 4 3 2 1 1 1 2 2 2 2 3 3 4 4 4 3 3 2 3 4 4 4 5 6 7 6 5 5 6 5 5 4 4 4 4 3 4 5 5 5 4 4 5 6 6 5 4 3 3 2 1 1 1 1 2 3 3 4 4 4 5 5 6 6 5 6 7 6 5 3 3 3 2 1 1 1 1 2 1 1 2 2 2 1 2 2 3 3 3 2 2 2 2 1 2 2 2 2 2 2 2 2 2 2 2 3 5 4 5 2 3 1 2 2 3 3 2 2 2 3 3 4 4 4 4 3 3 3 3 2 1 2 2 2 1 1 1 2 2 2 2 3 4 5 4 4 3 6 6 7 6 5 4 3 3 5 5 5 4 4 6 5 4 2 1 2 3 3 3 3 2 3 5 6 6 5 3 4 4 5 6 5 5 4 5 4 3 2 2 2 3 4 5 6 6 6 6 5 5 4 4 3 2 2 2 3 3 2 2 2 2 2 2 3 3 3 2 2 2 2 2 3 3 2 2 2 2 2 2 2 2 2 2 1 1 1 2 2 3 3 3 3 2 1 0 0 1 1 1 1 1 1 1 0 0 0 0 1 1 1 0 1 1 2 2 3 2 2 1 2 2 1 1 1 1 1 1 1 1 1 2 2 2 2 2 1 1 1 2 2 4 3 4 3 4 3 3 3 4 4 3 3 3 2 2 2 2 2 2 2 2 3 5 4 3 2 2 3 3 2 1 0 
0 2 3 3 4 4 3 2 3 3 3 4 5 6 5 3 2 1 1 1 1 1 2 3 4 4 4 3 3 3 3 3 2 1 2 2 3 3 4 4 2 1 1 1 1 1 1 1 1 2 2 2 2 2 2 20 31 73 135 158 135 74 31 27 27 19 17 14 11 10 9 7 6 3 3 2 2 4 6 9 8 9 13 14 28 35 33 42 95 141 145 94 36 20 15 9 5 6 5 5 4 5 6 14 29 38 47 72 108 144 158 143 116 103 107 116 112 105 124 135 141 97 64 39 44 37 40 54 78 93 85 70 50 55 76 109 120 94 67 33 25 21 8 10 7 9 5 3 3 3 4 5 4 4 3 3 3 3 3 4 4 3 3 3 3 3 2 3 2 2 3 4 4 5 5 5 5 4 3 2 1 1 1 2 4 5 6 6 5 4 3 3 2 1 1 1 1 1 2 2 3 4 4 4 4 4 3 3 3 4 5 5 6 7 8 7 6 4 5 4 4 4 3 3 3 3 3 4 4 4 4 4 5 6 6 4 3 3 3 2 2 1 1 2 2 3 4 5 6 7 7 7 7 7 7 7 7 6 5 3 3 3 2 1 0 0 1 1 1 1 2 2 1 0 0 1 2 2 2 1 1 1 1 1 1 2 2 2 1 2 1 2 2 2 2 3 4 4 5 2 2 2 2 2 2 2 1 1 1 1 2 2 4 5 4 3 3 3 3 3 2 2 2 3 3 3 2 2 2 2 2 3 3 4 4 4 2 5 5 5 4 4 3 3 4 5 5 5 4 4 5 4 4 2 2 3 3 3 3 2 2 3 5 6 6 6 4 4 4 4 5 4 5 5 5 4 3 3 2 2 2 3 4 5 7 7 6 5 5 5 4 4 3 2 2 3 3 2 2 2 1 1 2 3 4 3 2 1 1 2 2 2 2 2 2 2 2 1 1 2 2 2 2 2 1 1 1 2 3 3 3 2 1 1 1 1 1 1 1 1 1 1 1 1 0 0 0 1 1 0 0 0 1 2 2 2 2 2 2 2 2 2 1 1 1 1 1 1 1 1 2 3 4 4 3 2 1 1 1 2 3 3 4 2 3 3 3 3 3 3 3 3 2 2 2 2 1 2 2 3 3 4 5 4 3 2 1 2 1 1 1 0 
0 1 2 3 4 4 3 3 2 3 4 5 6 5 4 2 2 1 1 1 1 1 2 2 3 4 3 3 3 3 3 3 4 3 3 2 2 2 2 2 2 1 0 0 0 0 1 2 2 2 2 2 2 3 2 17 31 61 123 151 144 87 39 27 27 21 19 14 12 11 11 10 9 7 7 5 6 7 8 11 10 11 14 20 33 37 35 49 110 150 139 87 32 24 14 10 6 6 4 3 2 2 3 6 16 30 36 41 55 83 107 110 92 75 82 107 119 102 115 122 144 123 86 48 45 52 64 76 87 84 69 53 39 71 107 131 120 82 51 30 23 19 8 11 7 9 7 4 2 3 4 5 5 4 3 2 2 3 3 4 5 4 4 2 3 3 2 3 2 2 2 2 2 3 3 4 4 3 2 1 1 1 1 2 3 5 6 6 5 4 4 3 2 1 1 1 1 1 1 1 3 3 4 4 4 3 2 3 3 4 4 5 5 7 8 7 6 4 4 4 3 3 3 3 4 4 4 4 4 3 3 4 4 5 5 4 3 3 3 3 2 1 1 1 2 3 3 4 4 5 6 7 7 7 6 6 6 5 4 3 3 3 2 0 0 0 1 1 1 2 2 2 1 1 0 1 2 2 2 1 1 1 2 1 1 2 2 2 1 1 1 2 2 2 2 2 3 3 4 2 2 2 2 2 2 2 1 1 1 1 2 2 3 3 3 2 2 2 2 2 2 2 2 3 3 3 3 2 2 2 2 3 3 4 4 4 4 5 5 5 4 4 4 4 4 5 4 3 2 3 3 3 2 1 2 3 3 3 3 3 2 2 3 4 5 5 4 3 4 5 6 4 6 5 6 5 3 2 2 2 3 3 5 6 8 8 7 6 5 6 6 4 3 2 2 2 2 2 2 2 1 1 2 3 4 3 2 1 1 1 1 1 1 1 1 1 1 1 1 1 2 2 2 2 1 1 1 2 2 2 1 1 0 0 0 1 1 1 1 1 1 1 1 1 0 0 0 1 1 1 0 1 1 2 2 1 1 1 1 2 2 2 2 1 1 1 0 0 1 2 3 3 4 3 3 3 2 2 2 2 3 2 3 2 2 2 2 1 2 2 2 2 2 2 1 2 1 2 2 3 3 4 4 4 3 2 1 2 2 2 1 0 
0 1 1 2 3 3 3 3 3 4 5 6 8 7 4 2 1 1 2 2 2 1 1 1 2 2 3 3 3 3 3 3 4 3 2 2 1 2 3 3 2 1 0 0 0 0 1 2 2 2 2 3 2 2 2 13 28 46 104 138 152 108 53 28 25 23 21 15 12 11 12 12 11 10 10 8 8 9 11 12 12 13 14 25 35 35 36 65 124 154 125 75 26 25 12 10 6 6 4 3 2 2 2 4 8 17 26 31 34 48 64 81 78 67 59 76 101 95 88 99 130 139 115 84 56 63 80 93 90 68 47 39 56 101 135 139 107 66 35 27 19 13 6 9 8 8 6 4 3 3 4 4 4 3 2 2 2 3 4 5 6 5 5 3 3 3 2 2 1 2 2 3 3 4 4 4 3 2 1 1 1 2 1 2 2 3 4 5 5 5 4 4 3 2 2 1 0 0 0 1 2 2 3 3 3 2 2 2 3 3 3 3 4 6 8 8 7 5 5 5 5 5 5 5 5 5 5 3 3 3 3 4 4 4 4 3 2 2 3 2 1 1 1 1 2 2 3 5 5 5 6 6 6 6 5 6 6 5 3 2 3 2 2 0 1 0 1 1 2 2 2 2 1 1 0 1 2 2 2 1 1 1 1 1 1 2 2 3 2 2 2 1 1 1 1 2 3 3 3 2 2 2 2 3 3 3 2 2 2 2 1 2 2 3 3 3 2 2 2 2 2 2 2 2 2 3 3 3 2 3 3 3 3 4 4 4 4 5 5 4 3 3 3 3 4 4 4 2 2 2 2 2 2 3 4 4 4 4 3 3 2 2 2 3 4 5 4 4 4 4 6 4 5 5 5 4 2 2 3 4 5 5 5 6 8 7 6 5 4 6 6 5 4 3 3 3 3 2 3 3 2 2 2 3 3 3 2 1 1 1 1 1 0 0 0 0 0 0 0 1 2 2 2 2 2 1 2 2 2 1 1 0 0 0 0 1 1 1 1 1 1 1 1 1 0 0 0 0 1 1 1 0 0 1 0 0 1 1 1 2 2 2 2 1 1 1 0 0 1 2 3 4 4 5 5 4 4 3 3 2 3 2 2 2 2 2 2 1 2 2 2 2 2 1 1 1 2 3 3 3 3 4 3 3 2 1 1 1 2 2 1 0 
0 0 1 2 3 3 3 3 4 5 5 7 8 9 6 3 1 1 2 2 3 2 1 1 2 2 3 2 3 3 3 4 4 4 3 2 1 1 1 1 1 1 0 0 1 1 1 2 2 2 2 3 3 3 3 10 26 35 81 122 154 133 75 35 24 24 25 18 13 12 12 13 11 11 11 10 10 11 13 13 13 16 18 30 33 31 39 84 136 150 104 57 22 24 12 10 8 7 4 3 2 2 3 3 4 8 16 24 27 36 47 66 77 82 85 96 107 100 76 74 97 124 125 109 97 115 119 112 84 50 30 46 93 139 151 124 78 47 30 29 16 11 8 8 8 7 6 4 3 3 3 3 3 3 2 2 2 3 3 4 6 5 5 3 3 2 2 2 2 2 1 1 1 3 4 4 4 3 2 1 1 2 1 2 2 3 3 5 5 5 5 5 4 3 2 1 0 0 0 1 2 2 2 3 2 2 2 3 3 4 3 3 2 4 6 7 7 6 6 6 6 5 5 5 5 5 4 3 3 3 3 3 3 4 4 3 3 2 3 2 1 0 0 1 2 3 3 4 4 6 6 5 5 4 4 5 5 5 4 3 3 2 2 1 1 1 2 2 2 2 2 2 1 0 0 1 2 2 1 1 1 2 2 2 2 2 2 2 2 2 2 1 1 0 1 2 2 3 3 2 2 2 2 4 3 3 2 2 2 2 1 1 2 2 3 2 2 1 1 1 2 2 2 2 2 2 2 2 3 3 3 3 3 3 3 4 5 6 5 5 3 4 4 4 5 5 4 2 2 2 3 3 3 4 5 5 5 4 4 4 3 2 2 2 3 5 5 4 4 4 5 3 5 4 5 3 2 2 4 5 6 6 6 6 6 6 4 3 3 4 4 4 4 4 4 4 3 3 3 3 3 3 3 3 3 3 2 1 1 1 1 0 0 0 0 0 0 0 0 1 2 2 1 2 2 1 2 2 2 2 1 1 0 0 0 1 1 1 1 1 1 1 1 1 0 0 0 0 1 1 1 0 0 0 0 0 0 0 1 2 2 2 2 1 1 1 1 1 2 2 2 2 2 3 4 4 5 5 4 4 4 3 4 2 2 2 2 1 1 1 1 1 1 1 1 2 2 3 3 3 3 3 2 2 1 1 1 1 2 2 1 0 
0 1 1 2 2 3 3 4 4 4 5 8 8 8 6 5 2 2 1 2 3 3 3 2 1 1 1 2 3 3 3 3 4 4 3 1 0 0 1 1 1 1 1 1 1 2 2 3 2 3 2 3 3 3 3 8 23 31 57 105 145 149 103 50 28 27 28 23 18 16 15 14 12 10 10 10 12 13 14 14 16 19 25 32 29 32 57 111 146 131 80 36 21 18 11 10 11 8 5 4 3 2 2 3 5 5 8 16 23 28 33 49 63 75 88 107 124 120 91 66 70 92 111 118 117 129 124 107 66 39 46 95 143 161 138 91 50 37 28 26 12 12 8 9 7 4 3 3 4 5 5 4 4 3 2 2 2 2 2 3 6 4 5 2 3 2 2 2 2 2 3 3 3 3 3 3 3 2 2 2 2 2 1 1 1 2 3 3 4 5 4 4 3 2 1 1 1 1 1 2 2 2 2 2 2 2 2 3 3 3 3 3 2 3 5 6 6 5 5 5 5 5 5 5 5 4 3 3 3 3 3 3 3 4 4 3 2 2 2 1 1 0 1 1 2 3 4 5 6 6 5 5 5 4 4 5 6 5 3 2 2 1 1 2 2 2 2 2 2 2 2 2 1 0 0 1 2 2 1 2 2 3 3 3 2 2 2 2 2 2 2 1 1 1 1 2 3 4 4 3 2 2 2 4 3 3 2 3 2 1 1 0 1 2 3 3 2 1 1 1 1 1 1 1 1 2 2 3 3 3 4 4 3 3 3 4 6 7 6 5 3 4 4 5 6 5 4 2 3 3 3 3 4 5 5 5 5 4 4 3 4 3 2 2 2 4 4 4 5 4 4 3 4 4 4 2 2 2 4 6 7 6 5 5 5 4 3 2 3 4 4 4 5 5 4 4 3 3 3 3 3 3 3 3 2 2 1 1 1 1 1 1 1 1 1 1 0 0 0 1 1 2 1 1 2 1 2 2 3 3 2 2 1 1 1 1 1 1 2 1 2 1 1 0 0 0 0 0 1 1 1 0 0 0 0 0 0 1 1 2 3 2 2 1 1 1 1 1 1 2 2 2 2 2 4 5 6 6 5 5 5 4 4 3 3 2 2 2 1 1 1 1 1 1 1 2 3 3 4 4 2 2 2 2 1 1 1 1 2 2 1 0 
0 1 2 1 2 3 3 3 4 4 5 7 9 9 7 5 3 2 1 2 2 3 2 2 2 1 1 1 2 3 3 3 3 2 2 1 0 0 1 1 1 0 1 1 2 2 2 2 2 2 2 3 3 2 3 6 16 29 39 89 128 152 128 76 43 32 32 29 24 20 17 15 13 11 12 14 16 17 16 17 18 25 32 30 28 46 87 136 143 103 58 22 19 13 11 12 12 9 7 4 3 3 3 3 4 5 6 11 17 23 25 30 41 60 80 111 137 141 119 85 60 58 70 94 113 123 108 85 67 83 117 153 162 142 101 58 35 30 21 16 11 12 10 8 6 3 2 3 3 3 3 4 4 3 2 2 1 1 2 3 4 3 3 2 2 2 2 2 2 2 2 3 3 4 4 4 4 2 2 2 2 2 1 1 1 2 3 4 3 3 4 4 3 2 1 0 1 1 1 2 2 2 1 1 2 2 2 2 3 3 3 2 2 4 4 5 6 5 5 5 4 4 4 4 4 4 4 4 3 3 3 3 3 3 3 3 2 1 1 1 1 1 2 2 3 3 3 4 5 6 6 5 5 5 6 7 6 4 3 2 2 2 2 3 2 3 2 1 1 1 1 1 1 0 0 1 2 2 2 2 2 3 3 3 2 2 2 2 1 2 1 1 1 1 1 2 3 4 4 2 2 1 2 3 3 3 2 2 2 2 1 1 1 2 3 3 3 2 1 1 2 1 1 1 2 2 3 3 3 3 3 4 3 3 3 4 6 7 6 4 3 3 3 4 5 4 4 2 2 2 3 4 5 5 5 5 4 3 3 3 4 4 3 2 2 3 4 5 5 4 5 3 4 4 3 2 2 3 5 6 6 5 4 3 4 4 4 5 5 5 5 5 4 4 3 2 2 2 3 3 3 3 2 2 1 1 0 1 1 1 1 1 1 1 1 1 1 1 0 1 1 1 1 1 1 1 2 2 3 4 2 3 2 2 1 1 1 1 2 1 1 1 0 0 0 0 0 1 1 2 1 0 0 0 0 0 0 1 1 1 2 2 2 2 1 2 1 1 2 2 2 2 2 3 5 5 5 5 4 4 4 3 4 3 3 1 2 1 1 1 0 0 0 0 1 2 3 4 4 3 2 2 2 2 2 2 1 2 2 2 1 0 
0 2 3 1 1 2 3 4 3 3 5 6 7 6 6 4 3 3 2 2 2 4 4 3 2 1 1 1 2 2 2 2 2 1 1 0 0 0 1 1 1 1 2 2 3 2 2 2 2 3 3 3 3 2 2 4 10 25 33 61 103 136 144 105 66 41 34 35 31 25 21 18 15 14 14 15 18 21 21 23 26 32 35 31 37 76 120 148 122 71 35 16 15 10 10 12 12 9 6 4 3 3 2 3 4 6 5 7 11 15 20 22 24 31 46 82 114 141 140 124 97 75 62 70 88 103 105 105 116 142 164 168 144 103 63 38 29 22 13 9 10 9 9 6 4 2 2 3 3 3 4 4 4 3 2 1 1 1 2 2 3 2 2 2 2 2 2 2 2 3 3 3 3 3 2 2 3 2 3 2 2 2 1 2 2 3 3 2 3 4 4 3 1 0 0 0 1 1 2 3 3 3 2 2 2 2 2 2 3 3 3 2 3 3 4 4 5 4 4 3 2 3 2 3 4 5 6 5 5 4 4 4 4 3 3 2 2 1 2 2 2 2 2 3 3 3 3 4 5 6 6 6 8 8 8 7 5 3 2 1 1 2 2 3 3 3 1 1 0 0 1 1 1 1 1 2 2 2 2 3 3 3 3 3 2 2 2 2 1 1 1 2 2 2 2 2 3 3 3 2 1 1 2 2 3 2 2 2 3 2 2 1 2 2 3 4 4 3 2 1 1 1 1 1 2 2 3 3 3 3 4 3 3 3 3 4 6 7 5 4 3 3 3 4 4 3 2 2 3 3 4 5 5 5 4 3 2 2 2 2 3 4 4 2 2 3 3 5 5 5 4 3 3 3 3 3 3 3 5 6 6 4 3 3 4 5 5 5 5 6 5 5 4 3 2 1 1 1 1 1 1 1 1 1 0 0 0 1 1 2 2 1 1 1 1 2 2 1 1 1 1 1 1 1 2 1 2 2 2 3 2 3 2 2 2 1 1 1 2 1 1 1 1 0 0 0 1 1 2 2 1 1 0 0 0 0 1 1 1 2 2 2 2 2 2 1 1 1 1 1 2 2 2 2 3 4 5 4 4 3 3 3 3 2 2 1 2 1 1 0 0 0 0 0 1 1 2 3 3 3 3 3 2 2 2 2 2 2 2 2 1 0 
0 2 3 1 0 1 2 3 3 3 3 5 6 5 4 4 4 3 2 2 3 4 4 4 3 2 2 2 1 2 1 1 1 0 0 0 0 1 1 1 1 1 2 2 3 2 2 2 3 3 2 2 1 1 2 3 8 15 31 40 79 106 140 129 94 57 38 36 36 32 27 25 22 19 17 16 20 24 27 28 31 33 32 38 64 114 144 138 90 44 22 14 10 6 7 10 9 8 6 4 3 3 2 4 5 5 6 5 5 6 9 13 21 29 33 56 75 110 131 142 136 125 115 113 124 133 138 145 161 171 165 137 96 57 34 27 21 13 6 6 7 6 7 4 4 2 2 2 3 3 3 2 2 2 2 1 1 2 2 2 2 1 0 1 1 2 2 3 3 2 3 2 2 2 2 2 3 2 3 3 3 3 2 2 2 2 3 3 4 4 4 3 2 1 0 0 1 1 2 2 3 3 2 1 1 1 1 2 3 3 3 2 2 3 4 4 5 4 4 2 1 1 1 2 3 5 6 5 4 4 3 3 3 3 3 3 2 2 3 3 3 3 3 3 3 2 2 3 4 5 5 5 6 6 6 6 4 2 1 0 1 1 2 2 2 2 1 0 0 0 1 1 1 1 1 1 2 2 2 3 3 3 2 2 2 2 1 1 1 1 2 2 2 2 1 1 2 2 2 1 1 1 1 2 2 2 2 2 3 2 2 1 1 1 2 3 4 3 2 2 1 1 1 2 2 2 3 3 4 4 4 3 3 2 3 4 5 6 5 4 3 3 3 3 3 3 2 2 3 4 5 5 5 5 4 3 2 1 1 2 3 4 4 2 1 2 3 4 4 5 6 5 6 6 6 5 4 4 5 5 5 4 3 4 5 5 5 5 5 6 5 5 3 2 1 1 0 0 1 1 1 1 1 0 0 0 0 1 2 2 2 1 1 1 1 1 2 1 1 1 1 1 1 2 2 2 2 2 2 2 2 2 2 2 2 1 2 1 2 2 1 1 1 1 1 1 1 2 2 2 2 1 1 1 1 1 1 1 1 1 1 2 2 2 2 1 1 1 2 1 2 2 3 4 4 4 4 3 3 2 1 2 2 2 2 1 1 1 1 1 0 0 0 0 1 1 1 2 1 2 2 2 2 2 1 1 2 2 2 3 1 0 
0 2 3 1 1 1 2 3 3 3 3 4 4 4 4 4 4 4 2 2 3 4 4 3 2 2 2 2 1 1 1 1 0 0 0 0 0 1 1 2 2 2 3 2 3 2 3 3 3 3 2 2 1 0 1 2 7 10 27 28 51 76 115 137 122 88 56 42 39 35 34 33 32 28 22 19 21 25 29 30 33 35 41 64 105 143 144 107 58 24 16 11 8 4 5 6 6 6 4 2 2 2 2 3 5 5 6 5 4 4 3 4 11 22 27 36 46 66 91 119 140 152 157 158 163 167 170 170 161 143 116 84 54 36 28 19 11 6 5 4 5 6 5 3 3 2 2 2 3 3 3 2 2 1 2 1 1 2 2 2 1 1 1 1 2 3 3 3 3 3 3 2 1 0 0 1 2 2 3 4 4 3 3 4 4 3 3 3 4 4 5 3 2 0 0 0 1 1 2 3 3 3 2 2 1 1 1 2 3 3 2 2 2 2 4 4 6 4 4 1 1 1 2 3 4 5 5 4 4 3 3 3 3 3 3 3 3 3 3 3 3 3 3 2 2 2 2 3 4 5 5 6 6 7 6 5 3 2 1 0 0 0 1 2 2 2 1 0 0 0 1 2 3 3 2 3 3 3 3 3 3 3 2 1 2 2 2 2 1 1 1 2 2 2 1 1 1 1 1 1 1 1 1 1 2 2 3 3 3 2 1 1 1 1 2 3 3 2 2 1 1 1 2 2 2 2 3 3 5 4 5 3 3 3 3 3 5 6 5 4 3 4 4 4 4 3 3 3 4 5 5 5 5 4 3 2 1 1 1 1 3 4 4 2 1 2 2 3 4 5 6 6 5 5 5 5 5 5 5 5 5 4 3 4 4 4 3 3 3 3 3 3 1 2 1 1 0 0 0 0 1 1 1 1 0 0 1 2 3 2 2 1 1 1 2 2 2 1 1 1 1 1 1 2 3 3 2 2 2 2 2 2 3 3 2 2 2 2 2 2 1 1 1 1 1 1 1 1 2 2 2 2 1 1 1 1 1 1 1 1 1 2 2 2 2 2 1 1 1 1 2 2 1 1 2 2 3 3 3 2 2 2 2 1 1 1 1 1 0 0 0 0 0 0 0 1 1 2 1 2 2 2 2 1 1 1 1 2 3 3 2 0 
0 2 2 1 1 1 2 2 2 3 3 3 3 4 4 4 4 3 2 2 2 3 3 3 2 2 2 2 1 1 1 1 0 0 0 0 0 0 1 1 2 2 3 2 2 1 2 3 3 3 2 2 1 1 1 2 6 7 18 25 33 52 82 119 135 122 95 70 56 44 40 38 38 36 25 22 21 27 31 37 45 57 80 111 140 142 113 67 34 17 15 9 6 4 4 3 4 4 4 4 3 3 3 3 5 5 6 4 3 3 1 2 5 14 22 29 33 42 61 82 103 120 134 143 149 147 139 127 107 83 57 40 36 31 22 12 9 7 5 4 4 4 4 3 2 2 1 2 3 3 3 2 1 2 2 2 2 2 2 2 1 1 1 1 2 3 3 3 3 2 2 1 1 1 1 1 2 2 4 4 4 4 4 4 4 3 3 3 4 4 4 3 2 0 0 0 1 1 2 2 3 3 2 1 1 1 1 2 3 4 3 2 2 2 3 3 5 4 4 1 1 1 2 2 3 4 5 5 5 5 4 3 2 2 2 3 3 3 3 3 2 2 2 2 3 3 3 3 4 6 7 8 7 6 5 5 4 3 1 1 0 0 1 1 1 2 2 1 0 0 2 3 3 3 3 2 2 2 2 2 2 2 2 1 1 1 1 1 1 1 1 2 2 2 1 0 1 1 1 0 1 1 1 1 2 2 3 3 3 2 1 0 0 1 2 3 3 2 2 2 2 1 2 2 2 2 3 3 5 4 5 3 4 4 3 3 4 5 5 5 4 4 5 4 4 3 3 3 3 4 5 5 4 3 2 1 1 1 1 1 3 5 4 2 0 2 2 2 3 4 6 7 6 6 6 6 5 4 4 4 4 4 3 3 3 3 2 2 2 3 2 2 1 1 0 0 0 0 0 0 1 2 2 1 0 0 1 2 3 2 2 2 2 2 2 3 2 2 1 1 1 1 1 2 3 3 2 2 2 2 2 2 2 2 2 1 1 1 1 1 1 1 0 0 0 0 1 1 2 2 3 2 2 1 1 1 1 1 1 1 1 2 2 2 2 2 1 1 1 1 1 1 2 2 2 3 3 3 3 3 2 1 1 1 1 0 0 0 0 0 0 0 0 0 0 1 1 1 1 1 1 0 1 1 1 1 1 2 2 2 1 0 
0 2 2 2 1 1 1 1 2 2 3 3 4 4 4 4 4 3 2 1 2 2 1 1 1 1 1 1 1 1 1 0 0 0 0 0 0 0 1 1 3 3 3 2 1 1 2 3 4 4 3 3 2 1 1 1 4 7 12 21 26 33 53 83 115 132 128 109 90 69 58 52 52 52 40 40 36 45 52 63 79 100 125 142 137 112 74 42 23 15 12 5 4 3 3 2 3 3 4 4 4 3 4 3 4 4 4 3 3 2 2 2 5 10 19 23 24 26 34 46 64 83 98 109 111 104 91 75 56 42 34 33 34 24 17 12 10 8 6 3 4 3 3 2 2 2 2 2 2 3 2 2 1 1 2 2 2 2 2 2 1 1 1 1 2 3 4 3 3 2 2 1 1 1 1 2 2 3 5 5 5 5 5 5 4 3 3 3 4 4 4 3 2 1 1 0 1 1 2 2 3 2 2 1 1 1 1 2 3 4 4 3 1 2 2 3 5 4 4 2 2 2 2 4 5 6 7 7 8 8 8 6 4 3 2 3 2 2 2 2 2 3 3 3 3 3 3 4 5 6 7 7 6 6 5 5 4 3 2 1 1 1 1 1 1 2 2 1 1 1 2 3 5 5 5 5 4 4 3 3 3 2 2 2 2 1 1 1 1 1 2 2 2 2 1 1 1 1 1 0 1 1 1 1 2 2 3 3 3 2 0 0 0 1 2 3 2 2 2 2 3 2 2 2 2 2 2 3 5 4 5 4 5 4 4 3 4 5 5 5 4 5 5 5 5 4 3 3 2 3 5 5 5 4 3 2 2 3 3 2 4 5 4 2 1 2 3 3 4 5 6 5 4 4 4 4 4 3 4 4 4 3 2 3 3 3 3 2 3 3 3 2 1 1 0 0 0 0 0 0 1 2 3 2 1 0 1 1 2 2 1 2 2 3 3 3 2 2 1 1 1 1 1 2 3 3 3 3 3 2 2 2 2 2 2 2 2 2 2 2 1 0 0 0 0 0 0 1 2 2 2 2 2 2 2 2 2 2 1 1 1 1 1 2 2 2 1 1 0 0 1 1 1 1 1 1 1 1 2 2 2 2 1 0 0 0 0 0 0 0 0 0 0 0 0 1 1 1 1 1 0 0 0 1 1 1 1 1 1 1 1 0 
0 2 2 2 1 1 1 1 2 2 3 3 4 5 4 3 3 2 2 2 2 2 1 1 1 1 1 1 1 1 1 0 0 0 0 0 0 0 0 1 2 2 2 1 1 1 2 3 3 4 3 3 2 2 2 2 4 8 11 19 24 26 33 53 78 104 124 130 126 110 96 87 86 88 83 88 85 95 102 113 126 138 141 129 103 70 35 23 18 13 9 5 5 4 3 2 2 3 4 4 4 3 4 3 3 2 3 3 3 2 2 3 5 8 13 20 28 29 29 29 31 33 35 37 35 32 28 26 26 25 25 22 19 14 15 12 13 9 7 3 4 3 2 2 1 2 2 2 2 2 2 2 1 1 2 2 2 2 2 2 2 1 1 0 2 4 4 4 3 2 2 1 1 1 1 2 2 4 5 6 6 6 6 5 5 3 3 4 5 4 4 3 2 1 1 1 1 1 2 2 3 2 2 1 1 1 1 3 3 4 3 3 2 2 2 3 4 3 4 2 2 2 2 4 4 5 6 7 8 8 8 7 4 3 3 3 3 3 2 2 2 1 1 1 2 4 5 5 6 6 7 7 6 6 5 4 3 3 2 2 1 1 1 1 1 2 2 1 1 1 2 3 3 3 4 4 4 4 3 3 2 2 2 2 2 1 1 1 1 1 2 3 2 2 1 1 1 1 1 1 1 1 1 1 3 2 3 3 3 2 0 0 0 1 2 2 2 2 3 3 3 3 2 2 2 2 2 2 4 5 6 4 5 5 5 4 4 5 6 5 4 4 5 5 5 5 4 3 3 3 4 5 5 5 4 4 4 4 3 3 4 4 4 3 1 3 3 3 3 5 6 5 4 4 5 4 3 3 3 4 3 3 2 3 4 4 4 4 4 4 3 2 1 1 1 0 0 0 0 0 2 2 3 2 1 0 0 1 2 1 1 1 2 3 3 3 2 2 2 2 2 2 2 2 2 3 3 3 3 3 2 1 1 2 2 2 2 2 2 2 1 0 0 0 0 0 0 1 1 2 2 3 3 3 3 3 3 2 2 1 1 1 1 1 2 2 1 1 0 0 0 1 1 1 1 1 1 1 2 2 2 1 0 0 0 0 0 0 0 0 0 0 0 0 0 0 1 1 0 0 0 0 0 0 1 1 1 0 0 1 0 0 
0 1 2 2 1 1 1 1 2 3 4 4 4 4 4 3 3 2 3 2 2 2 1 2 2 2 1 1 1 1 1 1 1 1 0 0 0 0 0 1 2 2 2 1 2 2 3 3 3 3 2 2 2 2 2 2 5 9 11 14 17 22 22 28 43 65 88 110 126 131 127 121 123 131 137 143 140 142 140 139 135 124 110 90 60 31 22 21 17 11 7 4 4 3 3 2 3 4 5 5 4 4 4 4 4 2 2 2 2 2 3 4 7 12 16 15 14 15 21 27 32 34 36 35 32 29 29 30 29 24 17 12 12 13 12 10 10 7 6 3 3 2 2 2 1 1 1 1 1 1 1 2 2 1 2 2 2 2 2 2 2 0 0 0 2 4 4 4 2 2 2 1 1 1 1 1 2 3 4 5 6 6 5 4 4 3 4 5 5 5 4 3 2 2 2 2 2 2 2 2 2 2 2 1 1 1 1 2 2 3 4 3 2 2 2 3 4 3 4 2 2 3 3 4 4 5 6 7 8 9 8 7 6 4 3 3 2 2 2 2 3 3 4 4 4 4 5 5 5 4 4 4 3 4 3 3 3 3 3 2 2 2 1 2 2 2 2 2 1 1 2 3 3 5 5 5 6 5 4 4 2 2 2 2 2 2 1 1 1 1 2 3 2 2 1 2 2 2 2 1 1 1 1 1 2 2 3 3 2 3 1 1 1 2 2 2 2 3 3 4 3 3 3 3 3 2 2 3 4 5 5 3 4 4 4 3 4 5 5 4 3 3 4 4 4 5 4 4 4 3 3 4 4 5 4 4 4 4 3 3 3 4 3 3 2 3 3 3 4 5 6 4 4 4 5 4 3 3 4 4 3 3 3 4 5 5 4 3 3 3 2 2 2 1 1 1 1 0 0 1 2 2 3 2 1 0 0 0 1 1 1 1 2 2 2 2 2 2 2 2 2 2 2 2 2 3 4 4 3 3 2 1 2 2 2 2 2 2 2 1 1 0 0 0 0 0 1 1 2 2 2 2 3 3 3 3 3 3 2 1 1 1 1 1 2 2 1 0 0 0 0 0 1 1 1 1 1 1 1 1 1 1 1 1 1 1 1 1 1 1 0 0 0 0 0 0 1 1 0 0 0 0 0 0 1 1 1 1 1 1 1 0 
0 2 2 2 2 1 1 1 2 4 4 3 3 3 2 3 3 2 3 2 3 2 3 3 2 2 2 1 1 0 1 1 1 1 1 1 1 1 1 1 2 2 2 2 2 3 3 3 3 2 1 1 1 2 2 3 4 7 10 11 11 14 19 22 23 30 50 73 91 105 113 119 126 138 152 160 156 145 130 114 101 85 72 45 27 18 17 13 15 10 9 6 6 4 4 2 3 4 5 5 5 5 5 5 5 3 3 2 2 3 2 4 6 8 11 13 14 10 9 11 17 20 18 15 13 13 13 12 12 10 8 8 7 8 9 10 9 8 5 3 3 2 2 2 1 1 0 0 0 0 1 1 1 2 2 2 2 2 3 2 2 1 0 0 2 4 4 4 2 2 2 1 1 0 0 0 2 3 4 4 5 5 5 5 5 4 5 6 6 5 3 3 3 2 2 2 2 3 2 2 2 2 1 1 1 1 1 1 2 3 3 3 3 3 3 3 3 3 3 2 2 3 3 4 4 5 5 4 4 4 5 6 5 5 4 3 3 2 2 2 3 3 4 5 5 5 5 5 4 3 2 3 4 5 4 3 2 3 3 3 2 2 1 2 2 2 2 2 1 1 2 2 3 3 4 5 5 5 4 3 2 2 2 2 2 2 2 1 1 1 2 3 2 2 1 1 2 2 2 2 1 1 1 1 2 2 2 2 2 2 1 1 1 2 2 2 2 3 3 3 2 3 3 3 3 3 3 3 5 5 5 4 3 3 4 5 6 6 6 4 2 2 3 4 4 4 4 4 5 4 3 2 3 4 4 3 3 3 3 3 3 3 3 3 3 3 3 3 4 5 5 4 4 5 5 4 3 4 5 4 4 4 5 6 6 5 4 3 3 3 3 3 2 2 1 1 1 1 1 1 2 2 2 1 1 0 0 0 1 1 1 1 2 2 2 2 1 2 2 2 2 2 2 2 2 3 3 3 2 2 1 2 2 3 3 2 2 2 2 1 0 0 0 1 1 1 2 2 2 1 1 1 1 2 2 2 2 2 1 1 0 1 1 1 1 2 1 0 0 0 0 0 1 1 1 1 1 1 1 1 2 2 1 1 1 1 2 2 1 1 0 0 0 0 0 1 1 1 1 1 1 0 0 0 0 0 0 1 1 1 1 0 
0 3 4 3 3 2 2 2 3 4 5 3 2 2 3 4 4 4 4 3 4 3 3 4 4 3 3 1 2 1 1 1 2 3 2 2 3 3 3 2 2 2 2 2 3 5 4 4 2 1 1 0 1 1 3 3 4 6 8 9 10 11 14 19 20 21 23 33 51 67 76 82 89 101 112 118 113 101 87 72 60 40 30 23 20 12 9 9 11 8 9 6 6 5 4 3 2 3 4 4 5 5 5 5 5 4 3 2 2 2 3 5 7 10 12 10 8 6 7 8 8 8 7 7 6 6 7 9 10 11 10 8 8 7 6 5 3 3 3 2 2 2 2 2 1 1 1 0 0 0 1 1 2 2 2 2 1 1 2 2 2 1 1 1 3 4 3 3 2 2 2 1 1 1 1 1 2 2 3 3 4 4 4 4 4 3 4 5 6 6 4 3 3 2 2 3 3 3 2 2 1 1 1 1 1 1 1 2 2 2 2 3 3 4 4 3 2 2 2 2 2 3 3 4 4 4 3 4 4 4 4 4 4 4 4 3 3 1 1 2 3 4 5 5 5 4 3 2 2 1 2 2 2 2 2 2 3 3 3 3 2 1 1 2 2 2 2 1 2 1 2 2 2 3 4 5 5 4 3 2 1 2 2 2 1 1 1 1 2 1 2 3 2 2 2 1 1 1 1 1 1 1 1 1 2 2 2 2 2 2 2 2 2 2 2 2 2 2 3 2 2 2 3 2 2 2 2 3 5 5 4 2 1 2 2 3 4 5 5 4 2 2 3 4 4 4 4 4 5 5 4 3 3 4 3 3 3 3 3 3 3 3 3 3 3 3 3 2 4 5 5 4 4 5 4 3 3 4 4 3 3 4 5 6 6 5 4 3 3 3 2 2 2 2 1 1 1 1 1 2 1 1 1 1 0 0 0 0 1 1 1 1 2 2 1 1 2 2 2 3 3 3 2 2 2 3 4 4 3 3 2 2 3 2 2 1 1 2 1 1 1 1 1 1 1 2 2 2 2 1 1 0 0 0 1 1 2 2 1 1 0 1 1 1 1 2 1 0 0 0 1 1 1 1 1 1 1 2 2 3 3 2 2 2 2 2 3 2 2 2 1 0 0 0 0 1 2 2 2 2 2 2 1 1 1 1 2 2 2 2 1 0 
0 3 5 4 3 3 2 2 4 4 4 2 1 2 2 4 4 4 4 4 4 4 4 5 5 4 4 2 3 1 2 1 2 2 2 3 3 3 3 3 2 2 2 2 3 4 4 3 2 2 1 0 0 1 2 3 6 6 7 7 7 10 9 11 12 16 21 22 20 23 31 38 42 49 59 65 62 52 40 28 21 20 20 17 10 7 6 8 10 11 11 7 7 7 6 5 3 4 4 5 5 5 5 5 5 4 3 2 1 2 3 3 5 6 6 5 4 3 3 6 10 11 8 6 5 8 9 9 7 8 8 6 6 3 4 4 4 3 3 2 2 2 2 2 1 1 1 1 1 1 1 1 2 3 3 2 2 2 2 1 1 1 2 2 3 3 3 2 1 2 2 2 2 2 1 2 2 3 3 3 4 4 4 4 3 3 4 5 5 5 4 3 3 3 3 3 3 3 2 2 1 0 1 1 1 1 2 2 2 2 2 2 3 4 4 3 2 2 1 2 1 2 3 4 5 6 5 4 4 4 4 5 4 3 3 3 3 2 1 1 3 5 5 5 5 4 3 2 2 1 2 2 2 2 2 2 2 2 3 3 2 1 1 1 2 2 2 2 2 2 2 2 2 3 3 4 4 4 3 1 1 2 2 2 1 1 2 2 2 2 2 3 3 3 2 1 1 1 2 2 2 1 1 1 1 1 1 1 1 2 2 2 2 2 2 2 2 2 2 2 2 2 2 2 1 1 2 2 4 4 4 2 1 1 2 2 4 6 6 4 3 2 3 4 5 4 3 4 5 5 3 3 3 4 4 3 3 3 3 3 3 3 3 3 3 3 3 3 4 5 5 4 4 4 4 3 3 4 3 3 3 4 6 5 5 3 3 3 2 2 2 2 2 2 2 1 1 1 2 2 1 1 0 0 0 0 0 0 1 1 2 2 2 2 1 2 2 2 2 2 2 2 2 2 2 2 3 3 4 4 3 3 3 3 2 1 1 2 1 1 1 1 1 2 1 2 3 2 2 0 0 0 0 0 0 1 2 2 1 1 0 1 1 1 1 1 1 1 1 1 1 1 2 1 1 1 2 2 3 3 4 3 3 2 1 1 2 2 2 2 1 1 0 0 1 1 2 3 3 3 4 4 3 2 1 2 2 3 3 3 1 0 
0 4 6 5 4 3 3 2 4 3 4 2 2 3 3 4 4 4 4 4 3 4 4 5 5 4 4 2 3 1 1 1 2 2 3 3 4 5 4 2 2 2 2 2 3 4 4 4 2 2 1 1 1 1 2 3 5 7 8 9 12 19 21 17 11 7 9 13 16 17 16 15 14 14 16 18 19 19 19 18 17 15 10 8 6 6 5 6 6 6 5 5 6 5 4 3 2 2 2 2 2 3 3 3 3 2 2 1 1 2 3 4 6 6 5 4 3 2 2 3 4 4 4 3 3 4 6 8 8 8 8 6 6 3 3 1 1 1 2 3 2 2 1 1 1 1 1 1 1 1 1 1 3 3 3 3 2 2 1 1 1 1 2 2 3 2 2 2 1 1 1 2 2 2 2 2 3 3 3 3 4 4 4 3 3 2 3 4 4 4 4 3 2 2 3 2 2 2 2 2 1 0 0 0 1 1 2 2 3 2 2 2 2 3 4 3 2 1 1 1 2 2 2 3 3 3 3 3 3 3 2 2 2 1 2 2 3 3 2 2 2 3 3 3 2 2 3 2 2 1 1 1 1 0 0 0 1 1 1 1 1 0 0 0 1 1 2 2 2 2 2 2 2 3 3 3 3 3 3 2 2 2 3 2 2 2 3 2 3 2 2 2 2 2 2 1 1 1 2 2 2 2 2 2 2 2 2 2 2 1 1 2 2 2 1 2 2 1 1 2 2 2 2 1 0 0 0 1 3 4 3 2 1 1 1 1 3 4 5 5 3 2 3 4 5 4 4 4 5 5 4 4 4 4 4 3 3 3 3 3 2 3 3 3 3 3 3 3 4 5 5 4 4 4 3 2 3 3 2 1 2 4 5 4 3 3 3 3 2 2 2 2 2 2 2 2 2 1 1 2 1 0 0 0 0 0 0 0 1 1 2 2 2 2 2 2 2 2 2 2 2 2 2 2 2 3 4 5 6 5 5 4 3 2 1 0 0 0 1 1 1 1 1 1 1 2 2 2 1 0 0 0 0 0 1 1 2 2 2 1 1 1 1 1 2 2 2 2 2 2 2 1 2 1 2 2 2 3 3 3 5 4 4 3 2 2 2 2 2 2 2 1 1 1 1 1 3 3 4 4 4 4 3 2 2 3 4 4 3 3 1 0 
0 3 4 4 4 3 3 2 4 3 4 2 2 4 3 4 3 4 3 4 3 4 4 4 5 3 4 1 3 1 1 1 1 2 3 4 4 4 4 2 1 1 1 2 2 3 3 2 2 2 2 1 1 1 1 3 6 10 10 15 18 21 21 18 13 8 7 6 5 7 10 11 11 11 14 17 19 16 12 9 8 7 6 6 6 6 5 5 6 7 7 5 4 4 5 4 3 2 3 3 3 3 3 3 2 1 1 1 1 2 3 3 3 3 3 3 2 2 3 4 5 5 5 4 4 5 6 6 6 6 6 4 4 2 2 2 2 2 2 3 2 2 1 1 1 1 0 0 0 0 1 2 3 3 3 3 2 2 1 0 1 2 2 2 2 2 2 1 1 1 1 2 2 2 2 1 2 2 2 3 3 3 3 2 2 2 3 2 3 3 3 3 2 2 2 2 2 2 2 1 1 0 0 0 0 1 2 2 3 3 3 2 2 4 3 3 2 1 1 1 2 2 2 2 3 3 4 4 4 5 4 3 2 1 2 2 3 3 2 2 3 3 3 3 2 3 3 2 2 1 1 1 1 1 1 1 1 1 1 1 0 0 0 0 1 2 2 2 2 2 1 2 3 3 3 2 2 3 3 3 2 2 3 3 3 3 3 3 3 2 2 2 2 2 2 2 2 3 3 3 3 3 3 2 2 2 1 1 1 1 1 1 1 1 2 2 2 2 1 1 1 2 2 1 0 0 0 0 2 3 3 2 1 1 1 1 2 4 5 4 3 2 3 4 4 3 4 4 5 4 3 2 3 3 3 2 2 2 2 1 2 3 3 2 2 3 3 3 4 5 4 4 4 4 3 2 3 3 2 1 2 4 4 4 2 2 2 2 1 1 1 1 1 2 2 2 2 2 1 2 1 0 0 0 0 0 0 0 1 2 3 3 3 2 2 2 1 1 0 0 0 0 1 1 2 3 4 4 5 5 5 5 3 2 0 0 0 0 1 1 1 1 1 1 2 2 2 2 1 0 0 0 0 0 1 1 2 2 2 1 1 1 1 1 2 1 1 2 2 2 2 1 1 1 2 2 2 3 3 3 5 5 4 3 2 2 2 2 2 2 2 2 2 2 2 2 3 4 5 4 4 3 3 3 3 4 5 5 4 4 2 0 
0 1 3 3 3 3 2 2 4 3 3 2 2 4 4 4 3 4 3 3 3 3 4 3 5 2 4 1 2 0 1 1 1 2 3 4 5 6 4 3 1 1 1 1 2 3 2 2 2 2 2 1 1 1 2 4 7 10 12 19 23 30 30 23 15 7 4 4 4 3 3 4 4 3 4 4 4 4 4 3 4 5 7 7 6 4 4 4 4 4 4 3 2 3 2 2 3 4 5 5 5 5 5 4 2 1 0 0 1 3 3 3 3 3 3 1 2 2 3 3 4 3 4 3 3 3 4 4 5 5 4 3 2 1 2 2 1 1 2 2 2 1 1 1 1 0 0 0 0 0 1 2 3 3 3 3 2 2 0 0 1 2 2 2 2 2 2 1 1 1 1 1 1 1 1 1 1 1 1 2 2 2 2 2 2 2 3 2 2 2 3 3 3 2 3 2 2 2 2 2 1 0 0 0 0 1 2 2 3 4 4 3 3 4 3 3 2 1 1 1 2 2 1 1 1 1 1 1 2 2 3 3 2 2 2 2 2 3 3 3 2 2 2 2 1 1 2 3 2 2 1 1 1 1 1 1 1 1 0 0 0 0 0 0 1 2 2 2 3 2 1 1 3 3 4 4 4 4 4 3 3 3 2 2 2 2 2 2 3 2 2 2 2 2 1 2 2 4 4 5 5 5 5 4 3 2 1 1 1 1 1 1 1 2 2 2 2 2 2 2 2 2 2 1 0 0 0 1 3 3 3 2 1 1 1 1 2 4 5 4 3 2 3 4 4 3 3 4 5 4 3 2 2 2 2 1 1 1 1 1 2 3 3 2 2 3 3 3 4 5 4 3 4 4 3 2 3 3 2 1 2 4 4 3 2 1 1 1 1 1 1 1 1 1 2 2 2 2 1 1 0 0 0 0 0 0 0 0 1 1 2 3 3 2 3 3 1 0 0 0 0 0 0 1 2 3 4 4 4 4 4 4 3 2 0 0 0 0 0 1 1 0 0 1 2 2 2 2 1 0 0 0 0 1 1 2 2 3 3 2 1 1 2 2 3 3 3 3 3 2 2 1 2 2 2 2 2 2 2 3 4 3 4 3 3 3 3 3 3 3 2 3 3 3 2 2 3 4 4 4 3 3 3 3 4 4 5 5 4 4 2 0 
0 1 3 3 3 2 2 2 4 4 3 1 2 3 4 5 4 5 4 4 3 4 4 3 5 2 4 1 2 1 1 1 2 3 3 4 5 6 4 3 1 1 1 2 2 2 1 1 1 2 1 1 0 0 2 4 7 11 14 20 22 28 28 22 15 8 3 2 2 3 3 4 4 3 5 4 6 5 3 3 4 5 6 6 7 5 5 3 4 4 4 3 2 2 2 3 3 3 3 3 4 4 4 3 2 1 1 1 2 3 3 3 3 2 2 1 2 2 3 3 4 3 3 3 3 3 2 2 2 3 3 2 1 2 2 2 1 1 1 1 2 1 1 1 1 0 0 0 1 1 1 2 3 3 2 3 2 2 1 0 1 2 2 2 2 2 2 2 2 2 2 2 2 1 1 1 0 1 1 1 2 2 2 2 3 2 3 2 2 2 2 3 4 3 4 2 2 2 2 2 1 0 0 0 0 1 2 2 3 3 3 3 3 3 2 2 1 1 1 1 2 2 1 1 1 2 2 2 2 3 4 4 3 3 2 2 2 3 3 3 3 3 2 2 2 2 3 3 2 2 1 1 1 1 1 1 1 1 1 0 0 0 0 0 1 2 3 2 3 2 1 1 2 2 3 3 3 3 3 3 3 2 2 2 2 2 2 2 2 2 2 2 2 2 2 3 4 4 5 5 4 4 4 3 2 2 0 0 1 1 1 1 1 2 2 2 2 2 2 2 2 3 2 2 1 1 1 1 2 2 3 2 1 1 1 1 2 3 5 5 4 2 4 5 5 4 4 4 5 4 3 2 2 3 3 2 2 1 2 2 2 3 3 2 2 3 3 3 4 4 4 3 4 4 3 2 3 3 2 1 2 3 4 3 1 0 0 0 0 0 0 0 1 1 1 2 2 2 1 1 0 0 0 0 0 0 0 0 1 1 2 3 2 2 3 3 2 0 0 0 0 0 0 0 1 2 4 4 4 3 3 3 2 1 1 0 0 0 0 1 1 0 0 1 2 2 2 2 1 1 0 0 1 1 1 1 2 2 2 2 1 2 2 2 2 2 2 2 2 2 2 2 2 2 2 2 2 2 3 3 5 4 3 3 3 4 3 3 2 2 2 2 2 2 2 2 3 4 4 4 3 3 3 2 3 4 4 4 4 4 3 0 
0 1 2 4 4 3 2 3 4 4 3 2 2 2 3 4 4 6 5 5 4 4 5 3 5 2 4 1 3 2 2 1 2 2 3 4 5 5 4 4 3 3 2 2 2 2 1 1 1 1 1 1 0 0 1 4 7 11 11 13 16 18 17 15 10 6 4 4 3 3 3 4 4 5 5 4 4 4 4 4 3 5 6 6 5 3 3 3 4 3 3 3 2 2 2 3 4 6 8 9 10 10 9 7 4 2 1 1 2 3 3 2 2 1 1 1 1 2 3 3 3 4 4 3 3 3 3 2 2 2 2 2 2 3 3 2 1 1 1 1 1 1 1 1 1 1 1 1 1 1 1 2 2 2 2 3 2 2 1 1 1 2 2 2 2 2 2 1 2 2 2 2 2 2 1 1 1 1 1 1 2 2 2 2 2 2 3 2 3 2 2 2 4 3 4 2 2 2 2 3 2 1 0 0 0 1 1 2 3 3 3 3 3 2 2 1 1 1 2 2 2 2 1 1 1 2 1 1 2 3 3 5 3 3 2 3 3 4 5 5 4 3 3 2 2 2 3 3 3 2 1 1 1 2 2 2 2 1 1 0 0 0 0 1 2 2 3 2 3 2 1 1 1 3 4 4 4 3 3 2 2 1 1 0 0 0 0 1 2 2 2 2 2 2 2 2 4 5 5 5 5 5 5 4 2 2 1 1 1 1 1 2 2 2 2 2 2 2 2 2 2 3 3 2 2 1 1 2 2 2 2 1 1 1 1 1 1 4 5 5 5 3 5 5 5 4 4 4 5 5 4 3 3 3 3 2 2 2 2 2 3 3 2 2 3 3 3 3 4 4 3 3 4 4 4 3 3 3 2 1 2 4 4 2 1 0 0 0 0 0 0 0 1 1 1 1 2 2 1 1 0 0 0 0 0 0 1 1 1 1 2 3 4 4 4 3 2 0 0 0 0 0 0 0 1 2 3 3 3 3 2 2 2 2 1 0 0 0 0 1 1 1 1 1 2 2 2 2 1 1 1 1 1 1 1 1 2 2 3 2 2 2 1 2 2 2 2 2 2 3 2 2 2 3 3 2 2 2 3 2 3 3 4 3 3 4 3 3 3 2 2 2 2 2 2 2 3 3 3 3 2 2 2 2 3 3 4 4 5 4 2 0 
0 2 3 4 4 3 2 3 4 4 3 1 1 2 2 3 4 5 5 5 4 4 5 4 5 2 3 2 3 2 2 2 2 3 3 4 4 4 4 3 3 3 2 2 2 2 1 1 1 1 1 1 0 0 1 3 5 7 8 8 9 12 13 11 6 3 2 2 2 3 3 4 4 5 5 4 4 3 3 3 4 4 5 4 4 4 4 3 3 3 3 2 2 2 2 3 3 5 6 6 6 6 6 5 4 2 1 1 2 3 3 2 2 1 1 1 1 2 2 2 3 3 3 2 3 3 2 2 1 1 2 2 3 4 4 3 2 1 1 1 1 1 1 1 1 2 2 2 2 1 1 2 2 2 2 2 2 2 1 1 1 1 2 2 2 2 2 2 2 2 2 1 1 1 1 1 1 1 1 1 2 2 2 2 2 2 3 3 3 2 2 2 4 3 4 2 2 2 2 3 2 1 0 0 0 1 2 2 2 3 3 3 3 2 1 0 1 1 2 2 2 2 1 2 2 2 1 1 1 2 3 5 3 3 2 3 3 4 5 5 4 3 3 2 3 2 3 3 2 2 1 1 2 2 3 2 2 2 1 0 0 0 1 1 2 2 2 2 3 2 2 2 2 3 4 4 4 2 1 1 1 1 1 1 0 1 1 1 1 1 2 2 2 2 3 4 5 6 6 5 5 4 4 3 2 1 1 1 1 1 2 2 3 2 1 1 1 1 1 1 1 2 3 2 2 1 1 1 1 1 2 1 1 1 1 1 1 3 5 5 5 3 4 4 5 4 5 5 6 5 4 4 4 4 4 3 3 3 3 3 2 2 2 3 3 3 3 3 4 4 4 4 5 5 5 4 4 3 2 2 3 4 4 3 1 1 1 0 0 0 0 1 1 1 1 1 2 2 2 1 1 1 1 1 1 1 1 2 2 2 3 4 4 4 4 3 2 1 1 0 0 0 0 1 1 2 2 2 2 2 2 2 2 2 2 1 0 0 1 1 1 1 1 1 2 2 2 2 1 1 1 1 1 0 0 0 2 2 2 2 1 1 1 1 2 2 2 2 2 2 2 2 3 3 3 2 2 3 3 3 3 3 4 4 3 3 3 3 2 2 2 1 1 1 1 2 2 2 1 2 2 2 1 1 2 2 3 4 4 5 3 0 
0 2 3 4 4 4 3 3 4 4 3 2 2 2 2 2 3 4 4 5 4 3 5 4 5 2 2 2 2 2 2 2 2 2 3 3 4 3 3 4 5 5 3 2 2 2 1 1 1 2 1 1 1 1 1 3 5 7 6 4 3 4 4 4 3 3 3 2 2 2 2 3 3 4 4 3 2 2 3 3 5 4 5 4 3 2 3 3 3 3 3 4 4 3 3 3 4 6 9 11 12 12 10 7 4 1 1 1 1 2 2 2 2 1 1 1 1 2 2 2 1 2 2 2 2 2 2 3 2 2 3 4 5 5 5 4 2 1 0 0 0 0 0 0 1 2 2 2 2 1 1 2 2 2 2 3 2 2 2 2 2 2 2 2 2 2 1 1 1 2 2 1 1 1 1 1 2 2 2 2 2 2 2 2 2 2 3 3 4 3 3 2 4 3 4 2 2 2 2 2 2 2 1 1 1 2 2 2 2 3 4 4 4 3 2 1 1 2 2 3 3 2 2 2 2 2 1 1 1 2 3 3 3 2 2 3 4 5 5 5 4 3 2 2 2 2 2 2 2 2 2 2 2 2 3 4 4 3 1 1 1 2 2 2 2 1 1 1 2 2 2 2 2 2 3 3 3 2 2 1 1 1 1 0 0 0 0 1 2 2 2 2 3 3 4 4 6 6 5 5 4 5 4 3 2 2 1 1 1 1 1 3 3 2 1 0 0 1 0 1 1 2 2 2 2 1 1 1 1 1 1 1 1 1 1 1 1 3 4 4 4 2 3 3 4 4 5 5 5 5 4 4 4 4 4 4 4 4 4 3 3 2 2 2 3 3 3 3 4 4 4 4 4 4 5 4 5 4 4 3 4 4 4 4 2 2 1 1 0 0 1 1 1 1 1 1 1 2 2 2 2 2 1 1 1 1 2 2 2 2 2 3 3 3 3 3 2 2 2 1 1 1 1 1 2 2 2 2 2 2 2 3 2 2 2 1 1 1 1 2 2 1 1 1 2 3 3 2 1 1 1 0 0 0 0 0 1 1 1 1 0 0 1 1 1 1 1 1 1 2 1 2 3 3 2 2 3 3 3 2 2 3 3 4 4 4 3 3 3 3 2 2 1 1 1 2 2 2 1 2 2 2 2 2 2 2 2 3 4 4 2 0 
0 2 3 3 4 5 4 3 3 3 4 2 3 2 3 3 2 3 3 3 3 2 4 3 4 2 1 1 1 1 1 2 2 2 3 3 3 3 3 3 3 3 3 3 3 3 3 2 2 2 1 1 0 0 1 2 4 4 4 3 3 4 4 3 2 2 2 2 3 3 2 2 2 2 2 2 2 1 3 2 4 4 4 3 3 3 3 3 2 3 3 4 4 4 3 3 4 5 5 6 6 6 5 4 3 1 1 1 1 2 2 2 2 2 2 2 2 2 1 2 1 0 0 1 1 1 1 1 1 2 3 4 4 5 4 4 2 1 0 0 0 0 0 0 0 1 2 2 2 2 2 2 1 2 2 3 3 2 2 2 2 2 2 2 2 2 2 2 2 2 2 1 1 1 1 2 2 2 2 2 1 1 2 2 3 3 3 4 4 4 4 3 5 4 3 2 1 2 2 3 2 2 2 2 3 3 2 3 2 4 4 5 5 4 4 2 2 2 3 3 3 3 3 3 2 1 0 0 0 1 2 3 2 2 2 2 3 3 3 3 3 3 2 2 2 2 2 1 1 1 1 1 2 3 4 5 5 4 2 2 1 2 3 2 2 1 1 1 2 2 2 2 2 3 4 4 3 2 1 1 1 1 1 1 1 1 1 1 2 2 2 2 2 3 4 4 5 5 6 5 5 5 5 5 3 2 1 2 2 3 3 4 3 2 1 1 0 1 0 1 1 2 2 1 1 1 0 1 1 1 1 1 1 1 1 1 1 2 3 3 2 2 2 2 2 3 5 5 5 4 3 3 3 3 4 4 4 4 4 4 4 4 4 4 4 4 4 4 4 5 4 4 4 4 4 4 5 4 4 3 4 4 4 4 3 2 1 1 0 0 1 1 1 1 1 1 1 1 2 2 2 2 1 1 1 2 2 2 3 2 2 2 2 2 2 3 3 3 2 2 1 1 1 2 2 2 2 2 1 1 1 2 2 2 1 1 1 1 2 2 2 2 2 2 3 3 3 2 1 1 0 0 0 0 0 0 0 0 0 0 0 0 0 1 1 1 1 1 1 1 1 2 2 3 2 2 3 3 2 2 1 2 3 3 3 3 3 3 3 3 3 3 2 2 2 2 2 2 2 2 2 2 2 2 2 2 2 2 3 4 2 0 
0 2 3 2 4 5 5 4 3 4 4 3 4 3 4 3 2 2 2 2 2 2 2 3 3 2 2 1 1 2 2 2 2 1 3 3 3 3 2 3 4 4 4 4 4 5 5 4 2 1 1 1 1 1 1 2 3 4 4 3 2 2 2 2 2 1 2 2 2 1 1 1 1 1 1 1 1 1 2 2 3 3 3 3 3 3 3 3 2 3 3 4 4 4 4 4 4 4 4 7 7 7 5 3 2 0 0 0 1 2 2 3 3 2 2 2 2 3 2 2 1 1 0 0 0 0 1 2 2 2 3 4 4 4 4 3 2 0 0 0 0 0 0 0 0 0 1 2 2 3 2 2 1 1 2 3 2 2 1 2 3 3 3 3 3 3 2 2 1 2 2 1 1 1 2 2 2 1 1 1 1 1 2 2 3 3 3 5 5 5 5 4 6 4 4 2 1 2 1 2 1 2 2 3 4 4 3 3 2 3 4 6 6 5 5 3 2 2 3 3 4 3 3 2 1 1 0 0 1 2 2 2 2 1 1 2 2 2 2 2 2 3 3 2 2 2 2 2 1 1 2 2 2 3 4 5 5 4 3 2 2 2 2 2 1 0 0 1 2 2 2 2 1 2 3 3 3 3 2 1 1 1 1 1 1 2 2 2 3 3 2 2 2 2 3 4 4 4 3 3 3 4 3 4 3 3 2 2 2 3 3 3 3 2 1 1 1 2 1 1 2 2 2 1 1 1 1 1 1 1 1 1 1 1 1 1 2 3 3 3 2 2 2 2 2 2 4 5 4 3 2 2 3 3 4 5 5 5 6 6 6 6 6 5 5 5 5 4 4 4 3 3 3 3 3 4 4 4 5 4 5 4 4 4 3 2 1 1 1 1 1 0 0 0 0 0 1 1 2 2 2 2 1 1 1 1 1 2 2 1 1 1 1 1 1 3 3 4 3 2 2 2 2 1 2 1 2 2 2 1 1 1 1 1 1 1 2 2 2 2 2 1 1 2 3 4 4 3 1 0 0 0 0 0 0 0 0 0 0 0 0 0 1 1 2 2 2 1 1 1 1 2 2 3 3 3 3 3 2 2 1 1 2 3 3 3 2 3 3 5 5 4 3 3 2 2 2 2 2 2 2 2 2 2 2 2 2 2 3 3 2 0 
0 1 3 2 4 5 5 4 3 4 3 4 4 3 4 3 2 1 1 1 2 2 2 2 2 2 2 1 1 2 2 2 3 2 3 3 3 3 2 2 2 2 3 4 4 5 5 4 3 1 1 1 1 1 1 2 3 3 3 3 3 3 2 2 1 1 1 2 2 2 1 1 1 1 1 1 1 1 1 2 2 2 2 2 2 3 3 3 3 2 3 3 3 4 4 5 5 4 2 3 3 3 2 2 1 1 0 0 1 2 2 2 2 2 3 4 4 3 2 2 2 1 1 0 0 0 1 1 1 2 3 3 3 3 3 3 1 0 0 0 0 0 0 0 0 0 1 2 3 3 3 2 1 2 2 3 2 1 1 1 2 3 3 3 3 3 3 3 3 2 3 3 3 3 3 3 2 1 1 1 1 2 2 2 4 4 5 6 6 7 5 5 6 5 4 3 2 2 1 1 1 2 3 4 4 4 2 2 1 3 3 5 5 5 5 4 3 2 2 2 3 3 2 2 0 0 0 0 1 2 2 1 1 1 1 1 2 2 2 2 3 4 5 5 4 4 4 3 2 2 2 2 2 3 4 4 5 4 3 2 1 2 2 2 1 1 1 1 2 2 1 2 2 3 4 5 4 4 3 2 1 1 1 1 2 2 2 2 3 3 2 1 1 1 2 2 2 3 3 3 3 3 3 4 4 3 3 3 4 5 5 4 2 1 1 1 2 2 1 2 2 2 2 1 1 1 1 1 1 2 1 1 1 1 1 1 2 3 3 3 2 2 2 2 1 2 3 4 4 3 2 3 3 4 5 6 6 6 6 6 7 6 6 5 5 4 4 4 4 4 4 3 3 3 3 3 3 5 5 5 5 5 4 3 2 1 1 1 1 1 1 0 0 0 0 0 1 1 2 2 2 1 1 1 1 1 1 1 2 2 2 2 2 2 2 3 3 3 3 3 2 2 2 2 2 2 3 2 3 1 1 1 1 1 1 1 1 2 3 3 3 4 3 3 3 3 2 2 1 0 0 0 0 0 0 0 1 1 1 1 1 1 1 2 2 2 2 1 1 1 1 2 2 3 3 2 2 2 2 2 2 1 1 1 2 2 1 2 3 4 4 4 3 3 2 2 3 3 3 3 2 2 1 1 2 2 2 2 3 3 2 0 
0 2 2 2 4 5 5 5 3 4 3 5 4 4 4 3 3 1 1 1 2 2 2 1 2 2 3 3 3 3 3 3 3 2 3 3 3 3 2 2 3 3 4 4 5 6 6 5 3 1 1 1 2 2 2 2 2 2 2 2 3 3 3 2 1 1 1 2 2 2 1 1 0 0 0 0 0 0 0 1 2 2 2 2 2 2 3 3 3 2 3 2 3 4 5 5 4 4 3 3 3 2 2 2 1 1 1 1 1 1 2 1 2 2 3 4 4 4 3 3 3 2 2 1 0 1 1 1 1 1 2 2 2 2 2 2 1 0 0 0 0 0 0 0 0 0 1 3 3 4 3 2 1 2 2 2 2 1 1 2 2 3 3 4 4 5 4 3 3 3 4 4 4 4 4 3 2 1 0 1 1 2 2 3 4 5 6 8 8 8 6 4 6 5 5 3 2 2 1 1 1 2 3 4 4 4 2 2 1 3 3 5 4 5 5 4 3 1 1 1 2 3 2 1 0 0 0 1 2 2 2 1 0 0 0 1 2 2 2 2 3 4 4 4 3 4 4 3 3 2 3 2 2 3 4 4 4 4 3 2 1 1 2 1 1 0 1 1 2 2 1 1 1 2 3 3 3 3 3 3 2 1 1 1 2 2 2 2 3 3 2 1 1 1 1 2 2 3 2 2 1 2 2 3 3 4 4 4 4 4 4 3 2 1 1 2 3 3 2 2 2 2 1 1 1 1 1 1 1 2 2 2 1 1 1 1 2 3 3 3 3 3 3 3 2 2 3 5 5 4 3 4 4 5 6 7 7 7 7 7 7 6 5 4 4 4 5 5 5 5 4 3 3 3 3 3 3 5 6 7 7 6 5 4 2 1 0 1 1 2 1 1 0 1 1 1 1 1 2 1 1 0 0 0 0 0 0 1 1 2 2 2 2 2 2 3 3 3 3 3 2 2 1 2 2 3 4 3 3 2 2 1 2 1 1 1 2 3 3 3 3 3 2 3 3 3 3 2 1 0 0 0 0 0 1 1 1 1 1 1 1 1 1 2 2 2 2 2 1 1 1 2 2 3 3 2 1 1 2 3 2 2 2 2 2 1 1 2 3 4 4 4 3 3 3 3 4 4 3 3 2 3 3 3 2 2 2 1 2 2 2 0 
0 2 2 3 4 5 5 4 3 3 2 4 4 3 4 3 4 2 1 1 2 2 2 1 2 3 4 4 5 4 4 4 5 4 5 4 4 3 3 2 2 2 3 3 4 4 5 4 3 2 2 2 2 2 2 3 3 3 4 4 4 3 2 2 2 1 1 2 2 2 1 1 0 0 0 0 0 0 0 1 2 2 2 2 2 2 3 3 3 3 2 3 3 4 4 5 5 4 4 3 3 3 2 2 2 2 2 2 2 2 1 1 1 2 3 4 4 3 3 3 3 2 2 2 1 1 1 1 1 1 2 2 2 1 2 2 1 0 0 0 0 0 0 0 0 1 2 4 4 4 3 2 2 2 2 2 2 1 2 2 2 3 4 4 4 4 4 4 3 3 3 4 5 5 5 3 2 1 1 1 2 2 2 3 4 6 7 8 8 8 6 4 5 5 5 3 2 2 1 1 1 3 4 4 4 4 3 2 2 4 4 6 5 5 4 4 3 2 1 1 2 2 2 1 0 0 0 1 2 2 1 1 0 0 0 1 2 2 1 2 3 5 5 5 5 5 5 4 3 3 3 3 2 3 4 5 5 5 4 3 2 2 2 2 1 0 0 1 2 2 2 2 2 2 3 3 3 3 4 4 3 2 1 1 1 2 2 2 3 4 3 2 1 2 2 3 3 3 3 2 1 2 2 2 3 3 3 3 4 4 4 3 2 2 2 3 3 3 2 2 2 2 1 1 0 1 1 1 1 1 1 1 1 1 1 2 3 3 3 4 3 4 4 4 3 3 4 5 5 4 4 4 5 5 5 6 5 6 6 6 7 6 6 5 5 5 6 6 6 6 5 4 4 4 3 3 3 5 6 6 6 6 5 3 2 0 1 1 1 2 1 1 1 1 2 2 2 2 2 1 0 0 0 0 0 0 0 1 1 2 2 2 2 2 2 2 2 2 2 2 1 1 1 2 2 4 5 4 4 2 2 2 2 2 1 2 3 4 5 5 5 5 4 3 2 2 1 1 1 0 0 0 1 1 1 1 1 1 0 0 0 0 0 1 1 2 2 1 1 1 1 2 3 4 3 2 2 2 3 3 3 3 3 3 3 2 1 2 2 4 3 4 3 3 4 4 5 4 4 3 3 4 4 4 4 2 2 1 1 2 1 0 
0 1 2 2 4 5 5 4 2 3 2 4 3 3 4 3 5 2 2 2 2 2 1 2 2 3 3 4 4 4 4 3 4 3 4 3 3 3 3 3 3 3 3 3 4 5 6 5 3 3 3 2 2 2 2 2 2 2 2 2 2 2 2 2 1 2 2 3 3 3 2 2 1 0 0 0 1 1 1 1 2 2 2 2 2 2 2 3 3 4 4 4 4 4 4 4 3 4 5 4 4 4 3 3 3 2 2 2 3 2 1 1 1 2 4 4 3 2 2 2 2 2 2 3 2 2 2 1 1 2 2 2 1 1 2 3 2 1 0 0 0 0 0 0 0 1 3 5 5 4 3 3 2 2 2 2 1 1 2 2 2 3 3 4 4 4 4 3 3 3 4 5 5 5 5 4 2 1 1 2 2 2 2 2 4 7 7 8 8 8 7 5 5 5 4 3 2 2 1 1 2 3 4 4 4 4 3 2 3 4 5 6 5 5 4 3 3 2 1 1 2 2 2 1 0 0 0 1 1 1 1 1 1 1 1 2 2 2 1 2 3 4 4 4 4 4 5 4 3 2 2 2 2 3 3 3 4 4 4 3 2 2 2 1 1 0 0 1 2 2 2 2 1 1 2 3 3 3 3 4 3 3 1 1 1 2 2 2 3 3 4 3 2 2 2 3 3 4 3 2 2 2 2 2 3 4 4 4 3 3 3 3 3 3 3 3 3 3 3 2 2 2 1 1 0 1 1 1 0 1 1 1 1 1 1 2 2 3 4 4 4 3 3 3 3 4 4 5 5 4 4 4 4 4 3 3 3 3 4 5 6 7 7 7 6 6 7 7 6 6 5 5 5 4 3 3 3 4 5 5 5 5 4 3 1 0 0 1 2 2 1 2 2 2 3 2 2 2 2 1 1 0 0 0 0 0 0 1 2 2 2 3 3 3 3 2 2 2 1 1 1 2 2 3 3 4 5 5 4 2 2 3 3 3 2 2 3 3 4 4 4 5 4 3 2 2 2 2 1 0 0 1 1 1 1 1 1 0 0 0 0 0 0 0 1 1 1 1 1 1 1 2 2 2 2 2 2 2 3 4 4 3 4 4 3 3 2 2 2 3 2 3 3 4 4 5 5 4 3 2 2 4 5 6 4 3 2 1 1 1 1 0 
0 1 1 2 4 4 5 3 2 2 3 4 4 4 5 4 5 2 2 2 2 2 1 2 2 3 4 4 4 4 4 4 5 4 4 3 2 3 3 2 1 2 2 2 3 3 4 4 4 4 4 2 2 1 2 2 3 3 3 2 2 2 1 1 1 2 1 2 2 2 2 1 1 0 1 2 2 2 1 2 3 2 2 2 2 2 2 4 4 5 5 4 4 4 3 3 3 4 4 5 5 5 4 3 3 2 2 2 2 3 2 2 2 3 4 4 3 2 1 1 2 2 2 3 3 3 2 1 2 2 3 2 2 2 3 3 2 1 1 0 0 1 1 1 1 2 4 5 5 5 3 3 2 2 2 1 1 1 2 2 2 2 3 3 3 3 3 3 3 3 4 5 6 6 5 4 3 2 1 2 2 3 2 2 4 7 8 8 8 8 7 5 4 4 3 2 1 2 1 1 3 3 4 4 4 4 3 3 3 4 5 7 5 5 4 3 3 2 2 2 1 2 2 2 1 1 1 1 1 1 1 2 2 1 1 2 2 2 2 2 3 4 4 4 4 4 4 3 3 3 4 4 3 3 3 5 5 4 4 3 2 2 2 1 1 1 1 1 2 2 2 1 2 2 3 3 3 3 4 4 3 2 1 1 1 2 2 2 3 3 4 3 2 3 2 3 3 4 3 2 2 2 2 1 1 2 2 3 3 4 4 4 3 3 2 2 2 2 2 2 3 2 2 1 1 1 1 0 0 0 1 1 1 1 1 2 3 4 4 4 4 3 3 3 3 3 4 5 5 4 3 3 3 3 2 2 1 1 2 4 6 7 7 6 6 6 7 6 6 5 4 4 4 4 3 3 3 3 4 3 3 4 3 3 1 0 1 2 2 2 1 2 2 2 2 2 2 2 2 1 0 0 0 0 0 0 0 1 2 3 3 3 3 3 3 3 2 2 2 2 2 2 3 3 4 5 5 5 4 2 2 2 3 3 3 3 4 4 5 5 5 4 4 4 3 3 1 1 1 1 1 1 1 1 1 1 1 1 1 0 0 0 0 0 1 2 2 2 1 1 1 2 3 3 3 2 2 3 5 5 4 4 3 3 3 2 2 2 2 2 3 3 4 5 5 6 6 5 4 4 4 5 6 7 5 4 2 1 1 1 0 0 
0 1 1 2 3 4 5 3 2 2 4 5 4 5 5 5 5 3 2 2 2 2 1 2 2 2 2 1 2 2 2 2 2 2 2 2 2 2 2 2 2 2 2 2 3 3 3 3 4 4 4 4 3 2 2 2 2 2 2 1 1 1 1 1 1 1 1 1 2 2 2 1 1 1 2 2 3 3 2 2 2 2 3 2 2 2 2 3 4 4 4 4 3 3 3 3 3 3 3 4 4 4 4 3 2 1 1 2 3 3 2 1 2 3 4 4 2 1 1 2 2 2 2 3 4 5 5 4 3 3 3 3 3 3 4 5 5 4 2 2 3 2 2 2 1 3 4 6 6 6 4 4 3 2 2 2 2 2 2 1 2 2 2 2 2 2 3 3 4 4 5 6 6 5 5 4 3 2 2 3 4 4 4 3 5 7 9 9 8 9 8 6 4 3 3 2 2 2 2 2 3 3 4 4 4 4 3 3 3 4 4 4 3 3 3 2 3 2 2 1 1 2 1 1 1 1 2 2 2 2 2 2 2 2 3 3 3 2 2 2 4 4 5 5 5 5 5 4 3 2 2 2 2 2 2 2 2 2 2 2 3 3 3 2 1 1 1 2 2 2 2 1 2 2 3 4 4 3 4 3 3 2 1 1 2 2 2 1 2 2 3 2 3 3 2 2 2 3 3 2 2 1 1 1 2 3 3 3 3 3 3 2 2 2 2 2 1 1 2 2 2 2 2 2 2 2 1 0 0 1 1 1 1 1 1 2 2 3 4 4 4 4 3 2 2 3 5 6 6 5 3 3 3 3 3 2 2 2 2 3 4 5 5 4 4 4 5 4 4 3 3 3 3 3 3 3 3 3 3 2 2 3 2 2 1 0 1 2 2 2 2 2 2 3 3 2 2 2 2 2 2 1 0 0 0 0 1 2 3 3 3 3 3 3 3 3 3 3 3 3 2 3 4 5 5 6 5 5 3 2 2 2 2 3 3 2 2 2 2 3 4 5 4 3 3 2 2 1 1 1 1 1 1 1 1 2 2 3 2 2 1 1 1 1 2 3 3 4 3 3 2 2 2 2 2 2 2 2 3 3 3 3 2 1 1 2 2 2 2 2 2 2 2 3 4 4 3 3 3 3 3 4 5 6 5 4 2 1 1 1 1 0 
0 1 2 2 3 3 4 3 3 4 6 7 6 5 5 5 5 3 2 2 2 2 2 1 1 2 2 2 2 2 2 2 2 1 1 1 1 1 2 1 1 1 2 2 3 2 3 3 3 4 5 5 5 4 4 3 2 1 1 1 1 1 1 1 1 0 0 0 1 1 1 1 1 2 3 3 4 3 2 2 2 2 2 2 2 2 2 2 3 3 4 3 3 2 3 3 3 3 3 3 3 2 2 2 2 1 1 1 2 3 2 2 2 3 3 3 3 2 2 2 2 2 2 2 3 4 5 4 3 3 3 3 3 4 4 5 5 5 4 3 2 2 2 2 2 3 4 5 5 5 4 3 2 1 2 2 2 2 2 1 2 1 1 1 1 2 2 2 3 4 5 6 5 5 5 4 3 2 2 2 3 4 4 4 6 8 9 9 9 9 8 5 3 2 2 2 2 2 1 2 3 3 4 4 4 3 2 3 3 3 3 4 3 3 3 3 3 2 1 1 1 1 1 1 1 1 2 2 2 3 3 3 3 3 3 3 3 2 3 2 4 4 4 3 3 2 2 2 2 2 2 2 2 2 2 2 1 1 1 2 2 3 3 3 3 3 3 4 4 3 3 2 2 2 3 3 2 2 2 3 2 2 1 1 2 2 2 2 2 2 2 2 2 2 3 2 1 2 2 2 2 1 1 1 2 4 4 4 5 5 5 4 3 2 2 1 1 1 1 1 1 1 2 1 2 2 1 0 0 1 1 1 0 0 1 1 2 2 3 4 5 4 4 2 2 3 5 6 6 5 4 4 4 4 4 3 3 3 2 3 3 3 3 2 3 4 5 5 4 3 2 2 2 2 2 3 3 3 2 2 2 2 2 2 1 1 1 2 3 2 2 2 2 3 2 2 1 2 2 2 2 1 0 0 0 1 2 2 3 2 2 2 2 1 1 2 3 3 3 3 3 3 4 5 6 6 4 4 3 2 2 2 2 2 2 2 2 1 1 2 2 2 2 3 3 3 2 2 2 2 2 1 1 1 1 3 3 3 2 2 2 2 1 1 2 3 4 4 4 3 2 2 2 2 2 2 2 2 3 3 3 2 1 1 1 1 2 1 1 2 2 2 3 3 3 3 3 3 3 3 4 5 5 6 5 4 2 2 2 2 1 0 
0 1 2 2 3 3 4 4 4 5 7 7 6 4 4 5 5 3 2 2 2 2 2 1 1 1 1 1 1 1 1 0 0 0 0 1 1 1 1 1 1 1 2 2 3 2 2 3 4 5 6 6 6 6 5 4 3 2 2 2 1 1 1 1 1 0 0 0 1 1 2 2 2 2 3 3 3 2 2 2 2 2 2 2 2 2 2 2 3 2 2 2 2 2 2 2 3 3 3 3 2 2 2 1 1 1 1 2 2 3 2 2 2 2 2 3 2 3 3 3 3 2 2 2 3 4 5 5 4 3 3 4 4 4 4 5 6 6 5 5 4 3 3 2 3 3 3 4 4 5 4 3 2 2 2 2 2 2 2 2 1 1 1 0 1 1 2 2 5 6 6 6 4 4 4 3 2 2 1 2 2 4 4 5 6 8 10 10 9 8 6 4 2 1 2 3 3 2 1 2 2 2 3 3 3 3 2 2 2 2 2 2 2 2 2 2 2 1 1 1 1 0 0 1 1 1 1 2 2 2 2 3 3 4 3 3 2 2 3 2 4 3 4 3 3 3 3 2 2 1 1 1 1 1 1 1 0 0 1 1 2 3 3 4 3 4 4 5 5 4 4 2 3 2 2 1 1 1 2 2 2 2 2 2 2 2 2 3 3 3 2 2 2 2 2 2 1 1 1 2 2 1 1 1 2 2 2 2 2 2 2 1 1 1 1 1 1 1 1 1 1 1 1 2 3 3 1 0 0 1 1 0 0 0 0 0 2 3 4 5 5 5 5 4 3 3 4 6 6 5 4 5 4 4 4 4 3 3 3 3 4 5 4 4 5 5 6 6 5 4 3 3 2 2 3 3 3 2 2 1 1 2 2 2 1 1 2 2 2 2 3 3 3 4 4 4 3 3 3 3 2 2 1 1 1 2 3 3 3 2 2 1 1 1 1 2 2 2 2 2 2 3 4 5 5 5 4 3 2 2 2 1 1 1 1 0 0 0 0 1 2 2 2 3 3 3 3 2 2 2 1 1 1 2 2 3 3 3 3 3 3 3 3 3 4 5 6 7 6 5 3 2 2 2 2 1 1 1 1 0 1 1 1 0 0 1 2 2 2 2 2 2 3 2 2 1 1 1 1 1 2 3 3 3 3 2 2 2 2 2 1 0 
0 1 2 2 3 4 4 4 5 7 8 8 6 3 3 4 4 3 2 2 2 2 2 2 1 1 1 1 1 0 0 0 0 0 0 0 1 1 1 2 1 1 2 2 3 3 2 3 4 5 6 6 6 6 6 5 4 2 2 2 2 1 2 1 1 0 0 0 1 1 2 1 2 2 2 2 2 2 3 2 2 2 1 1 1 1 2 2 2 2 2 2 2 3 3 3 3 3 3 3 2 1 1 2 2 2 2 2 2 2 2 2 2 3 3 3 3 3 3 3 3 3 3 2 3 3 4 4 4 3 4 4 4 4 3 4 5 5 5 5 4 3 3 2 3 2 3 3 3 4 3 2 2 2 2 2 2 2 2 1 1 1 1 0 1 1 1 2 5 6 7 6 6 6 5 4 2 1 0 0 1 2 3 4 6 8 10 10 9 7 5 3 1 1 2 2 3 2 1 1 2 1 2 2 2 2 1 2 2 2 2 2 1 2 2 2 1 1 0 0 0 0 0 1 0 0 0 0 1 1 1 1 2 3 3 2 1 1 2 2 4 3 4 2 2 2 2 2 1 1 1 1 1 1 1 0 0 0 1 1 1 2 3 4 4 5 5 6 6 5 5 3 4 2 2 1 1 1 2 2 3 2 2 2 2 3 3 3 3 2 2 2 2 2 2 2 1 1 1 1 2 1 1 2 3 4 4 4 4 4 4 3 2 1 0 1 1 1 1 1 1 1 1 1 2 2 1 1 1 1 1 0 0 0 0 0 1 3 4 5 6 6 5 4 4 3 4 4 4 4 4 5 4 3 3 3 3 3 3 4 4 4 4 4 5 5 6 5 4 4 3 3 3 3 3 3 3 2 1 1 1 2 2 2 2 2 2 2 3 2 3 3 3 4 4 4 3 3 2 3 2 1 0 1 1 2 2 2 2 1 1 1 1 1 1 2 3 4 4 3 4 5 5 5 4 4 3 2 2 2 2 1 1 0 0 0 0 0 0 0 0 0 0 1 2 2 3 2 2 1 1 1 2 2 3 3 3 3 3 2 2 3 3 4 4 5 6 7 6 5 2 1 1 1 1 1 1 1 1 1 1 0 1 0 1 1 1 2 2 2 2 2 3 2 2 1 1 1 1 1 1 2 2 2 2 2 2 2 2 2 1 0 
0 1 2 3 3 4 4 4 4 6 8 7 5 3 3 4 4 3 2 2 2 2 2 2 1 1 0 0 0 0 0 0 0 0 0 0 1 2 2 2 2 2 2 2 2 2 2 3 3 4 5 5 6 6 6 6 4 3 3 3 2 2 2 1 1 0 0 0 1 1 1 1 2 2 2 1 1 2 3 3 3 2 1 0 0 1 2 2 3 2 2 2 2 3 2 3 3 3 3 3 3 3 2 2 3 3 3 2 2 2 3 4 4 5 5 4 4 4 3 3 4 4 4 4 4 4 3 3 3 3 4 4 3 3 2 3 3 3 4 4 4 3 3 2 3 2 3 2 2 3 2 3 2 2 2 2 2 2 2 1 1 0 0 0 1 1 2 3 5 7 8 7 6 6 6 4 3 1 0 0 0 1 2 3 5 7 8 9 7 5 3 2 1 0 1 2 2 2 1 1 1 1 1 0 1 1 1 1 2 2 2 1 1 1 1 1 1 0 0 0 0 0 0 0 0 0 0 0 0 0 0 0 1 2 2 2 1 0 2 2 4 2 4 2 2 2 2 2 1 2 1 1 1 1 1 1 1 1 1 1 1 1 2 3 4 5 5 5 6 6 5 4 4 2 2 1 1 1 1 2 2 2 2 3 3 3 3 2 3 2 2 2 1 1 2 2 1 0 0 1 1 2 1 2 1 1 1 1 1 1 1 1 0 0 0 0 0 1 1 1 1 1 1 1 1 2 1 1 1 1 1 0 0 0 0 0 2 3 5 5 5 5 5 5 4 3 3 2 3 3 3 3 3 2 2 3 2 3 2 3 3 3 4 3 4 5 5 5 3 3 3 3 3 3 4 3 3 2 1 1 2 2 3 3 2 2 2 2 3 2 2 2 3 4 5 5 4 3 2 2 1 1 0 0 1 2 2 1 1 1 1 1 1 1 2 3 4 5 5 4 4 5 4 4 2 3 2 2 2 1 1 1 0 0 1 1 1 1 1 1 1 1 1 1 2 3 2 2 1 1 1 1 2 3 3 3 2 3 3 2 3 3 4 4 4 4 6 6 6 4 2 1 1 1 1 1 1 1 1 1 2 2 2 2 2 2 1 1 1 1 1 2 2 2 2 1 1 1 1 1 1 2 2 2 3 3 3 3 2 2 1 0 
0 1 2 3 4 4 4 4 4 5 6 7 5 4 3 3 3 3 2 2 2 2 2 2 1 0 0 0 0 0 0 1 1 0 0 1 2 2 2 3 2 2 2 2 2 2 2 2 3 4 5 4 6 7 7 6 4 2 2 2 3 2 2 1 1 0 0 1 1 1 1 1 2 2 2 2 1 2 3 3 3 2 1 1 0 1 2 3 3 2 2 1 1 2 2 3 3 4 4 4 3 3 3 3 4 4 4 3 2 3 4 5 6 6 6 6 5 5 4 4 5 5 5 5 5 4 4 3 3 3 4 3 3 2 2 3 3 2 2 2 3 3 3 2 3 3 3 3 2 2 2 2 2 2 2 2 2 2 2 1 1 0 0 0 1 1 2 4 6 7 8 7 7 6 6 4 3 1 0 0 0 0 1 3 4 4 6 7 6 4 2 2 1 0 0 1 2 2 1 1 1 0 0 0 0 0 0 1 2 1 2 0 1 0 1 1 1 0 0 0 0 0 0 0 0 0 0 0 0 0 0 0 1 2 2 2 1 0 2 2 4 2 4 2 3 2 2 3 2 2 2 1 1 2 2 2 2 3 3 2 2 2 2 3 3 4 4 4 5 5 4 4 3 2 2 1 1 1 1 2 2 2 2 2 3 4 4 3 2 2 2 2 1 1 2 2 1 0 0 1 2 2 2 2 2 2 2 2 2 3 2 2 1 0 0 0 0 0 0 1 1 1 1 1 1 1 1 1 1 1 1 0 0 0 0 0 2 3 5 6 5 5 5 5 4 3 2 2 3 3 3 2 1 1 2 2 2 3 2 3 2 2 2 2 3 3 4 3 2 2 3 3 3 3 3 3 2 2 1 2 2 3 3 3 3 2 2 3 3 2 2 2 3 3 6 6 5 4 2 2 1 1 1 0 1 1 1 1 0 0 0 0 1 1 2 3 5 7 7 7 7 7 7 6 3 3 2 2 1 1 1 1 1 1 1 1 1 1 1 2 1 1 1 1 2 2 2 1 0 1 1 2 3 3 3 4 3 3 3 2 3 4 4 4 4 4 6 6 6 4 2 2 1 1 2 2 2 2 2 2 3 3 3 3 2 2 2 1 1 1 1 1 2 2 1 1 1 1 1 1 1 2 3 3 4 4 4 3 3 3 1 0 
0 1 2 3 4 5 4 4 3 4 6 7 5 4 3 4 4 4 3 2 2 2 3 2 1 0 0 0 0 0 1 1 1 0 1 1 2 3 3 2 2 2 2 1 1 0 1 1 2 3 3 3 5 6 7 5 3 2 2 3 3 2 1 1 1 1 1 1 1 1 1 1 2 2 2 2 2 3 3 3 3 2 2 1 1 1 2 3 3 3 2 2 1 2 2 2 3 3 3 3 3 4 4 4 5 5 4 4 3 4 5 6 7 7 7 7 6 5 5 4 4 5 5 5 4 4 4 3 3 3 3 3 2 2 2 2 2 1 1 2 2 3 3 3 3 4 4 3 2 2 2 2 2 2 3 3 3 3 3 2 1 0 0 1 1 2 3 3 5 5 5 4 3 3 3 3 2 1 1 0 0 0 1 3 3 4 6 6 5 4 2 2 1 1 0 1 2 2 2 1 0 0 0 0 0 0 0 1 2 1 1 0 0 0 1 1 1 0 0 0 0 0 0 0 0 0 0 0 0 0 0 0 1 2 2 2 1 1 2 2 4 2 4 2 3 2 2 2 2 2 2 2 2 2 2 3 3 3 3 3 3 3 3 4 5 5 5 5 5 5 4 4 4 3 2 1 1 2 1 1 2 2 2 3 4 4 4 2 2 2 2 1 1 1 2 2 1 0 0 1 2 2 2 2 1 1 1 1 1 1 1 1 0 0 0 0 0 0 0 0 1 1 1 1 1 1 1 1 1 2 1 0 0 0 0 1 3 4 5 4 5 4 5 4 4 3 3 3 2 3 3 2 2 2 2 2 2 3 3 3 2 2 2 2 2 3 3 3 2 2 2 3 3 4 4 3 2 2 2 2 3 3 3 3 3 2 2 2 2 2 1 1 2 2 4 5 5 5 3 3 2 2 1 1 2 2 1 1 0 0 0 1 1 1 2 3 5 7 7 8 8 8 8 7 6 4 2 1 1 1 1 1 1 1 1 1 1 1 1 2 1 1 1 2 3 3 2 1 1 2 2 2 2 3 3 4 3 3 3 1 3 4 4 4 3 3 4 4 4 4 4 3 3 3 2 2 2 2 2 2 3 3 3 3 2 2 1 1 1 1 2 2 2 2 1 1 0 1 2 2 2 2 3 3 4 4 3 3 3 3 2 0 
0 1 2 3 4 5 4 3 3 4 5 6 5 4 3 3 3 3 2 2 2 2 2 2 1 1 0 0 0 1 1 1 1 0 1 1 2 2 2 2 2 2 2 1 1 1 1 2 3 3 3 3 4 5 6 5 3 3 3 3 3 2 1 1 1 1 1 1 1 1 1 1 2 3 3 2 3 3 3 3 3 2 2 1 1 1 2 3 3 4 3 2 2 1 2 2 3 3 3 3 3 3 4 5 5 4 4 3 3 4 4 5 5 6 6 6 6 6 5 5 4 4 4 4 4 3 3 3 3 3 3 3 3 2 2 2 2 2 2 2 2 2 2 2 3 3 3 2 1 1 1 2 2 3 4 5 5 5 4 3 2 1 1 1 2 2 3 4 5 5 5 5 4 4 3 2 2 1 1 0 0 0 1 3 4 4 5 5 4 3 2 3 2 2 1 1 2 2 2 1 0 0 0 0 0 0 1 1 1 1 1 0 0 0 1 1 1 0 0 0 0 0 1 1 0 0 0 0 0 0 0 0 1 2 2 2 2 2 2 2 3 2 3 2 2 2 2 2 1 1 1 1 1 1 2 2 2 3 2 2 3 3 3 3 4 5 5 6 6 4 5 4 4 3 2 1 1 1 1 1 2 3 3 3 4 4 4 3 3 2 2 1 1 2 2 2 1 0 0 1 2 2 2 2 1 1 1 1 1 1 0 0 0 0 0 0 0 0 0 0 1 1 1 1 0 1 1 1 1 1 1 0 0 0 0 1 2 5 6 5 4 4 5 5 4 3 3 3 3 2 2 2 2 2 2 2 2 3 3 4 3 3 3 2 2 3 4 3 2 2 2 2 3 3 3 3 2 2 2 3 3 3 3 3 3 3 3 3 2 2 2 2 2 2 4 5 6 6 5 5 4 4 3 2 2 2 2 1 1 0 1 1 1 1 2 3 4 4 5 6 6 6 7 7 6 5 3 2 2 1 1 1 1 1 1 1 1 1 1 1 1 2 1 2 2 2 2 1 1 2 2 2 3 3 4 3 4 2 3 1 3 4 3 3 2 3 5 7 7 6 5 5 4 3 2 1 2 2 2 2 3 3 3 3 2 2 2 2 2 2 2 2 2 2 1 1 1 2 3 3 2 2 3 3 3 3 2 2 2 2 1 0 
0 1 2 3 4 4 3 3 2 3 4 5 4 3 3 3 3 3 3 2 3 2 2 2 2 2 2 2 2 2 2 2 1 0 0 1 2 2 1 1 1 2 2 2 2 1 2 2 3 3 2 2 3 3 4 4 3 3 3 3 2 1 1 1 1 1 1 1 1 1 1 1 2 3 4 4 4 3 3 3 4 3 2 1 1 1 2 3 3 3 2 2 2 2 2 2 2 2 1 1 2 2 3 4 4 4 4 2 3 3 4 4 4 4 4 4 5 6 5 5 4 4 4 4 4 5 4 3 2 3 3 3 3 3 2 2 2 2 2 3 2 2 2 3 4 4 2 1 1 0 0 1 2 3 3 4 4 4 3 2 2 2 2 2 2 3 3 3 4 4 3 2 2 2 1 1 1 2 1 1 0 1 2 2 3 4 5 5 4 3 2 3 2 2 1 1 2 2 2 1 1 1 1 0 0 1 1 1 1 1 0 0 0 0 1 1 1 0 0 0 0 0 1 1 1 1 1 1 1 2 2 2 2 2 2 2 2 2 2 2 2 2 3 2 2 2 2 1 1 0 1 1 1 1 2 2 2 2 1 2 3 5 6 7 7 8 6 7 6 4 5 4 4 4 2 2 2 2 2 2 2 3 3 3 3 4 5 4 3 2 2 1 2 2 3 2 1 0 0 1 2 2 2 3 2 2 2 1 1 1 0 0 0 0 0 0 0 0 0 0 1 1 2 2 1 1 1 1 1 1 1 0 0 1 2 3 4 4 5 4 4 4 4 3 3 3 3 2 2 2 3 4 4 4 4 3 3 4 4 4 4 4 3 3 3 3 3 3 2 2 2 3 4 4 4 4 3 2 2 3 3 2 2 2 3 3 4 3 3 2 2 2 2 1 2 2 4 5 5 5 4 3 2 2 2 1 2 2 2 2 2 2 2 3 3 3 3 4 5 6 6 6 6 7 8 7 6 3 3 1 1 1 0 0 1 1 1 1 0 1 1 1 1 2 2 3 3 2 1 2 2 3 3 2 3 2 4 2 3 2 2 3 3 3 2 3 4 5 5 5 5 4 3 2 1 1 1 1 2 2 3 2 2 2 2 2 2 2 3 2 3 4 4 4 3 3 2 3 3 3 3 3 3 2 2 2 1 1 1 1 1 0 
0 2 3 3 3 3 3 2 2 3 4 4 4 3 3 3 2 3 3 2 2 2 1 2 2 2 2 2 3 3 2 2 1 0 0 1 1 1 1 1 2 3 3 3 2 2 2 3 3 2 2 2 2 3 4 4 4 3 3 2 2 1 1 1 1 1 1 1 0 0 0 0 1 2 3 3 4 3 2 2 2 2 2 2 2 2 4 4 4 3 2 2 3 3 3 2 2 1 1 1 2 3 4 5 5 4 3 2 2 3 4 3 3 2 3 4 5 6 6 6 5 4 4 4 5 6 5 4 3 2 2 3 3 3 3 2 3 3 2 2 2 2 2 2 2 2 2 1 1 1 1 1 1 2 3 3 3 3 3 2 2 2 2 2 2 3 3 3 3 3 4 4 4 4 4 3 2 1 1 1 1 1 1 2 3 3 3 3 2 2 2 2 1 2 1 1 1 2 2 2 2 2 2 1 1 1 1 1 1 1 1 1 0 0 1 2 1 1 0 0 0 1 1 1 2 1 2 2 2 3 3 3 2 2 2 2 2 2 2 2 2 2 1 2 2 2 2 1 0 0 0 0 1 1 2 2 2 2 1 2 3 4 5 5 5 6 5 5 4 4 4 3 3 3 2 2 2 2 2 2 2 2 3 3 3 3 3 3 3 2 2 1 2 3 3 2 1 0 0 0 1 2 2 3 2 2 2 2 1 1 0 0 0 0 0 0 0 0 0 1 2 3 3 3 3 3 2 2 1 1 1 1 1 2 3 3 4 4 5 4 4 4 5 4 3 3 2 2 2 3 4 4 5 5 5 4 5 5 4 4 3 4 4 3 3 3 3 3 2 2 2 2 3 3 3 3 2 2 2 2 3 2 2 2 2 3 4 3 3 2 2 2 1 0 0 1 3 4 5 5 4 3 3 2 2 1 2 2 1 1 1 1 2 1 1 2 1 2 2 3 3 3 3 5 7 6 7 4 3 2 1 0 0 0 1 1 1 1 0 1 1 1 1 1 1 2 2 2 2 2 2 3 3 3 3 2 3 2 3 2 2 3 3 3 2 2 3 5 6 5 4 4 2 1 0 0 0 1 1 1 2 2 2 2 2 2 2 2 2 3 3 4 5 5 5 4 4 4 4 4 3 3 2 2 1 1 1 1 1 1 0 0 
0 1 2 2 3 2 2 3 3 3 3 3 3 3 2 2 2 2 2 2 2 1 1 2 2 2 2 2 3 3 3 2 1 0 0 0 1 1 1 1 2 3 3 3 2 1 2 3 3 3 3 3 3 3 3 3 3 2 2 1 1 1 1 1 1 1 1 0 0 0 0 0 2 3 4 4 4 3 2 3 3 2 1 1 2 4 5 5 5 4 3 2 3 3 3 2 2 1 1 2 2 3 3 4 5 4 4 3 3 4 4 4 3 3 3 4 4 5 6 5 5 4 4 4 5 6 6 4 2 1 1 2 3 3 4 3 3 2 2 2 2 2 2 2 3 2 2 2 2 2 1 1 1 1 1 1 1 1 1 1 1 1 1 2 2 2 2 2 2 2 2 3 3 3 2 2 2 1 1 1 1 1 2 3 3 4 4 4 4 4 4 3 1 1 0 0 1 1 1 2 1 1 1 1 1 1 1 1 1 1 1 1 1 1 1 2 2 2 1 0 0 1 2 3 2 2 2 2 3 3 3 3 3 3 3 3 3 3 2 2 2 1 2 2 3 3 2 1 0 0 0 1 2 2 3 3 3 3 3 4 4 5 6 6 5 5 3 4 3 3 3 3 2 2 2 2 2 2 2 2 3 4 4 4 5 5 5 4 3 2 1 1 2 3 3 2 1 0 0 0 1 2 2 2 3 3 2 2 1 2 2 2 1 1 0 0 0 0 1 1 1 2 2 3 3 4 3 3 2 2 2 2 2 2 3 3 4 4 4 3 4 4 4 3 3 3 2 3 3 4 4 5 5 5 5 5 4 4 3 3 2 3 3 3 3 2 2 2 3 3 3 3 3 3 3 2 2 2 2 2 2 1 1 1 2 2 3 3 3 2 2 1 0 0 0 0 1 2 3 3 3 2 1 1 2 1 2 1 1 2 1 1 2 1 1 2 2 2 2 3 3 4 4 5 7 6 7 4 4 2 1 0 0 0 0 1 1 1 1 1 1 2 1 1 1 2 2 2 2 2 2 3 3 2 2 1 3 3 3 2 2 3 3 3 3 4 5 5 5 3 2 1 1 0 0 0 0 0 1 2 2 3 3 2 2 2 2 2 2 3 4 4 6 6 5 5 4 3 2 3 2 3 2 2 2 2 2 2 2 2 1 0 
0 1 2 2 2 2 2 3 3 3 2 2 2 2 2 2 2 2 1 1 1 1 2 2 3 2 2 2 3 3 3 2 1 0 0 0 1 1 1 2 4 5 6 5 4 4 4 4 4 3 2 2 3 4 4 4 3 2 1 0 0 0 0 1 1 1 0 0 0 0 1 2 2 3 4 4 4 3 2 3 3 2 2 2 3 5 5 6 5 4 3 3 4 3 3 1 1 1 2 2 2 2 3 3 4 4 4 4 4 5 5 5 4 4 4 4 4 4 4 4 3 3 2 2 4 5 6 6 4 3 2 3 3 3 4 3 3 2 2 2 2 3 2 2 2 2 2 2 2 2 2 2 1 2 2 2 1 0 1 1 1 1 0 1 1 2 2 2 1 2 2 3 3 4 3 3 2 1 1 1 1 1 2 3 3 3 3 2 2 2 2 2 1 0 0 0 0 1 1 1 1 1 1 0 0 0 1 1 1 1 1 1 1 1 1 2 3 3 2 1 1 2 3 3 3 3 2 2 2 2 3 3 3 3 3 4 4 4 4 3 2 1 1 2 3 3 3 2 0 0 0 1 2 2 3 3 4 4 4 4 4 4 4 4 3 3 2 2 2 3 2 2 1 1 2 2 2 2 2 2 2 3 4 4 4 4 3 3 3 2 1 1 2 2 3 2 1 0 0 0 1 1 1 1 2 2 2 1 1 1 1 1 1 1 1 1 1 1 1 1 2 2 3 4 4 4 4 4 3 3 3 2 2 2 3 3 3 3 3 3 3 3 4 4 4 3 2 3 3 3 4 4 4 4 4 3 3 3 2 2 2 2 2 3 3 2 1 2 3 4 4 4 3 3 3 2 1 1 1 2 2 1 1 1 1 2 2 2 2 2 2 1 1 0 0 1 1 2 3 2 2 2 2 2 2 2 2 2 1 1 1 1 1 1 1 2 2 2 1 1 2 2 2 3 5 5 6 4 4 2 1 1 0 0 0 0 1 1 1 2 2 2 2 1 1 1 2 2 2 2 2 3 3 2 2 2 3 3 3 2 2 3 3 4 4 5 5 5 3 2 2 1 1 0 0 0 0 1 1 2 2 2 2 2 2 2 2 2 2 3 3 4 4 5 4 5 3 3 2 2 2 2 2 2 1 2 2 2 2 2 1 0 
0 1 1 2 2 2 3 3 3 3 2 2 2 2 2 2 1 1 1 0 0 1 2 3 2 2 2 2 2 2 2 2 1 0 0 0 0 1 2 2 3 4 4 4 4 4 3 3 4 4 4 4 4 5 4 4 2 1 0 0 0 0 0 1 1 1 0 0 1 2 2 3 4 4 4 5 5 4 3 3 2 2 2 3 3 4 5 5 5 5 4 3 3 3 2 1 1 1 1 1 1 1 1 2 3 3 3 4 5 6 6 5 4 3 3 3 3 3 3 3 3 2 2 2 4 6 8 8 7 6 5 5 4 4 4 3 3 2 2 1 2 2 2 2 2 2 2 3 3 3 3 3 3 3 2 2 1 1 1 1 1 1 0 0 0 1 1 2 2 2 3 3 3 3 2 1 2 2 2 1 1 1 2 3 5 5 5 5 5 5 5 3 2 0 0 0 0 0 0 0 0 0 0 0 0 0 0 1 1 1 0 0 0 0 1 2 3 3 3 3 2 3 3 4 4 3 3 3 2 2 2 2 2 2 3 4 5 5 4 3 2 2 2 3 4 4 4 3 1 1 0 1 2 2 2 2 2 3 3 3 3 2 2 2 3 3 2 1 2 2 2 1 1 1 0 1 1 1 1 2 3 4 5 5 5 5 4 3 2 1 1 1 1 2 2 2 1 1 1 1 1 1 1 1 1 1 1 1 1 1 2 2 2 1 1 1 1 1 1 1 1 1 2 2 3 3 4 5 4 3 3 2 1 1 1 2 2 2 2 2 3 2 4 4 4 3 2 3 3 3 3 3 2 2 2 2 2 1 2 2 2 1 2 2 2 2 2 3 4 4 4 3 3 3 2 1 0 0 0 1 1 1 1 1 1 1 1 2 2 2 2 1 1 2 1 1 1 2 2 2 2 2 2 2 2 2 2 2 2 1 1 1 2 1 2 2 2 2 1 0 1 1 2 2 3 4 5 4 4 2 2 1 1 0 0 0 0 0 1 1 2 2 2 2 2 2 2 1 1 2 2 3 3 2 2 2 3 3 3 2 2 2 2 3 4 5 6 5 4 3 3 1 1 0 0 0 0 1 1 1 2 2 2 2 1 1 2 2 2 3 3 3 3 4 3 4 1 1 1 1 2 2 2 2 3 3 3 4 4 4 2 0 
0 0 1 2 2 2 2 3 3 3 2 2 1 1 1 1 1 1 0 0 0 1 2 3 3 2 2 2 2 2 2 2 1 0 0 0 0 1 1 2 3 4 5 6 6 6 5 5 4 3 3 3 3 4 5 5 3 1 0 0 0 0 0 1 1 1 1 1 2 3 3 4 4 3 4 5 6 5 4 4 4 4 3 3 3 4 5 6 6 5 4 4 3 2 2 1 1 2 1 1 0 0 0 1 2 3 3 4 5 5 5 4 3 2 2 2 2 2 2 3 3 3 4 4 6 7 9 9 9 9 7 6 6 5 4 3 2 1 1 2 2 2 3 3 3 3 3 3 3 3 3 3 3 3 2 2 1 1 1 1 1 1 1 0 0 1 1 1 2 3 3 3 3 2 2 1 2 2 2 2 1 1 1 2 2 3 3 3 4 4 3 3 1 0 0 0 0 0 0 0 0 0 0 0 0 0 0 1 1 0 0 0 0 0 0 1 2 3 3 4 3 4 4 4 4 3 3 3 2 2 2 1 1 1 3 4 6 6 5 4 3 3 4 4 5 5 5 3 2 1 0 1 2 2 2 1 1 2 3 3 2 2 3 4 5 4 3 2 2 2 2 1 0 0 0 0 0 1 1 2 2 3 3 3 3 3 2 2 2 2 1 1 1 1 1 1 1 1 2 2 2 2 2 1 1 1 1 1 1 1 1 1 1 2 1 1 1 1 1 1 2 3 4 4 4 4 5 5 4 3 2 1 1 1 2 2 1 1 2 2 2 2 4 4 4 3 3 3 3 3 3 3 2 2 2 2 2 2 2 2 2 1 1 1 2 2 2 3 3 3 3 3 2 2 2 1 1 0 0 0 0 0 1 0 1 1 1 2 2 2 2 2 3 3 3 2 2 2 2 2 2 2 2 2 2 2 3 2 2 1 1 1 2 1 2 2 2 2 1 0 1 0 1 1 2 3 4 3 4 2 2 1 1 1 0 0 0 0 0 1 1 1 2 2 2 2 2 2 2 2 2 3 3 3 2 2 3 4 3 2 1 2 2 2 3 3 4 4 3 3 2 1 1 0 0 0 1 1 1 1 2 2 3 2 2 2 2 3 3 3 2 2 2 4 4 4 1 1 1 1 2 2 2 3 4 4 5 5 4 4 2 0 
0 1 2 3 3 3 3 3 3 2 2 2 2 1 1 0 1 1 1 1 0 1 1 2 2 2 2 3 3 3 1 1 0 0 0 0 0 0 1 2 2 3 4 5 6 6 5 4 3 4 4 3 3 4 4 4 2 1 1 1 0 0 0 1 1 1 1 2 3 4 4 3 3 4 4 5 5 4 3 2 3 3 4 5 4 4 5 5 5 4 3 3 2 2 2 2 1 2 1 1 0 0 0 1 2 3 4 3 3 3 3 2 2 1 1 1 1 2 2 2 3 3 5 6 7 8 9 10 10 9 8 7 6 5 5 4 3 2 1 1 2 3 3 4 4 4 4 4 4 4 2 3 3 3 3 2 2 1 2 2 1 1 1 1 1 1 1 2 3 3 3 3 3 2 1 1 1 2 2 1 1 1 1 2 3 4 4 5 5 5 4 3 1 1 0 0 0 0 0 0 0 0 0 0 0 0 1 1 1 1 0 0 0 0 1 1 2 2 3 4 4 4 4 4 4 3 3 2 2 1 1 1 1 1 3 5 6 6 5 4 3 3 4 4 5 5 4 4 2 1 1 1 2 3 2 2 1 1 1 1 1 2 2 3 4 4 4 2 2 2 2 1 1 0 0 0 0 1 1 2 2 3 3 3 3 3 3 3 2 2 2 2 2 2 1 1 1 2 2 2 2 2 2 2 2 1 1 1 1 1 1 1 2 2 2 2 2 2 2 3 4 3 3 3 3 3 4 4 3 2 2 2 1 1 2 2 2 2 2 2 2 3 3 4 3 3 2 2 2 2 2 2 2 2 2 3 3 3 2 3 2 1 2 1 2 2 3 3 3 3 2 2 2 2 2 1 1 1 0 0 0 0 1 1 1 1 1 2 2 2 2 2 3 3 2 2 2 2 2 1 1 2 2 2 2 2 2 2 1 1 1 2 2 2 2 3 2 2 1 0 1 1 1 1 2 2 3 3 4 2 3 2 1 1 1 1 1 1 1 1 1 1 1 2 2 3 3 3 2 2 2 2 2 2 1 2 3 3 3 1 1 2 2 2 2 2 2 3 3 3 3 2 1 0 0 1 1 1 1 1 1 2 2 1 2 2 3 4 4 4 3 3 3 4 5 4 3 2 1 2 2 2 3 4 5 5 6 6 6 5 3 0 
0 1 3 3 3 3 3 3 2 2 1 1 1 1 1 0 1 1 2 1 1 1 1 2 2 2 2 3 3 3 3 2 1 0 0 0 0 0 1 1 2 3 3 3 3 3 3 4 4 4 4 4 3 4 4 3 3 2 1 1 1 0 0 0 1 1 2 3 4 4 3 3 4 4 5 4 4 3 3 3 5 6 6 6 5 5 5 5 5 4 4 3 3 2 2 2 1 2 2 2 1 1 1 1 3 3 4 4 4 3 3 2 2 2 1 1 2 2 2 2 2 3 5 6 6 6 6 7 8 8 7 6 6 5 5 4 4 2 2 2 3 4 4 5 6 4 5 4 4 3 1 2 2 2 2 2 2 2 2 2 2 1 1 1 1 1 1 2 2 2 2 2 2 2 1 1 2 2 2 2 2 2 1 1 1 2 3 4 5 5 4 3 2 1 1 1 0 0 0 0 0 0 0 0 0 1 1 2 1 1 0 0 0 0 1 1 1 1 3 4 4 4 4 4 4 4 3 2 2 1 1 1 1 2 4 5 6 6 4 4 3 5 5 5 5 6 6 5 3 2 1 2 3 3 3 3 4 5 4 4 2 3 5 6 7 6 5 2 2 1 2 1 1 0 0 1 1 1 1 3 3 5 5 5 5 4 4 3 2 2 2 2 2 2 1 1 2 2 3 2 2 2 2 2 2 1 1 1 1 1 0 1 2 2 2 2 2 2 3 3 3 3 3 3 3 3 3 3 3 2 2 2 2 1 2 2 2 2 2 1 1 3 3 3 3 2 3 3 3 3 3 3 2 2 2 3 3 3 2 3 2 1 2 1 2 2 2 2 2 1 2 2 3 2 2 1 1 1 1 1 1 1 1 1 1 1 1 1 1 1 1 2 2 2 1 1 1 1 1 2 2 2 1 2 2 3 3 2 1 1 1 2 2 2 2 3 3 2 1 1 1 1 1 1 1 2 3 3 3 2 2 2 2 1 1 2 2 2 2 2 1 1 1 1 2 3 3 3 2 2 2 2 3 3 2 3 3 3 2 1 1 2 2 2 1 1 2 3 4 3 3 2 2 1 1 1 1 1 0 1 2 2 3 3 4 4 5 5 5 4 4 4 3 4 4 4 3 2 2 2 2 2 2 3 4 5 5 5 5 5 3 0 
0 1 2 3 3 3 3 3 2 1 1 2 2 2 1 1 2 2 3 2 2 2 2 2 1 2 2 3 4 4 4 3 2 1 1 1 1 1 1 2 3 3 4 4 4 5 4 3 3 3 3 2 2 2 2 2 2 1 1 1 1 1 1 1 2 2 3 4 4 4 3 3 5 5 5 4 2 2 2 3 4 4 6 6 5 4 3 3 2 2 2 2 2 2 2 2 2 2 2 3 2 2 1 2 3 4 5 4 3 2 3 3 3 3 2 2 2 3 4 3 3 4 5 5 5 4 4 4 5 6 6 5 5 5 5 5 4 3 3 2 3 4 5 5 7 5 7 5 4 3 1 1 2 2 2 3 2 3 4 3 2 1 0 1 1 2 2 2 1 1 1 2 2 2 1 1 2 1 2 2 2 2 2 2 2 2 3 5 6 6 5 3 2 1 2 2 1 2 2 2 1 1 1 1 1 2 1 2 2 1 1 0 1 2 2 2 1 1 3 4 4 3 3 4 4 4 3 3 2 2 2 2 2 3 5 5 6 4 4 4 4 4 5 5 5 5 5 4 4 4 4 4 4 4 5 6 5 5 4 3 4 4 4 5 6 4 4 2 3 2 2 1 1 1 1 2 1 1 1 2 3 4 4 4 4 4 3 3 2 2 2 2 3 3 2 2 2 3 3 2 2 1 1 2 2 1 1 1 1 1 0 1 2 2 2 2 2 2 2 2 3 2 1 1 2 2 2 2 3 3 3 3 2 1 1 2 3 3 2 1 1 2 3 3 2 2 2 2 2 2 2 2 1 1 2 3 3 4 3 4 3 4 4 4 3 3 2 2 1 2 2 3 3 3 3 3 2 2 2 2 2 2 2 2 1 1 0 0 0 0 0 0 1 1 1 1 1 1 1 1 1 1 1 2 2 3 3 2 1 1 1 2 2 3 3 3 3 2 2 1 2 2 1 2 2 2 3 2 3 3 3 2 2 1 2 2 3 3 2 2 2 1 1 1 1 2 2 2 2 2 3 3 3 2 3 4 3 3 1 1 2 2 2 2 2 2 2 3 3 3 3 2 2 1 1 1 1 1 1 1 1 1 2 3 4 5 4 4 4 5 5 5 4 4 4 4 4 3 3 3 2 2 1 2 3 4 5 6 5 4 2 0 
0 1 1 2 2 3 3 3 2 1 1 2 2 2 2 1 2 3 3 3 3 3 2 2 1 2 2 3 4 4 3 3 3 2 2 2 2 2 2 2 2 3 3 2 2 2 2 2 3 3 4 4 4 4 3 3 2 2 2 2 2 1 1 1 1 2 3 5 5 5 3 4 5 5 5 3 2 2 2 3 4 4 5 4 4 3 3 2 2 3 2 2 2 2 2 2 2 2 2 3 2 2 2 2 2 3 4 3 3 3 4 4 4 4 3 3 3 4 5 5 5 5 5 5 4 4 3 3 4 5 5 5 4 5 5 5 5 3 3 2 3 4 4 5 6 5 7 5 4 2 1 1 2 2 3 3 3 3 3 3 2 1 0 0 1 2 2 2 1 1 1 2 2 2 3 2 2 2 3 2 3 3 3 2 2 1 3 5 6 6 5 4 3 1 2 2 2 2 2 2 2 2 2 2 2 2 1 3 2 2 2 2 2 2 2 2 2 2 3 4 4 3 2 4 4 5 4 4 4 3 3 3 2 4 6 5 5 3 4 5 8 10 10 9 7 7 6 5 4 4 4 5 7 7 7 6 6 6 6 4 4 5 7 9 9 6 5 2 2 1 2 1 1 1 1 2 1 2 2 3 4 5 5 6 5 5 4 4 2 1 1 2 2 2 2 2 2 3 3 2 1 1 1 2 3 2 2 2 1 1 1 1 1 1 0 0 0 0 1 1 1 1 1 2 2 2 2 2 3 3 3 3 2 1 1 1 2 2 1 1 1 1 2 2 2 2 2 2 2 2 2 2 1 1 2 3 2 3 2 4 4 4 4 4 4 3 2 2 2 2 2 2 3 3 3 2 2 2 2 2 2 2 2 2 1 0 0 0 0 0 0 0 1 1 1 1 1 1 1 1 1 1 1 1 2 3 2 2 1 1 2 2 2 3 3 3 3 2 2 1 2 2 2 2 2 2 2 2 3 3 2 2 2 1 2 2 2 2 2 3 2 2 1 1 1 1 1 1 2 2 3 3 4 3 4 4 4 3 1 1 2 2 2 2 2 2 2 3 3 3 2 1 1 1 1 1 1 1 1 1 1 2 2 4 4 5 5 5 3 4 4 5 4 4 3 3 3 3 3 3 3 2 2 2 3 4 5 5 6 5 2 0 
0 0 0 1 1 2 2 2 2 2 2 3 3 2 2 2 2 3 3 3 3 3 3 2 2 2 3 4 5 5 5 5 4 3 3 3 3 2 2 3 3 3 4 3 3 3 2 1 2 2 2 2 2 2 2 2 2 2 3 2 2 2 2 2 2 3 4 5 5 5 4 4 5 5 4 3 2 2 2 2 3 3 2 2 3 3 3 2 2 2 2 2 2 2 2 2 1 1 1 2 2 2 2 2 3 3 3 2 3 3 3 5 4 5 3 3 3 5 6 6 6 5 5 4 4 4 3 3 4 5 5 4 4 4 5 5 5 4 4 2 3 3 3 3 4 5 6 5 3 1 1 1 2 2 2 2 3 4 5 4 2 1 0 0 2 2 2 1 1 1 2 2 3 3 3 2 2 2 2 2 2 2 3 3 3 1 4 6 8 8 5 3 2 1 2 2 2 2 2 2 2 2 2 2 2 2 1 2 2 3 3 4 4 5 5 5 4 4 4 5 4 3 2 3 3 5 5 5 5 4 5 4 3 4 5 5 5 5 6 7 7 8 9 10 8 7 7 8 7 6 6 6 8 9 9 7 6 6 5 6 7 9 8 7 7 6 5 3 3 1 2 1 1 1 2 2 2 2 2 3 2 3 3 3 2 2 2 2 2 2 2 2 2 2 1 2 2 3 3 2 1 1 1 2 2 3 2 2 2 1 1 1 0 0 0 0 0 0 0 0 0 0 1 1 1 1 2 2 3 3 3 3 3 2 2 2 2 2 1 1 1 1 2 2 1 1 1 1 1 1 1 1 1 1 2 3 2 3 2 4 4 5 6 5 4 3 2 2 1 1 1 1 2 2 2 3 2 2 2 2 2 2 2 2 1 0 0 0 0 0 0 0 1 1 1 2 2 2 2 1 1 2 2 2 3 3 3 2 2 2 2 2 2 2 2 2 2 2 2 2 2 3 3 3 3 2 2 2 2 3 2 2 1 2 2 2 2 2 2 2 2 2 1 1 1 1 1 1 1 2 3 3 3 3 4 4 4 3 2 2 2 3 2 2 2 2 2 2 2 2 1 0 1 1 1 1 1 1 1 1 2 2 2 3 4 5 4 4 3 2 3 4 4 4 3 3 3 2 3 3 3 2 2 2 4 4 5 5 5 4 2 0 
0 0 1 1 2 2 3 2 2 2 2 2 2 1 1 1 2 3 4 4 3 2 3 2 2 3 3 5 5 5 5 5 4 3 3 3 3 3 3 3 3 3 3 3 2 2 1 1 1 2 3 3 3 3 3 3 3 2 3 2 2 2 2 2 2 4 6 8 8 7 5 4 4 4 4 4 3 3 3 2 2 2 1 1 2 3 3 3 2 2 2 2 2 2 2 2 2 1 2 2 2 2 2 2 2 2 3 3 4 5 6 6 5 5 3 3 4 5 5 5 4 4 4 4 4 4 4 4 5 5 5 4 4 5 5 5 6 5 5 3 2 2 2 2 3 4 4 3 2 1 2 2 4 5 6 6 5 5 3 2 1 1 0 1 2 2 2 1 1 2 2 3 3 4 3 3 3 2 2 2 2 2 3 3 3 3 4 5 6 6 5 4 2 2 1 2 2 2 2 2 2 2 2 2 2 1 1 2 3 4 4 5 5 6 5 5 4 4 5 5 4 4 3 3 3 4 5 5 5 5 5 4 4 3 4 5 5 5 6 9 12 14 13 13 13 13 10 9 10 12 15 19 23 23 19 15 11 8 7 6 6 8 10 11 9 7 6 3 3 1 1 1 1 1 2 2 3 3 3 3 4 4 5 4 4 4 4 4 3 2 2 2 2 2 2 2 2 3 2 2 1 2 1 2 1 2 2 2 2 2 1 1 0 0 0 0 0 0 0 0 0 1 1 1 1 1 2 3 3 4 4 4 3 3 3 2 1 1 1 2 1 1 2 2 2 1 1 1 1 1 1 1 1 1 2 3 2 3 2 3 4 4 5 4 3 3 2 2 1 1 0 0 0 1 1 2 2 2 2 2 2 2 1 2 1 0 0 0 0 1 1 1 1 2 2 3 3 3 2 2 2 2 2 2 3 3 3 3 2 2 2 2 2 2 2 1 1 1 1 1 2 2 3 2 3 2 3 2 2 2 2 1 1 1 2 2 2 2 2 2 2 2 2 1 1 1 1 2 2 3 3 3 4 3 4 4 4 3 2 2 3 3 3 3 2 2 1 1 1 1 1 0 1 1 1 1 0 0 1 2 3 3 3 4 5 5 5 4 2 2 3 3 3 3 2 2 2 2 2 2 3 3 3 3 4 4 4 4 4 4 2 0 
0 0 1 1 2 2 3 2 2 2 2 2 2 2 1 1 1 2 3 3 3 2 3 3 3 3 4 5 6 6 6 6 5 4 4 4 4 3 2 2 2 3 3 3 3 2 2 1 1 2 2 2 2 2 2 2 3 2 2 2 2 2 3 4 5 6 9 10 10 9 8 6 5 5 5 6 5 5 5 4 3 2 2 2 2 3 3 3 1 2 1 2 2 2 2 2 1 1 1 2 2 2 2 2 2 3 4 5 6 7 7 7 6 5 3 3 3 4 4 3 2 2 2 2 3 4 5 5 5 5 4 3 3 4 5 5 6 6 5 4 2 2 2 2 3 3 4 2 2 2 2 3 4 4 5 5 5 6 5 4 2 1 1 1 2 2 2 2 2 3 3 4 4 4 4 3 2 2 2 2 2 2 3 3 3 3 4 6 7 7 5 4 2 2 1 1 1 1 1 1 1 2 2 2 2 1 2 3 4 4 4 4 5 5 5 5 4 4 4 4 4 3 3 3 2 3 4 5 4 4 5 4 4 2 4 4 5 5 7 8 9 9 9 13 18 27 34 40 40 39 38 38 40 40 37 34 30 25 18 12 11 12 10 9 7 7 6 4 3 1 1 1 2 2 3 3 3 3 3 2 2 2 3 3 3 3 3 2 1 1 1 2 3 3 2 2 2 2 2 2 1 2 1 1 1 1 2 2 2 2 1 1 0 0 0 0 0 0 0 1 1 1 1 1 0 1 1 2 2 3 3 3 4 4 4 3 2 2 1 2 2 2 2 2 1 0 0 0 0 1 1 1 1 2 3 3 3 3 2 3 4 4 4 3 2 2 2 2 1 0 0 0 0 0 0 0 1 1 1 2 3 3 2 2 1 0 0 0 1 1 1 1 1 2 2 2 2 2 2 3 3 2 2 2 3 3 4 3 3 2 1 2 2 2 1 1 1 2 1 2 2 3 3 3 3 3 3 2 2 2 2 1 1 1 2 2 2 2 2 3 2 2 1 0 1 1 1 2 2 3 3 3 3 3 4 4 4 4 4 4 4 4 4 4 3 2 2 2 1 1 1 1 1 1 1 0 0 0 1 2 4 4 5 5 6 6 5 4 3 2 3 4 3 2 2 2 3 2 2 2 3 3 3 3 4 4 4 3 3 3 2 0 
0 1 2 2 2 3 3 2 2 2 2 2 2 2 2 1 1 2 3 3 3 3 3 3 2 3 3 5 6 6 6 6 5 4 4 5 5 4 2 2 1 1 2 2 2 2 2 2 2 2 2 2 2 2 2 3 3 2 2 2 2 2 3 4 5 7 10 11 11 10 9 6 5 5 7 7 7 6 6 6 6 5 5 4 4 4 3 3 1 1 1 1 2 2 2 2 2 1 1 2 2 2 2 2 3 5 6 7 8 8 8 7 6 4 3 3 3 4 3 2 1 0 1 1 2 4 5 6 6 5 4 3 3 4 4 5 5 6 6 5 3 3 2 2 3 3 3 2 2 2 3 4 6 7 8 9 8 7 4 2 1 1 1 1 2 2 2 2 2 3 4 4 4 4 4 3 3 2 3 2 2 2 3 4 4 4 4 4 5 6 4 4 2 3 1 1 1 1 1 1 1 1 2 2 2 1 2 3 4 3 2 3 4 5 5 4 4 3 4 4 4 3 3 2 2 3 3 4 4 4 4 3 4 3 4 4 7 8 10 11 12 13 17 28 38 40 37 38 46 55 61 65 65 57 44 35 32 33 31 26 17 11 9 9 7 6 5 4 3 1 2 1 2 2 2 3 3 3 3 2 2 2 3 3 3 3 3 2 1 1 1 2 3 3 3 3 3 2 2 2 1 2 1 1 1 1 1 2 2 2 1 1 0 0 0 0 1 1 1 1 1 2 1 1 1 1 1 1 3 3 4 4 4 4 4 3 2 2 1 2 2 2 3 2 2 1 0 1 1 1 1 1 1 2 3 3 3 3 2 3 3 4 5 4 3 3 2 2 1 0 0 0 0 0 0 0 0 0 1 2 3 3 2 2 1 0 0 1 1 1 1 1 1 2 2 3 3 3 3 4 4 3 2 2 2 2 3 3 3 2 1 1 2 2 2 2 1 2 2 3 3 4 4 3 3 3 3 2 2 2 2 1 1 1 2 2 2 2 3 3 2 1 0 0 0 1 1 1 1 2 3 3 3 3 4 4 5 5 4 4 4 4 4 4 3 3 2 2 2 2 2 1 1 1 1 0 0 0 0 2 4 4 6 6 7 7 5 4 3 3 4 4 3 2 2 3 4 3 3 3 3 2 3 3 4 4 3 3 3 3 2 0 
0 1 2 2 2 2 3 3 3 2 2 2 2 2 2 2 2 2 3 3 3 3 3 3 2 2 3 4 4 5 5 4 4 4 6 6 5 4 2 1 1 2 2 3 3 3 3 2 2 2 2 2 2 2 2 3 3 3 3 2 3 3 4 5 6 8 10 11 11 10 9 8 7 6 8 8 9 8 8 8 8 7 6 6 5 5 4 3 2 2 1 1 1 1 2 2 2 2 1 2 2 2 2 3 5 7 8 8 8 8 8 6 5 3 3 3 3 4 3 2 1 0 1 1 3 4 5 6 6 5 4 3 3 3 4 4 5 5 6 6 5 3 3 2 3 3 3 2 2 3 3 4 5 4 5 6 8 8 8 6 4 3 2 2 2 2 1 2 2 3 4 4 4 4 4 3 3 2 3 3 2 2 3 3 3 3 3 4 4 4 3 4 3 3 2 1 1 1 1 1 1 1 2 2 2 2 3 3 3 2 2 2 2 2 2 2 2 3 4 5 4 3 2 3 3 3 3 3 3 3 3 3 3 3 4 5 7 7 8 12 19 27 31 31 41 60 88 110 122 129 130 128 122 111 96 84 69 53 39 31 30 26 17 9 6 4 4 3 4 2 2 2 2 2 2 2 2 2 2 2 2 3 3 2 2 2 2 2 1 1 1 1 2 3 3 3 3 3 3 3 2 2 1 2 1 1 2 2 2 2 2 1 1 1 1 1 1 1 1 2 2 1 1 1 1 1 1 1 2 2 3 3 3 3 3 3 3 3 3 3 3 3 2 2 1 1 0 0 0 1 1 1 1 2 3 3 3 3 2 3 3 4 4 3 3 3 2 2 1 1 0 0 0 0 0 0 0 0 1 1 2 3 2 1 1 0 0 1 1 1 1 1 1 1 1 1 2 2 3 4 4 3 2 2 2 2 3 3 3 1 1 1 2 2 1 2 1 2 3 3 3 4 4 3 4 3 4 3 3 2 2 2 2 1 2 1 2 2 3 3 2 1 0 0 1 1 1 1 1 2 2 2 2 2 3 3 4 5 6 6 5 5 5 4 3 2 2 2 2 2 2 1 1 1 1 0 0 0 0 2 3 4 6 6 6 6 5 4 4 4 4 3 3 1 3 3 4 3 3 2 2 2 2 3 3 3 3 3 3 3 1 0 
0 1 1 1 2 1 2 3 3 2 2 2 2 2 2 3 3 3 3 3 3 3 2 2 1 2 3 4 5 5 5 4 5 5 5 5 5 4 2 2 1 1 1 2 2 2 2 2 3 3 3 2 2 2 2 2 2 2 2 2 3 3 4 4 5 6 8 9 8 8 8 9 8 7 8 8 9 9 8 9 9 9 8 7 6 5 4 4 3 3 2 1 1 2 2 2 2 2 1 2 2 3 3 3 4 5 6 7 6 6 5 3 4 3 4 3 3 3 3 2 1 1 2 2 3 4 5 5 5 4 3 3 3 3 4 4 4 5 5 6 5 3 3 2 3 3 3 2 2 3 3 5 5 5 5 6 6 6 5 4 3 3 2 2 2 2 2 2 3 3 4 4 4 4 3 3 3 3 3 3 2 2 3 3 3 2 3 4 4 4 4 4 3 3 2 2 1 2 1 1 1 1 2 2 2 2 3 3 2 1 1 2 2 3 3 3 4 5 5 5 5 6 6 6 4 3 2 2 2 2 2 2 3 4 5 7 8 11 15 23 29 32 41 57 87 99 106 109 113 118 120 121 122 119 113 109 106 97 80 53 38 30 23 14 6 3 4 4 6 4 4 3 2 2 1 1 2 2 2 2 2 2 2 2 1 1 2 1 1 1 1 1 1 2 2 2 2 2 2 2 2 2 2 2 1 1 1 1 2 2 1 1 0 1 1 1 2 2 2 2 2 2 2 2 1 2 1 2 2 3 3 3 3 2 2 3 3 3 3 3 3 3 3 3 1 1 0 0 1 1 1 1 1 1 2 3 3 3 2 2 2 4 5 5 3 3 2 2 1 1 0 0 0 0 0 0 0 0 1 1 2 2 2 1 0 0 0 0 1 1 1 2 2 2 2 2 2 2 3 4 4 4 3 3 3 3 3 3 2 1 1 1 2 2 1 1 1 3 3 4 5 4 5 3 4 3 4 3 3 3 2 2 2 2 1 1 2 2 3 2 2 1 1 1 1 1 1 2 1 2 2 2 2 2 2 3 5 5 5 5 5 5 5 4 3 2 2 2 2 2 2 1 1 1 1 1 0 0 0 1 2 3 4 4 5 5 5 4 4 4 4 3 2 1 3 3 4 4 4 3 3 3 3 3 3 3 4 4 3 3 1 0 
0 2 3 2 2 3 3 3 3 3 2 2 1 2 2 3 4 4 4 3 3 2 2 2 1 1 2 2 3 4 5 4 4 4 4 5 4 3 3 3 3 4 4 4 4 3 2 2 3 3 4 4 3 2 2 1 1 1 1 2 3 3 4 4 5 7 9 10 10 9 7 7 7 7 8 8 9 9 8 8 8 8 8 7 6 5 4 4 4 4 3 2 2 2 2 3 2 2 2 2 3 3 3 3 4 5 6 6 6 5 4 3 3 4 4 4 3 3 3 3 2 2 2 2 4 5 5 5 4 3 3 3 4 4 5 4 4 5 5 6 6 4 4 3 4 3 3 2 2 3 3 5 5 5 5 5 6 7 7 7 6 4 3 3 3 3 2 2 2 3 3 3 3 3 2 2 2 2 3 3 2 2 2 2 2 2 2 3 3 4 4 4 3 2 2 2 2 2 1 1 1 1 2 2 2 2 3 2 2 2 2 2 2 1 2 3 4 4 4 5 5 6 5 5 4 3 2 1 2 3 3 4 4 5 6 9 9 18 21 30 39 56 82 95 102 106 113 114 114 114 113 111 109 109 113 118 121 117 109 94 74 48 34 24 14 6 5 6 9 6 7 3 2 2 1 1 1 1 2 2 2 3 2 2 2 2 2 2 1 1 1 1 1 1 2 2 2 2 2 3 3 3 2 2 1 1 1 1 2 2 2 2 1 1 2 2 1 1 1 2 2 2 1 1 1 2 2 2 3 3 3 2 2 2 1 2 4 5 5 4 3 3 2 2 1 1 1 1 1 1 1 1 1 1 2 2 2 2 1 1 1 3 3 3 3 3 2 2 1 1 0 0 0 1 1 1 1 1 1 2 2 2 2 1 0 0 0 0 1 1 2 2 2 2 3 3 3 3 3 3 3 3 3 3 3 4 4 3 2 1 1 2 2 2 1 1 1 2 2 2 2 2 3 3 4 4 4 3 3 2 2 2 2 2 2 1 2 2 3 3 2 2 2 2 2 2 2 2 2 2 1 1 2 2 2 3 3 4 4 4 4 4 4 3 2 2 1 2 2 2 2 1 1 1 1 1 0 0 0 0 1 2 3 3 4 5 4 4 3 3 3 3 2 1 2 2 4 3 3 3 2 3 2 2 4 4 4 4 4 4 2 0 
0 1 2 2 3 3 3 3 3 2 2 2 2 2 2 3 4 4 4 3 3 2 2 2 1 2 2 3 3 4 4 4 4 4 3 2 2 2 3 3 4 4 4 4 4 3 2 3 4 4 5 4 4 3 2 1 1 0 1 1 3 3 4 5 5 7 8 9 8 8 8 8 8 8 8 9 10 10 10 9 8 8 7 7 6 5 4 4 4 4 4 3 2 3 3 3 3 3 2 3 3 4 4 3 3 3 3 4 4 4 2 2 3 4 4 3 2 2 2 3 2 2 2 2 4 4 5 4 3 3 3 3 4 5 5 4 3 4 5 6 6 5 4 4 5 3 4 2 2 2 3 4 4 3 2 3 3 3 3 4 4 4 3 3 3 3 3 3 4 4 3 3 3 3 3 2 2 2 2 2 2 3 2 2 1 1 3 3 4 5 4 4 3 2 1 1 2 2 1 1 1 2 2 2 2 2 2 2 2 2 2 3 2 2 2 3 4 5 4 4 5 7 9 8 5 3 1 2 2 3 3 3 4 6 5 9 12 28 30 41 60 88 105 113 109 95 80 63 53 46 43 42 46 57 71 87 101 114 122 120 104 77 49 31 25 17 10 8 10 10 9 6 3 2 1 1 2 2 2 2 2 2 1 1 1 1 1 1 1 2 1 2 1 1 1 1 2 2 2 2 2 3 3 2 1 1 1 1 2 2 2 2 2 2 2 2 2 2 2 2 2 2 1 1 1 2 2 2 2 2 2 3 2 2 2 2 4 4 5 4 3 2 2 2 1 1 0 1 1 1 1 1 2 1 1 1 2 2 1 0 1 2 3 3 2 2 2 2 1 0 0 0 1 1 2 2 1 2 2 3 3 2 2 1 1 1 1 1 2 2 3 3 3 3 3 3 3 3 3 2 3 3 4 3 4 4 3 2 2 2 2 2 2 2 2 1 1 1 1 2 2 2 3 3 4 4 3 3 3 2 2 2 1 2 1 1 2 2 2 2 2 2 2 2 2 1 1 2 2 3 3 3 4 4 4 3 3 4 4 3 3 3 3 2 2 1 1 1 1 1 1 1 1 1 1 0 0 0 0 0 1 2 3 3 4 4 3 3 2 2 2 2 1 1 1 2 3 3 2 3 3 3 3 3 4 5 5 4 4 5 3 0 
0 2 3 3 5 5 4 3 2 2 2 2 2 2 2 3 4 4 4 3 3 3 3 2 2 2 1 2 2 4 4 4 4 4 3 2 2 2 3 4 5 6 5 5 3 3 2 3 4 5 5 4 4 4 3 2 1 1 1 2 3 4 5 5 6 7 9 10 9 9 8 8 9 9 9 10 11 11 12 11 10 10 9 9 8 8 7 6 5 6 5 4 4 3 4 4 3 3 2 3 3 3 4 3 3 3 4 5 5 4 3 2 3 4 4 3 2 2 2 3 2 2 1 2 3 4 3 3 3 3 4 5 5 5 4 4 4 5 6 6 6 5 5 5 5 4 3 1 2 2 3 3 3 3 3 3 3 4 3 4 5 5 4 3 3 2 3 4 4 4 4 3 4 4 3 3 2 1 1 1 2 2 2 2 1 2 3 5 6 6 5 4 2 1 1 1 1 1 1 2 2 2 3 2 2 2 2 3 3 3 4 4 3 2 2 4 4 4 4 4 5 6 7 7 5 3 2 2 2 3 3 4 5 6 6 13 25 36 44 67 86 110 116 107 81 56 38 26 21 19 19 18 17 19 25 32 44 67 94 119 124 107 80 50 34 25 16 13 10 14 9 8 3 2 1 2 2 2 2 2 2 2 1 1 1 1 1 1 1 2 2 2 2 2 2 2 2 2 2 2 2 2 3 2 1 1 1 2 2 2 2 2 2 2 2 2 2 2 2 2 2 2 1 1 1 2 2 3 3 3 3 2 2 1 2 2 4 4 4 3 2 2 2 2 1 1 0 0 0 0 1 1 1 1 1 0 1 1 1 0 0 1 1 1 1 2 2 2 1 1 1 1 2 2 3 2 2 2 2 3 3 2 2 2 2 1 2 3 3 3 3 4 4 4 4 5 5 5 4 4 3 3 3 3 3 3 2 2 2 2 2 2 2 2 2 1 2 1 1 1 1 1 1 2 3 3 2 2 2 2 1 2 1 2 2 1 1 2 2 2 1 1 1 1 1 1 1 2 2 3 3 3 4 4 4 3 3 2 2 2 2 2 2 1 1 0 1 0 0 0 0 1 1 2 1 1 0 0 0 1 1 2 3 3 3 4 3 2 1 1 1 1 1 1 1 2 3 3 3 3 3 2 2 3 4 5 5 4 4 4 3 0 
0 2 4 5 6 6 5 3 2 1 2 2 3 2 2 2 3 3 3 3 3 4 3 3 2 2 1 2 2 3 3 3 2 3 3 2 2 2 3 5 5 5 4 4 3 2 2 4 5 5 5 4 5 4 4 3 2 1 1 3 5 6 6 6 6 7 9 9 9 8 9 10 11 11 11 11 12 12 12 12 11 11 10 10 10 10 9 9 8 7 7 6 5 5 4 4 3 3 2 2 3 3 3 4 3 3 3 4 5 4 4 3 3 4 4 2 2 2 2 2 1 1 2 3 3 4 3 3 3 4 4 5 5 5 4 3 4 5 5 6 5 5 4 5 5 5 3 1 2 2 2 2 1 1 1 2 2 3 2 3 3 3 2 2 2 3 4 5 5 4 4 4 5 5 5 4 2 1 1 1 2 2 1 2 2 3 4 5 7 7 5 4 2 2 1 1 0 0 1 2 2 3 2 3 2 3 2 3 3 3 4 4 4 3 2 3 3 4 4 5 5 7 10 9 7 3 2 2 2 2 3 4 5 7 11 24 38 49 73 92 109 114 94 67 38 28 23 23 21 19 17 17 17 19 22 23 23 27 47 81 113 123 110 77 50 32 26 19 11 15 9 10 4 2 1 1 2 2 2 2 2 1 1 0 0 0 1 1 1 2 2 3 3 2 2 2 2 2 2 2 2 2 3 2 1 1 1 2 2 2 2 2 2 3 3 3 3 3 2 2 2 2 2 2 2 3 3 4 3 3 3 2 2 1 2 3 3 4 4 3 2 2 1 1 1 1 1 1 1 0 0 0 1 0 0 0 1 1 1 0 1 1 2 1 1 1 1 2 1 1 1 2 3 4 3 3 2 2 2 2 2 2 2 2 2 2 3 3 3 3 4 5 4 3 3 3 3 3 4 4 5 5 6 6 6 5 4 3 2 2 2 2 2 2 1 1 1 1 1 1 1 1 1 2 2 2 1 1 1 1 1 1 1 2 2 2 2 2 2 2 2 2 2 1 1 0 0 1 2 3 4 5 5 5 5 3 2 2 2 2 2 2 1 1 1 0 1 0 0 0 0 1 1 2 2 2 2 2 2 2 2 2 3 3 3 2 2 2 1 1 1 1 1 1 1 2 2 2 2 2 3 3 3 3 4 4 4 3 4 4 2 0 
0 2 5 6 7 7 5 4 2 1 2 2 3 2 2 2 3 3 4 5 5 5 4 3 2 1 1 1 2 2 2 2 1 2 2 3 3 2 2 3 4 4 4 3 2 2 2 3 5 5 5 4 4 4 3 3 2 2 3 5 7 7 7 7 7 8 9 9 9 9 11 12 12 12 12 12 13 13 13 13 12 12 12 11 11 11 10 9 9 8 8 8 7 6 4 3 2 2 2 2 2 2 3 4 3 3 3 4 5 5 5 4 4 4 4 3 2 2 2 2 2 1 2 3 4 4 3 3 3 3 4 5 5 4 3 3 5 5 5 5 5 4 3 4 5 5 4 2 2 2 2 2 2 2 2 2 3 2 2 2 3 3 3 3 2 3 4 5 5 4 5 5 5 5 4 4 2 1 0 1 1 1 1 1 2 4 5 7 7 7 6 4 3 2 1 1 0 0 0 2 3 3 3 3 3 3 2 2 3 3 4 4 4 4 3 3 3 4 5 7 7 7 9 9 6 3 2 2 2 2 2 3 5 8 17 37 47 78 103 119 113 84 49 29 20 25 27 27 23 21 22 23 23 23 23 24 25 22 25 42 77 113 128 109 76 41 30 27 17 13 10 8 5 2 1 1 2 2 2 2 1 1 1 1 1 0 0 0 1 1 2 2 3 2 2 2 2 1 1 1 2 2 2 2 1 1 1 2 2 2 2 3 3 3 3 3 3 2 2 2 2 3 2 2 2 3 4 5 5 5 4 3 2 1 2 2 3 3 3 2 2 2 2 1 1 1 1 1 1 0 0 0 0 0 0 0 1 1 1 0 1 2 2 1 1 1 1 2 2 2 2 2 3 4 4 3 2 2 2 2 1 1 2 2 2 2 3 4 3 3 4 5 6 6 6 6 6 7 7 5 4 4 5 5 5 5 4 4 3 2 2 2 2 1 1 0 1 1 2 2 1 1 1 1 1 1 0 0 0 0 0 1 2 2 2 1 2 2 2 2 2 2 2 1 1 1 1 1 2 3 3 4 4 5 4 3 2 1 1 2 2 2 2 1 1 0 1 0 0 0 0 1 1 2 2 2 2 2 2 2 3 4 3 3 3 3 3 2 1 1 1 1 2 2 3 3 3 2 2 2 3 3 4 4 4 3 3 3 3 3 1 0 
0 3 6 6 7 7 5 4 2 2 2 2 2 2 2 2 2 3 3 4 4 4 3 2 1 1 1 2 3 3 3 2 1 1 2 2 3 2 3 4 5 5 4 3 3 2 2 3 4 5 5 4 4 3 2 3 2 2 4 6 8 8 8 8 9 10 10 9 10 11 12 13 13 14 14 14 14 14 14 14 14 14 14 13 12 12 10 9 7 7 8 9 9 7 5 3 3 2 2 2 2 3 3 4 3 3 3 4 5 5 6 6 7 7 6 4 3 3 3 3 2 2 3 4 4 4 2 2 3 3 4 5 4 3 3 3 4 5 5 5 5 4 3 4 5 4 4 2 2 2 2 2 2 2 2 2 2 2 2 1 2 2 2 2 3 3 3 4 4 3 3 4 4 5 4 4 3 1 1 1 2 1 1 1 2 4 6 8 8 8 7 5 3 2 1 0 0 0 0 1 3 4 3 3 4 3 2 2 3 3 3 4 4 4 3 2 2 4 6 8 9 9 8 7 5 2 1 2 2 3 2 4 6 10 26 42 64 114 128 132 92 52 24 20 20 23 23 22 20 20 19 19 20 20 22 22 24 26 27 30 45 85 119 126 101 67 38 30 23 12 12 9 7 2 1 1 2 3 2 2 1 1 1 1 1 1 1 0 1 1 2 2 2 2 2 2 2 1 1 1 2 2 2 2 1 2 2 2 2 3 3 4 4 4 4 3 3 2 1 2 2 2 2 2 2 3 3 4 4 4 4 3 1 1 2 2 4 4 5 4 4 2 2 1 1 2 1 1 1 1 1 0 0 0 0 1 1 1 1 1 2 2 2 2 2 2 2 2 3 3 3 3 4 5 4 4 2 3 2 2 1 1 2 2 2 2 3 4 4 4 4 5 4 3 3 3 3 4 4 4 5 5 5 6 6 6 6 4 3 2 2 2 2 1 1 0 0 1 2 2 1 0 1 1 1 0 0 0 0 0 0 0 2 1 2 2 2 3 3 3 2 2 2 2 2 2 2 2 3 4 4 4 4 4 4 3 2 2 2 2 2 2 2 1 1 0 1 0 0 0 0 1 2 2 2 2 2 2 2 3 3 4 4 3 3 3 3 2 1 1 1 1 2 2 3 2 2 1 2 2 3 3 3 3 3 2 2 3 3 2 1 0 
0 2 5 5 6 6 5 4 2 2 2 2 2 2 2 2 3 4 5 5 5 4 3 1 1 1 1 2 3 3 2 2 1 1 2 2 2 2 3 4 4 4 4 3 3 3 2 2 3 4 5 4 3 2 1 2 1 3 5 8 9 9 9 9 10 11 11 11 12 13 14 15 16 17 17 17 17 18 18 18 17 17 16 16 15 14 12 10 8 7 8 10 10 7 4 3 3 3 3 2 3 3 4 4 4 4 3 4 5 5 5 6 7 8 7 6 5 4 3 3 2 2 3 5 5 4 3 3 3 3 3 4 4 4 3 3 4 4 4 4 4 4 4 4 5 4 3 2 2 2 2 2 3 3 2 2 2 2 1 1 2 2 3 3 3 3 3 3 3 2 2 2 3 3 3 3 2 1 1 1 2 2 1 2 2 4 6 6 6 6 5 5 3 2 2 1 0 0 0 1 3 4 4 3 4 4 2 1 2 2 3 3 3 3 2 2 2 4 7 10 10 10 9 8 5 2 1 2 2 2 2 4 6 15 30 45 88 131 137 121 58 33 19 21 19 18 18 17 16 17 16 16 16 15 15 15 18 23 28 32 33 50 87 123 119 89 54 33 25 16 10 9 8 3 1 1 2 3 3 3 1 1 1 1 1 1 1 1 1 1 2 2 2 2 3 2 1 0 0 1 2 2 1 1 1 1 1 2 3 3 3 4 4 4 3 3 2 2 2 2 2 2 2 2 2 3 3 3 3 4 3 2 2 2 2 3 4 4 5 3 4 2 2 2 1 2 1 1 2 2 1 1 1 0 0 0 1 1 1 1 2 2 2 2 2 2 2 3 3 3 4 3 4 5 4 4 2 3 2 1 1 1 1 2 1 2 3 4 4 4 3 4 4 5 5 6 6 6 6 4 3 3 4 5 5 5 5 4 3 2 2 2 2 2 1 1 1 2 2 2 1 1 1 1 1 0 0 0 0 0 0 0 1 1 2 2 3 3 3 3 2 2 2 2 2 2 2 3 3 3 4 4 4 4 4 3 2 2 2 3 3 3 2 2 1 0 1 0 0 0 1 1 2 2 1 2 1 2 2 3 4 5 5 4 3 4 3 2 1 1 1 2 3 3 3 2 2 1 2 2 3 3 3 3 2 2 2 3 3 2 1 0 
0 2 5 4 4 5 4 3 2 2 2 1 1 2 2 2 2 3 4 5 4 3 2 1 1 1 2 3 3 4 3 4 3 3 3 2 3 2 2 3 4 4 4 3 3 2 2 2 3 3 4 3 2 1 1 1 1 3 6 9 9 9 9 10 12 13 14 14 15 16 17 17 17 18 19 20 20 21 21 21 21 20 18 17 17 16 15 13 11 9 10 12 13 11 8 5 4 4 4 3 3 3 4 5 5 5 3 3 4 4 5 6 7 8 8 8 6 6 5 4 3 3 4 5 5 4 3 3 3 3 4 5 5 4 3 3 3 4 4 4 5 5 4 4 4 3 2 1 1 1 1 2 2 2 2 2 2 2 1 1 2 2 3 3 3 3 2 3 3 2 1 2 3 3 3 3 2 1 2 1 2 1 1 1 2 3 6 7 6 5 4 4 3 2 2 1 1 0 0 2 3 4 4 3 4 4 3 2 2 2 2 3 3 3 3 3 4 9 18 23 23 17 10 6 5 4 3 4 3 3 3 5 8 24 30 58 106 137 129 93 34 27 18 21 19 19 19 17 15 14 13 13 12 12 11 11 12 17 24 27 28 32 51 96 122 109 75 39 25 23 10 9 7 4 2 2 3 3 3 3 1 1 1 1 1 1 1 1 1 2 2 3 3 3 3 2 1 0 0 1 2 2 1 1 1 2 2 3 3 3 3 3 4 4 3 3 2 3 3 3 4 4 3 3 3 4 3 3 3 3 3 3 2 2 3 4 5 5 6 4 4 2 2 1 2 2 1 1 1 1 1 1 1 0 0 1 2 2 2 1 2 1 2 1 2 2 2 3 3 3 4 3 4 5 4 4 2 2 2 1 1 1 1 2 1 3 4 5 4 4 4 4 3 2 1 1 2 2 2 2 3 4 4 4 4 4 4 3 2 2 2 2 2 2 1 1 2 3 3 2 1 1 1 2 1 0 0 0 0 0 0 0 1 1 2 2 2 2 2 2 2 1 1 1 1 2 2 3 4 4 4 3 3 3 4 3 2 2 2 2 2 3 2 2 1 1 1 1 1 1 2 2 2 2 1 1 1 2 2 3 4 4 4 4 3 3 2 1 1 1 1 2 3 3 2 2 2 2 2 2 3 3 2 2 2 2 2 3 3 2 1 0 
0 2 3 3 3 3 3 2 2 2 1 1 1 1 1 2 2 3 4 4 3 3 2 2 1 1 2 3 3 3 3 3 3 4 4 3 3 2 3 3 3 4 4 4 3 2 2 2 2 3 4 3 2 1 1 1 2 4 7 10 9 9 9 11 13 14 15 15 16 17 18 18 18 19 20 21 22 23 23 23 23 21 20 18 17 16 15 13 11 10 10 12 14 12 8 5 4 4 5 4 4 3 3 5 5 5 3 3 3 4 4 5 6 7 8 8 8 8 7 7 7 6 6 6 5 4 3 3 3 3 4 5 5 4 2 2 2 3 3 3 3 4 4 4 3 2 2 1 1 1 2 2 2 2 3 3 3 2 1 1 2 3 3 3 2 2 2 2 2 2 2 2 3 3 2 2 1 1 1 1 1 1 1 1 2 3 3 3 2 2 2 3 3 4 3 2 2 2 2 3 3 3 3 3 4 4 3 2 2 2 3 3 3 3 3 3 6 13 20 24 23 18 15 7 7 6 6 5 4 3 4 5 14 33 38 88 116 129 102 49 23 23 20 24 21 19 16 14 11 10 9 8 9 9 8 9 9 12 17 23 26 24 31 68 112 118 91 55 26 27 11 9 6 5 3 2 2 3 3 3 2 1 1 1 1 1 1 1 2 2 3 3 3 3 3 2 1 1 1 1 2 2 2 2 2 3 3 4 4 3 2 2 3 3 4 2 2 3 3 4 4 5 5 5 6 5 5 5 5 5 5 4 4 5 7 8 8 5 5 3 4 3 3 3 2 2 1 2 2 2 2 1 1 1 1 1 2 3 2 2 2 1 2 1 2 1 1 2 3 4 4 4 4 5 4 4 2 2 2 2 2 2 1 2 1 3 3 4 3 2 3 3 3 3 3 3 3 3 3 3 3 4 4 4 4 4 4 3 2 2 2 3 2 2 2 2 3 3 3 2 2 2 2 2 1 1 0 0 0 0 0 0 1 1 2 2 2 1 1 1 1 0 0 0 0 1 1 2 2 3 3 3 3 3 3 2 2 2 2 2 3 3 2 2 1 1 1 1 1 2 2 3 2 2 2 2 2 2 3 4 4 4 4 3 3 2 2 2 2 2 2 3 3 2 1 1 2 3 4 3 3 3 3 4 3 3 2 3 3 2 1 0 
0 1 2 3 2 2 1 2 1 1 1 1 1 2 1 1 2 2 3 3 3 3 3 2 1 1 1 2 3 3 4 4 5 6 5 4 3 3 3 3 3 4 5 4 4 3 2 2 2 2 2 2 1 1 1 1 2 5 8 10 9 9 10 13 14 14 14 14 15 17 18 18 18 18 19 19 21 23 24 24 24 23 21 19 17 16 14 13 12 11 11 13 15 14 11 7 6 5 6 5 5 4 3 4 4 5 3 2 2 3 4 5 5 6 7 8 9 9 10 10 10 8 7 6 5 4 3 3 4 4 5 5 4 4 2 2 2 3 3 3 3 4 4 4 2 2 1 1 1 2 2 3 3 3 3 4 4 3 2 1 2 2 3 2 2 2 2 2 2 1 1 2 2 2 1 1 0 0 0 0 0 0 0 1 2 2 3 3 2 1 1 2 3 3 2 2 2 2 3 3 3 3 2 3 3 4 3 3 2 2 3 3 3 2 3 3 8 17 29 40 36 24 16 6 8 6 8 6 6 3 5 5 21 36 54 107 122 118 76 25 20 20 20 22 20 18 15 11 8 7 7 8 9 9 8 8 9 11 11 17 23 23 26 40 93 118 103 72 32 29 15 6 5 5 4 4 3 4 4 4 4 2 2 2 1 1 1 1 2 2 2 2 2 3 2 2 1 1 1 2 2 2 2 3 3 3 3 3 3 2 2 3 5 4 5 5 5 5 6 8 9 9 8 9 10 11 12 12 10 8 7 5 6 6 7 8 8 6 5 3 2 2 2 1 1 2 2 2 2 2 2 2 1 2 2 3 4 3 3 2 2 1 1 1 1 1 1 2 3 3 3 3 3 3 3 3 1 1 2 2 2 2 1 2 3 4 5 6 5 4 4 3 2 1 0 0 0 0 1 3 4 4 4 4 3 3 3 2 2 2 2 3 3 2 3 3 4 3 2 2 2 1 1 1 1 1 1 1 1 1 1 1 1 1 2 2 2 1 1 1 1 0 0 0 0 0 0 1 2 3 4 4 4 4 3 2 2 2 2 2 2 2 2 2 2 1 1 2 2 2 3 3 3 2 2 2 2 3 3 3 3 3 3 3 2 2 2 2 2 2 3 3 2 2 1 1 3 4 4 4 3 2 2 3 3 3 3 4 3 2 1 0 
0 1 2 2 2 2 2 2 2 2 1 1 1 2 2 2 2 2 2 2 2 3 2 2 1 0 1 1 2 3 3 3 4 4 5 6 6 6 5 4 3 3 3 3 2 2 2 2 3 4 4 3 2 2 2 2 3 6 8 10 10 9 12 14 15 14 12 13 15 18 19 19 17 17 16 17 19 21 23 24 25 25 24 22 20 18 16 14 13 11 10 12 13 12 11 11 10 8 7 5 5 4 2 3 3 4 3 2 2 3 4 4 4 5 6 7 7 9 10 11 11 9 7 6 4 4 3 4 3 4 3 3 2 2 1 2 3 3 2 2 2 3 3 3 2 2 2 1 1 2 2 4 3 3 4 5 5 4 2 2 2 3 3 2 2 2 2 2 2 1 2 2 1 1 0 0 0 0 0 0 0 0 0 1 1 2 2 2 1 1 1 2 3 4 4 3 3 4 4 3 3 3 2 3 2 3 3 2 2 2 2 2 2 2 3 3 7 15 20 25 23 17 15 6 9 5 9 6 7 3 5 6 28 33 74 112 124 99 43 15 16 20 22 22 18 13 8 6 7 7 6 6 7 9 10 10 9 11 11 16 22 23 24 28 74 113 110 86 39 28 18 6 6 5 4 3 2 3 4 4 4 3 2 2 2 2 1 1 1 1 1 1 1 2 2 2 2 2 2 2 2 2 3 3 4 4 3 3 2 2 2 3 4 5 6 4 5 6 10 14 19 22 22 26 30 31 29 28 27 23 16 9 8 10 14 16 13 9 5 3 4 5 5 3 2 1 2 3 4 4 3 3 2 3 3 4 4 4 2 2 2 2 1 1 1 1 1 2 2 3 3 3 3 4 3 2 1 1 2 2 2 2 1 1 2 3 4 4 4 3 3 2 2 1 0 0 0 0 2 2 3 3 3 3 3 3 3 2 2 2 3 3 3 2 3 3 4 2 2 2 1 1 1 1 1 1 1 1 1 1 1 1 1 1 2 2 2 1 1 1 0 0 0 0 0 0 0 0 1 2 2 3 3 2 2 1 1 1 1 1 1 2 2 2 2 2 1 2 2 2 3 3 3 2 1 1 1 2 2 2 2 2 2 2 1 1 1 2 2 2 2 2 2 1 1 2 3 4 5 4 3 3 3 3 3 3 4 5 5 4 2 0 
0 0 1 2 2 2 2 2 2 2 1 2 2 3 2 1 2 2 3 3 2 3 2 1 0 0 0 1 1 2 2 4 6 7 7 6 6 8 8 6 4 3 3 3 2 2 2 3 3 4 4 3 2 2 2 3 4 6 9 11 11 11 13 14 14 13 12 14 18 20 21 19 17 16 15 17 19 21 22 24 25 26 26 24 22 21 19 17 15 13 12 13 12 12 13 13 16 12 10 6 5 4 2 4 3 3 2 1 1 2 3 3 3 3 3 4 5 6 7 8 8 7 5 4 4 4 4 4 3 3 2 2 2 2 2 3 3 3 2 2 2 3 3 3 2 2 2 1 1 1 1 3 3 4 4 5 5 4 2 2 2 2 2 2 3 4 4 3 2 1 1 1 1 0 0 0 1 1 1 1 1 1 1 1 1 2 2 2 2 2 2 2 2 2 2 2 2 2 3 2 2 2 1 2 2 2 2 2 3 2 2 2 1 1 2 3 5 11 16 21 19 15 11 6 7 5 8 6 7 5 6 9 33 31 92 110 120 82 28 15 18 21 23 20 14 8 6 5 5 5 5 4 5 8 12 13 12 12 12 16 21 21 20 19 58 109 114 96 44 26 19 8 5 4 5 5 5 7 7 7 4 3 3 3 3 3 2 2 1 1 1 1 1 2 2 2 2 2 2 2 2 3 4 4 4 3 2 2 2 2 2 4 4 5 7 7 11 14 25 37 43 42 37 34 30 28 27 27 30 32 32 28 21 14 9 10 9 7 5 3 3 4 4 3 3 2 3 4 4 5 3 3 2 3 4 5 5 4 3 3 2 1 1 0 0 1 1 1 2 2 2 2 2 2 2 2 1 1 2 2 2 2 2 2 2 3 4 4 4 4 4 3 1 0 0 0 0 0 1 2 3 2 2 2 2 2 2 2 2 2 3 3 2 2 3 3 4 3 3 2 1 1 0 1 0 1 0 0 0 0 0 0 1 1 1 1 1 0 0 0 0 0 0 0 0 0 1 1 2 3 3 4 4 3 2 1 1 1 1 1 0 1 1 2 1 1 1 2 1 2 2 2 2 2 1 1 2 2 2 2 1 1 1 1 0 0 0 1 2 2 2 2 1 1 1 2 3 4 4 3 3 3 2 3 2 2 4 5 5 5 2 0 
0 0 1 2 2 2 2 2 2 3 2 3 3 4 3 2 2 2 3 3 2 2 1 0 0 0 0 0 0 0 1 3 5 6 7 7 7 7 7 5 3 2 1 2 2 2 2 3 4 4 4 3 3 3 3 4 5 8 11 12 11 11 13 14 13 12 13 17 20 22 21 20 18 17 17 19 21 22 22 22 23 25 25 24 23 22 20 19 18 17 16 15 13 14 14 16 20 15 13 6 4 5 3 5 3 3 1 1 1 1 1 2 2 2 3 3 4 4 5 5 5 5 4 3 3 4 4 4 3 2 1 1 2 2 2 3 3 3 2 2 2 3 3 2 2 2 2 1 1 1 1 2 3 4 5 5 5 4 3 2 3 3 3 2 2 3 3 3 2 1 1 1 0 0 0 1 1 1 1 1 1 1 1 1 1 1 1 1 2 2 2 3 3 4 4 4 4 5 4 3 2 2 1 2 1 1 2 2 3 2 1 1 1 1 2 3 5 7 8 9 8 9 8 7 6 5 5 7 7 7 8 13 38 35 105 109 117 69 22 16 21 20 21 16 10 5 4 4 4 4 3 2 3 6 9 12 13 13 13 15 19 19 19 16 50 109 118 103 47 27 23 14 6 5 5 4 4 5 5 5 4 3 3 3 4 4 3 3 1 1 1 2 2 2 3 3 3 2 2 2 2 3 4 4 4 2 1 1 1 2 2 3 3 4 8 8 12 19 27 38 51 66 82 97 108 111 103 93 82 64 45 33 29 29 22 16 11 8 5 4 5 8 7 5 3 2 3 4 5 5 4 3 2 2 4 5 6 5 3 2 1 1 0 0 0 0 0 1 1 2 2 2 2 2 2 2 2 2 2 2 2 2 2 2 2 2 2 2 3 4 4 3 2 1 0 0 0 0 0 1 2 2 1 1 1 1 2 2 2 3 3 3 2 2 3 3 4 3 4 2 1 1 0 1 0 0 0 0 0 0 0 0 0 1 1 1 0 0 0 0 1 1 1 1 1 1 1 1 1 1 1 2 2 2 1 1 1 1 1 0 0 0 1 1 1 1 2 2 2 2 2 2 2 1 1 1 2 2 2 2 1 2 2 1 1 1 2 2 3 3 2 2 1 1 1 3 3 3 3 3 3 4 3 3 2 3 4 5 5 4 2 0 
0 1 1 2 3 2 2 1 3 3 3 4 3 5 4 3 2 2 3 2 2 1 1 0 0 0 0 0 0 0 1 3 5 7 8 6 6 7 6 5 2 1 1 2 2 2 2 3 3 4 4 3 3 4 4 4 6 8 11 12 12 12 13 14 13 13 15 20 23 23 21 19 19 19 21 23 25 25 23 22 22 23 24 23 21 20 18 17 17 16 15 15 14 15 13 14 20 15 14 7 5 5 3 4 3 3 1 0 0 1 1 1 2 2 3 3 4 3 4 4 5 4 4 4 3 4 3 3 2 2 2 2 2 2 3 3 4 4 3 2 2 2 2 2 2 2 2 1 1 1 1 2 3 4 4 4 4 3 3 3 3 3 3 4 5 5 5 4 2 1 1 1 1 0 1 1 1 1 1 1 1 1 2 2 1 1 0 1 2 2 3 4 4 4 4 4 4 4 4 3 2 2 1 2 1 1 2 3 3 2 1 1 1 0 2 3 4 4 4 5 6 7 6 6 4 4 3 6 6 9 9 18 42 45 118 113 120 60 25 19 24 19 20 14 8 5 4 5 4 4 3 2 2 4 7 11 13 12 13 13 16 18 20 22 47 112 121 106 50 26 25 17 6 4 4 4 5 7 7 7 5 3 4 4 4 4 3 4 3 2 2 3 3 3 4 4 4 3 2 2 3 3 5 4 3 2 0 1 1 2 2 2 3 6 12 17 21 34 61 99 131 150 157 159 157 154 152 151 147 133 113 85 54 37 28 24 15 7 4 5 6 5 5 4 4 3 3 3 4 4 4 3 2 2 3 5 6 6 4 3 1 0 0 0 0 0 1 2 2 2 2 2 2 1 2 2 3 2 2 2 2 3 3 3 3 2 2 2 3 3 3 3 2 2 0 0 0 0 0 0 1 1 1 1 1 1 1 2 2 3 3 3 2 2 3 3 4 3 4 3 1 2 1 1 0 1 0 0 0 0 0 0 1 1 1 0 0 0 0 1 1 2 2 2 2 2 2 2 2 1 1 2 2 2 1 1 1 1 1 0 0 0 0 1 1 2 2 2 2 2 2 2 2 2 2 2 3 3 3 3 3 3 2 2 2 3 3 4 4 4 3 3 2 2 2 3 3 2 2 2 2 3 2 3 3 4 5 4 4 3 2 0 
0 1 2 2 2 1 2 2 3 4 4 5 4 4 3 3 2 2 2 2 1 1 1 1 0 0 0 0 0 0 2 5 9 13 14 12 9 7 6 6 5 3 2 2 2 2 2 2 2 2 2 2 3 4 5 5 6 9 12 13 13 13 13 14 14 15 18 22 23 22 20 19 21 24 26 28 28 27 25 24 24 24 23 23 21 19 17 17 17 16 15 15 15 15 13 12 16 13 12 7 6 5 3 3 2 2 1 0 0 0 0 1 2 3 4 4 4 4 4 4 4 4 4 4 3 3 2 3 2 2 2 2 2 2 3 3 4 4 3 2 2 2 2 1 2 1 1 1 1 1 2 2 3 3 4 4 4 4 4 4 3 3 3 3 3 3 3 3 2 1 0 0 0 0 1 1 2 1 1 1 1 1 1 1 1 1 0 1 2 3 3 4 4 5 5 5 6 6 5 4 2 2 1 1 2 1 3 4 3 2 0 0 0 0 2 3 5 7 7 7 8 10 10 8 5 4 3 5 4 9 9 21 43 51 124 118 124 57 29 21 26 18 17 13 8 5 5 5 4 4 4 3 3 3 4 5 8 10 12 11 13 18 22 29 46 112 121 110 57 28 28 21 10 9 7 6 6 7 7 6 4 3 3 4 5 4 4 4 4 4 3 3 4 4 4 4 3 3 2 2 2 3 4 4 3 2 0 0 1 1 1 1 4 12 20 26 40 71 102 132 152 162 164 160 155 152 156 163 171 168 155 136 113 81 47 31 24 17 10 7 7 8 7 4 2 2 3 3 3 3 3 2 2 1 2 3 4 4 4 2 1 0 0 0 0 0 1 2 2 3 4 4 4 3 4 3 4 3 3 3 3 3 3 3 4 4 4 3 3 4 4 3 3 2 1 0 0 0 0 0 0 1 1 1 1 1 1 2 2 3 3 2 2 2 3 3 4 3 4 3 1 2 1 1 1 1 1 1 1 1 1 1 1 1 1 1 1 0 1 1 1 1 2 2 2 2 2 2 1 1 1 2 2 1 0 1 1 1 1 1 0 0 0 1 1 2 2 3 3 2 2 2 2 2 3 3 3 3 3 3 3 4 3 3 4 4 4 4 3 3 2 2 2 2 2 3 2 2 2 2 2 2 2 3 4 5 5 4 4 4 2 0 
0 1 2 2 2 1 2 2 4 5 5 6 5 6 4 4 3 3 2 2 2 1 1 1 1 1 1 1 1 1 2 5 9 12 14 14 11 8 6 6 4 3 2 2 2 1 1 1 2 2 3 3 4 5 5 5 6 9 12 14 13 12 13 14 16 17 19 22 24 22 21 20 23 26 28 29 27 26 24 25 26 26 26 25 24 22 19 19 19 17 15 15 16 14 12 9 12 11 9 7 7 6 4 2 3 2 1 0 0 0 0 1 2 3 3 3 4 3 4 4 4 4 4 4 3 3 3 3 2 2 2 2 3 3 3 3 4 3 3 2 1 1 1 1 2 1 1 1 1 1 2 2 2 2 4 4 4 4 4 5 4 4 5 6 7 7 6 5 4 3 2 2 1 1 2 2 2 1 1 1 2 2 1 1 1 1 1 1 2 3 3 4 5 5 5 5 4 4 4 4 3 1 1 1 1 1 3 3 3 2 1 0 1 0 2 3 4 5 5 6 7 8 8 7 6 4 3 4 3 8 8 21 40 53 121 121 121 58 29 22 24 16 15 13 9 7 7 7 5 4 4 4 5 5 5 6 8 9 12 10 11 17 24 33 46 109 120 110 61 30 30 22 8 7 5 5 5 6 7 6 4 3 2 3 4 4 4 4 4 4 4 3 4 4 4 3 3 3 3 3 3 3 4 4 3 2 1 1 1 1 1 3 11 21 30 52 80 114 140 155 156 149 137 123 111 109 119 136 151 162 171 172 157 131 98 57 32 22 15 12 11 9 7 4 3 2 3 2 3 2 2 2 2 2 2 3 4 4 4 3 2 1 0 0 0 1 1 2 3 3 5 5 5 4 4 4 4 3 3 2 2 2 2 3 3 3 4 4 3 3 2 2 2 2 1 0 0 0 0 0 0 0 0 0 0 0 1 1 1 2 2 2 2 2 3 2 3 3 4 3 3 3 2 1 1 2 2 1 1 1 2 2 2 3 3 3 2 1 2 2 2 2 2 2 2 2 3 3 3 2 2 2 2 2 1 1 1 1 1 1 0 0 0 1 1 2 2 3 3 3 2 3 2 2 2 2 2 2 2 2 3 3 3 3 3 4 4 4 4 3 2 2 2 2 2 2 2 1 2 2 1 2 1 3 4 5 6 5 4 5 2 0 
0 1 2 2 2 2 3 3 3 4 4 4 3 3 3 4 4 3 3 2 2 2 2 2 1 1 1 1 1 1 2 6 12 19 23 19 13 10 9 9 7 5 4 3 2 1 1 1 2 1 2 3 4 6 6 5 5 9 12 14 14 12 14 16 18 19 19 21 23 24 23 23 25 27 28 27 24 23 22 25 28 27 27 25 24 23 21 20 20 17 14 15 16 14 11 7 9 8 7 5 6 6 4 3 2 1 1 0 0 0 1 2 2 2 2 2 2 2 3 3 4 4 4 4 3 3 3 4 4 3 3 3 3 3 4 3 3 3 3 2 2 2 2 2 3 2 2 1 1 1 2 2 3 2 3 4 4 5 5 5 4 4 4 4 4 4 4 4 4 4 4 2 1 1 2 3 2 2 1 2 2 2 1 1 2 1 1 2 2 2 2 3 4 4 4 4 4 4 4 3 2 1 1 1 1 2 2 3 2 1 0 0 0 0 2 4 7 9 8 8 8 9 10 7 7 3 4 4 2 6 6 21 37 51 111 123 116 66 24 22 21 16 13 12 10 9 8 9 8 6 5 5 5 5 4 5 6 8 12 10 10 16 24 33 46 105 119 109 61 30 28 20 8 10 9 8 8 8 8 6 4 2 2 3 4 4 5 5 6 4 4 3 4 4 3 2 2 2 2 2 3 3 4 5 4 3 2 2 2 2 2 7 19 27 47 86 124 147 140 118 95 76 60 47 40 39 41 51 73 98 121 151 171 165 135 90 48 25 21 18 12 9 7 6 6 4 3 2 2 1 2 2 2 2 2 2 2 3 3 3 3 2 1 1 1 1 1 2 3 3 5 5 5 5 4 4 4 3 3 3 2 2 1 2 2 3 3 3 3 3 2 1 1 1 1 0 0 0 0 0 0 0 0 0 0 0 0 0 0 1 1 1 1 2 2 2 3 3 5 4 5 4 3 2 2 2 3 2 3 2 3 3 3 4 4 5 4 3 3 2 2 2 2 3 4 4 4 4 3 3 3 3 3 2 2 1 1 1 1 1 1 1 0 0 1 2 3 3 3 3 3 3 3 3 3 3 2 2 1 2 3 3 3 3 2 2 2 2 2 2 2 1 1 2 2 2 2 2 2 1 1 1 1 2 3 4 5 5 5 5 2 0 
0 0 1 1 2 3 3 3 3 3 3 3 2 2 3 4 4 3 3 3 2 2 2 2 2 2 1 2 1 1 2 4 8 10 13 14 13 10 7 7 5 3 2 3 3 2 2 1 2 2 3 4 5 6 7 6 7 10 13 14 13 12 14 18 20 19 19 20 23 26 25 26 28 29 28 26 23 21 22 25 28 28 26 24 23 23 22 21 20 17 14 15 16 15 11 7 7 8 6 4 4 5 5 4 2 1 0 0 0 1 1 2 2 2 2 2 2 2 2 3 3 4 4 3 4 4 4 4 4 4 3 3 3 3 3 3 3 2 2 2 2 3 3 3 3 3 3 2 2 2 3 3 3 3 3 4 4 5 5 5 4 4 5 6 6 6 6 5 5 5 5 4 4 4 3 4 2 1 0 1 1 1 1 1 1 1 2 2 2 2 2 2 3 3 4 4 4 4 4 4 3 2 2 2 1 1 1 2 2 1 0 0 0 0 1 3 4 6 6 7 6 6 8 6 7 3 3 3 2 5 5 19 34 47 100 122 117 76 23 23 18 16 13 12 10 9 8 9 8 7 6 6 5 6 6 5 5 7 11 11 12 16 24 28 47 105 118 108 58 27 26 18 6 5 4 4 5 4 4 3 3 2 2 2 3 4 4 4 4 3 4 4 4 4 3 2 2 3 3 3 3 4 4 6 4 5 3 4 4 5 6 15 23 40 84 126 156 148 103 61 34 26 25 27 33 39 46 46 37 36 55 83 125 159 163 128 79 37 27 22 18 10 6 5 6 5 5 2 2 1 2 2 2 2 2 3 3 3 3 3 3 3 2 2 1 2 2 3 3 3 3 3 3 4 3 3 3 3 3 3 3 2 2 1 1 2 2 2 2 2 1 1 1 1 1 0 0 0 0 0 1 1 1 1 1 0 0 1 0 1 1 1 1 1 2 2 3 3 5 6 7 5 3 2 2 3 3 5 6 6 7 6 6 7 6 7 7 7 6 4 4 4 4 4 3 4 6 7 6 5 3 4 3 2 2 1 2 1 1 1 1 1 1 1 1 2 3 3 3 3 3 3 3 2 2 2 1 1 1 1 2 2 2 2 2 2 2 3 4 3 2 1 1 2 2 2 1 2 2 1 1 1 1 2 2 3 4 4 3 4 2 0 
0 0 1 1 2 3 3 3 2 2 2 1 0 1 2 3 4 3 3 2 2 2 2 2 1 1 1 1 1 1 1 2 5 8 11 11 9 7 7 7 6 4 3 3 3 2 2 1 2 2 2 3 4 5 6 6 8 11 13 13 13 14 16 19 20 18 19 21 25 28 28 29 30 30 28 24 22 21 22 27 30 29 26 23 21 22 23 21 18 15 14 15 15 14 12 9 8 8 6 3 3 3 4 3 2 1 0 0 1 1 2 2 1 2 2 3 3 2 2 2 2 2 3 3 3 3 3 3 4 4 4 3 3 2 3 3 3 3 4 4 4 4 4 4 4 3 3 2 2 2 2 3 3 3 3 3 3 4 3 3 3 2 2 3 3 3 3 4 4 5 5 5 5 5 4 4 2 2 0 0 0 0 1 1 1 1 1 1 1 2 1 2 2 2 2 2 3 3 3 3 2 2 2 2 1 2 1 1 1 1 0 0 0 0 0 2 4 6 6 7 7 7 7 6 6 3 3 3 2 4 4 16 32 39 90 119 124 88 31 25 19 18 14 12 11 9 6 6 7 7 7 7 7 6 7 5 5 9 12 13 14 16 21 21 51 108 118 105 48 25 22 14 7 5 5 6 6 6 5 3 3 2 3 3 2 3 3 4 4 3 5 5 5 4 3 3 3 3 3 4 4 5 5 7 5 6 5 7 8 12 14 22 33 72 120 159 155 114 59 29 22 29 34 37 43 44 43 38 33 23 22 29 64 112 152 152 116 62 39 24 24 9 6 7 9 7 6 2 2 2 2 1 1 1 2 3 3 2 2 2 3 3 3 3 3 3 4 4 4 4 3 3 3 3 3 3 3 3 4 4 3 3 2 2 1 1 1 2 2 2 2 2 2 1 1 0 0 0 0 1 1 1 1 1 1 1 1 1 1 1 1 1 1 1 1 1 3 5 8 9 8 6 4 3 3 5 6 9 8 9 7 8 6 8 8 10 9 9 10 9 8 6 6 6 6 7 7 6 5 5 3 4 3 3 2 2 2 1 2 2 1 1 1 1 2 3 4 4 4 4 4 3 3 1 2 1 1 1 1 1 2 3 3 3 2 2 3 3 4 3 3 2 2 2 2 3 2 2 1 1 0 0 1 2 3 3 3 3 2 2 1 0 
0 0 2 1 2 2 2 2 2 2 2 1 1 1 2 2 3 3 3 2 2 2 2 2 1 1 1 1 1 1 1 1 2 2 4 7 8 7 5 4 3 2 2 3 3 3 3 2 2 3 3 3 4 5 7 7 9 12 13 14 14 16 18 20 19 18 21 24 26 29 29 30 31 30 27 24 21 21 23 29 32 32 28 24 21 22 24 22 18 15 15 15 13 12 12 11 9 7 5 3 2 2 4 3 2 1 0 0 1 2 2 1 2 2 3 3 3 2 2 1 2 2 2 2 2 2 2 2 2 2 3 3 2 2 2 2 4 4 5 5 5 4 3 3 3 3 3 2 2 2 3 3 3 3 2 2 2 3 2 3 2 2 2 2 3 3 2 3 3 4 5 6 6 6 5 4 1 1 0 0 0 0 0 0 0 0 1 1 1 2 1 2 1 2 2 3 3 4 4 4 3 3 2 2 1 1 1 1 1 1 0 0 0 0 0 0 1 3 4 5 5 6 6 6 5 4 3 4 4 4 4 11 29 33 87 119 132 100 37 22 20 21 17 14 12 9 5 4 5 6 7 8 8 8 7 5 7 11 13 15 15 14 19 22 66 115 121 97 41 25 20 12 6 3 3 4 4 4 3 2 3 3 4 3 2 2 2 2 3 3 4 4 4 3 3 3 3 4 4 5 5 6 6 6 5 5 6 10 11 20 23 31 57 111 153 163 121 68 31 23 30 35 32 25 24 28 34 35 30 23 17 16 26 63 114 153 150 97 62 28 31 15 10 7 9 7 5 3 3 2 2 1 0 1 2 3 2 1 1 2 3 3 3 2 3 4 5 5 5 4 4 4 5 5 5 4 4 4 4 4 4 4 3 3 2 2 2 2 2 2 2 2 2 1 1 0 0 0 1 1 1 2 2 1 1 1 1 1 1 1 1 2 1 1 1 1 3 4 6 9 10 9 7 5 4 5 7 11 9 13 12 20 23 24 20 17 13 15 15 15 13 9 7 7 9 8 8 7 6 5 4 4 3 3 3 2 2 2 2 2 2 2 2 3 2 2 3 3 3 2 2 2 2 1 1 1 2 1 1 1 2 3 3 4 3 3 3 4 4 3 3 2 2 2 3 3 2 2 1 1 0 0 1 2 3 3 3 2 1 2 1 0 
0 1 2 2 2 2 2 2 3 2 2 2 1 1 1 2 3 3 3 3 2 2 2 1 1 1 0 1 1 2 2 1 1 2 3 4 4 4 4 4 3 2 2 2 3 3 3 3 3 3 3 3 3 4 5 6 9 12 14 15 15 18 19 19 18 18 22 25 27 30 29 30 30 28 25 20 17 18 22 28 32 33 30 26 23 23 24 22 18 16 16 15 12 11 12 12 9 7 5 3 2 2 4 4 3 1 0 1 1 2 2 2 2 2 3 4 3 2 1 1 1 1 1 1 1 1 1 0 1 1 2 2 2 1 1 1 3 4 6 5 5 3 2 2 2 2 2 1 1 1 2 3 3 2 1 1 1 1 1 2 2 2 2 2 1 1 2 2 3 4 4 5 6 6 5 4 2 0 0 0 0 0 0 0 0 0 1 1 1 2 1 2 1 1 2 2 2 2 2 2 2 2 2 1 1 1 1 2 2 1 0 0 0 0 0 1 2 3 5 6 6 7 6 5 4 3 3 4 4 3 4 7 27 32 76 118 133 111 53 24 22 21 20 17 15 12 7 3 2 3 5 7 8 8 7 7 10 14 16 16 15 12 17 29 87 124 119 82 33 25 17 10 6 4 4 5 5 5 5 4 4 4 4 3 2 2 2 2 2 3 3 4 3 3 3 3 3 3 4 5 6 6 6 5 5 5 6 13 12 31 29 43 93 146 167 140 78 36 23 24 29 31 25 20 17 18 20 23 24 23 21 21 19 35 73 130 163 132 90 38 34 23 17 9 10 6 4 3 3 3 2 1 0 1 2 2 2 1 1 2 3 4 4 3 4 5 5 5 4 4 5 5 6 6 6 6 5 4 4 3 3 3 3 3 2 2 1 2 2 2 2 2 2 1 0 0 0 1 1 1 1 1 1 1 1 1 0 0 1 1 1 2 1 1 2 2 3 5 7 10 10 8 8 11 17 23 27 31 28 28 26 29 33 38 39 35 28 28 28 29 21 13 9 7 7 6 6 6 5 5 4 4 3 3 3 2 3 2 2 2 2 2 3 3 3 4 4 4 4 4 3 2 2 0 1 1 1 1 1 1 1 2 3 4 3 3 3 3 3 3 3 3 2 2 2 3 2 1 1 0 0 0 1 2 3 3 3 2 2 2 1 0 
0 1 2 2 2 2 2 2 2 2 2 2 1 1 1 1 2 3 3 3 3 2 2 2 1 1 1 1 1 1 2 1 2 2 3 4 5 4 4 4 4 2 2 2 3 4 4 4 3 3 2 3 3 5 5 6 8 11 15 16 17 19 19 19 17 18 23 26 28 30 29 29 29 25 22 15 12 14 20 26 30 32 31 29 25 24 25 23 20 18 17 15 12 11 12 12 9 6 5 3 2 3 5 5 4 2 1 1 1 1 1 1 2 3 4 4 4 3 2 1 1 1 1 1 1 1 1 0 1 1 1 2 2 1 1 2 3 4 5 4 3 2 2 2 2 2 1 1 2 2 3 3 2 1 1 1 1 1 1 1 2 2 2 2 1 1 1 2 3 4 5 5 6 6 5 4 2 0 0 0 0 0 0 0 0 0 1 1 2 2 2 2 1 2 2 2 2 2 2 2 2 2 1 1 1 1 1 2 2 1 0 0 0 0 0 1 2 3 4 5 5 5 5 5 3 3 3 3 3 3 3 5 22 37 61 110 127 122 73 28 24 20 22 19 18 16 11 7 5 4 4 5 7 8 8 9 13 15 16 14 12 10 15 46 109 131 114 66 27 24 14 8 4 4 4 4 4 4 5 4 4 4 4 2 1 2 2 2 2 2 3 3 4 3 3 3 3 3 4 5 5 4 4 3 3 5 6 15 16 35 31 61 118 164 157 104 41 28 28 28 27 25 17 13 12 13 13 16 19 20 21 23 21 25 43 100 156 156 114 55 35 30 23 11 12 7 3 3 3 3 1 1 0 1 1 2 1 0 1 2 3 4 4 4 5 6 6 6 5 5 6 5 5 5 6 6 5 5 4 3 2 2 3 2 2 1 1 1 2 2 2 1 1 0 0 0 0 1 2 2 1 2 1 1 0 0 0 0 0 1 1 1 1 1 2 2 3 4 6 8 8 10 14 18 22 25 29 31 30 30 36 49 59 59 54 49 44 41 33 30 25 21 11 9 11 13 10 8 5 5 4 4 3 3 3 2 3 2 1 1 1 1 2 3 3 3 4 4 4 4 4 3 2 1 1 1 1 1 1 1 1 2 3 3 3 3 3 3 3 3 3 3 3 2 2 2 2 1 0 0 0 0 1 2 3 3 3 2 2 2 2 0 
0 1 2 3 3 3 3 2 1 1 1 1 1 0 1 0 1 2 3 3 3 3 2 2 2 2 1 1 2 2 2 2 2 2 3 3 3 2 4 4 3 2 2 2 2 3 3 3 3 3 2 4 4 5 5 5 7 11 14 17 18 20 19 19 17 19 23 25 27 29 28 28 28 25 21 14 11 13 18 23 27 30 31 30 26 24 24 23 22 19 17 15 13 12 13 11 8 5 4 4 2 3 5 6 5 3 2 2 1 1 2 2 2 3 3 4 4 3 2 1 1 1 1 1 1 1 0 0 1 2 1 1 1 1 1 1 2 3 3 2 2 2 2 3 3 2 1 1 1 2 2 2 2 1 1 1 1 1 0 1 1 2 2 2 1 1 1 1 1 2 4 5 5 5 4 3 2 1 0 0 0 0 0 0 0 0 1 1 2 3 2 2 1 1 2 2 2 1 1 1 2 2 1 1 1 1 2 2 3 2 1 0 0 0 1 2 2 4 4 4 4 5 4 4 2 2 3 3 3 2 3 6 16 36 44 92 117 130 97 48 22 18 20 20 19 18 14 12 10 8 6 6 6 8 10 12 16 16 17 14 13 14 26 73 125 128 100 50 24 21 9 6 4 5 4 5 5 4 4 4 4 3 3 1 1 2 2 2 2 2 2 3 3 3 3 2 2 2 3 4 4 3 2 2 3 5 7 12 22 34 38 83 137 166 132 71 33 34 34 31 24 21 12 8 8 9 10 13 13 18 22 22 24 22 26 73 140 166 135 78 37 33 25 9 9 6 4 3 3 3 2 1 1 1 1 1 1 0 1 1 3 3 3 4 4 5 6 6 6 5 5 4 3 3 4 5 5 5 4 3 2 3 3 2 1 0 0 1 2 2 2 1 0 0 0 0 1 1 2 1 1 1 1 0 0 0 0 0 1 1 1 1 0 1 2 3 6 6 7 9 10 11 14 23 39 56 67 73 79 85 94 100 105 106 108 109 111 109 95 70 41 29 28 24 17 14 11 9 6 5 4 4 3 2 2 2 2 2 2 1 1 1 2 2 4 5 5 5 5 5 4 3 3 2 2 1 1 0 0 1 1 2 2 3 3 3 3 3 2 2 3 3 3 2 2 1 1 1 0 0 0 1 2 2 2 2 2 2 2 2 1 0 
0 1 2 3 3 3 2 1 1 1 1 1 1 0 1 0 1 1 2 2 2 2 2 2 2 2 2 1 2 2 2 2 3 3 3 2 3 2 2 3 3 3 2 2 3 3 4 3 2 2 1 2 3 5 5 5 7 10 14 16 18 20 20 20 19 20 22 24 25 28 28 28 28 25 23 18 16 16 19 22 25 29 30 30 27 24 23 23 23 20 17 15 14 14 14 11 7 5 3 4 3 3 6 6 6 3 2 2 1 1 1 1 2 3 4 5 5 4 3 2 1 1 1 1 1 0 0 1 2 2 2 2 1 1 1 1 3 3 3 2 2 3 5 6 5 4 2 2 2 2 2 2 2 1 1 1 2 1 1 1 1 2 2 2 2 2 2 2 2 2 4 4 5 4 4 2 1 1 1 0 0 0 0 0 0 1 1 2 3 3 3 2 1 1 2 2 2 2 2 1 1 1 1 1 1 1 1 2 3 3 2 1 1 0 1 2 2 4 4 3 3 3 4 4 3 2 2 2 3 2 3 6 10 30 34 63 103 130 119 75 26 16 16 19 18 18 14 14 13 12 11 10 10 10 13 16 18 17 19 17 20 24 50 97 131 114 81 37 25 18 6 5 3 4 3 4 5 4 4 4 3 2 2 1 1 2 2 2 2 3 4 5 6 5 5 4 3 3 3 3 3 2 2 3 5 6 10 12 30 30 50 97 147 155 108 49 33 36 37 27 22 16 11 8 7 6 7 11 10 14 17 17 21 23 20 52 123 167 149 96 40 32 24 12 11 7 5 3 3 3 2 1 1 1 1 1 1 1 1 1 2 2 2 4 5 7 7 7 7 6 4 3 2 2 3 5 5 6 5 3 2 2 2 2 1 0 0 1 2 2 1 1 0 0 0 0 1 1 2 1 1 1 1 0 0 0 0 0 1 1 1 1 0 0 2 3 6 9 11 13 14 17 27 48 69 84 95 106 118 123 126 124 121 117 114 114 122 134 136 118 87 52 42 44 43 39 26 14 7 5 3 3 2 2 2 2 2 2 2 2 2 2 2 2 3 4 5 5 5 5 5 4 3 2 2 1 0 0 0 1 1 1 2 2 3 3 3 3 3 3 3 3 2 2 1 2 2 1 1 0 1 1 2 2 2 2 1 1 1 2 1 0 
0 1 2 2 2 2 2 1 1 0 0 0 0 0 0 0 1 1 1 1 2 2 2 2 3 2 2 1 1 1 1 2 2 2 3 3 3 3 2 2 3 3 4 4 4 4 3 2 2 1 1 2 4 5 5 5 7 10 14 16 17 19 20 21 20 21 22 23 23 27 28 27 27 25 25 24 22 20 20 22 25 28 30 29 26 23 21 22 22 20 18 15 15 14 13 11 8 5 5 6 5 5 6 6 6 5 3 2 2 1 1 1 1 1 2 3 3 3 3 2 2 2 1 1 1 0 0 1 2 3 3 2 3 1 1 2 3 3 4 4 4 5 5 5 5 4 4 3 2 2 2 2 2 2 2 2 2 1 1 1 1 2 3 3 3 3 3 2 2 2 2 3 4 4 3 3 2 2 2 1 1 1 2 2 2 2 2 2 3 2 2 2 2 2 2 2 1 1 1 1 2 2 2 1 1 1 1 2 4 4 3 2 2 2 2 2 2 3 3 3 2 3 3 3 3 3 3 3 3 2 3 5 7 20 31 41 87 117 130 98 47 18 13 17 19 20 17 16 15 15 16 14 14 16 17 20 20 23 27 24 24 39 82 120 125 89 58 32 27 15 5 5 3 5 4 5 5 4 4 3 3 2 2 2 3 3 3 3 4 4 5 5 5 5 5 4 4 4 4 4 4 4 3 4 6 8 10 14 31 28 66 113 157 142 85 34 32 35 36 23 18 12 9 6 6 5 7 10 10 12 12 14 15 20 21 41 112 167 160 111 44 30 21 10 11 7 5 3 4 4 3 1 2 2 2 2 2 2 2 2 1 1 1 2 3 4 5 6 6 5 3 3 2 3 3 4 5 6 5 4 3 3 3 3 2 1 1 1 2 2 2 1 0 0 0 0 1 1 1 1 2 2 1 1 0 0 0 1 1 1 1 1 1 1 2 3 7 8 12 18 21 33 50 72 86 97 111 133 153 154 141 124 113 107 106 116 129 145 162 152 130 104 84 83 63 45 32 28 15 9 4 4 2 3 2 2 2 3 3 4 4 4 2 2 3 4 5 5 4 4 3 3 3 2 2 1 0 0 0 0 1 1 2 2 2 2 3 3 3 3 2 2 2 2 2 2 2 2 1 0 1 2 3 3 2 2 1 1 1 1 1 0 
0 0 1 1 1 1 1 1 1 1 1 0 0 0 0 1 1 1 1 2 2 3 3 2 2 2 2 1 1 1 1 2 3 2 3 3 2 3 2 3 3 4 4 5 5 5 4 3 2 1 1 1 3 5 6 6 8 11 14 15 15 18 20 21 21 21 21 21 22 26 28 26 24 23 25 26 26 23 21 23 26 29 30 28 26 23 20 21 21 20 19 17 16 15 13 12 9 6 6 6 6 6 8 8 6 3 2 2 2 1 2 2 2 1 2 3 3 3 3 2 2 1 1 1 1 1 1 1 3 2 3 2 2 1 2 3 4 5 5 5 5 5 6 5 6 4 4 2 3 2 2 2 3 3 2 1 1 2 2 3 3 4 4 4 4 4 3 3 2 2 2 3 4 3 3 3 2 2 2 2 2 3 3 3 3 3 3 3 3 2 2 1 2 2 2 2 1 2 1 2 2 2 2 2 2 2 1 2 3 4 4 3 3 3 3 2 3 3 3 3 2 2 3 3 3 2 2 3 3 3 3 4 6 11 26 31 63 95 125 117 77 34 16 15 19 20 18 16 15 14 13 12 13 16 18 21 24 25 26 26 36 72 112 126 105 67 42 29 26 13 7 5 5 4 3 4 4 3 3 3 2 2 2 3 3 3 3 3 4 4 5 5 6 5 4 4 5 5 6 6 5 5 4 5 7 8 9 17 33 29 79 124 162 132 67 25 29 30 28 24 14 11 8 6 4 5 6 8 10 12 13 15 15 20 21 34 103 168 169 124 49 29 22 12 12 7 5 3 5 5 3 2 2 2 2 3 2 3 2 2 2 1 2 3 4 4 5 5 5 4 3 3 3 3 3 4 4 5 4 3 2 2 3 4 3 2 1 2 2 2 2 1 1 1 1 1 1 1 1 2 2 2 1 1 1 1 1 0 1 1 2 2 2 2 2 3 5 7 13 20 27 53 72 95 95 94 112 134 147 136 114 86 70 63 62 68 75 103 147 161 151 149 144 154 138 108 57 34 22 15 8 4 2 3 3 3 4 3 4 4 3 3 2 2 3 3 4 3 4 4 3 3 2 2 1 0 0 0 0 0 1 1 2 2 2 1 2 2 3 3 1 1 1 1 2 2 2 2 1 1 1 1 2 2 2 2 1 2 2 2 1 0 
0 0 0 0 0 0 1 1 1 1 1 1 0 0 1 1 2 2 2 3 3 4 3 3 2 1 1 1 1 1 1 2 2 3 3 3 3 3 3 3 4 5 6 6 6 6 5 4 2 1 1 2 4 6 6 6 8 12 15 14 15 18 20 22 21 21 21 21 22 26 28 25 23 21 23 25 24 23 22 24 26 28 27 26 25 23 20 20 21 21 21 18 16 15 14 12 9 7 7 8 8 7 6 6 5 3 2 2 2 2 2 2 2 1 1 1 1 2 2 2 2 2 2 2 2 2 1 2 2 2 3 2 2 3 3 5 5 5 5 5 6 5 4 3 3 3 3 2 2 1 1 1 3 3 3 2 2 3 5 6 6 6 6 7 5 5 4 3 2 2 2 3 4 4 4 4 3 2 2 3 3 3 3 4 3 4 4 3 3 2 2 2 2 2 2 1 1 1 1 2 3 2 2 2 2 2 2 2 3 5 5 5 3 3 3 3 3 2 3 3 4 4 4 4 4 4 3 2 2 2 3 3 5 7 20 28 41 73 102 123 110 73 38 19 16 17 19 20 20 19 19 19 20 22 22 23 21 25 26 34 63 102 123 110 73 39 30 26 22 10 9 6 5 3 3 2 2 1 2 2 2 2 3 3 3 3 3 4 4 5 4 4 4 4 4 5 6 6 6 6 6 6 5 5 7 8 10 16 34 29 87 131 164 126 58 20 23 28 25 24 11 8 5 6 5 6 8 10 11 12 14 16 19 21 20 30 99 168 178 134 56 29 19 8 9 6 4 3 4 4 3 2 1 2 3 3 3 3 3 2 2 1 2 3 3 3 3 4 4 3 2 2 2 3 3 3 3 3 3 3 2 2 3 3 2 2 1 2 2 2 2 1 1 1 1 1 1 1 2 2 2 3 2 2 1 1 1 1 2 2 2 3 3 3 3 4 6 8 13 22 32 67 89 106 91 75 94 103 115 97 77 63 59 51 45 41 46 60 88 113 130 144 145 159 148 134 101 61 32 18 13 7 4 5 4 3 4 3 4 4 4 4 2 2 3 3 3 2 2 2 2 2 2 2 1 0 0 0 0 0 0 1 1 1 1 1 1 2 2 2 0 0 0 1 1 1 1 1 1 1 0 1 1 2 2 3 3 3 3 3 1 0 
0 0 0 0 0 0 0 1 1 1 1 0 0 0 1 2 3 2 3 3 4 5 4 4 2 1 1 1 2 2 2 3 4 4 5 5 4 5 5 5 5 5 6 6 6 6 6 5 3 2 2 2 4 6 7 7 8 12 15 14 14 17 20 22 21 21 20 21 23 27 29 27 24 21 22 22 22 22 22 24 26 26 25 24 24 24 21 19 20 21 22 19 16 13 12 11 9 6 6 7 7 7 8 8 5 2 1 2 2 3 3 3 2 2 1 1 1 2 1 1 1 1 1 2 2 3 3 3 3 3 2 2 2 3 3 5 5 5 6 5 5 4 3 4 3 2 2 1 1 1 1 1 3 3 3 2 3 5 7 8 8 8 8 8 6 6 4 4 3 2 2 3 4 4 4 4 3 1 1 1 2 3 3 3 2 3 3 3 3 2 2 2 2 2 2 2 1 1 2 2 2 2 2 2 2 2 2 2 3 4 5 4 4 4 5 4 4 2 3 5 6 6 6 5 3 3 3 3 2 2 2 3 5 5 11 24 30 49 72 105 119 108 77 45 27 17 18 21 23 23 24 25 25 24 22 18 16 21 32 69 100 123 116 80 47 30 29 21 16 8 10 6 4 3 2 2 1 1 1 1 1 2 3 3 3 2 2 3 3 3 2 2 3 2 2 3 5 7 7 8 7 7 5 6 7 8 10 16 37 29 91 133 164 124 56 22 22 22 20 18 10 8 6 7 5 6 7 9 9 10 14 15 17 25 23 33 102 169 183 137 63 31 24 8 7 5 3 3 3 3 2 1 2 2 3 3 2 2 3 3 2 1 1 3 3 3 2 3 3 3 1 1 2 2 2 2 2 2 3 3 2 2 2 2 2 2 1 1 2 2 2 1 1 1 1 1 2 2 2 2 2 3 2 2 1 1 1 1 1 2 3 3 3 3 4 5 8 10 18 26 38 78 106 120 100 70 80 80 92 67 63 55 50 41 37 36 48 58 72 82 98 114 128 150 152 148 122 78 44 21 18 10 6 6 5 5 5 3 4 3 3 3 3 3 3 3 2 2 2 3 3 2 2 1 1 0 0 0 0 0 0 0 1 1 1 1 1 2 2 2 1 0 0 0 1 1 1 1 1 1 1 1 1 2 3 3 3 4 3 3 1 0 
0 0 0 0 0 0 0 0 1 1 1 1 1 1 1 2 3 2 4 4 4 5 4 4 2 1 1 2 2 3 2 3 3 4 5 5 5 5 4 4 5 5 5 5 5 5 5 4 3 2 2 2 4 5 7 7 8 12 14 13 13 16 19 22 21 20 20 20 22 25 28 27 25 22 21 21 21 21 22 23 25 25 24 23 24 24 21 20 20 21 22 19 16 13 12 11 8 6 6 7 7 5 4 4 4 2 1 2 2 3 2 2 2 2 1 2 1 2 1 1 2 3 3 3 4 4 4 4 4 3 3 3 3 3 4 5 6 5 5 5 5 5 4 4 4 3 2 2 2 1 2 2 3 3 3 3 5 7 8 7 7 8 9 9 6 6 4 3 3 2 3 3 3 4 4 4 2 1 0 0 1 1 2 2 1 1 2 2 2 2 2 2 2 3 2 2 1 1 2 2 2 2 2 1 1 1 1 2 2 3 4 3 3 4 4 4 4 4 5 6 7 8 7 6 4 3 3 2 2 1 2 2 3 4 6 16 25 34 53 78 104 116 110 83 57 34 22 20 22 25 26 26 26 25 22 19 26 47 77 111 126 119 84 48 27 22 21 12 10 6 9 6 4 2 1 1 1 1 2 2 2 3 3 3 2 1 1 2 4 4 4 3 3 3 3 4 6 8 8 8 8 6 5 7 8 10 13 18 40 30 90 134 165 126 57 23 23 21 17 14 11 9 6 7 6 6 7 10 9 9 10 12 15 24 21 31 100 165 180 131 64 31 25 6 4 3 2 2 2 2 1 1 2 3 3 2 2 2 3 2 2 1 1 2 3 3 2 3 2 3 1 1 2 2 2 2 1 2 2 3 3 2 1 1 1 1 1 1 2 2 1 1 0 0 0 1 2 2 2 2 2 2 2 1 1 1 1 1 2 3 4 4 4 4 4 6 11 14 22 28 41 84 127 143 121 83 78 87 99 92 92 86 97 92 73 51 50 66 82 82 79 70 67 73 102 134 133 98 58 25 22 13 9 6 6 4 4 3 3 3 3 4 4 4 4 3 2 2 2 3 2 2 2 2 1 1 0 0 0 0 0 0 0 0 1 1 1 1 2 1 1 0 0 0 0 0 0 0 1 1 1 1 2 3 4 6 6 6 5 3 1 0 
0 0 0 0 0 0 0 1 2 2 1 1 1 1 1 2 2 2 3 3 3 4 3 3 1 1 1 2 3 3 3 4 4 5 5 6 6 6 6 7 6 6 5 5 5 5 4 3 2 2 2 2 4 5 6 6 8 11 13 12 12 14 18 20 20 19 19 19 20 22 25 26 25 23 22 22 22 22 21 22 25 24 24 24 25 26 22 20 20 20 21 18 14 12 11 9 8 6 6 6 5 5 5 6 5 3 2 2 2 3 2 2 2 2 2 2 2 2 2 2 3 3 4 4 4 5 5 5 5 4 4 3 3 4 5 5 5 4 3 5 5 6 7 4 5 3 4 2 3 2 3 3 4 3 3 4 6 8 8 7 6 6 8 8 6 5 3 3 3 3 3 3 4 5 5 4 3 2 1 0 0 1 1 1 1 1 1 2 2 2 2 2 2 2 2 2 2 2 2 2 2 2 2 1 0 0 1 2 3 3 3 3 4 5 6 6 4 3 5 7 9 10 8 6 4 3 3 3 3 2 2 2 3 4 4 8 18 25 34 48 75 93 111 112 100 80 60 48 38 34 32 33 33 36 43 54 71 93 117 125 114 86 52 29 22 20 16 9 9 6 7 4 3 2 2 2 2 3 3 4 4 4 4 3 2 2 2 2 4 3 3 2 2 2 2 2 4 6 8 9 8 6 4 6 8 9 13 19 40 31 84 133 166 129 57 24 24 24 15 13 11 12 8 7 7 6 6 7 7 6 6 7 14 21 23 41 108 162 167 113 58 30 27 8 5 3 2 3 2 2 1 1 2 2 3 2 2 2 2 2 2 2 2 3 3 3 2 2 2 3 2 2 2 2 2 2 1 1 2 2 3 2 1 1 1 1 1 2 2 2 1 0 0 0 0 1 2 2 2 2 2 2 2 1 1 1 1 1 2 3 3 3 3 3 4 5 9 17 24 34 58 97 144 154 126 85 68 87 98 102 100 98 88 79 67 64 58 59 63 66 65 61 58 45 56 103 126 115 78 37 29 17 12 6 7 4 4 3 3 3 4 4 4 4 3 3 3 3 3 3 3 2 2 2 2 1 0 0 0 0 0 0 0 0 0 0 1 1 1 1 1 1 0 0 0 0 0 1 1 2 2 2 3 4 5 7 8 8 6 4 2 0 
0 1 1 0 0 0 1 2 3 3 2 2 2 2 2 2 2 2 2 2 3 3 2 3 2 2 2 2 3 3 3 3 3 4 5 5 6 6 6 6 5 5 5 5 5 5 3 2 2 2 3 2 3 4 6 6 9 11 12 11 11 13 16 19 19 19 19 18 18 19 22 24 24 22 22 22 22 22 22 23 25 25 24 24 26 26 22 19 18 19 20 17 14 12 10 9 7 5 6 6 4 4 3 4 3 2 2 2 2 3 3 2 2 2 2 2 2 2 2 3 4 6 6 6 6 6 5 5 5 5 6 5 4 4 4 5 4 4 3 4 5 6 8 5 6 4 5 4 4 3 3 3 3 2 2 4 7 8 8 7 6 6 7 7 6 5 4 3 3 3 2 2 2 3 3 3 3 2 1 0 0 0 1 1 1 0 0 1 2 3 2 2 2 2 2 2 2 2 2 2 2 2 2 1 0 0 1 1 2 2 2 2 3 4 5 5 4 5 6 8 9 9 8 5 3 2 2 2 3 3 4 3 3 2 3 6 12 21 29 32 43 61 81 101 114 115 104 93 83 78 72 70 74 84 95 105 114 120 117 106 86 55 31 23 19 14 10 7 8 6 7 4 3 2 2 2 2 3 3 4 4 5 4 4 3 2 2 2 3 3 4 4 3 3 3 4 6 8 10 9 7 6 4 5 7 7 12 19 36 33 75 129 167 141 72 31 28 29 19 15 14 14 9 8 8 8 7 8 8 6 6 9 16 21 27 58 122 160 146 87 43 25 24 8 5 2 2 2 2 2 0 1 2 2 3 2 3 3 3 3 3 3 3 3 4 3 2 1 1 2 2 2 2 2 2 1 2 1 3 3 4 3 1 0 1 1 2 2 2 2 1 1 0 0 1 1 2 2 2 2 2 2 3 2 2 1 1 1 1 2 3 3 3 3 3 5 12 20 22 43 61 92 136 145 120 87 76 115 137 129 99 97 91 101 88 77 72 78 90 101 86 66 57 63 71 111 131 125 88 43 34 22 13 7 7 5 5 3 3 3 3 4 4 4 4 3 3 3 4 4 3 3 3 3 3 2 1 0 0 0 0 0 0 0 0 0 1 1 2 2 1 1 1 0 0 0 0 0 1 1 2 2 3 4 5 6 7 7 6 5 3 0 
0 0 1 0 0 1 2 3 3 3 2 2 1 1 2 2 2 2 2 2 2 3 2 2 2 2 2 2 3 3 3 4 4 4 4 4 5 5 5 5 5 5 5 6 6 5 4 3 2 2 3 3 3 3 5 6 9 11 12 11 11 13 16 18 19 19 20 18 17 17 19 22 23 22 21 21 21 21 21 22 24 24 23 23 25 25 21 18 17 18 19 17 15 12 10 9 7 6 7 7 5 4 4 4 5 3 2 2 2 3 2 2 2 2 2 2 2 2 2 3 4 5 6 6 6 6 5 5 6 7 8 6 4 4 4 5 3 3 2 3 5 6 7 7 5 4 5 5 4 3 3 3 3 2 2 3 6 7 8 8 7 7 7 7 6 5 4 4 4 3 3 3 3 4 4 4 4 3 2 1 1 1 1 2 1 1 1 1 2 3 3 2 1 1 1 1 1 1 1 2 2 2 2 1 1 0 1 1 2 3 3 3 3 3 4 4 4 4 4 6 8 8 7 5 3 2 3 3 3 4 5 5 5 4 5 6 10 12 20 26 26 33 51 74 92 104 110 111 109 107 106 107 110 118 122 119 109 99 85 68 42 31 25 19 13 10 8 8 9 7 6 3 3 2 2 2 2 2 3 3 3 3 3 3 2 2 2 2 3 2 3 3 2 2 2 4 6 10 12 11 9 6 5 4 6 6 9 16 28 31 57 114 161 157 99 48 33 31 24 17 16 16 12 11 9 11 9 10 9 9 10 18 21 26 43 86 143 155 118 61 28 19 17 8 6 4 3 2 2 2 1 2 3 3 3 3 4 4 3 4 4 4 4 4 4 4 2 1 1 1 1 1 2 1 1 1 1 1 2 3 3 3 2 1 1 1 1 2 2 2 1 1 1 1 1 1 2 2 1 2 2 2 2 3 2 2 2 1 2 2 3 3 3 3 4 8 12 19 19 48 69 103 132 131 111 87 82 120 136 130 94 74 63 61 69 81 86 91 98 108 105 100 71 57 58 101 142 156 122 64 36 28 15 11 7 7 5 5 4 3 4 3 3 3 3 2 3 3 3 4 3 3 3 2 2 2 1 1 0 0 0 0 0 1 1 1 1 2 2 2 2 2 1 1 0 0 0 1 1 2 2 2 2 3 5 7 9 10 9 6 3 0 
0 1 1 1 1 1 3 3 4 3 2 1 1 1 2 2 2 2 3 2 3 3 3 4 4 3 2 2 3 2 3 3 3 4 4 5 6 6 6 5 4 4 4 4 4 4 3 3 2 3 3 3 3 3 5 6 8 10 12 12 12 14 16 17 18 20 21 19 17 17 18 19 20 19 19 19 19 19 20 21 23 23 22 22 23 22 19 16 16 18 19 18 15 12 11 9 8 7 6 5 5 5 6 5 5 3 3 3 3 3 2 2 2 2 2 2 2 2 2 4 5 6 7 7 7 6 5 4 4 5 6 5 4 3 2 2 2 2 2 3 4 5 6 6 6 6 5 5 4 3 3 3 3 3 3 3 5 6 6 7 7 6 7 7 6 6 5 5 4 3 2 2 2 2 2 2 2 2 2 2 2 2 2 2 2 1 1 1 3 4 4 3 1 1 1 1 1 1 1 2 2 2 2 1 1 2 2 2 3 3 3 3 3 3 4 4 5 5 6 7 9 8 6 5 3 3 2 3 5 5 6 5 5 4 5 6 11 12 12 16 18 20 25 40 65 85 92 95 96 98 102 104 105 107 109 105 90 69 43 32 27 24 16 11 8 8 8 8 7 6 5 3 3 2 3 2 2 2 2 2 3 3 3 3 2 1 2 1 2 3 3 3 3 3 3 5 8 11 13 11 10 6 6 5 5 5 6 10 19 27 40 90 140 163 132 81 43 35 33 25 22 18 14 15 11 11 10 9 12 11 15 23 24 32 66 120 161 140 88 36 18 14 13 8 5 4 3 3 2 2 2 3 3 3 5 4 5 5 4 5 5 4 4 4 4 4 2 1 1 0 0 0 0 0 0 1 1 2 3 4 4 3 2 1 1 1 1 2 2 2 2 2 2 2 1 1 1 1 1 1 2 3 3 3 2 1 1 1 2 2 3 3 3 3 3 9 14 21 20 55 83 116 136 133 114 84 75 119 143 132 96 45 37 43 59 73 82 90 100 114 111 99 86 75 62 94 133 158 140 95 44 31 21 14 9 9 8 6 5 4 4 4 3 3 3 3 3 3 4 4 3 2 2 3 2 2 1 1 1 1 0 0 0 1 2 2 2 2 3 3 2 2 1 1 0 0 1 1 1 1 1 1 2 3 4 5 5 5 5 5 3 0 
0 1 2 2 2 2 2 3 4 3 2 2 1 2 2 3 5 4 5 4 4 5 4 4 3 3 3 2 3 3 2 3 3 3 3 3 3 3 3 3 4 4 4 4 3 3 2 2 2 3 4 4 4 5 6 6 6 8 10 12 12 14 16 17 18 19 20 19 18 17 18 18 18 17 16 17 17 18 19 20 22 22 21 21 21 19 17 15 15 17 18 16 14 11 9 8 8 8 8 8 7 6 6 5 6 4 4 3 3 3 3 3 3 2 2 2 2 2 2 3 3 3 4 5 6 6 5 4 4 4 4 4 3 1 1 1 1 1 2 3 3 4 5 5 6 5 4 4 3 2 3 3 4 3 3 3 3 3 4 4 5 4 5 6 6 6 4 4 3 2 2 2 2 2 3 2 2 2 2 2 2 2 2 2 2 1 1 1 2 4 4 4 2 1 1 2 1 2 2 2 2 2 2 2 2 3 3 3 4 4 4 4 3 2 2 3 4 5 7 9 9 9 6 4 3 5 6 6 6 6 8 7 7 4 6 6 8 11 8 11 9 16 21 25 30 39 48 53 59 65 74 79 81 81 75 58 40 29 25 24 19 12 7 5 5 6 8 9 9 7 5 3 3 2 2 2 1 1 1 2 2 2 2 2 2 1 1 1 2 2 3 3 3 3 3 6 8 12 14 11 10 6 6 5 4 4 5 6 10 21 27 57 111 155 159 120 64 36 32 32 33 28 23 19 18 15 19 20 22 20 23 25 26 49 99 147 157 113 61 21 16 8 7 6 5 4 3 2 2 2 3 4 3 3 4 5 4 5 4 6 5 4 4 4 5 5 3 2 1 0 0 0 0 0 0 0 1 2 2 3 3 3 2 2 1 2 2 2 2 3 3 3 2 2 1 1 1 1 1 1 1 2 2 2 1 1 1 1 2 3 3 3 3 4 6 15 20 25 20 62 102 142 151 130 102 69 53 87 127 139 131 100 77 65 62 69 85 106 120 136 149 129 101 76 58 84 122 171 174 134 72 34 26 17 10 7 8 5 6 3 4 3 2 2 2 2 2 2 3 3 3 2 2 2 2 1 1 2 1 1 1 1 1 2 2 2 2 2 3 4 3 2 1 1 1 1 2 2 2 2 2 2 2 3 4 5 6 6 5 4 1 0 
0 1 2 2 2 2 2 2 2 2 2 1 1 1 2 2 3 3 3 3 4 5 5 5 3 3 2 2 2 2 2 3 2 3 3 3 4 4 5 4 3 3 2 2 1 1 2 2 1 2 4 5 5 6 7 7 6 6 9 11 12 13 14 15 17 19 20 19 17 17 17 17 17 16 17 18 18 19 20 21 22 22 21 20 19 16 15 14 15 17 16 14 12 9 8 7 6 6 5 4 4 5 6 6 6 4 4 4 3 4 3 4 4 3 3 1 2 3 3 3 3 3 3 3 4 4 4 3 2 1 2 2 3 2 1 1 2 3 4 4 5 6 6 6 6 5 5 3 2 2 2 3 3 3 2 2 2 1 1 2 3 2 4 4 4 5 3 3 2 1 1 1 1 1 1 1 1 1 2 2 2 2 2 2 2 2 2 2 3 3 4 4 3 2 2 3 3 3 2 2 2 2 2 2 2 3 4 4 4 3 3 3 2 2 2 2 4 6 8 10 10 9 8 11 12 13 11 8 7 7 7 7 9 5 6 4 6 8 6 8 6 9 11 20 29 32 28 22 21 23 28 31 31 30 29 30 30 26 20 14 9 5 2 1 2 4 5 6 7 6 5 3 2 2 2 1 1 1 1 2 2 3 2 2 1 0 0 1 2 2 3 4 4 5 4 6 7 8 9 8 7 5 4 4 3 4 3 4 6 17 27 39 78 126 159 151 99 53 34 31 34 33 33 27 27 22 22 24 26 27 25 26 40 82 133 156 132 77 34 17 15 8 6 5 3 2 2 2 2 2 2 2 2 3 3 4 3 3 4 5 4 4 4 4 5 5 4 3 1 0 0 0 0 0 0 1 2 3 3 3 2 2 2 2 2 2 2 2 2 2 3 3 2 2 1 0 0 0 1 1 1 2 1 1 0 0 0 1 3 4 4 4 4 5 8 17 22 25 25 75 127 168 164 124 91 70 58 70 98 119 128 127 116 109 97 89 77 84 94 110 135 129 120 103 82 79 93 150 184 160 106 40 27 18 12 8 8 5 4 3 3 3 2 1 1 2 2 2 2 2 2 1 2 2 2 1 1 1 1 1 1 1 2 2 2 2 1 2 3 3 3 2 1 1 1 2 2 3 3 2 2 2 2 3 3 4 4 5 4 4 3 0 
0 1 2 1 2 2 1 1 1 1 1 1 1 1 2 4 5 5 6 5 5 6 5 4 3 2 2 2 2 2 2 2 3 3 2 2 2 2 2 3 3 3 2 1 1 1 2 2 2 2 5 5 6 7 7 7 6 5 8 9 10 11 11 13 15 17 17 17 15 15 16 16 16 16 17 18 19 19 20 21 21 21 19 18 17 15 16 15 15 14 12 11 9 7 5 4 4 5 5 5 5 5 5 5 4 4 4 3 3 3 3 4 5 4 3 1 1 3 3 4 2 1 1 2 3 3 3 2 2 1 2 2 3 3 2 2 2 4 5 6 6 6 7 6 5 5 4 3 2 1 2 2 3 3 2 1 1 1 1 1 2 2 2 3 3 3 2 2 1 0 0 0 0 0 1 1 1 2 2 2 2 1 1 1 2 2 2 2 2 2 3 3 3 2 3 3 3 3 2 2 2 1 2 2 2 3 3 3 3 4 3 3 2 2 2 3 5 7 10 12 13 15 14 15 15 17 18 16 12 11 10 10 10 5 5 3 4 5 4 5 6 7 8 8 13 18 20 19 19 21 23 26 28 30 28 24 17 12 10 8 5 3 2 2 2 4 5 7 7 6 5 3 2 2 1 1 1 1 1 2 2 3 2 2 1 0 0 1 2 2 3 4 4 6 5 5 5 6 6 6 5 5 5 6 5 4 4 5 7 14 26 33 52 96 139 164 141 90 48 32 30 32 34 38 42 42 38 34 29 25 27 45 79 126 157 144 98 46 20 16 13 8 4 4 3 2 1 1 1 1 2 2 2 2 2 3 2 2 3 4 4 4 3 4 5 6 5 3 2 1 0 0 0 0 1 1 2 2 3 2 2 2 2 2 2 2 2 2 2 2 3 3 2 2 0 0 0 0 0 1 1 2 1 1 0 0 0 1 2 4 4 4 5 7 11 21 25 34 52 109 164 184 147 95 69 64 62 62 69 95 110 116 119 114 103 91 75 85 103 119 137 127 109 91 79 74 72 128 185 177 125 49 27 18 11 6 6 5 2 2 2 1 1 1 2 2 2 2 3 3 3 2 2 1 1 1 1 1 1 1 1 2 2 2 2 2 2 2 3 3 2 1 1 1 1 2 2 3 3 2 2 2 2 2 2 2 2 3 3 3 1 0 
0 0 1 1 2 2 1 1 0 0 0 0 0 1 2 2 3 4 4 4 4 5 5 5 4 3 2 2 2 2 2 2 2 2 2 2 3 3 4 3 3 3 3 2 1 2 3 2 3 2 4 4 6 7 7 7 6 4 7 8 9 9 9 10 13 15 15 13 12 11 13 13 15 15 16 17 17 18 18 18 18 17 16 15 14 14 15 15 14 12 10 9 8 7 5 4 3 3 3 2 2 3 3 3 4 3 3 3 3 3 3 3 5 5 3 2 1 3 4 4 2 1 1 1 2 2 2 2 1 2 2 3 4 3 3 3 4 5 6 6 6 6 7 6 5 4 4 3 2 2 2 2 2 2 1 1 1 1 1 1 2 1 2 2 2 2 2 1 0 0 0 0 0 0 0 0 1 2 3 2 1 0 0 1 2 3 3 2 2 2 3 3 3 3 3 3 3 2 1 1 1 1 2 2 2 2 1 2 2 3 3 3 2 2 2 2 4 6 9 14 15 17 22 33 38 35 27 19 15 13 11 9 8 5 4 2 3 3 3 3 5 6 7 8 9 9 9 10 12 15 14 14 14 13 9 6 4 3 3 3 3 2 2 2 4 3 5 5 6 5 4 3 2 2 1 1 1 2 1 2 2 2 2 1 1 0 0 1 2 2 3 3 4 5 5 4 3 4 4 5 5 4 4 4 5 5 8 8 13 17 27 32 36 58 102 147 164 138 91 51 28 28 29 39 40 39 36 30 32 40 58 89 129 159 152 111 61 25 15 14 11 8 6 5 3 2 1 1 2 2 1 1 1 1 1 2 2 2 2 3 3 3 2 3 4 5 5 4 2 1 1 1 1 1 1 1 2 2 2 2 2 2 2 2 2 2 2 3 3 2 2 3 2 2 0 0 0 0 0 1 1 2 0 0 0 0 1 2 3 4 4 4 6 9 12 18 24 48 89 149 184 168 113 69 60 74 80 72 52 60 80 102 118 104 96 82 67 68 77 89 95 95 81 79 69 71 74 123 180 181 136 61 32 24 15 11 6 5 1 1 1 1 1 1 2 3 3 3 3 3 3 2 2 1 1 1 1 1 1 1 1 2 2 2 2 2 2 3 3 3 2 2 1 1 1 2 3 4 4 4 3 3 3 3 3 3 3 4 4 4 3 0 
0 0 1 1 2 2 1 1 0 0 0 0 0 1 2 3 4 5 5 5 5 5 5 5 3 3 2 2 3 2 3 3 3 3 3 2 2 3 3 2 3 3 3 3 3 3 4 4 3 2 3 3 5 5 6 6 5 5 7 8 9 8 7 8 11 13 13 12 10 10 11 12 13 14 15 15 15 15 15 15 14 13 13 12 12 14 16 16 13 11 10 9 8 7 6 4 3 3 3 3 3 3 3 3 3 3 3 3 3 3 2 3 4 5 4 2 1 3 3 4 2 1 1 2 2 2 2 2 1 2 2 4 4 3 2 3 4 5 5 5 4 5 5 5 4 3 4 3 2 2 2 2 2 2 1 1 1 1 1 1 1 1 1 1 2 2 2 1 1 0 0 0 0 0 0 1 2 2 3 3 2 0 0 1 2 2 3 2 2 2 3 3 3 3 3 3 3 2 1 1 1 1 2 2 2 2 1 2 2 3 3 3 2 2 2 2 5 7 11 14 21 38 53 64 65 57 48 32 26 14 13 6 7 4 4 2 2 3 3 3 4 5 6 6 8 10 8 8 9 9 12 11 9 8 6 4 3 3 3 3 3 2 2 3 5 5 7 4 5 4 4 3 2 2 1 1 1 2 1 2 2 2 2 1 1 1 1 2 2 2 2 2 3 4 4 4 2 3 3 5 5 6 7 9 10 9 11 11 19 22 31 36 39 39 61 105 149 168 148 108 71 50 38 39 39 37 39 41 58 81 111 142 162 152 117 73 37 19 14 11 8 8 7 5 4 2 1 2 2 2 2 2 2 1 1 1 2 2 2 2 3 4 4 4 4 5 5 5 3 2 2 2 2 2 2 2 2 2 2 2 2 2 2 2 2 2 2 2 2 2 2 3 2 1 0 0 0 1 1 1 1 1 1 0 0 0 1 3 3 4 3 3 6 9 12 17 36 80 132 175 174 137 85 56 65 77 79 67 56 58 52 53 59 55 59 49 45 49 47 58 61 70 54 63 62 82 90 126 171 166 129 64 36 28 14 10 7 6 2 2 1 1 1 2 3 4 3 3 3 3 4 3 2 1 1 1 2 1 1 1 2 2 2 2 1 2 2 3 3 3 2 1 2 1 2 2 2 3 3 3 3 3 3 3 2 2 1 2 3 4 2 0 
0 0 1 2 2 2 1 1 0 0 0 0 0 1 2 3 4 4 4 4 4 4 5 5 4 3 3 4 3 3 3 3 3 3 2 3 3 3 3 3 3 3 3 3 3 3 4 4 4 3 3 3 3 3 4 4 4 5 7 7 8 8 8 9 11 13 14 13 11 11 13 13 14 13 14 13 13 13 13 12 12 13 14 14 14 15 15 14 11 9 9 9 9 8 6 5 3 2 2 2 2 3 3 3 3 3 3 3 4 4 3 3 4 4 4 2 1 3 3 3 2 1 1 1 2 2 2 2 1 2 3 4 3 3 2 3 4 4 4 3 2 4 3 4 4 3 3 2 2 2 2 2 3 3 2 2 2 2 2 2 1 2 1 1 2 2 3 2 1 1 0 1 1 0 1 0 1 2 3 3 2 1 1 1 2 2 2 2 2 2 3 3 3 2 2 3 2 2 2 1 1 1 1 1 2 2 2 3 2 4 3 3 2 2 2 1 3 5 11 15 27 41 55 65 63 55 51 36 35 14 13 4 4 4 3 2 2 3 4 4 4 4 5 5 6 8 6 7 8 8 9 9 8 7 4 3 2 2 2 3 3 2 2 3 5 4 7 5 7 6 5 3 3 2 2 2 1 2 1 2 1 2 1 1 1 1 2 3 3 2 2 2 3 4 4 3 3 5 5 8 7 8 8 11 23 40 54 55 53 41 33 26 27 31 40 72 110 146 164 154 130 112 98 86 78 73 83 95 115 133 151 158 140 106 70 39 23 17 11 7 5 6 6 6 4 2 2 2 2 3 2 2 2 1 1 1 2 3 2 2 3 4 4 4 5 5 6 5 4 3 2 2 2 2 3 3 2 2 2 2 3 3 3 3 4 3 3 2 2 2 2 3 2 1 1 1 1 1 1 1 1 1 1 0 0 1 2 3 3 3 3 3 6 9 11 20 54 106 153 165 134 88 52 57 78 74 77 67 63 76 70 79 68 60 64 68 76 83 69 67 50 61 49 67 73 98 102 116 147 145 125 74 42 30 18 10 6 5 2 2 2 2 1 2 3 5 4 3 3 4 4 4 3 1 1 1 1 1 1 1 2 2 1 1 1 2 2 3 3 3 2 1 2 1 2 2 3 3 3 4 4 4 4 4 4 3 3 2 3 4 2 0 
0 1 2 2 2 2 1 1 1 0 0 0 0 1 2 2 2 2 3 3 3 3 3 3 3 4 4 4 4 3 3 3 3 2 2 2 2 3 3 3 3 3 3 3 3 3 3 4 4 4 2 2 2 2 2 2 2 4 6 7 7 8 8 8 9 11 14 13 12 12 13 13 14 13 13 13 13 13 13 13 15 18 18 18 16 14 12 12 10 9 8 9 8 7 5 4 2 2 1 1 2 2 2 3 3 3 4 4 5 5 4 4 4 4 4 2 1 3 3 2 1 0 1 1 2 3 2 2 1 2 2 3 3 2 1 2 3 3 3 3 3 4 4 4 3 2 3 3 2 2 2 2 3 3 3 4 3 3 2 2 2 2 2 2 3 3 3 3 3 3 2 2 2 2 2 2 2 3 3 3 2 2 2 2 2 2 2 2 2 2 3 3 2 2 2 3 2 2 2 1 1 1 1 1 1 2 2 4 3 4 3 3 2 1 1 1 4 7 14 15 34 53 79 94 92 78 67 43 38 16 12 4 4 3 2 2 2 2 3 4 6 6 5 4 4 5 5 5 6 8 10 10 8 7 5 4 3 3 3 3 2 2 2 3 5 5 6 5 6 5 4 3 3 2 2 2 2 2 1 1 1 1 1 1 1 1 3 4 4 3 2 2 2 3 3 4 4 5 5 9 8 10 10 21 41 54 66 71 77 80 83 84 84 78 67 64 80 105 132 153 158 155 149 137 129 126 131 139 147 149 140 123 94 65 35 23 20 13 7 4 3 3 4 4 3 2 2 2 2 2 2 1 1 1 1 2 2 3 2 3 3 5 6 5 5 4 5 6 5 3 2 2 2 3 3 3 3 3 3 3 3 4 4 5 4 3 2 2 2 3 3 3 2 2 1 1 1 2 1 1 1 1 1 0 0 1 2 3 3 3 2 3 6 9 12 28 71 121 153 138 94 68 64 78 81 75 80 80 75 82 67 83 90 86 81 72 77 92 94 98 87 100 85 90 91 109 112 98 108 108 101 67 43 27 18 9 6 5 3 3 3 2 2 3 3 4 3 3 3 4 4 4 3 2 2 2 2 1 1 1 2 2 1 1 1 2 2 2 2 2 2 2 2 2 2 3 2 2 2 3 3 4 4 4 3 3 2 3 3 4 3 0 
0 2 4 4 3 2 1 1 1 1 1 1 1 1 1 2 2 2 2 2 2 2 3 2 4 3 5 4 4 3 3 3 2 1 1 1 2 4 4 4 2 2 2 2 2 1 2 3 4 4 3 2 1 2 2 1 2 3 4 5 7 8 8 7 7 9 12 13 12 11 11 11 11 10 10 11 12 12 14 19 22 24 27 26 22 17 13 12 9 10 7 8 7 6 4 4 2 1 1 1 1 2 2 3 3 3 3 3 3 3 3 4 4 4 4 2 2 3 3 2 1 1 1 1 2 2 2 2 1 2 2 3 2 2 2 2 3 3 3 3 3 3 4 4 3 3 3 2 2 2 3 5 6 7 7 9 8 6 3 3 3 3 3 3 4 6 6 5 4 4 4 6 6 5 5 4 3 3 3 3 4 3 3 3 2 1 2 2 3 2 3 3 2 2 2 3 3 3 2 2 2 2 2 2 2 3 3 5 3 4 2 2 2 2 2 2 4 6 12 16 31 38 51 55 54 52 54 42 34 18 11 5 4 2 2 2 2 3 3 4 4 5 4 4 4 4 3 3 4 5 5 5 5 5 5 4 4 4 3 3 2 2 3 3 5 5 5 6 6 5 4 3 2 2 2 2 2 1 2 1 1 1 1 1 1 2 3 4 5 4 3 2 2 3 3 4 4 5 5 9 8 10 12 25 56 89 120 118 99 78 68 68 70 67 67 62 57 67 81 102 121 137 149 154 153 153 150 142 127 111 92 79 47 30 22 19 14 8 4 2 2 2 3 3 3 2 3 3 4 3 3 2 2 2 2 3 2 3 2 3 3 4 4 4 4 4 5 5 4 3 2 2 2 3 3 3 3 2 2 3 3 4 5 5 4 3 3 3 3 3 3 2 2 1 1 1 1 1 1 1 1 1 1 1 1 1 2 2 3 3 3 3 6 10 14 36 82 125 145 122 84 70 79 95 102 87 76 81 74 85 100 120 126 114 108 113 117 118 100 92 84 99 99 105 107 96 82 63 69 81 87 67 43 27 19 11 6 4 4 4 3 2 2 2 2 3 3 3 3 4 4 4 3 3 3 2 2 2 1 1 2 2 2 2 1 1 2 3 3 4 3 2 2 2 2 2 2 2 2 2 3 4 3 3 3 3 2 2 2 3 1 0 
0 1 4 4 4 3 1 1 1 1 1 2 1 1 1 1 2 3 3 3 3 2 2 2 3 3 5 3 3 2 2 2 1 1 1 1 3 5 5 4 2 2 2 2 2 2 2 3 4 4 4 3 3 3 3 2 2 2 4 4 6 8 8 6 5 6 9 11 10 8 7 8 8 7 9 10 11 12 19 22 40 52 64 45 34 16 14 14 11 12 6 5 5 4 3 3 1 1 0 0 0 1 1 2 2 3 3 3 3 3 3 3 4 4 3 3 3 3 3 2 1 1 1 1 1 2 2 2 1 1 2 3 2 2 2 2 1 2 2 3 3 3 3 3 3 3 3 2 3 3 3 4 4 8 8 13 9 7 4 3 4 3 4 5 6 8 9 10 11 11 9 8 7 8 7 6 4 3 4 3 4 3 4 3 2 2 2 2 3 2 3 3 3 2 2 2 2 2 2 2 3 3 2 2 3 4 4 5 4 4 3 3 3 3 2 4 4 8 12 16 25 33 46 55 61 54 43 32 24 14 9 4 3 2 2 2 2 2 2 3 3 4 4 4 3 3 2 3 3 4 4 4 4 3 4 4 4 3 2 2 2 3 3 4 5 6 6 5 5 4 3 3 2 2 2 1 2 2 2 1 1 0 1 1 1 2 2 4 4 3 2 2 2 3 3 4 3 5 4 8 7 9 11 21 45 63 86 99 106 110 114 120 123 111 97 76 55 43 41 56 76 92 106 113 112 110 104 95 78 63 41 34 25 23 17 11 9 5 3 2 1 2 2 2 2 3 3 4 4 4 4 3 3 3 2 3 2 3 2 3 4 4 4 4 3 3 4 4 4 3 2 2 2 2 3 2 2 2 2 3 3 4 4 3 3 2 3 3 3 3 2 2 1 1 1 1 1 1 2 2 2 2 2 1 1 1 2 2 2 2 3 3 5 11 18 37 83 120 143 127 97 82 95 90 101 85 77 79 60 69 112 145 158 147 121 119 102 103 101 100 95 104 96 93 99 96 78 52 50 67 75 65 43 31 18 14 7 6 5 4 3 2 2 2 2 2 2 2 3 3 4 3 3 3 3 3 2 2 2 2 2 2 2 2 1 1 1 2 2 3 3 2 2 2 2 2 2 2 2 2 3 4 3 3 3 2 2 2 2 2 1 0 
0 2 5 5 5 3 2 2 2 2 2 2 2 2 2 2 2 2 2 2 1 1 1 2 3 3 5 3 3 3 3 3 2 2 1 2 3 5 5 4 2 1 2 2 2 2 2 3 3 3 3 3 4 4 4 3 3 2 3 3 6 8 10 9 7 7 9 10 10 8 7 7 8 8 10 10 12 13 27 39 82 81 102 62 51 15 18 19 13 11 4 4 4 3 3 2 1 0 0 0 1 1 1 1 1 1 1 1 1 1 2 3 3 3 3 3 3 4 3 2 1 1 1 1 1 1 1 1 1 1 1 2 2 2 2 2 2 2 2 2 2 2 2 2 3 2 2 2 2 4 5 8 9 12 12 15 14 11 5 3 4 4 3 6 6 10 12 15 15 12 10 10 11 11 9 6 5 3 4 3 4 3 4 3 2 2 2 3 3 3 3 4 4 4 3 4 3 3 2 3 4 4 4 3 3 4 5 5 5 4 3 4 4 3 3 4 3 7 7 13 14 15 19 22 25 25 24 19 15 10 8 6 4 3 2 2 2 2 2 2 1 2 3 4 4 4 3 2 3 3 3 2 3 3 5 5 4 4 3 3 3 4 4 5 6 7 7 5 4 3 2 2 2 2 2 2 2 2 2 2 1 0 1 1 1 1 1 3 4 3 3 2 3 3 3 4 4 6 5 9 7 9 10 14 33 55 74 77 68 63 70 82 85 71 58 46 40 33 26 25 31 41 54 59 61 58 51 41 28 24 21 24 18 12 10 7 8 4 3 2 2 2 2 3 3 4 4 5 5 5 5 5 5 4 3 3 3 2 3 3 3 3 3 3 3 3 3 3 3 3 3 2 2 2 2 2 1 1 1 2 2 3 2 2 2 2 3 3 3 2 2 1 1 0 0 0 1 1 2 2 2 2 2 2 2 1 1 2 3 3 4 4 5 13 22 32 76 114 145 138 107 85 102 94 102 98 83 74 44 51 112 151 169 157 119 115 99 73 58 51 55 79 91 110 100 84 63 51 45 62 74 67 47 33 17 17 6 7 5 4 3 3 3 3 2 2 2 2 2 2 3 3 3 3 3 3 3 3 3 2 3 2 3 2 1 1 1 2 3 4 3 2 2 2 2 2 3 2 2 3 3 3 3 3 2 2 1 1 1 1 0 0 
0 1 3 4 4 3 2 2 2 2 2 2 2 2 1 2 3 5 5 5 4 3 3 2 3 3 4 2 3 3 3 3 3 2 2 3 4 5 5 3 2 1 1 1 2 3 3 3 4 5 5 5 4 5 5 4 3 2 2 3 5 8 10 10 9 9 10 10 10 9 8 8 9 10 13 11 12 14 31 57 103 124 150 93 65 20 18 17 12 8 3 3 4 3 3 2 1 0 0 0 1 1 1 0 0 0 1 1 1 1 2 2 3 3 3 3 3 3 2 1 0 0 0 0 0 0 1 1 1 1 1 2 2 2 2 2 2 2 2 2 2 2 2 2 2 2 2 2 4 4 4 6 5 8 12 14 13 10 7 5 5 4 4 7 9 13 14 16 21 18 18 11 10 10 8 5 4 3 4 2 3 3 4 3 3 2 2 2 3 2 3 3 4 4 4 4 4 3 3 4 6 7 5 4 4 6 8 7 5 4 3 4 4 4 3 4 4 7 5 8 10 12 13 12 12 11 10 11 10 8 6 4 3 3 1 2 2 3 3 2 1 1 2 3 4 3 3 2 2 2 2 2 2 3 3 3 3 2 2 3 4 5 5 5 7 7 7 5 3 2 2 2 2 2 2 2 2 2 2 2 1 1 1 1 1 1 1 3 3 3 2 2 3 2 3 3 3 5 5 7 6 7 8 9 14 22 35 48 57 61 68 70 72 65 54 37 24 17 21 28 30 31 29 25 19 15 15 19 20 20 14 13 8 5 5 4 6 4 3 3 2 3 3 4 4 4 4 5 5 6 5 6 6 5 5 2 3 2 3 3 3 3 3 3 3 4 4 3 3 2 2 2 2 1 1 1 1 1 1 2 2 3 2 2 2 2 2 2 2 2 2 2 2 1 1 0 1 1 2 2 3 2 3 2 2 1 2 1 2 4 4 5 5 15 23 27 63 104 145 147 111 77 76 84 99 121 117 107 62 49 95 137 154 138 112 100 87 61 59 57 56 74 73 102 113 111 72 59 68 89 91 70 47 29 16 15 7 6 4 3 2 3 3 4 3 3 2 2 2 1 2 2 3 4 4 4 4 4 3 3 2 2 3 2 2 2 1 2 3 3 3 2 2 2 3 3 3 3 3 3 3 3 3 3 2 2 2 2 1 1 1 0 
0 1 4 4 4 3 2 2 2 1 1 1 2 2 2 2 2 3 3 3 2 2 1 2 2 3 3 2 3 3 4 4 3 3 3 4 5 5 4 3 2 1 1 1 2 3 3 4 3 3 3 3 3 3 3 3 3 2 2 2 4 6 8 9 9 9 10 11 11 10 10 9 10 11 12 11 11 14 30 67 107 143 141 99 59 25 16 16 9 5 3 4 4 4 2 2 1 0 0 1 1 1 0 0 0 0 0 1 1 1 1 2 2 2 2 3 3 2 1 1 0 0 0 0 0 1 1 1 1 1 1 1 2 2 2 1 1 2 2 3 3 3 2 1 1 1 2 3 4 4 4 6 9 11 13 12 12 11 10 11 13 11 12 13 15 16 21 19 25 16 17 11 12 10 8 5 5 3 5 2 3 3 4 4 3 2 2 2 2 2 2 3 3 3 3 4 4 3 3 3 5 6 5 4 3 4 6 5 5 4 3 4 4 4 3 3 2 4 4 4 4 6 8 7 5 4 4 7 8 9 7 6 4 3 2 2 2 3 2 2 1 2 2 3 3 3 2 1 2 2 2 3 3 3 4 4 3 3 3 4 5 5 5 4 7 8 8 5 3 1 2 2 2 2 2 2 3 3 3 2 2 2 1 1 0 0 1 3 4 4 3 2 3 2 2 3 3 5 5 7 6 6 6 7 9 13 16 17 21 25 33 38 39 33 25 17 14 12 10 11 16 23 24 24 21 18 16 15 11 9 6 5 5 4 5 4 4 3 3 3 3 3 3 3 3 4 4 4 5 5 4 5 5 4 5 2 4 2 4 3 2 2 1 1 2 2 3 2 2 2 2 2 2 2 2 1 1 1 1 1 1 2 2 2 2 2 2 2 1 2 2 3 2 2 1 1 1 1 2 2 3 2 2 2 2 2 2 2 3 4 3 6 5 14 20 24 45 95 143 160 122 93 76 88 94 118 130 126 92 62 67 103 127 121 99 69 51 42 39 38 46 76 85 110 103 98 89 90 95 105 95 66 44 23 16 13 7 5 4 3 3 2 2 3 3 3 3 3 2 1 1 2 3 4 4 5 4 4 3 2 2 2 3 2 2 2 1 2 3 3 3 2 2 2 3 3 3 3 3 3 3 3 3 3 3 2 2 2 2 2 1 0 
0 1 3 3 3 2 2 2 2 1 1 1 1 1 1 2 2 4 3 3 3 3 2 2 2 2 2 2 3 4 4 3 2 3 4 5 5 4 3 3 3 2 2 2 3 3 3 4 4 6 5 5 4 5 4 4 2 2 3 3 4 4 5 6 6 7 9 11 12 12 11 10 10 10 11 11 12 14 24 50 79 108 105 88 45 25 10 10 5 3 4 4 4 4 2 2 1 1 1 1 1 1 0 0 0 0 0 1 1 1 1 2 2 1 2 2 2 1 1 1 1 0 1 1 1 1 1 2 2 1 1 1 2 2 1 1 1 2 3 3 4 3 3 2 1 1 2 3 3 4 5 7 9 12 16 18 19 16 19 23 27 24 23 20 23 20 23 18 24 17 20 11 12 10 9 6 6 4 6 2 4 4 5 4 4 3 2 2 2 2 2 2 2 2 3 3 4 3 3 4 6 7 6 4 4 5 7 6 4 2 2 2 2 2 2 2 2 3 3 3 5 7 7 6 5 4 6 8 7 7 5 5 3 3 2 3 3 3 2 2 1 2 2 3 3 3 2 1 2 2 2 3 3 3 2 2 2 2 3 5 6 7 6 5 7 9 9 6 3 1 2 2 2 2 3 2 3 3 3 3 2 2 1 1 0 0 1 3 4 4 4 2 3 2 2 3 2 4 3 5 4 4 5 7 8 10 11 14 15 15 15 14 15 13 12 10 9 9 10 12 9 7 6 6 5 5 5 8 8 7 5 5 4 4 3 4 4 3 3 3 2 3 3 3 4 4 3 4 4 5 4 4 5 4 4 1 4 2 4 3 2 1 1 1 2 2 2 2 2 2 2 2 2 2 2 1 1 1 1 1 1 1 2 3 3 2 2 2 1 2 2 3 2 2 1 1 1 1 1 2 3 3 3 3 3 3 3 3 3 3 2 4 4 12 16 24 30 84 137 176 142 102 63 87 104 138 173 158 115 71 48 64 84 85 72 63 58 66 66 60 62 71 73 100 117 125 115 109 111 107 80 52 34 19 14 10 5 3 2 2 2 2 2 2 2 3 3 3 2 1 1 2 3 4 5 5 4 4 3 2 2 2 3 2 1 1 2 2 3 3 2 2 2 2 2 3 3 3 3 3 3 3 3 3 2 1 1 2 2 2 1 0 
0 1 3 3 3 2 2 2 2 1 1 1 1 1 1 2 2 2 2 2 2 2 3 3 3 3 2 2 3 4 4 3 2 3 4 4 4 3 3 3 3 3 3 2 3 3 3 4 4 5 5 5 5 6 5 4 3 3 4 3 3 2 2 3 3 4 6 9 11 11 11 10 8 8 9 9 10 11 17 27 47 60 62 50 29 21 9 8 3 3 4 4 4 3 2 2 1 1 1 1 1 0 0 1 1 1 1 1 1 2 1 1 1 2 2 2 2 2 2 2 2 1 1 1 1 1 1 1 2 1 1 1 2 2 2 2 2 3 3 4 4 3 3 2 1 2 3 4 5 5 6 9 15 22 26 26 30 36 39 37 41 48 55 49 41 29 26 21 24 15 13 10 12 11 9 7 7 5 6 2 4 4 5 5 4 3 3 3 2 2 3 3 3 2 2 3 4 4 3 3 4 6 5 4 4 5 8 8 6 4 3 2 3 3 2 2 2 3 3 4 4 4 4 4 5 5 5 6 7 8 6 5 3 2 2 3 3 2 2 1 2 3 3 3 3 2 2 1 1 1 2 3 3 3 3 2 3 3 4 6 7 8 7 7 9 10 9 6 3 2 2 2 2 2 3 3 3 3 3 2 2 2 2 1 1 1 1 3 4 4 5 4 5 4 4 4 3 4 3 4 4 4 5 4 5 6 7 8 9 9 11 13 14 13 11 10 8 10 8 8 8 7 6 5 4 4 4 5 5 4 4 3 4 5 4 3 2 2 2 3 3 4 4 4 3 3 2 2 4 5 5 5 5 3 4 2 4 2 3 3 2 2 1 1 2 2 2 2 2 2 3 3 3 2 2 2 1 1 1 1 1 2 4 4 4 2 1 1 1 2 2 2 2 2 2 1 1 1 1 1 2 2 3 3 3 3 2 3 3 2 2 2 3 8 12 22 23 70 128 189 187 157 94 84 96 131 164 155 116 66 36 35 55 70 65 63 61 69 79 78 85 75 63 80 86 105 114 123 118 100 68 40 27 19 12 7 4 4 3 2 2 2 2 2 2 2 2 2 2 2 1 2 3 3 3 3 3 3 2 2 2 2 2 2 1 2 2 2 3 3 3 2 2 2 3 3 3 3 3 3 3 3 3 3 2 2 1 1 2 2 1 0 
0 2 3 3 2 2 2 2 2 2 1 1 1 1 1 1 2 3 2 2 2 1 2 2 3 3 3 3 3 3 3 3 3 3 4 3 3 3 3 3 3 3 4 3 3 2 2 3 3 4 5 6 6 6 6 5 5 5 6 6 5 4 4 3 3 3 4 7 9 10 9 9 8 7 8 8 8 8 10 11 17 21 26 26 19 13 7 5 3 3 4 3 3 3 2 2 1 1 1 1 1 1 1 2 2 2 1 1 1 1 1 1 1 1 2 2 2 3 3 2 2 1 2 2 2 2 2 2 2 2 2 2 3 3 3 3 3 3 3 3 3 3 2 2 2 2 4 5 6 9 15 25 31 28 29 32 40 39 49 73 113 130 134 118 93 64 41 26 21 23 15 13 12 14 15 13 9 6 5 2 4 4 5 5 4 3 3 3 3 3 3 4 3 3 3 3 4 4 3 4 5 6 5 4 4 5 6 6 5 3 2 3 3 3 3 3 3 4 3 3 2 3 5 5 6 5 5 4 4 5 4 4 3 2 2 2 2 2 1 1 1 2 2 2 2 1 2 2 2 2 2 3 3 2 2 2 2 3 4 5 7 8 8 8 10 10 8 6 3 2 2 2 2 2 3 2 2 2 3 3 3 3 3 2 2 2 2 2 3 4 6 6 6 5 5 5 4 4 4 4 5 4 6 4 7 5 5 4 4 5 8 11 12 10 8 8 6 7 7 8 7 5 4 3 3 3 5 5 5 5 4 4 4 3 3 2 2 2 3 3 2 2 2 3 3 3 3 3 4 5 5 5 5 3 3 2 3 2 3 3 2 2 1 2 2 2 2 2 2 2 2 3 3 3 2 1 1 2 2 2 3 3 5 4 4 2 1 1 1 1 2 2 2 1 1 1 1 0 0 1 2 3 3 2 2 2 2 2 2 2 2 1 2 5 8 17 22 49 100 164 192 176 120 93 95 118 133 122 93 59 34 39 49 56 59 68 81 97 111 95 101 95 80 81 82 106 117 118 105 72 42 24 23 16 7 4 3 2 2 1 2 2 2 2 2 2 2 2 1 2 1 2 3 3 3 2 2 3 3 3 3 3 2 2 1 2 2 2 2 2 2 2 2 2 3 3 3 3 3 2 3 4 4 4 3 2 2 1 2 2 1 0 
0 2 3 3 2 2 2 2 2 2 1 2 1 1 1 1 2 2 2 3 2 2 3 2 3 3 3 3 3 4 4 4 4 4 5 4 4 4 4 4 3 2 3 3 3 2 2 2 3 3 4 5 7 7 6 5 6 7 8 6 4 3 3 3 3 2 3 5 6 7 7 7 6 6 6 4 4 5 5 6 9 10 13 14 11 11 6 5 4 3 3 3 3 3 3 2 2 1 1 1 2 2 2 2 2 2 2 1 2 2 2 2 2 2 2 3 3 4 4 4 4 2 2 2 2 2 2 3 3 3 3 3 3 3 3 3 3 4 3 2 2 2 2 2 2 3 5 7 11 18 24 28 39 53 77 85 99 105 134 155 179 186 182 165 145 117 81 58 37 34 26 20 16 13 11 9 8 6 4 2 3 4 6 6 4 4 4 3 3 3 4 4 4 3 3 3 4 4 3 3 4 6 6 5 4 6 8 9 6 4 2 2 3 3 3 3 4 4 3 3 3 3 3 4 6 5 5 3 4 4 4 3 1 1 1 2 2 2 1 1 2 2 3 3 2 1 1 1 2 2 2 2 2 2 2 1 2 3 3 4 5 6 7 7 8 8 6 5 3 2 3 2 2 2 3 2 2 2 2 3 4 4 5 5 6 6 6 4 3 4 5 6 7 6 6 5 5 5 4 4 5 4 6 4 6 4 6 5 5 6 8 9 9 9 7 6 5 6 7 8 9 7 5 4 3 3 5 5 6 6 5 5 4 4 3 2 1 2 3 4 4 4 4 4 4 4 3 3 4 5 5 5 4 3 2 2 2 1 1 2 2 3 2 2 2 2 2 2 2 2 2 2 2 2 2 2 2 2 2 3 3 4 5 4 3 2 1 1 1 1 1 2 2 2 2 2 1 1 1 1 2 2 3 3 2 2 1 1 2 2 2 2 2 3 4 11 21 36 74 124 168 180 144 104 84 94 103 89 63 48 35 37 49 51 56 61 85 101 115 97 91 85 82 82 84 91 116 127 112 71 42 24 21 12 5 3 3 2 2 2 3 3 3 2 3 2 2 2 1 2 1 2 2 2 2 1 2 3 3 3 2 3 2 1 1 2 2 3 2 3 3 3 2 2 3 4 3 3 3 2 3 3 4 4 3 2 3 2 2 2 1 0 
0 2 2 2 2 1 1 1 2 2 1 2 2 2 2 2 2 2 2 3 2 2 1 1 2 3 3 4 4 4 3 3 3 4 5 5 5 4 5 4 3 2 4 4 3 3 2 2 2 3 4 5 5 5 5 5 6 8 8 7 5 4 4 4 3 3 3 4 5 6 6 6 6 5 5 3 2 2 3 6 7 8 10 12 10 8 5 5 5 3 3 2 2 2 2 2 2 2 1 1 2 2 3 3 3 2 2 1 1 1 2 2 2 2 2 3 4 4 4 3 2 2 2 2 3 3 3 3 3 3 3 3 3 3 3 4 3 3 2 2 2 2 2 2 3 4 7 11 22 26 37 58 99 126 141 145 154 165 188 204 211 200 186 180 183 178 148 106 59 35 31 27 26 21 20 16 11 6 4 2 2 4 4 5 4 3 3 3 4 4 4 4 4 3 3 3 3 3 3 4 5 5 4 4 4 4 4 4 4 4 4 5 5 5 4 4 4 3 3 3 3 4 5 4 5 3 4 2 2 3 3 3 1 1 1 1 2 2 1 1 2 2 3 2 2 1 2 2 2 2 2 2 2 2 1 1 1 1 2 3 3 3 4 5 5 5 4 4 3 3 3 2 3 2 2 2 2 3 4 4 4 4 4 6 8 8 6 5 4 5 7 7 7 6 6 5 4 4 3 3 4 4 5 3 4 4 3 3 3 4 5 6 6 5 4 4 4 4 6 6 6 5 4 3 2 3 4 4 5 5 4 5 4 3 2 1 1 2 3 3 2 2 2 3 3 3 3 3 4 4 4 4 4 3 2 1 1 1 1 2 3 3 3 2 2 1 2 2 2 2 1 1 1 1 2 2 2 2 2 2 3 4 4 3 2 2 2 1 1 0 1 1 2 2 2 2 1 1 1 2 2 3 3 2 2 1 1 1 2 1 1 1 1 2 3 6 17 27 41 77 127 163 158 120 77 64 63 65 55 43 42 42 46 42 45 53 85 108 115 101 92 86 98 90 100 117 149 147 109 57 30 18 17 9 2 1 2 2 2 3 3 3 3 2 2 2 2 1 1 1 1 2 2 2 2 1 1 2 3 3 2 2 2 1 1 2 2 3 2 2 2 2 2 2 2 2 2 2 2 2 2 3 3 3 3 3 3 2 2 2 1 0 
0 1 1 1 1 1 1 1 1 1 1 2 2 2 3 2 2 2 2 3 3 3 2 2 2 2 3 3 3 4 4 3 3 5 7 6 6 7 6 5 3 2 3 3 3 3 3 3 4 4 5 5 6 6 4 6 8 9 8 7 5 4 3 3 3 4 4 4 5 5 5 6 6 6 5 4 3 3 3 7 8 10 9 10 8 8 6 5 6 4 4 4 4 4 4 3 3 2 2 2 2 3 3 3 2 2 1 1 1 1 2 2 2 2 2 2 3 3 3 3 3 3 2 2 3 3 3 3 3 3 3 3 3 3 3 3 2 2 2 2 2 2 2 3 4 6 9 15 31 36 65 102 150 182 192 194 198 210 217 204 172 139 124 135 164 198 209 191 151 102 72 44 30 22 19 12 9 5 5 2 3 5 5 5 4 3 3 2 3 4 4 4 3 2 2 2 3 3 2 2 3 4 5 4 4 4 4 5 4 3 3 3 3 3 3 3 3 3 2 2 2 3 3 4 5 4 4 2 2 2 2 3 1 1 1 1 2 2 2 1 1 1 2 2 2 2 2 1 1 1 1 1 2 2 1 1 1 1 1 1 2 1 1 2 2 3 3 3 3 3 3 3 3 3 3 3 3 3 3 3 4 5 5 6 8 9 8 6 4 4 5 4 4 4 4 5 5 4 3 3 3 3 3 3 3 3 4 4 5 5 6 6 5 4 3 2 3 3 5 5 5 5 4 4 4 4 4 4 4 4 4 4 4 3 2 1 2 2 2 2 2 2 3 3 3 3 2 2 2 2 3 3 4 3 3 2 1 1 1 2 2 2 2 2 2 1 2 2 2 2 1 0 0 1 2 3 3 2 2 2 3 3 3 3 2 2 1 1 0 0 0 1 1 1 1 1 1 1 1 1 2 2 3 3 2 2 2 2 2 2 1 1 1 1 2 3 10 25 34 47 93 139 164 132 81 63 60 67 63 62 52 55 49 45 42 49 69 94 113 110 102 90 104 109 140 166 177 150 94 44 23 17 14 7 2 2 2 2 2 3 3 2 2 1 1 1 1 1 1 1 1 1 1 1 1 1 1 2 2 3 2 1 1 1 1 2 2 2 1 2 2 2 2 2 2 1 2 2 2 1 2 2 3 3 3 3 3 3 2 2 1 0 
0 1 1 1 0 0 1 1 1 1 1 1 2 3 3 3 3 3 3 3 3 3 3 3 2 2 2 3 3 4 3 3 4 5 6 6 7 7 6 4 2 1 2 2 3 3 2 3 4 6 6 6 4 5 4 5 6 6 7 6 5 4 4 3 3 3 4 4 4 4 4 5 6 6 6 5 4 4 4 7 7 7 7 8 6 6 4 5 5 3 3 3 3 2 2 2 3 2 2 1 1 2 3 3 3 2 1 0 0 1 2 2 2 2 3 4 3 3 2 3 3 3 3 3 3 3 3 3 3 3 3 3 3 3 3 3 2 2 2 2 1 1 2 4 5 9 12 26 39 56 103 156 202 208 184 167 171 178 171 140 99 67 66 79 112 168 217 232 209 164 130 100 70 40 26 16 12 7 6 5 6 7 7 6 5 3 2 2 3 4 4 3 4 2 4 3 4 4 3 4 4 4 3 2 3 3 3 3 3 4 4 4 4 4 4 3 2 2 2 3 3 4 4 5 4 4 4 2 2 2 2 3 2 2 2 2 2 1 2 1 2 2 2 2 2 2 2 2 1 1 1 1 1 1 2 1 1 1 1 1 1 1 1 2 2 2 3 3 2 3 3 4 3 3 3 3 4 5 6 6 6 6 7 9 11 10 7 6 7 7 7 7 7 6 5 4 4 3 2 2 2 2 2 2 3 3 3 2 2 3 4 4 4 4 3 2 2 2 3 3 3 2 2 3 3 3 2 3 3 4 4 4 4 3 2 2 2 2 2 2 1 1 1 2 1 1 1 0 1 1 2 3 4 4 4 2 1 1 1 1 2 2 2 2 2 1 1 1 1 1 0 0 0 0 1 2 3 3 2 2 3 4 3 3 2 2 1 1 1 0 0 1 1 2 1 1 1 1 1 2 2 2 2 3 3 2 2 2 2 2 1 1 1 1 2 4 8 18 31 38 89 139 186 171 116 79 71 86 77 90 79 77 65 56 48 42 53 80 126 137 128 107 106 134 165 177 161 119 66 33 20 16 12 6 3 2 1 2 2 2 3 2 2 2 1 1 1 1 1 1 1 1 1 2 2 1 1 2 2 2 2 1 1 1 1 1 2 2 2 2 2 2 2 1 1 1 2 1 1 1 1 1 2 2 3 3 3 3 2 2 1 0 
0 1 1 1 0 0 0 1 1 1 1 1 2 2 2 3 3 3 2 2 2 3 3 3 3 2 2 2 3 3 3 4 5 7 6 7 6 6 5 3 1 1 1 2 2 2 2 3 4 5 5 5 4 4 5 5 5 5 5 5 5 4 4 3 3 3 3 3 3 3 3 3 4 5 5 5 4 5 5 5 6 6 5 6 6 6 5 5 4 4 4 4 5 5 5 3 3 2 2 2 1 2 3 3 3 2 1 0 0 0 1 1 2 2 2 3 3 2 2 2 3 3 4 3 3 3 3 3 3 3 3 3 3 3 4 4 3 2 2 1 1 1 2 4 6 11 13 39 42 83 140 200 213 173 123 103 104 102 89 65 50 40 42 47 61 103 163 215 232 212 178 140 103 66 38 23 17 12 7 9 10 10 10 5 5 3 3 2 2 3 3 3 3 3 4 4 4 4 2 3 2 2 2 2 2 3 3 3 3 3 2 2 2 2 2 2 3 2 2 2 2 2 2 3 4 4 4 2 2 2 2 3 2 2 2 2 2 2 2 2 2 2 1 1 1 1 2 1 1 1 1 1 1 1 1 1 1 1 0 1 2 1 1 1 2 2 3 3 2 3 2 4 3 4 3 4 4 3 3 3 5 6 8 8 8 7 8 6 5 5 5 4 3 3 5 4 4 3 2 2 2 2 2 2 3 3 3 3 3 3 3 3 2 1 1 1 2 2 2 2 1 1 2 3 3 3 2 2 2 3 3 3 3 2 2 2 2 2 1 1 1 1 2 2 1 0 0 0 0 1 1 2 3 4 4 3 3 2 2 2 2 2 2 1 1 1 1 1 1 1 0 0 0 1 2 2 2 2 2 2 3 4 4 3 3 1 1 1 1 1 1 1 1 1 1 1 1 1 1 2 2 3 3 3 3 3 3 3 2 2 2 1 1 1 2 5 9 13 24 30 61 116 168 189 169 141 117 120 98 95 75 81 80 69 64 57 73 95 141 153 138 115 102 129 148 144 114 76 38 24 18 13 8 5 4 3 3 3 2 2 2 2 2 2 1 1 1 1 1 1 1 0 1 1 1 1 1 1 1 2 2 1 1 1 1 1 1 1 2 1 1 1 1 1 1 2 2 1 1 1 1 2 2 3 4 4 3 3 2 3 2 0 
0 1 2 1 1 0 1 1 2 2 1 1 1 2 2 2 2 3 2 3 2 3 3 2 2 1 2 2 3 3 3 4 5 8 8 6 5 5 4 3 2 1 1 1 2 2 1 2 2 4 5 5 6 6 5 5 3 4 4 5 5 5 4 4 3 3 2 2 2 2 2 2 3 3 3 3 3 4 4 4 4 3 5 6 5 5 3 3 4 4 4 3 3 3 3 3 3 3 2 2 2 2 2 2 2 2 1 0 0 0 1 1 2 2 2 3 3 2 3 3 4 4 4 4 4 4 3 4 3 3 4 4 4 4 4 4 3 2 2 1 1 1 2 4 6 11 21 47 48 114 170 221 194 119 60 46 46 44 39 33 32 34 31 29 25 45 88 137 173 187 184 170 144 106 69 40 27 23 11 10 11 10 11 6 6 3 3 3 3 3 3 3 3 3 4 4 3 3 2 3 3 3 3 3 3 3 4 4 3 3 2 2 2 2 3 3 3 3 3 2 2 2 2 2 4 3 4 3 2 2 2 2 2 3 2 2 2 2 2 3 3 3 2 1 0 0 1 1 1 1 1 1 1 1 1 1 1 1 1 1 1 2 2 2 2 2 3 3 3 3 3 4 3 4 4 4 6 7 8 9 10 11 14 16 18 14 10 8 9 10 9 8 9 7 5 4 4 3 2 2 1 2 2 3 3 3 3 3 2 2 2 2 3 2 2 2 2 2 2 2 2 1 1 2 2 3 2 3 3 4 3 3 2 2 2 3 3 3 2 1 1 1 2 2 2 1 0 0 0 0 1 2 4 5 5 4 4 3 3 3 3 3 2 2 1 1 1 1 1 0 0 0 1 1 2 2 2 2 2 2 2 3 4 3 3 1 1 1 1 1 1 1 1 1 2 2 2 2 2 3 3 3 3 4 4 4 4 3 4 4 3 2 1 1 2 4 8 12 19 26 40 88 137 177 192 190 170 162 137 121 93 81 79 74 80 77 90 106 131 135 117 97 82 93 94 79 53 31 23 21 13 8 4 3 3 3 3 2 2 2 2 3 2 2 1 1 1 2 2 2 1 1 1 1 1 1 1 1 1 1 1 2 1 1 1 1 0 1 1 1 1 1 1 1 1 2 2 1 1 1 2 2 3 3 4 4 3 3 3 3 2 0 
0 1 2 2 1 0 1 1 2 2 2 2 2 2 2 2 2 2 2 1 2 2 2 1 1 1 2 3 3 3 2 3 4 6 6 6 5 3 3 3 3 2 2 2 1 1 1 1 2 2 4 5 6 7 6 4 2 3 4 5 5 4 3 3 3 3 3 2 2 2 2 2 2 2 2 3 4 4 4 4 4 4 5 5 5 5 5 6 5 5 5 5 6 6 5 5 4 4 4 3 3 3 3 3 2 2 1 0 0 0 1 2 2 2 1 2 3 2 2 2 3 3 4 3 4 4 3 4 4 3 4 4 4 4 4 4 4 3 3 2 2 2 3 5 7 11 28 46 65 137 195 224 171 86 36 29 24 19 17 21 23 25 18 16 12 17 30 57 91 121 140 155 165 149 110 67 35 30 16 10 9 8 9 6 5 3 3 2 2 2 2 2 3 3 4 4 3 3 2 3 3 3 3 2 3 3 4 4 4 3 2 2 2 2 3 3 3 3 3 2 2 2 2 2 4 3 4 2 3 2 1 2 1 1 1 1 2 1 2 3 3 3 2 2 1 1 1 2 2 1 1 1 1 1 1 1 1 1 1 2 2 2 1 2 1 2 3 3 3 3 3 5 5 4 5 6 9 11 14 17 21 25 27 27 26 24 22 20 15 11 7 6 7 7 7 6 5 3 2 2 2 2 2 4 4 3 3 3 2 2 2 2 2 2 2 2 2 2 2 2 2 2 1 2 2 3 2 4 3 4 2 2 2 2 2 3 3 3 2 2 2 2 2 2 2 2 1 0 0 0 1 2 3 4 5 4 4 3 3 3 2 3 2 2 1 1 1 1 1 1 1 1 1 1 1 1 1 1 1 1 2 3 4 3 2 1 0 0 1 1 1 1 1 1 2 2 2 2 2 3 4 4 3 3 3 4 5 4 5 4 3 2 1 0 1 5 9 14 16 24 28 42 81 126 149 154 149 157 154 145 119 90 100 118 136 141 138 128 119 106 90 73 60 61 48 36 30 25 23 15 7 4 2 2 3 3 3 3 3 2 2 2 1 2 2 2 2 2 2 2 1 1 1 0 1 1 1 1 1 1 2 2 2 2 1 1 0 0 0 0 0 0 1 1 1 1 2 2 2 2 2 2 3 3 4 4 4 4 4 4 2 0 
0 1 2 2 2 1 1 2 3 3 2 1 2 2 3 3 3 2 2 2 2 2 2 2 2 3 3 3 3 2 2 2 3 5 6 6 5 4 4 4 4 3 3 2 1 1 1 1 2 2 4 5 6 6 5 4 3 3 4 5 6 6 6 6 5 4 3 3 3 3 2 2 2 2 2 2 3 3 3 3 3 5 7 8 8 8 7 6 6 5 5 5 4 4 4 5 5 5 5 5 4 3 3 3 2 2 1 0 0 0 1 2 2 2 1 1 2 2 2 2 2 3 3 4 4 5 4 5 4 4 5 4 5 5 5 5 5 5 5 4 3 3 4 4 7 16 29 52 91 151 204 207 146 65 20 11 10 13 20 29 33 29 20 15 14 17 15 23 46 74 96 121 159 180 158 111 52 32 21 12 7 7 6 5 5 3 3 2 2 3 3 3 3 3 4 3 2 2 2 2 2 2 3 3 3 3 4 4 4 3 2 2 3 3 3 3 2 2 2 2 2 2 2 3 3 3 3 2 2 2 2 2 2 3 2 2 1 1 2 2 3 3 2 2 2 2 2 3 2 2 1 1 1 1 1 1 1 1 1 1 1 1 1 1 1 2 2 3 2 3 4 5 6 7 8 11 16 21 26 29 29 27 26 26 26 23 21 24 28 27 21 16 13 11 8 8 5 5 4 2 3 3 4 4 4 3 2 2 2 3 2 2 2 2 2 2 1 1 1 2 2 2 2 3 2 4 3 4 3 3 1 2 1 2 2 3 3 3 2 2 2 2 2 2 2 2 1 0 0 1 2 3 4 5 5 5 4 4 3 3 3 3 3 2 1 2 2 2 2 1 1 1 1 1 1 1 1 2 2 2 2 3 3 3 2 0 0 0 0 0 1 1 2 2 2 1 1 1 1 2 3 3 4 4 5 6 6 6 5 4 3 2 0 0 0 5 8 15 18 22 23 28 37 62 102 131 141 147 150 152 161 155 155 159 168 167 147 119 97 83 76 63 47 38 23 26 24 21 15 7 3 2 2 2 2 2 2 2 2 2 1 1 1 2 2 2 2 2 2 1 1 1 1 1 1 1 1 1 1 1 2 2 2 2 2 1 0 0 0 0 0 0 1 1 1 1 2 2 3 2 3 3 3 3 3 3 4 4 5 5 2 0 
0 2 3 3 2 1 2 3 3 3 3 4 4 4 4 3 3 2 2 3 3 3 3 3 2 3 3 3 2 2 1 2 1 2 3 4 5 5 4 4 4 3 3 2 1 1 2 3 3 4 4 5 5 6 5 4 4 3 3 4 4 6 6 5 4 3 3 3 2 2 2 2 3 3 4 4 4 3 3 3 3 4 6 7 7 8 7 7 7 7 6 6 6 6 5 6 6 7 8 6 5 4 3 3 2 1 0 0 0 0 1 2 3 2 1 2 2 2 2 2 3 3 3 3 3 3 3 4 4 4 4 4 4 4 3 4 5 6 6 5 6 5 7 7 14 21 37 75 108 150 187 175 126 60 16 12 11 23 45 62 74 61 47 27 16 20 14 17 34 55 73 93 136 181 183 139 80 40 23 14 8 6 8 6 4 3 3 1 1 2 2 2 3 3 4 3 2 2 1 2 2 2 2 1 2 2 3 3 3 2 2 2 3 3 2 2 1 1 2 2 3 3 3 3 3 2 2 2 2 2 2 2 3 2 2 2 1 1 1 2 2 3 2 3 3 3 3 4 2 2 0 1 1 1 1 1 0 0 1 1 1 1 1 1 1 2 2 2 2 3 4 6 8 8 13 17 22 33 48 61 66 69 72 72 67 61 51 41 36 33 30 25 19 16 10 9 6 5 5 4 5 5 5 5 4 4 3 3 3 4 2 3 2 2 2 2 1 1 1 2 2 3 3 4 4 5 3 4 2 2 1 2 1 2 2 3 3 2 2 2 3 3 2 2 1 2 1 1 1 2 3 3 3 4 3 3 2 1 2 2 2 2 2 2 2 2 2 3 2 2 2 1 1 1 1 2 2 3 3 3 3 3 3 3 2 1 0 0 0 0 1 1 2 3 2 2 1 1 2 2 3 3 4 3 3 4 5 5 4 3 2 2 1 1 1 5 10 17 17 21 18 22 25 29 34 42 55 75 109 128 142 144 149 153 153 146 126 105 86 71 60 48 36 27 22 25 22 19 14 7 4 2 2 2 2 2 2 2 2 2 2 1 1 2 2 1 1 1 1 1 1 1 1 1 2 2 3 4 4 4 4 3 4 4 2 2 1 0 0 0 0 1 1 2 1 1 2 2 2 2 2 2 2 2 2 2 4 4 5 5 3 0 
0 2 3 3 3 2 2 3 4 4 4 4 5 4 4 3 3 2 2 2 3 3 3 3 3 3 3 2 2 1 1 2 2 2 3 4 4 4 4 4 4 3 3 2 2 2 2 3 3 4 4 5 5 5 5 5 7 5 4 4 4 5 5 5 4 3 2 2 1 1 1 2 3 4 5 4 4 3 2 2 3 4 4 5 5 6 6 7 5 5 5 4 3 3 4 5 5 6 7 6 5 3 3 3 2 1 0 0 0 0 1 1 2 2 1 1 1 2 2 2 2 3 3 3 3 3 3 4 4 4 3 3 3 3 3 4 4 5 5 6 6 7 8 6 20 25 58 100 130 143 149 137 110 64 17 11 13 40 70 89 105 87 69 43 23 23 17 15 22 38 50 65 105 156 189 164 106 56 25 18 13 7 7 6 6 4 3 2 1 2 2 2 2 2 3 2 1 1 1 1 1 1 1 1 2 2 4 4 3 2 2 2 3 3 2 2 2 1 1 3 3 4 3 3 2 2 2 2 2 2 3 3 3 2 1 1 1 0 1 1 2 2 2 2 3 3 4 4 2 1 0 1 1 1 1 1 0 0 1 1 1 1 1 1 2 3 2 2 2 4 7 8 12 17 28 31 43 64 87 100 101 101 102 106 103 96 86 78 71 57 44 35 29 27 19 10 6 6 5 6 5 5 5 6 4 3 3 4 4 4 3 3 2 1 2 1 1 1 2 2 3 3 4 4 4 5 4 4 2 2 1 2 1 2 1 2 2 2 2 2 2 2 1 1 1 2 2 2 2 3 3 3 3 3 2 2 1 1 2 2 2 2 2 2 1 2 2 2 3 3 2 2 2 2 2 2 3 3 4 4 4 4 4 3 1 0 0 0 0 0 1 1 2 2 2 2 2 1 1 1 2 3 4 5 5 5 5 4 3 2 1 1 1 1 1 5 9 13 15 15 13 13 15 24 33 41 47 47 56 80 111 126 133 128 117 105 87 75 64 55 46 34 21 16 15 14 13 12 8 5 4 3 3 2 2 2 2 2 3 2 2 1 1 1 1 1 1 1 1 1 1 1 1 2 2 3 4 5 4 4 5 4 4 4 2 3 1 1 0 0 1 1 2 2 1 1 1 2 1 2 2 2 2 2 1 2 3 3 4 4 2 0 
0 2 4 3 3 3 4 5 6 6 5 6 6 5 5 3 2 2 2 2 3 3 3 3 2 2 2 1 1 1 1 1 2 2 2 3 3 5 5 4 2 2 2 2 2 2 2 3 3 4 4 5 5 5 5 5 6 4 3 2 2 4 4 4 2 1 0 0 0 0 0 1 3 4 5 4 4 3 3 2 2 2 3 2 3 4 4 4 4 5 5 5 4 4 4 4 5 6 6 5 4 3 3 3 2 1 0 0 0 0 1 1 2 2 1 2 2 2 1 2 2 2 2 1 0 0 1 3 4 3 3 2 3 2 2 2 3 4 4 7 6 9 10 9 30 29 88 130 155 140 120 121 106 74 26 16 23 57 89 103 117 101 86 55 28 24 21 15 17 27 31 44 75 119 172 176 131 79 31 19 15 9 9 9 6 5 3 2 1 3 2 2 2 2 3 2 1 0 0 0 1 2 2 3 3 4 4 4 3 1 1 1 1 2 2 2 2 1 1 2 3 4 3 2 1 1 1 1 1 2 2 2 2 1 0 0 0 0 1 1 1 1 1 1 1 2 3 3 2 1 1 1 1 1 1 1 0 0 1 1 2 1 1 2 2 2 2 2 2 4 7 10 18 29 34 44 72 98 118 118 116 125 126 126 120 121 123 130 136 131 111 79 54 45 42 30 19 11 5 7 5 5 4 5 4 4 3 3 4 4 3 3 2 2 2 2 1 1 2 2 5 5 5 4 4 5 4 4 3 2 1 2 1 2 1 1 1 1 2 2 2 2 1 1 1 2 3 3 3 4 4 3 3 2 1 1 1 1 1 1 2 1 1 2 2 2 1 2 3 3 3 2 2 3 3 3 4 4 4 4 3 3 3 3 3 3 3 3 3 3 3 3 3 2 2 2 2 2 2 2 3 3 3 4 3 3 3 2 1 0 1 1 1 1 2 4 7 10 10 10 10 11 10 9 10 12 19 26 29 33 44 59 66 61 53 50 50 50 47 39 27 16 10 9 10 9 9 8 8 7 4 3 2 2 2 2 2 2 2 2 2 1 1 1 1 0 0 1 1 2 2 1 2 2 3 6 5 6 6 5 5 4 3 3 2 2 1 1 1 1 1 2 2 2 1 1 1 2 2 2 2 2 2 2 2 2 3 3 3 3 2 0 
0 2 3 3 3 3 4 5 6 6 5 5 5 5 4 3 3 2 1 1 1 1 1 1 1 1 1 1 1 1 1 1 2 2 3 3 3 4 4 4 2 2 2 2 2 2 2 2 2 3 4 5 5 4 4 5 6 6 5 4 3 2 2 2 1 1 0 0 0 0 0 1 3 4 5 3 3 3 3 3 4 2 2 1 1 2 2 3 3 3 3 3 3 4 4 4 4 4 4 3 3 3 3 2 2 1 1 1 1 1 1 1 1 1 1 2 1 1 1 1 2 2 1 0 0 0 1 2 3 3 2 2 2 2 2 1 2 3 4 6 6 9 9 12 37 34 116 154 174 140 93 108 97 73 34 27 37 65 87 96 107 96 80 52 27 23 22 15 12 15 19 32 56 92 154 181 151 96 40 21 19 12 8 10 5 6 4 3 2 3 2 2 2 2 3 2 1 1 1 1 2 2 3 3 4 5 5 5 4 2 2 2 1 1 2 2 2 1 1 2 3 3 3 2 1 2 1 1 0 1 1 1 1 0 0 0 0 0 1 1 1 1 0 0 0 1 2 2 1 1 1 1 1 1 1 1 1 1 1 2 2 1 2 3 5 5 4 2 2 6 11 17 23 35 50 88 123 144 150 133 120 116 109 106 100 112 128 151 166 171 162 135 103 64 45 39 32 25 16 10 7 4 4 3 4 3 2 2 3 3 3 3 3 3 3 2 1 1 2 3 6 5 5 4 4 4 3 3 3 2 1 2 1 2 1 1 1 1 2 2 2 2 2 1 2 2 3 3 3 3 3 2 2 1 1 1 2 2 2 2 2 2 2 2 2 1 1 1 2 3 3 3 3 3 3 3 3 4 4 4 4 4 4 3 2 2 1 1 1 1 1 2 2 2 2 2 2 2 2 2 2 3 3 4 4 3 2 2 1 1 1 1 2 1 2 3 5 7 7 9 8 8 7 8 8 6 7 10 17 27 34 37 38 40 41 37 30 22 17 14 14 11 8 7 7 6 6 6 5 4 4 4 3 3 2 2 2 2 2 2 1 1 0 0 0 0 1 1 1 2 2 2 3 4 6 7 7 7 6 5 4 3 3 2 2 2 1 1 1 1 1 2 2 1 1 1 1 1 1 2 2 2 2 2 2 2 3 3 2 2 1 0 
0 2 3 2 2 2 3 4 5 5 5 3 3 3 4 3 3 2 1 0 0 0 0 1 1 0 1 1 2 1 1 1 2 3 4 4 5 6 7 5 3 2 2 2 2 2 2 2 2 3 4 5 4 3 2 3 3 3 2 2 2 2 2 2 1 1 0 0 0 0 0 1 3 3 5 3 3 2 3 3 3 1 2 1 1 2 2 3 2 3 3 4 4 4 5 4 4 3 3 3 2 3 3 3 2 2 2 2 2 2 2 1 1 1 1 1 1 1 1 1 1 1 1 1 0 0 0 1 2 3 2 2 2 2 1 1 2 2 4 5 5 7 7 16 40 43 134 168 187 145 89 92 79 62 37 34 40 56 69 75 81 82 67 44 23 20 22 17 14 14 11 17 40 76 149 192 171 112 50 25 23 13 10 9 5 5 4 3 2 3 3 3 3 3 3 2 2 2 1 1 2 3 3 4 4 4 4 5 4 4 3 2 2 2 3 3 2 0 1 2 3 3 2 1 1 1 1 0 0 0 0 0 0 0 0 0 0 1 1 1 1 0 0 0 0 0 1 1 1 1 1 2 1 1 1 1 1 1 1 1 1 1 1 3 5 5 4 4 5 9 13 16 28 49 79 117 149 157 142 110 100 88 73 65 66 86 106 132 149 173 186 188 173 153 122 91 55 33 24 19 14 7 3 3 3 2 2 1 2 3 3 3 4 4 3 2 1 1 2 4 6 6 5 4 4 4 3 3 3 2 2 1 1 1 1 1 1 1 1 1 2 2 2 2 2 2 2 3 3 3 3 2 2 2 2 3 3 3 3 2 2 2 2 2 2 1 1 0 2 3 3 2 3 4 4 4 3 3 3 2 2 2 3 4 5 5 5 5 5 5 4 4 3 2 1 1 1 1 1 3 3 3 3 3 3 3 2 2 1 1 1 1 2 2 2 4 4 6 5 6 6 6 5 4 5 4 5 4 6 10 17 21 23 23 25 28 26 23 20 15 12 8 6 6 5 5 4 4 5 4 4 3 3 4 4 2 2 1 1 1 1 0 0 0 0 1 1 1 1 1 1 2 3 6 7 9 10 8 7 5 4 3 2 2 1 1 1 1 1 1 1 2 1 1 0 1 1 1 2 2 2 2 2 2 2 3 3 3 2 2 1 0 
0 1 2 2 1 1 2 3 4 4 3 3 3 3 3 3 3 2 1 0 0 0 0 0 0 1 1 1 1 1 0 1 2 2 3 4 5 5 6 5 4 3 4 3 4 2 2 2 3 4 5 5 3 2 1 3 3 4 3 2 2 2 2 3 1 1 0 0 0 0 0 1 3 4 4 2 3 2 3 3 3 2 1 1 1 2 2 2 2 2 2 3 4 5 6 6 5 4 3 3 3 3 3 3 3 3 3 3 3 3 3 2 1 1 1 1 1 1 1 1 1 2 1 1 1 0 0 1 2 3 3 3 3 3 2 1 2 3 5 5 5 6 6 18 37 50 132 169 186 139 84 70 54 43 36 39 44 45 48 60 67 66 52 29 19 15 17 16 16 15 13 11 25 60 148 205 189 122 52 30 32 14 11 7 5 5 4 3 2 3 3 3 3 3 3 3 2 2 2 2 2 3 3 3 3 3 3 4 4 5 4 2 2 2 3 3 2 0 1 2 3 2 1 1 1 1 0 0 0 0 0 0 0 0 0 1 1 1 1 1 1 1 0 0 0 0 0 1 0 1 1 1 1 1 1 1 1 1 1 0 0 0 1 3 5 6 6 7 7 13 21 27 42 59 94 132 158 144 119 90 83 71 55 45 49 59 68 79 85 113 140 179 192 195 180 156 117 70 39 30 23 16 5 5 3 3 3 2 2 3 4 4 4 5 4 3 2 2 2 4 5 6 5 4 5 4 4 3 3 2 2 1 1 1 1 1 1 1 1 1 2 2 2 2 1 2 2 2 3 3 2 2 2 2 3 3 3 3 3 2 2 2 2 2 1 1 0 0 1 2 3 3 3 4 3 3 2 3 3 2 2 2 2 3 3 3 3 3 3 3 3 2 2 2 1 1 0 0 1 2 3 3 3 2 2 2 2 2 2 1 2 2 2 2 2 3 3 5 5 6 5 5 5 5 6 6 5 4 5 8 11 12 12 11 9 8 7 6 5 5 5 4 5 5 4 4 4 4 3 3 3 3 3 3 3 3 2 1 1 1 1 0 0 0 0 1 1 1 1 1 1 2 3 8 7 11 9 9 9 5 5 3 3 2 1 2 2 2 2 1 1 1 1 0 0 0 1 1 1 1 1 1 1 1 2 2 3 2 2 1 0 0 
0 1 2 2 2 1 1 2 3 3 2 2 2 2 2 2 2 1 1 0 0 0 1 1 1 1 2 2 1 1 0 1 2 3 4 5 6 6 6 5 4 3 3 3 3 2 2 2 4 4 5 4 2 2 1 2 3 3 2 1 1 2 2 3 2 1 1 1 1 1 0 1 3 3 4 2 3 1 2 2 2 2 2 2 2 2 3 3 2 1 1 3 4 5 6 6 6 5 5 4 3 2 2 2 2 2 2 2 3 3 2 1 1 1 1 1 1 1 1 1 2 2 1 1 1 1 1 1 2 2 3 3 3 3 2 2 2 2 4 4 4 3 4 15 29 50 118 162 183 139 83 54 33 26 31 36 42 40 37 46 52 57 51 25 20 12 13 13 19 17 18 8 13 47 143 212 206 133 58 34 35 16 10 5 4 5 3 2 2 2 3 3 4 3 3 4 3 3 2 2 2 2 3 3 2 2 2 3 4 4 3 2 2 3 3 3 1 0 1 2 2 2 1 1 1 1 1 0 0 0 0 0 1 1 1 1 1 1 0 1 1 1 0 0 0 0 1 1 0 0 0 1 1 1 1 1 1 0 0 0 0 0 0 2 5 6 6 8 13 27 35 39 57 81 116 130 128 103 83 77 81 80 75 69 71 71 61 47 41 41 69 119 160 192 208 200 163 108 63 42 32 28 9 8 5 5 4 3 3 3 4 5 5 5 4 3 2 2 2 4 5 6 5 4 5 4 4 3 4 3 2 1 1 2 2 2 2 1 1 1 1 1 1 1 1 1 1 2 3 3 2 2 2 3 3 3 3 2 2 2 2 2 2 2 2 1 0 0 1 1 2 2 3 4 3 3 2 2 2 2 2 2 2 3 4 5 5 6 6 6 6 4 2 2 1 1 0 0 1 2 3 3 2 2 2 2 3 2 2 2 2 2 3 3 3 4 4 4 5 4 5 3 3 4 4 4 4 4 4 4 6 7 8 8 8 9 8 7 7 6 6 5 6 5 5 4 3 4 4 3 2 2 2 3 3 2 2 1 1 1 1 1 0 0 1 1 1 1 0 0 0 2 3 6 7 10 9 9 7 5 5 2 3 2 1 1 2 3 3 3 2 2 1 1 1 1 1 2 2 2 2 1 1 1 1 2 2 2 1 1 0 0 
0 1 2 2 2 1 1 1 2 2 2 3 2 2 2 2 2 2 2 1 1 0 1 1 2 2 2 1 1 0 0 1 2 2 2 3 3 4 4 4 3 3 3 3 3 2 2 2 4 4 4 3 2 2 1 2 3 3 3 2 2 2 2 2 2 1 1 1 1 1 1 2 2 3 3 2 2 1 2 2 2 2 1 1 1 1 2 2 2 2 2 3 3 4 4 5 5 5 6 4 4 2 1 2 2 2 2 3 3 3 3 2 1 1 1 2 2 1 1 1 1 1 1 1 1 1 1 1 2 2 2 2 2 2 2 2 2 3 4 5 5 4 6 15 23 43 102 156 185 149 90 47 24 16 25 31 38 42 42 52 44 41 37 22 22 14 13 13 19 19 19 11 13 41 131 203 210 142 68 36 34 16 8 4 4 4 3 2 2 2 2 3 3 4 4 3 3 2 2 2 2 3 3 3 3 2 2 3 4 3 3 2 3 3 4 3 2 1 2 3 3 2 1 2 2 1 1 0 0 0 1 2 1 1 1 1 1 0 0 1 1 1 1 1 1 1 1 1 1 0 0 0 0 1 1 1 1 0 0 0 0 0 1 2 4 5 5 9 18 30 38 53 82 105 117 107 96 75 57 54 69 82 87 88 85 74 56 38 34 32 39 54 94 131 169 204 201 153 92 54 41 42 19 12 8 6 7 4 4 4 4 5 5 5 3 2 1 1 1 3 4 5 5 4 4 3 3 3 3 3 2 1 1 1 1 1 2 2 1 1 0 1 1 1 1 1 1 2 2 2 2 2 2 3 3 2 2 2 2 1 1 1 2 2 2 1 1 1 1 2 3 3 3 3 3 2 2 3 3 3 3 2 2 3 5 6 6 5 5 5 5 3 2 2 2 2 1 1 2 2 2 2 2 2 1 1 2 2 2 2 2 2 2 2 2 2 3 4 5 5 4 3 4 4 4 4 4 3 3 4 7 10 12 11 8 5 4 5 5 5 5 4 4 4 5 4 4 4 4 2 1 1 1 2 2 2 2 1 1 1 1 1 1 0 1 1 1 1 0 0 0 2 3 5 7 7 7 8 5 5 4 3 3 3 2 2 3 4 3 3 2 2 1 1 1 1 2 2 3 3 2 2 1 1 1 1 1 2 1 1 0 0 
0 2 3 3 2 2 2 3 3 2 2 3 3 3 3 2 2 2 2 2 2 1 1 1 2 2 2 1 0 0 0 1 2 3 3 4 5 5 5 4 4 3 2 2 2 2 1 2 3 3 4 2 2 2 3 2 3 3 3 3 2 2 2 2 2 2 2 2 3 2 2 1 1 1 1 1 1 1 1 2 2 2 2 2 2 2 2 2 3 3 3 4 4 5 5 6 6 4 6 4 4 2 1 1 1 1 1 1 1 1 2 1 1 1 1 2 2 2 2 3 3 2 1 1 1 1 1 1 1 1 1 1 1 1 1 1 2 3 5 6 6 5 5 14 23 37 96 159 194 154 88 38 21 14 20 24 34 43 48 57 49 43 33 26 25 18 15 13 17 18 18 16 23 46 115 181 198 148 76 37 27 16 5 3 3 4 4 3 2 2 2 3 4 4 4 4 5 4 3 2 2 3 6 7 7 6 5 4 4 4 4 4 3 4 4 3 3 2 3 3 3 3 2 2 2 2 1 1 0 0 1 1 2 2 1 1 1 0 1 1 1 1 1 0 1 1 2 2 1 1 0 0 1 1 1 1 1 0 0 0 0 0 1 3 4 5 5 10 22 35 54 92 132 153 139 99 77 61 59 58 79 100 111 121 124 118 87 61 43 32 29 25 37 47 85 157 194 184 122 71 45 43 25 14 13 8 9 6 4 4 6 5 5 4 2 2 1 2 2 3 4 4 4 3 3 2 2 3 3 3 3 3 2 2 2 2 2 1 0 0 0 1 1 1 1 2 2 2 2 3 3 3 3 3 3 2 2 2 1 1 2 2 2 3 3 3 2 1 2 2 3 3 4 4 3 3 2 3 3 3 3 2 3 3 4 5 5 5 6 5 5 3 2 2 2 2 2 2 2 2 1 1 1 1 1 1 2 2 2 2 2 2 2 2 2 2 2 3 3 4 4 4 3 4 5 4 4 3 2 2 4 6 6 6 5 5 5 5 6 8 7 6 6 5 4 4 3 4 3 2 1 1 1 1 1 2 1 1 1 1 1 1 1 1 1 1 1 1 1 0 1 2 2 4 6 7 8 6 5 4 4 3 3 3 3 3 3 3 3 3 2 1 1 1 1 1 2 3 4 4 3 2 2 1 1 1 1 1 1 0 0 0 
0 1 2 2 2 2 1 2 2 2 3 3 3 3 2 2 2 2 2 2 2 2 2 1 2 2 2 1 0 0 0 1 2 2 2 3 3 3 4 3 3 2 2 2 2 2 2 2 3 3 3 2 3 2 2 2 3 3 4 3 3 2 2 1 2 2 3 3 3 3 2 1 1 1 1 1 1 1 2 2 2 2 2 2 2 1 2 2 3 3 3 3 3 3 3 3 4 3 5 4 4 2 1 1 1 1 1 1 1 1 2 2 2 1 2 2 2 3 3 3 2 2 1 1 1 1 1 1 2 2 1 1 1 0 0 1 2 4 6 7 6 6 6 15 29 35 102 168 205 161 89 39 26 20 18 18 27 38 49 55 46 36 25 23 24 24 19 17 17 17 17 25 46 61 97 153 175 151 85 39 19 14 4 3 3 3 3 3 3 2 3 3 4 4 4 3 3 4 5 5 5 6 9 11 11 10 9 8 6 5 4 5 4 4 3 4 4 4 4 4 4 3 2 2 2 2 1 1 0 0 1 1 1 2 1 1 1 1 1 2 1 1 1 2 2 2 2 2 2 1 1 1 1 1 1 1 1 0 1 1 1 1 2 2 3 4 5 13 20 35 65 118 164 175 142 94 82 57 73 78 103 112 107 118 125 132 107 82 68 61 59 39 32 26 40 111 163 190 152 106 67 45 29 17 17 10 8 7 5 4 5 4 5 3 2 1 1 2 2 2 3 3 3 2 1 1 1 2 2 2 2 2 2 2 2 2 2 1 0 0 1 1 2 2 2 2 2 2 2 2 2 3 3 3 2 2 2 2 2 2 2 2 2 2 2 2 2 2 2 3 4 4 4 4 3 4 3 3 3 3 3 3 3 3 5 6 6 5 4 4 4 3 3 2 2 2 2 2 2 1 1 0 0 0 0 1 2 2 3 2 2 2 2 2 1 1 1 2 2 3 3 3 2 3 4 5 4 3 2 3 5 5 6 6 5 4 4 4 5 5 5 4 3 3 2 2 2 3 2 2 1 2 1 2 2 2 2 1 1 1 1 1 2 1 1 1 1 1 1 1 1 2 2 4 6 7 7 5 5 3 4 3 4 3 3 3 3 3 3 2 1 1 1 1 1 2 2 3 4 3 3 3 2 2 1 1 1 2 1 0 0 0 
0 1 2 2 2 2 2 2 3 3 3 3 3 2 3 3 3 2 2 2 2 2 2 1 1 1 1 1 0 0 1 1 2 3 3 3 4 4 4 4 3 3 2 2 2 2 3 3 3 3 2 2 2 3 2 3 2 3 3 4 3 3 2 2 2 3 3 3 3 3 2 1 1 1 1 1 1 1 2 2 2 2 2 2 2 2 2 2 3 4 4 4 4 4 4 4 4 4 5 4 4 2 1 2 2 2 1 0 1 1 2 2 3 2 2 2 3 4 4 5 4 3 2 2 1 1 1 1 1 1 2 2 1 0 0 1 3 5 7 8 7 7 7 16 36 34 108 167 206 166 91 51 37 23 13 15 20 27 38 47 47 41 35 33 26 25 17 20 18 18 22 38 64 71 85 130 155 147 84 37 14 16 5 4 4 3 4 4 3 3 4 4 4 3 3 3 4 5 5 5 6 8 11 13 12 10 9 7 6 5 6 6 6 5 4 4 5 6 6 5 4 3 2 2 2 1 1 0 0 0 0 1 1 2 2 2 1 1 2 3 2 1 0 1 1 1 2 2 2 2 2 1 1 1 1 1 1 0 1 1 1 1 2 2 3 5 5 18 18 43 87 154 185 170 123 76 74 60 99 110 128 112 88 96 120 130 123 102 94 89 85 65 50 31 38 88 128 165 156 128 91 54 32 21 20 14 8 6 5 5 6 6 5 3 2 2 1 2 2 3 3 3 2 1 0 0 1 1 1 2 2 2 2 2 2 3 2 2 1 2 2 3 3 3 2 2 2 1 1 2 2 2 2 2 2 2 2 2 3 3 3 3 3 3 3 2 2 2 2 2 3 3 4 4 3 4 3 3 2 3 3 3 2 2 3 4 4 3 3 3 3 2 3 2 2 1 1 1 1 1 0 0 0 0 0 1 1 2 2 2 2 2 2 1 1 1 1 1 2 2 2 2 2 4 4 3 2 2 2 2 3 3 4 2 2 3 3 4 6 6 6 5 4 3 2 1 1 1 1 2 2 2 1 2 2 2 2 2 1 2 2 2 1 2 2 2 1 1 1 1 1 2 3 4 5 5 5 5 5 4 6 3 4 4 4 4 3 2 1 1 2 1 1 0 1 2 2 3 3 3 2 2 2 2 1 1 1 1 1 0 0 0 
0 1 2 2 2 2 2 2 3 3 4 3 3 2 3 3 3 2 2 2 2 2 2 2 1 2 1 1 0 0 0 1 1 1 1 2 1 1 1 2 2 3 2 2 3 3 3 3 3 3 2 3 2 3 2 3 3 4 4 4 3 2 2 2 3 3 3 3 3 2 2 1 1 1 1 1 1 1 2 2 2 1 1 2 2 2 2 2 2 2 2 3 3 3 3 3 3 3 4 3 4 2 2 2 2 2 1 1 2 2 3 3 4 3 3 3 4 5 5 4 3 3 2 1 1 0 0 1 1 1 1 1 1 1 1 1 3 6 7 10 8 9 9 17 40 33 107 154 194 162 99 67 49 29 14 16 17 21 24 31 38 44 43 36 29 25 20 24 22 21 30 53 76 76 86 128 152 138 77 35 14 17 5 6 4 3 3 3 3 3 3 3 3 2 3 3 3 5 7 8 9 10 11 11 11 10 9 7 6 5 6 6 5 4 3 4 5 6 6 5 4 3 2 3 2 1 0 0 0 0 0 1 1 2 2 2 2 2 2 3 2 1 1 1 2 2 1 2 2 2 2 1 1 1 1 2 2 1 1 1 2 1 1 2 3 7 8 24 22 57 107 169 176 142 91 59 56 64 107 122 126 94 80 78 94 93 97 88 91 99 108 102 85 55 42 58 89 127 147 146 121 77 44 30 24 18 10 6 5 4 5 5 4 3 2 1 1 1 2 2 2 2 2 1 0 0 0 0 0 0 0 0 0 0 1 2 3 4 3 3 4 4 4 3 2 2 1 1 1 0 1 1 1 1 1 1 2 2 2 3 3 2 1 1 1 1 1 2 2 2 2 2 3 3 2 3 2 3 2 3 3 3 2 2 3 4 4 3 2 2 2 2 2 2 2 1 1 1 0 0 0 0 1 1 1 1 2 2 3 3 3 3 3 3 2 2 2 2 2 1 1 1 1 2 3 4 3 2 2 4 5 5 3 3 2 2 2 3 4 4 5 4 4 2 1 1 0 1 1 2 2 2 1 2 2 2 2 2 2 2 2 2 1 2 2 2 2 1 1 1 1 1 3 3 4 5 4 4 4 4 4 4 4 4 4 4 3 2 2 1 1 1 1 1 1 2 1 2 1 1 1 2 2 2 1 0 1 1 1 0 0 0 
0 2 3 2 2 1 1 2 3 4 4 3 2 2 2 3 3 2 2 1 1 1 1 1 1 1 1 1 1 1 1 1 2 2 2 2 2 2 2 2 2 2 2 2 2 3 3 4 4 3 3 2 3 3 2 3 3 4 4 3 2 2 2 2 3 3 3 2 2 2 2 1 1 1 0 0 0 0 1 1 2 1 1 1 1 2 1 2 2 3 3 4 4 3 3 3 3 3 4 3 3 2 2 2 2 2 2 2 2 3 4 4 4 4 4 5 5 5 5 5 4 3 1 1 0 0 0 0 1 1 1 1 1 1 1 2 3 7 7 11 8 10 10 16 36 31 90 132 174 157 113 81 60 38 21 18 17 16 13 21 30 40 45 41 35 23 29 27 28 26 42 64 77 75 96 137 153 124 65 29 15 18 6 8 4 4 4 4 4 4 3 3 2 2 3 4 4 5 5 7 8 8 9 9 8 7 6 5 4 4 5 6 6 5 4 3 4 5 6 5 4 3 3 4 2 1 0 0 0 0 0 1 2 2 2 2 1 1 1 2 2 1 0 0 1 2 2 2 2 2 2 1 1 1 2 2 2 1 1 1 1 1 1 2 4 8 11 30 30 66 120 170 162 109 54 45 45 72 106 124 128 89 86 84 89 85 70 61 71 83 101 116 119 94 70 62 71 96 127 154 154 111 70 39 33 24 14 7 6 5 6 6 5 3 2 1 1 1 2 2 3 2 1 0 0 0 0 0 0 0 0 0 0 0 0 2 4 4 4 4 4 4 4 4 3 2 2 1 0 0 0 0 0 0 1 1 2 2 2 3 2 2 2 1 1 1 1 2 2 2 1 1 2 2 1 2 2 2 2 2 2 2 1 2 2 3 3 2 1 1 1 1 2 2 1 1 1 1 0 0 1 1 1 1 1 2 2 2 2 3 3 4 4 4 4 3 3 2 2 1 0 0 1 2 3 3 2 2 2 3 3 4 3 3 2 2 2 3 4 3 4 3 3 2 2 2 1 1 1 2 2 1 1 2 2 2 2 2 3 3 2 2 1 1 2 1 2 1 1 0 0 1 2 4 4 4 4 4 4 4 4 4 4 4 4 4 3 3 2 2 2 1 1 1 1 1 1 1 1 1 1 2 1 2 0 0 0 1 1 0 0 0 
0 2 3 2 1 1 1 2 3 3 4 3 2 3 2 3 3 2 2 1 1 1 1 1 1 2 2 1 1 1 1 1 1 1 1 1 0 0 1 2 3 3 2 2 2 3 3 4 4 3 4 3 4 3 3 3 3 3 2 1 0 1 2 2 3 2 3 3 2 2 2 1 1 0 0 0 0 0 1 1 2 1 1 1 2 2 1 2 1 2 3 3 3 3 2 3 2 3 4 3 3 2 2 1 1 2 3 3 3 2 3 3 3 4 5 5 5 5 4 5 3 2 0 0 0 0 1 1 1 1 1 1 2 2 2 2 3 6 6 10 8 9 9 13 27 27 65 106 148 153 124 97 79 61 47 34 24 15 10 12 18 27 33 34 34 27 36 29 29 27 52 73 78 80 114 150 146 96 45 25 18 15 7 8 5 5 3 4 3 3 3 2 2 2 3 3 3 4 6 7 8 8 8 8 8 8 6 5 4 5 5 5 4 3 3 3 3 4 5 5 4 3 3 4 2 1 0 0 0 0 0 1 2 2 2 2 1 1 1 1 1 1 0 1 1 2 2 2 2 2 2 2 2 2 2 2 2 1 1 1 1 1 1 2 5 7 12 34 37 71 125 166 157 103 46 36 34 69 95 102 88 62 76 74 76 66 52 46 44 60 86 107 124 123 99 72 59 73 99 144 172 148 104 50 40 34 19 9 6 3 5 5 5 3 2 2 1 1 3 3 3 2 1 0 0 0 0 0 0 0 0 0 0 0 1 2 3 4 3 3 3 3 3 3 2 2 2 2 1 0 0 0 0 0 1 1 2 2 2 2 2 2 2 1 1 1 1 2 2 2 1 1 1 1 1 1 1 1 1 1 1 2 1 2 3 3 3 2 1 1 1 1 1 2 1 1 1 1 1 1 1 1 2 1 2 2 2 3 3 4 4 4 4 4 3 3 3 3 2 1 0 1 1 3 4 4 2 2 2 3 3 3 3 3 3 3 2 2 3 4 4 3 4 3 3 2 2 2 2 1 1 1 1 1 2 2 2 2 3 3 3 2 1 2 2 2 2 1 0 0 0 1 2 4 4 5 5 5 5 5 4 4 3 4 4 4 3 3 3 2 2 1 1 1 1 2 1 1 1 1 2 2 1 1 0 0 0 1 1 0 0 0 
0 1 2 2 1 1 1 2 2 3 2 2 2 2 1 2 2 1 1 1 0 1 1 1 1 2 2 2 2 2 2 2 2 2 1 1 0 0 1 2 2 3 2 2 3 3 3 4 4 4 5 3 5 4 5 4 2 2 1 1 0 1 2 2 3 2 2 2 2 2 2 2 1 0 0 0 0 0 1 1 2 2 2 2 2 3 2 1 1 2 2 2 2 2 2 2 2 3 3 3 2 1 1 1 2 3 3 3 3 2 2 3 3 4 5 5 5 5 4 4 3 2 1 0 0 0 0 1 1 2 2 2 2 2 2 2 3 4 5 6 6 6 6 8 16 19 35 77 121 152 145 128 108 95 82 63 48 31 17 14 17 21 27 28 31 28 33 28 28 34 62 79 74 82 125 153 137 74 33 23 19 12 7 7 5 6 5 5 5 4 4 3 3 2 3 4 3 3 5 6 6 5 5 5 6 7 6 5 6 5 5 4 5 5 5 4 4 3 4 4 4 3 2 3 2 1 0 0 0 0 0 1 2 2 2 2 1 1 1 1 1 1 0 1 2 3 3 3 2 2 2 2 2 2 2 2 2 2 1 1 1 1 1 3 4 7 13 35 38 72 125 167 155 106 48 41 47 80 92 95 79 71 83 80 94 75 59 44 47 67 79 99 125 137 125 94 60 66 92 139 176 167 124 70 43 38 23 9 5 4 6 5 6 4 3 2 1 2 3 3 3 3 1 0 0 0 0 0 0 0 0 0 0 0 1 2 4 3 2 1 1 1 2 3 3 3 2 2 1 0 0 0 0 0 2 2 2 2 1 2 2 3 2 2 1 2 2 3 3 2 1 1 1 1 1 1 1 1 1 1 1 1 1 1 2 3 3 2 1 1 1 1 1 1 1 1 1 1 1 1 1 1 1 1 2 3 2 3 3 5 5 5 5 4 3 3 3 4 3 2 1 1 2 3 3 3 2 2 2 3 3 2 2 3 3 3 3 3 3 3 3 3 2 2 2 3 2 2 2 1 1 0 1 1 1 1 1 2 3 3 2 2 2 2 2 2 1 1 0 0 1 2 3 5 6 6 5 5 4 5 4 4 4 4 3 3 3 3 3 3 2 1 1 1 1 1 1 1 2 2 2 2 1 1 0 0 0 1 1 1 0 0 
0 1 2 1 1 1 2 2 2 2 2 2 2 2 3 2 2 1 1 1 1 1 1 1 1 2 2 2 2 2 2 2 2 2 1 0 0 0 0 1 2 2 2 3 3 3 3 4 4 5 5 3 5 5 6 4 2 1 1 1 0 1 2 2 2 2 1 2 2 2 2 2 1 1 1 1 1 1 1 1 2 2 2 3 3 3 2 1 1 2 2 3 2 3 2 2 2 2 3 2 2 1 1 2 2 3 3 3 2 1 2 3 4 4 4 5 4 4 5 4 3 2 1 1 1 1 1 1 1 1 1 1 2 2 2 2 3 4 4 4 4 4 4 5 9 14 19 49 93 139 158 152 134 119 109 94 81 61 41 26 19 20 22 22 23 22 24 23 22 37 66 79 69 85 132 150 122 54 26 22 17 9 7 7 5 5 6 6 6 6 5 5 5 4 3 3 2 3 4 4 4 4 4 4 4 4 5 5 6 6 5 4 4 5 5 5 4 3 4 4 3 3 3 3 2 1 1 1 1 1 1 1 2 2 2 2 1 1 1 1 1 1 1 2 2 2 3 3 2 2 2 2 2 2 2 2 2 2 1 1 1 2 2 3 4 7 13 33 38 71 118 161 143 92 36 32 45 80 89 91 72 63 63 63 64 64 66 59 56 77 79 81 109 133 137 108 67 69 94 130 164 167 130 91 48 39 25 9 5 5 7 7 7 4 4 3 2 2 3 3 3 2 1 1 1 1 0 0 0 0 0 0 1 1 1 3 3 3 2 1 0 1 1 2 2 2 1 1 0 0 0 1 1 1 2 2 2 2 1 2 2 3 2 2 2 2 2 3 2 2 1 0 1 1 2 2 2 1 1 0 0 0 1 1 3 3 4 3 1 1 1 0 1 1 1 1 1 1 1 1 1 1 1 1 2 3 2 2 2 4 4 5 5 5 5 5 5 4 3 2 2 2 2 3 2 2 1 1 2 3 3 1 1 2 4 4 3 3 3 3 2 2 2 3 2 3 2 3 1 1 1 1 1 1 1 1 2 3 3 3 2 2 2 2 2 2 1 0 0 0 1 2 4 6 7 7 6 6 5 5 4 3 3 3 3 3 2 3 3 3 3 2 2 2 2 2 2 2 3 2 2 2 1 1 0 0 0 1 1 1 0 0 
0 1 1 1 1 1 2 2 2 2 1 1 2 2 2 2 2 1 1 1 1 1 1 2 3 3 4 4 5 5 5 3 3 2 1 0 0 0 0 0 1 1 2 2 2 2 3 3 4 5 4 4 6 6 6 4 2 1 1 1 1 1 2 2 3 2 2 1 2 2 2 2 1 1 1 1 1 2 2 2 2 3 3 3 3 3 2 1 1 1 2 2 3 3 3 2 2 2 2 2 2 1 1 2 2 3 3 3 2 2 2 2 3 3 4 4 4 5 4 5 4 4 2 1 1 1 1 1 1 1 1 1 1 2 2 2 3 2 2 2 3 3 3 4 5 9 13 27 62 103 135 149 147 133 116 100 94 82 63 42 29 27 22 18 17 14 14 17 20 40 68 70 58 80 134 150 114 48 23 19 13 6 7 6 6 5 5 6 5 5 6 6 6 6 5 4 3 3 3 4 3 2 2 2 2 3 3 5 5 5 5 4 4 5 5 6 4 3 3 3 3 3 2 1 2 2 2 2 1 2 1 1 2 3 3 3 3 2 2 2 2 2 1 2 3 4 4 4 2 2 2 3 2 2 2 2 2 1 1 1 2 2 2 3 4 7 15 29 39 74 117 157 138 91 43 36 48 86 99 97 76 67 68 81 79 84 68 64 69 95 100 89 97 121 132 105 72 76 101 111 119 141 124 100 54 34 24 11 6 7 7 7 7 5 5 3 3 3 4 4 4 3 3 2 2 1 1 1 1 2 2 2 2 2 2 4 4 4 3 2 1 2 2 3 3 2 2 2 1 1 2 1 1 0 1 1 2 1 1 2 2 3 3 3 3 3 2 2 2 2 1 1 1 1 2 2 2 1 1 0 0 0 1 1 2 3 3 3 2 1 1 1 1 1 1 1 1 1 1 1 1 1 1 1 2 2 2 2 3 4 4 5 5 6 6 6 5 4 3 3 3 4 3 3 2 2 1 2 3 3 2 1 1 2 3 4 3 3 3 3 2 2 2 2 2 3 2 2 1 1 1 1 1 2 1 2 2 3 2 2 2 2 2 2 1 1 1 1 1 1 2 3 4 6 6 6 5 4 3 5 4 4 4 4 3 3 2 3 3 3 3 2 3 2 2 1 2 3 3 3 2 2 1 1 0 1 1 1 2 2 1 0 
0 1 1 1 1 1 2 2 2 1 1 1 2 2 2 2 2 1 1 2 2 2 2 2 2 3 3 4 3 3 4 3 2 1 0 0 0 0 0 0 0 0 1 2 2 2 2 3 3 3 4 4 5 5 6 4 2 1 1 1 1 1 2 2 3 2 1 1 1 1 1 2 1 1 1 1 1 2 2 2 3 4 4 4 4 3 2 1 1 1 1 2 3 3 3 3 2 1 2 2 2 1 1 1 2 3 2 2 1 1 1 2 3 3 3 3 3 4 4 5 4 3 2 2 1 1 2 2 1 1 1 1 2 2 2 2 2 2 1 2 2 3 3 4 4 6 12 19 38 65 92 114 129 130 118 106 107 109 94 63 33 21 18 15 12 11 10 13 21 42 66 66 67 105 147 150 98 37 16 15 9 4 7 6 6 5 5 6 6 6 6 6 6 5 4 3 3 3 2 2 2 1 2 2 3 3 3 4 5 5 5 5 4 5 5 4 3 2 2 2 3 2 2 2 3 3 3 3 3 3 2 2 2 2 3 3 3 2 2 2 2 2 2 2 3 3 3 3 2 2 2 2 2 2 1 1 1 0 1 1 2 1 1 2 4 6 17 25 37 66 111 157 145 94 40 23 42 88 114 110 87 72 75 79 73 74 77 86 102 129 132 115 111 117 124 101 82 93 120 130 105 125 118 105 61 29 25 15 9 8 9 8 8 5 6 3 4 4 4 4 4 3 3 2 2 2 2 2 2 3 3 3 3 3 3 3 3 3 2 1 1 1 2 2 2 2 2 2 2 2 2 1 1 0 1 1 1 1 1 1 2 2 2 2 2 2 2 2 2 2 1 1 1 1 2 3 3 3 2 1 1 1 1 2 2 2 3 2 2 2 1 1 1 1 1 1 1 1 1 1 1 1 1 2 2 2 2 2 2 3 3 4 6 7 8 7 5 3 3 3 3 3 3 4 3 2 2 2 3 3 2 1 1 2 3 3 3 3 2 2 2 2 2 2 2 3 2 2 2 1 1 1 1 2 1 2 2 2 2 2 2 2 2 2 1 2 1 1 1 2 3 4 4 5 6 6 5 5 4 4 4 3 3 3 3 2 2 3 2 2 2 2 2 2 2 1 2 3 3 2 1 1 1 1 1 2 2 2 3 3 2 0 
0 1 1 1 1 1 1 1 1 1 2 2 2 2 2 2 2 2 2 2 1 1 1 2 3 4 4 5 6 7 6 4 2 1 0 0 0 0 0 0 0 0 0 1 1 2 2 2 2 2 3 3 4 5 5 4 2 2 1 1 1 1 2 2 2 2 1 0 0 1 1 1 1 1 1 1 2 2 2 4 4 5 5 4 5 3 3 2 1 1 1 2 2 3 3 3 2 2 2 2 2 2 1 2 2 2 2 2 1 1 2 2 2 3 3 3 3 4 4 4 3 3 2 2 2 2 2 2 2 2 1 1 1 2 3 3 2 1 1 1 2 3 3 3 4 6 12 16 20 29 44 68 99 122 126 127 138 156 148 112 63 30 19 19 19 20 19 21 27 50 76 89 104 139 156 137 75 25 12 11 7 4 6 6 5 4 4 4 3 3 3 4 5 5 5 3 2 2 3 3 2 1 2 3 3 3 3 3 3 3 3 4 4 6 6 5 3 1 1 1 2 2 2 2 3 3 4 3 3 2 2 2 2 2 2 3 3 3 3 2 2 2 2 2 3 3 3 3 2 2 1 2 2 1 1 1 0 0 0 1 1 1 1 2 6 9 17 22 32 58 100 154 158 122 65 34 49 95 137 141 109 82 77 85 84 74 91 118 127 131 117 99 107 108 116 93 80 95 107 111 88 112 115 105 63 25 25 18 12 10 10 6 7 5 6 4 5 4 3 4 3 4 3 3 3 2 2 3 2 3 3 4 4 3 3 3 3 3 3 3 3 3 4 3 3 2 2 2 2 2 2 1 1 0 0 0 1 1 1 1 1 2 2 2 2 2 2 2 2 2 1 1 1 1 2 2 3 3 3 2 2 2 2 2 2 2 2 2 2 2 2 1 1 1 2 2 2 2 2 1 1 1 1 2 2 2 2 2 3 4 4 2 2 4 5 5 3 3 3 4 5 5 5 4 5 4 4 4 4 3 2 1 1 2 2 2 2 3 2 2 2 2 2 1 2 3 2 2 2 1 1 1 1 2 2 2 1 1 1 2 2 2 1 2 1 2 2 2 2 2 3 4 4 4 4 5 4 4 2 3 3 3 3 3 3 2 2 2 2 2 2 1 2 2 2 2 2 3 3 2 1 1 2 2 2 2 2 2 3 3 1 0 
0 0 1 1 1 2 2 1 2 2 3 3 3 3 2 2 1 2 2 2 1 1 1 2 3 4 5 5 4 4 4 4 2 2 0 0 0 0 0 0 0 0 0 1 1 2 2 2 1 1 2 2 3 4 4 4 3 2 2 2 2 2 2 2 2 1 0 0 0 1 1 2 1 1 1 1 2 2 2 4 5 5 6 4 4 3 2 2 2 2 2 2 2 2 2 2 2 2 2 2 2 2 1 1 2 1 1 1 1 1 1 2 2 2 2 3 3 3 4 4 3 2 2 2 2 2 2 2 2 2 1 1 1 2 3 4 3 2 1 2 2 4 3 4 4 4 6 12 17 19 21 34 66 101 125 141 155 182 192 175 133 85 51 37 36 38 35 29 35 71 109 137 152 162 145 105 46 17 11 10 7 5 6 6 6 6 6 6 5 6 5 4 4 3 3 2 2 2 2 2 2 1 1 2 3 3 3 3 4 6 6 7 7 7 6 5 2 1 1 1 1 1 2 2 3 3 4 4 4 3 3 2 1 1 1 1 2 2 2 2 2 2 2 2 2 2 2 2 1 1 1 1 2 2 1 1 0 0 1 1 1 1 1 3 7 10 13 22 26 48 80 143 162 142 87 54 57 92 136 152 120 104 80 88 85 85 112 132 157 159 143 130 124 107 113 85 76 92 107 111 114 122 116 98 56 22 22 18 12 11 10 7 8 5 7 4 4 3 2 3 3 4 4 3 3 2 2 2 2 3 3 3 4 3 2 2 2 2 3 2 2 2 2 2 2 2 2 2 2 1 1 1 1 1 0 0 0 0 1 1 1 2 2 2 2 2 2 2 2 1 1 1 0 1 2 3 3 3 3 3 2 2 2 2 1 1 1 1 2 2 2 2 2 2 2 2 2 2 1 1 1 0 1 1 2 2 2 3 3 4 3 3 3 4 5 4 3 2 3 3 3 3 4 5 6 5 5 4 4 3 2 1 1 1 1 1 2 2 2 2 2 2 2 1 2 2 2 2 2 1 0 1 1 2 2 2 1 0 0 1 1 1 1 1 1 2 2 2 2 2 3 4 4 4 4 4 4 4 3 3 3 2 2 2 2 2 2 2 2 1 1 1 2 2 3 2 2 2 2 2 2 2 2 2 3 5 5 5 5 6 4 0 
0 0 0 0 1 1 2 2 2 2 2 3 3 4 3 2 1 2 1 1 1 1 1 2 4 5 6 6 7 8 6 6 2 2 0 0 0 0 0 0 0 0 1 1 1 2 1 2 1 1 1 1 2 3 3 4 3 3 3 3 3 3 3 2 2 0 0 0 0 1 1 1 1 1 1 1 2 2 2 4 6 6 7 4 4 3 2 3 3 3 3 2 2 1 1 2 2 3 2 2 2 2 2 1 1 2 2 2 2 2 2 3 2 2 2 3 3 4 3 3 2 2 1 2 2 3 3 2 2 2 1 1 1 2 3 4 4 3 2 3 2 4 3 4 4 5 5 8 11 16 18 24 43 68 94 116 133 164 191 210 198 161 112 70 43 34 33 35 60 113 155 180 168 143 106 64 24 13 11 8 7 6 7 5 4 3 3 3 3 4 4 3 4 4 3 2 1 2 2 2 2 1 1 2 2 3 3 3 3 4 4 4 5 7 8 7 4 2 1 1 1 2 2 3 3 3 3 3 3 3 3 2 1 1 0 0 1 1 1 1 1 1 1 2 1 1 1 1 1 1 1 1 1 1 1 1 1 1 1 1 2 1 2 4 10 13 13 19 24 39 66 132 156 149 98 68 70 95 133 159 137 119 83 82 77 78 123 129 146 120 96 90 104 90 95 84 79 80 105 112 125 120 108 84 48 20 19 16 11 10 8 5 6 5 7 4 4 2 1 2 3 3 4 3 3 2 2 2 2 3 3 2 3 2 2 2 2 3 4 4 4 5 3 3 2 1 2 2 2 2 2 2 2 1 0 0 0 0 1 1 1 2 3 3 3 4 4 3 3 2 1 0 0 0 1 2 4 4 4 4 4 4 4 3 1 1 0 1 1 1 1 2 2 3 3 3 3 3 2 2 1 0 1 1 2 2 2 3 5 6 4 3 2 2 2 2 2 2 3 3 3 3 4 5 5 5 5 5 4 4 3 1 1 1 1 1 1 2 2 2 2 2 2 1 2 2 2 2 2 1 1 1 1 2 2 1 1 0 0 0 0 0 0 0 1 1 1 1 2 1 2 2 2 3 3 3 3 2 2 2 2 2 2 1 1 1 1 1 2 2 1 2 2 2 2 2 2 1 1 2 2 2 2 3 3 4 4 4 4 4 2 0 
0 0 0 0 0 1 2 2 3 4 4 4 4 5 4 3 1 2 1 1 1 1 1 2 4 5 8 7 6 6 5 6 3 2 0 0 0 0 0 0 1 1 1 1 1 1 1 2 1 1 1 1 2 2 2 3 3 3 3 3 3 3 3 3 2 1 0 0 0 1 1 1 1 1 1 1 2 2 1 3 5 6 5 3 3 3 3 3 3 3 3 2 1 1 0 1 2 3 2 2 2 2 2 2 3 3 3 3 3 3 3 3 2 2 2 2 3 4 3 3 2 1 1 1 2 2 2 2 1 1 1 1 1 1 3 4 4 3 2 3 3 4 3 4 3 4 4 7 10 16 18 19 27 41 64 79 91 108 134 175 208 210 178 130 88 66 64 76 115 166 187 178 133 95 60 30 15 12 11 6 7 6 8 5 5 4 4 4 4 4 4 3 4 3 3 2 2 2 2 2 2 1 1 1 2 3 2 2 3 5 7 8 7 6 5 4 4 3 2 2 1 2 2 3 3 3 4 4 4 4 4 3 2 1 1 1 1 1 1 1 1 1 1 2 2 1 1 0 1 1 1 1 1 1 1 1 1 1 1 1 2 1 3 5 11 11 11 13 21 33 50 110 133 136 99 68 71 72 94 130 138 125 90 70 80 74 95 100 107 98 99 97 103 92 94 90 76 78 101 122 139 122 95 62 37 17 17 14 9 9 8 6 8 4 6 3 3 2 2 3 2 3 4 4 3 1 1 3 2 4 3 3 3 3 2 3 3 3 4 5 5 5 3 3 2 1 2 3 3 2 2 2 2 1 0 0 0 0 1 1 2 3 3 4 5 5 4 3 3 2 1 0 0 0 1 2 2 3 3 3 4 4 4 3 1 0 0 0 0 0 1 1 2 3 3 3 3 3 2 2 1 1 1 1 2 2 2 3 4 6 5 4 2 3 4 5 5 5 5 4 3 3 3 4 4 4 5 5 5 4 3 2 2 2 1 1 1 1 2 2 2 2 2 1 2 2 2 2 1 1 1 1 1 2 1 1 0 0 0 0 0 0 0 0 0 0 1 1 2 1 2 1 2 2 3 2 2 2 2 3 3 2 2 1 1 1 1 2 2 2 2 2 2 2 2 2 1 0 0 1 2 2 2 2 4 5 6 6 6 7 4 0 
0 0 0 0 0 1 2 2 3 3 3 4 4 5 3 3 2 1 1 1 1 1 1 1 2 3 5 6 8 9 7 6 3 2 1 1 0 0 0 1 1 1 1 1 1 1 1 2 2 2 2 2 2 2 2 2 2 2 3 3 2 2 3 3 2 1 0 0 0 1 1 1 0 0 1 1 1 1 1 3 5 6 5 4 3 3 4 4 3 3 2 2 1 1 1 1 2 2 2 2 2 2 2 2 3 3 3 3 3 3 4 3 3 3 2 2 2 2 3 3 3 2 1 1 2 3 3 3 2 1 1 2 2 2 3 4 4 4 4 4 3 3 3 4 4 6 5 7 8 12 16 19 21 22 26 31 33 40 71 110 157 189 197 179 150 131 130 143 174 193 175 135 80 53 27 21 14 10 9 4 7 6 9 4 4 2 1 1 1 1 1 2 3 3 3 2 2 2 2 2 2 2 2 2 2 2 2 1 1 2 3 4 3 4 4 5 4 3 3 2 2 3 3 4 3 2 2 3 3 3 3 3 2 1 1 1 1 1 1 1 1 1 1 2 2 1 1 0 1 1 2 1 1 1 1 1 2 1 1 1 1 1 2 4 9 10 12 15 20 31 44 103 130 148 120 75 66 50 66 106 129 126 98 61 61 71 83 100 90 89 85 83 86 92 86 80 66 87 114 142 144 110 74 45 30 17 15 11 7 9 6 5 6 4 6 3 4 2 3 3 2 3 4 4 3 2 1 3 3 3 2 2 2 3 2 4 4 6 7 6 5 5 4 5 4 3 3 3 2 2 2 2 2 2 1 0 0 0 1 2 2 3 3 4 5 5 5 5 4 3 1 1 0 0 1 2 3 4 4 4 4 4 4 3 1 0 0 0 0 0 1 2 2 3 3 3 3 2 2 2 1 1 1 1 2 2 3 4 6 7 6 4 3 3 3 4 5 5 5 4 3 4 4 4 3 3 3 3 4 4 3 3 3 3 2 2 1 2 2 2 3 3 3 2 2 2 2 2 2 1 2 1 2 2 1 1 0 0 0 0 0 0 0 0 0 0 0 1 2 1 2 1 3 2 3 1 1 1 1 2 3 3 2 1 1 1 1 1 2 1 2 2 2 2 2 1 1 1 1 1 1 1 1 2 3 4 4 5 5 5 3 0 
0 0 1 0 0 1 1 2 3 4 4 3 3 4 3 3 2 2 1 1 0 0 1 1 2 4 5 6 5 5 5 4 3 2 2 1 0 0 0 1 1 1 1 1 1 1 1 2 2 3 3 3 3 2 1 1 1 1 1 1 1 1 2 2 3 2 0 0 1 1 2 2 1 0 1 1 1 1 1 2 5 5 5 3 2 3 4 4 4 2 2 2 2 2 2 2 2 2 2 1 2 2 2 3 4 4 4 4 4 4 5 4 3 2 2 2 2 2 3 3 3 2 0 1 2 3 3 3 2 2 2 2 2 2 3 4 4 4 4 4 3 3 3 3 3 3 4 6 7 8 7 10 13 20 22 27 28 28 33 47 82 122 158 181 184 179 180 185 187 164 123 76 35 30 21 20 10 8 6 3 5 4 7 4 4 2 1 1 1 1 1 1 2 2 3 2 2 3 3 2 2 2 2 1 2 2 2 1 1 3 5 6 6 5 3 2 3 3 3 3 2 3 3 3 3 3 4 4 4 4 3 3 2 1 1 1 2 1 1 1 2 2 2 3 2 2 1 1 2 2 2 2 2 1 1 1 1 2 2 2 2 1 2 3 7 10 10 11 14 26 34 87 117 154 153 108 77 47 51 86 118 123 112 83 64 88 83 95 85 77 71 71 84 90 85 79 58 77 115 142 130 89 55 38 25 16 13 8 6 7 6 7 7 5 6 4 4 3 2 2 2 3 4 3 3 1 2 3 3 3 2 2 2 3 2 3 3 4 5 6 6 7 6 5 4 4 3 2 1 2 1 2 2 1 1 0 0 0 1 2 3 4 5 6 7 7 6 5 4 3 2 2 1 1 1 2 2 3 3 3 3 4 4 3 1 0 0 0 1 1 1 1 2 3 3 3 3 3 2 2 2 2 1 2 2 2 2 4 5 6 5 4 4 3 4 5 6 7 7 5 5 5 4 5 2 3 3 3 4 4 4 4 3 3 2 2 1 1 1 2 2 2 2 2 2 2 2 1 1 1 1 2 2 2 1 1 0 0 1 1 1 1 1 0 0 0 0 1 2 1 2 2 3 2 3 2 2 1 1 2 2 3 3 2 2 1 1 1 2 2 2 2 2 2 2 2 2 1 1 1 1 1 1 2 2 3 3 4 4 4 2 0 
0 1 1 1 1 1 2 2 3 3 3 3 2 3 2 3 2 2 1 1 1 0 1 1 2 3 3 4 5 6 6 4 3 2 2 1 1 0 1 1 1 1 1 1 1 1 1 2 2 2 3 3 3 2 2 1 1 1 1 1 1 1 2 2 2 2 1 1 2 3 4 4 3 2 2 1 2 2 3 3 6 6 6 3 2 3 4 5 4 3 2 3 4 3 3 3 2 2 2 2 2 2 2 3 3 3 3 2 3 4 4 4 4 4 3 2 3 2 4 4 3 3 2 2 3 3 3 4 3 3 3 3 3 3 3 3 4 4 4 3 3 2 3 3 4 4 4 4 5 6 6 7 7 10 12 15 14 18 25 29 35 59 92 127 154 167 168 157 137 104 70 34 22 23 17 13 6 5 3 2 3 4 6 4 3 1 1 1 1 1 1 1 2 2 3 2 2 3 3 2 2 3 3 3 3 3 2 2 2 2 3 4 4 3 2 2 2 3 4 3 3 4 5 6 5 3 2 3 4 4 3 2 1 1 1 1 1 1 2 2 3 3 4 3 3 3 2 2 2 3 3 2 2 2 2 2 3 3 2 2 2 1 1 4 5 11 11 13 12 25 31 66 96 148 179 145 106 55 61 76 108 106 114 108 87 109 94 110 100 79 75 65 85 83 80 63 58 86 121 136 116 75 49 30 26 15 9 6 6 6 6 6 7 6 6 5 4 3 3 4 3 3 3 3 3 2 3 4 4 3 2 2 2 2 2 3 3 4 5 5 4 4 5 6 6 4 3 2 1 2 2 2 2 2 2 1 1 1 1 2 2 3 4 5 6 6 6 5 4 3 2 2 1 1 1 2 3 3 3 3 3 3 3 2 1 0 0 1 1 1 1 2 2 3 3 3 2 2 2 2 2 3 2 2 1 2 3 5 6 6 6 4 4 4 5 6 6 6 6 5 5 5 4 5 3 2 2 2 2 3 3 3 3 4 3 3 3 2 2 1 2 2 2 2 2 2 2 2 1 1 1 1 1 2 1 1 1 2 2 2 2 2 2 2 2 1 1 2 2 2 2 2 3 3 3 2 3 2 2 2 4 5 5 4 3 2 2 2 2 2 2 2 2 2 2 2 2 2 2 2 2 1 1 2 2 2 3 3 4 3 2 0 
0 1 2 1 1 1 1 2 2 2 2 1 1 1 2 3 3 2 1 1 1 0 1 2 4 5 5 4 3 3 3 3 2 1 1 1 1 1 1 1 1 1 0 1 1 2 2 2 1 2 2 3 3 3 2 2 1 1 2 1 2 1 2 2 2 2 1 2 3 3 3 4 3 2 1 1 2 2 2 3 5 5 5 3 2 3 3 4 4 4 3 3 3 3 3 3 3 2 2 2 2 2 3 3 3 4 3 3 3 4 4 4 3 3 2 2 2 2 3 4 3 3 2 3 2 3 3 3 4 3 4 3 3 3 3 3 4 3 4 3 2 2 3 2 3 3 4 4 4 3 4 5 7 8 7 7 7 10 14 21 23 29 41 64 84 98 102 92 74 47 28 17 16 12 9 7 3 3 2 3 3 4 3 3 2 1 1 1 1 1 1 1 2 2 3 3 3 3 3 3 3 4 4 3 3 3 2 2 2 3 5 5 5 5 4 3 3 3 3 2 3 4 6 6 5 4 3 3 4 4 3 2 2 1 1 1 1 1 2 2 3 3 3 4 3 3 3 2 3 3 3 2 2 2 2 2 3 3 3 3 2 2 2 5 5 12 8 9 6 18 28 49 71 134 184 167 137 68 79 69 89 80 93 108 101 116 101 101 91 70 74 73 75 66 68 50 63 94 122 131 101 57 42 28 27 11 6 6 6 6 5 6 6 5 5 5 4 3 2 3 2 2 2 3 3 3 3 4 4 3 1 1 1 1 2 3 4 4 5 5 6 7 6 5 5 4 3 2 1 1 2 3 3 3 2 2 2 2 2 2 3 4 4 5 6 6 6 5 4 3 3 3 2 2 1 2 2 2 2 2 2 2 2 1 0 0 0 1 1 1 1 1 1 2 3 3 3 2 2 2 2 3 2 2 3 4 5 6 7 5 5 3 4 5 5 6 6 5 6 5 4 4 4 4 3 2 2 2 2 3 3 3 2 2 2 1 1 1 1 1 1 1 1 2 2 3 3 2 2 2 1 2 1 2 2 2 2 3 3 3 2 2 3 3 3 3 2 2 2 1 1 1 2 2 2 2 3 3 3 4 4 5 5 5 4 2 2 2 2 2 2 3 3 2 2 2 2 2 2 2 2 2 2 2 2 2 2 2 2 2 1 0 
0 2 3 2 1 2 2 2 2 2 2 2 1 1 2 2 3 2 2 1 1 0 1 1 3 3 4 3 3 4 4 4 2 0 0 0 1 1 2 1 1 1 1 1 1 1 1 1 1 1 0 1 1 2 2 2 2 2 2 2 2 2 2 2 2 1 2 3 4 5 5 5 5 4 3 2 2 2 3 4 5 5 4 3 3 3 3 4 3 3 3 3 3 3 3 3 2 2 3 2 3 3 4 3 3 3 3 2 2 2 2 3 3 3 3 3 2 2 3 3 3 4 3 4 3 3 3 3 3 2 3 3 3 3 4 3 4 3 3 2 2 2 2 2 3 3 4 4 3 2 3 3 5 6 8 8 6 6 7 11 14 17 19 23 30 40 44 40 31 23 17 13 8 6 5 4 2 2 2 3 2 3 2 2 2 1 1 2 2 2 1 1 2 3 4 4 5 5 5 4 4 4 5 6 6 5 4 3 4 3 4 3 3 3 2 3 3 3 3 3 3 4 7 8 6 5 3 3 3 3 3 2 1 1 1 1 1 1 1 1 2 3 3 4 4 4 3 2 3 2 2 1 1 1 2 2 3 3 3 2 2 2 1 4 4 9 7 7 4 11 21 39 45 96 153 161 153 94 98 78 70 51 61 91 103 107 94 63 64 61 63 67 76 76 80 64 68 106 136 143 101 55 39 26 24 10 7 6 6 6 4 4 4 4 4 4 3 2 2 2 2 1 1 1 2 3 3 3 3 2 1 1 0 0 1 3 4 4 4 4 5 5 5 4 4 3 3 2 3 3 3 4 4 4 3 3 2 2 2 2 2 3 3 3 3 3 3 3 3 3 2 2 1 1 1 1 2 2 2 1 1 1 0 0 0 0 0 1 1 1 0 1 1 2 2 2 2 2 2 3 4 5 5 4 4 6 7 7 8 6 5 3 3 4 5 6 6 5 5 3 3 3 3 3 2 2 2 2 2 2 2 3 2 2 2 2 3 2 2 2 1 1 0 1 2 2 2 2 2 2 2 2 3 3 3 3 3 2 2 2 2 2 3 3 4 3 2 2 2 1 1 1 1 1 1 2 2 3 4 4 5 6 5 4 3 2 2 2 2 2 2 2 3 2 2 2 2 2 3 3 3 3 3 3 2 2 1 2 3 3 2 0 
0 1 3 3 2 2 1 2 2 2 1 1 1 1 2 2 3 2 2 1 1 0 0 1 3 4 4 3 3 2 2 2 1 0 0 0 1 1 2 2 1 1 1 1 1 2 1 1 1 0 0 0 1 1 2 2 2 3 3 3 2 2 1 1 1 1 2 2 3 4 4 5 3 2 1 1 1 1 1 2 3 4 3 3 4 4 3 3 3 3 2 2 2 2 2 3 3 3 3 2 3 3 4 4 3 2 2 1 1 2 2 2 3 2 3 2 2 2 2 3 3 4 4 4 3 3 3 4 3 2 3 3 4 4 3 4 3 3 3 3 3 3 2 2 3 4 5 4 4 3 3 4 4 5 4 4 4 5 4 5 9 13 16 18 19 21 24 25 23 18 11 7 5 4 3 3 2 3 2 3 3 3 2 2 1 1 1 2 2 2 2 2 2 3 4 4 5 5 5 5 5 4 4 5 5 5 4 4 4 4 3 3 2 3 4 4 3 2 2 2 2 3 5 6 5 5 3 3 3 2 3 2 2 1 1 1 2 2 1 1 2 3 3 5 5 5 4 3 2 1 1 1 1 1 1 2 2 3 2 2 2 2 1 3 4 7 6 5 3 6 13 33 43 75 120 139 150 129 131 112 88 50 41 64 85 83 86 56 51 51 60 76 98 110 111 103 108 147 167 155 94 46 31 22 19 8 6 4 5 6 4 4 3 3 4 3 2 1 1 1 2 0 1 1 1 2 2 2 2 2 1 0 0 0 1 3 5 6 6 5 5 5 5 4 3 2 3 3 2 2 2 3 3 3 3 3 3 2 2 2 2 3 3 4 4 3 4 3 3 3 2 2 1 1 1 1 1 1 1 1 1 1 1 0 0 0 0 1 1 1 1 1 1 1 2 2 2 1 1 3 4 4 4 5 6 8 8 8 8 6 4 3 3 4 5 4 5 4 4 3 2 2 2 2 2 2 2 2 2 2 2 3 2 1 1 2 2 2 2 2 1 1 1 1 1 1 2 2 2 2 3 3 3 4 4 3 2 1 1 1 2 2 3 3 3 3 1 1 1 1 1 1 1 1 1 1 1 2 3 4 4 4 4 4 3 2 1 1 1 1 1 2 3 2 2 2 2 2 2 2 2 3 3 2 2 2 2 2 3 3 2 0 
0 1 3 3 3 3 1 2 2 2 2 2 2 2 2 2 2 1 1 1 0 0 0 1 2 2 2 2 2 2 2 2 1 0 0 0 0 1 2 2 1 1 1 1 0 0 1 1 1 0 0 0 0 0 2 2 3 2 2 2 2 1 1 1 1 1 2 2 3 4 4 4 3 2 1 1 0 0 1 2 2 3 3 4 3 3 3 3 2 2 2 1 1 1 2 3 3 3 2 2 3 3 4 3 2 1 1 1 1 1 1 2 3 2 3 2 2 2 2 3 3 4 4 4 4 4 3 3 2 2 2 3 4 4 3 4 2 3 2 3 2 3 1 1 2 2 4 2 3 2 2 2 2 3 4 4 4 3 3 4 4 5 7 10 13 16 19 21 16 10 5 3 4 4 3 4 3 3 3 3 3 2 2 2 1 1 1 1 2 2 2 3 4 5 5 5 5 6 6 5 4 3 4 5 5 5 4 4 4 3 3 2 2 3 2 3 3 3 3 3 2 3 3 4 4 4 2 2 2 2 2 2 2 1 1 1 2 2 2 2 3 3 4 5 6 6 5 4 2 2 1 1 1 1 1 2 2 2 2 2 2 2 1 2 3 4 5 4 5 6 7 20 30 48 79 104 127 142 160 149 120 75 54 62 81 71 61 39 36 44 47 82 105 128 142 128 154 185 183 150 87 40 27 18 15 7 6 5 5 5 3 3 2 4 4 3 2 1 1 0 2 1 1 0 1 1 1 1 2 2 1 0 0 0 1 2 4 4 4 3 3 3 3 3 3 2 3 3 3 4 3 3 3 3 3 3 3 3 2 3 3 3 4 4 4 3 4 4 4 3 2 1 1 1 1 1 1 1 1 1 1 1 1 1 0 0 0 0 1 1 1 1 1 1 1 2 1 1 1 3 5 7 7 8 8 10 10 9 8 5 4 2 2 3 3 3 3 3 3 3 2 1 1 1 2 2 2 2 2 1 2 2 2 2 1 2 3 3 2 2 1 0 0 1 1 1 1 1 2 3 3 3 3 3 3 3 1 0 0 1 2 2 3 3 3 2 1 0 0 1 1 1 2 2 1 0 0 1 1 2 3 3 3 3 2 2 1 1 1 1 1 2 3 2 1 1 2 3 3 3 4 4 3 3 2 2 2 2 2 2 1 0 
0 1 3 3 3 2 1 2 3 3 2 2 2 2 2 2 2 1 1 0 0 0 0 1 2 2 2 2 2 2 2 1 0 0 0 0 0 1 1 1 1 1 1 0 0 0 1 1 1 1 0 0 0 0 2 2 3 3 3 2 3 2 2 1 1 1 2 2 3 4 4 4 2 1 0 0 0 0 0 1 2 3 3 3 2 2 2 2 2 2 2 2 2 2 2 3 4 3 3 2 2 3 3 3 2 1 0 0 0 1 2 2 3 2 3 2 2 2 2 3 3 3 4 4 5 4 4 4 3 2 2 3 4 4 3 3 2 2 2 2 2 2 1 1 3 2 4 2 3 2 3 2 3 2 3 2 2 2 1 2 3 4 5 5 6 6 7 9 9 7 5 4 5 5 4 4 4 3 4 2 3 2 2 2 2 1 1 1 2 2 2 3 4 5 5 5 5 6 6 5 3 2 4 5 6 5 4 3 3 2 2 3 3 3 3 3 3 3 3 3 3 3 4 6 5 4 3 2 2 2 2 2 2 1 1 1 2 2 2 2 3 3 5 6 7 8 5 4 2 2 2 2 2 2 2 2 1 1 1 2 2 2 1 3 4 5 6 5 6 6 7 16 22 30 48 76 98 120 156 170 150 102 69 68 82 83 74 53 39 44 41 86 124 143 164 138 174 189 164 122 60 30 24 16 13 7 6 4 4 4 3 2 3 4 4 3 2 1 2 1 3 2 2 1 1 1 1 2 2 2 1 0 0 0 0 1 4 5 5 3 2 1 2 3 4 3 3 4 4 4 4 4 3 3 3 3 4 4 3 3 3 4 5 5 5 5 4 4 3 2 1 1 1 1 1 1 1 2 2 1 1 1 1 1 1 0 0 0 0 1 1 1 0 0 1 2 2 1 1 2 3 4 5 6 6 7 7 7 7 4 3 1 2 2 3 3 3 3 2 2 1 1 1 1 2 3 3 2 2 2 2 2 2 1 1 2 2 2 2 2 1 0 0 1 1 1 1 1 2 3 3 2 2 2 2 2 1 0 0 1 2 2 2 3 2 2 0 0 0 1 1 2 2 2 1 0 0 0 0 1 2 2 3 2 2 1 1 1 1 1 2 2 3 3 2 1 2 2 2 2 3 3 2 2 2 3 3 3 2 2 1 0 
0 1 3 3 3 3 3 4 4 3 2 2 3 3 3 2 2 1 0 0 0 0 0 1 1 1 2 3 4 4 3 3 1 1 0 0 0 0 1 1 1 1 1 0 0 0 0 1 1 1 1 0 1 0 1 2 3 3 3 3 3 3 2 1 1 1 1 1 2 3 3 3 2 1 1 0 0 0 0 1 1 2 2 2 2 1 1 1 2 1 2 2 2 1 2 2 3 3 3 2 2 2 2 2 1 1 0 0 0 0 1 2 2 2 2 3 3 3 3 3 3 2 4 4 5 4 4 4 3 2 2 3 4 4 2 2 2 2 2 2 2 2 1 1 2 2 3 2 2 2 3 2 3 2 3 2 3 2 2 2 2 2 4 5 6 5 6 8 9 7 5 4 5 5 5 4 4 3 4 3 3 2 2 2 2 1 1 1 2 2 2 3 3 4 4 4 5 6 5 4 3 3 5 5 5 4 2 2 1 2 3 3 3 3 2 2 2 3 3 3 3 3 3 4 4 4 3 2 2 2 2 2 3 2 1 1 2 2 2 2 3 3 4 5 6 7 5 4 3 3 3 3 2 2 2 3 1 2 1 2 2 2 2 3 4 6 6 7 8 9 10 11 14 21 31 43 64 85 122 152 158 131 101 102 116 119 112 94 69 56 62 109 150 141 140 121 145 145 115 83 38 29 19 12 11 6 5 4 4 3 3 2 3 4 4 3 2 2 2 3 3 3 3 1 1 1 1 2 2 2 1 0 0 0 0 0 2 3 4 3 4 3 3 3 3 3 3 3 4 4 4 4 4 3 4 4 4 4 3 3 3 4 5 5 6 6 6 5 4 2 1 1 1 1 1 1 1 1 1 1 2 2 2 2 1 0 0 0 0 1 1 1 1 0 0 1 2 1 1 2 4 6 7 8 8 8 9 7 6 3 4 2 2 2 3 3 3 3 2 1 1 1 0 1 2 3 2 2 1 1 2 2 2 2 2 2 2 2 2 2 1 1 1 1 1 1 1 1 3 3 4 3 2 2 2 2 1 0 0 1 2 2 2 2 3 2 1 1 0 1 1 2 2 2 1 0 0 0 1 1 2 2 2 1 1 1 1 1 2 1 2 2 3 3 2 1 2 3 3 3 4 4 4 3 3 3 4 4 4 4 2 0 
0 2 3 3 3 3 4 4 4 3 2 2 3 4 4 3 2 2 1 0 0 0 1 1 2 2 3 4 5 5 3 3 2 1 0 0 0 0 0 1 1 1 1 0 0 0 0 1 1 1 1 1 1 1 1 1 2 3 3 3 3 3 2 1 1 1 1 1 2 3 3 3 3 2 2 1 1 1 1 1 1 2 2 2 1 1 1 1 2 1 2 3 3 2 2 2 3 4 4 3 3 2 2 2 1 1 0 0 0 1 1 2 2 2 3 3 3 3 3 3 2 2 3 4 4 4 3 3 2 2 3 4 4 3 2 2 2 2 2 2 2 2 1 1 2 2 2 2 2 2 2 2 3 3 3 3 2 2 2 2 2 3 4 6 6 6 6 6 6 6 5 4 4 4 4 3 4 3 3 2 3 1 1 2 2 2 2 1 2 1 2 2 2 3 4 5 6 7 7 6 6 5 6 6 5 4 2 2 2 2 3 3 3 3 2 2 3 4 4 4 3 4 5 6 6 5 4 3 3 2 2 2 2 2 2 2 1 2 2 2 2 2 3 4 5 6 5 3 3 3 3 2 2 2 2 2 1 2 1 1 2 2 2 3 4 6 6 6 7 8 9 9 11 13 28 33 39 40 73 112 136 137 121 120 134 148 161 155 142 125 125 153 174 152 116 83 85 85 68 44 27 23 13 10 9 5 4 4 3 2 2 2 3 3 4 3 2 2 2 3 3 3 2 2 1 2 1 2 2 2 1 0 0 0 0 0 2 3 4 4 4 4 4 4 4 4 4 5 5 6 6 6 4 3 3 4 4 4 2 3 3 3 4 4 4 4 4 4 2 1 1 1 1 1 1 1 1 2 1 1 2 2 2 2 1 1 0 0 0 1 1 1 1 0 0 1 2 2 2 2 3 4 4 5 4 3 3 3 4 3 3 3 3 3 3 3 3 2 1 1 1 0 0 0 1 2 2 2 1 2 2 2 2 1 1 2 2 2 3 3 2 1 1 1 1 1 1 1 2 4 4 4 3 3 2 2 1 1 0 1 2 2 3 2 2 2 1 1 1 1 2 2 2 1 1 0 0 0 1 1 1 1 1 1 1 1 2 2 2 2 1 2 3 3 3 2 3 4 4 4 5 5 5 4 3 4 4 5 5 5 3 0 
0 2 3 3 3 4 5 5 4 2 1 1 3 3 3 3 2 3 2 2 1 2 3 3 3 3 4 5 5 5 4 4 2 1 1 0 0 0 0 1 1 2 1 0 0 0 1 1 1 1 1 1 1 1 1 1 3 3 4 4 5 4 3 2 1 1 1 1 1 2 2 4 5 4 4 3 3 2 1 1 1 1 2 2 3 2 2 2 2 2 2 3 3 3 3 2 2 3 4 4 3 2 2 2 2 1 1 1 0 1 1 2 2 2 2 3 3 3 3 3 3 3 3 4 3 3 2 2 2 2 3 3 3 3 2 2 3 2 2 2 2 2 1 2 2 2 2 1 2 2 2 3 3 3 3 3 3 3 3 2 2 2 4 5 5 4 3 3 4 5 4 3 3 3 4 4 3 3 3 2 2 2 2 3 3 3 2 2 2 2 2 2 2 3 4 4 5 7 8 8 8 7 8 7 6 4 3 3 3 4 4 4 3 3 2 2 2 2 2 2 2 2 3 3 3 3 3 2 2 2 2 1 2 2 2 2 1 2 2 2 2 3 3 3 3 4 4 3 2 2 2 2 2 2 2 2 1 1 1 1 2 2 2 3 3 4 4 5 6 7 7 7 7 8 13 20 33 35 46 73 98 116 124 123 126 131 154 166 173 165 162 167 159 126 85 56 47 39 33 28 21 13 8 8 7 4 3 3 2 3 3 3 3 3 4 3 2 2 2 3 2 2 1 1 1 1 1 1 1 2 1 1 0 0 0 1 1 2 3 4 5 5 4 3 3 3 3 3 4 4 4 3 3 3 3 3 3 1 1 2 2 3 4 4 4 5 5 4 3 1 1 1 1 1 2 2 1 2 2 2 2 2 2 2 2 1 0 0 0 1 1 2 1 1 1 1 2 2 2 3 3 4 5 5 5 5 4 4 3 3 3 3 3 3 3 3 3 2 2 1 1 1 1 1 1 2 2 2 2 2 2 2 2 1 1 1 2 3 3 3 3 2 2 1 1 1 1 1 2 3 3 3 3 3 3 2 2 2 1 2 2 2 3 3 3 4 3 3 2 3 2 2 2 2 1 0 0 1 1 1 1 0 0 1 1 2 2 2 2 3 2 3 4 4 4 3 3 3 3 4 4 4 4 4 3 3 4 5 5 5 3 0 
0 1 2 3 3 3 4 4 3 2 1 1 2 3 3 3 2 3 3 4 3 4 4 4 3 2 4 4 4 4 3 3 2 2 1 0 0 0 0 1 1 1 1 1 0 0 1 1 1 1 1 1 1 1 1 1 2 3 3 4 4 4 3 2 2 2 1 1 1 1 2 4 5 4 4 3 3 2 1 1 1 1 2 3 3 3 2 2 3 3 3 3 3 4 4 4 3 3 3 4 3 3 2 2 2 2 2 1 1 1 1 2 2 2 2 2 2 2 2 2 3 3 3 3 2 2 2 2 2 1 3 3 3 3 3 3 3 2 2 2 1 2 1 1 1 1 2 2 2 2 2 3 3 3 4 3 3 3 3 3 3 3 3 4 4 4 3 3 2 2 3 2 2 2 2 2 2 2 2 2 2 2 2 3 3 3 2 2 2 2 2 1 2 3 4 4 6 8 10 11 10 9 9 9 7 5 4 4 5 5 4 4 3 3 3 3 2 3 2 2 1 1 2 2 3 1 2 1 2 1 1 1 1 2 2 3 3 3 2 2 2 3 2 2 2 2 2 2 2 2 2 2 1 1 1 1 0 0 1 1 2 2 1 2 2 3 3 3 3 4 4 3 3 6 6 8 13 24 29 45 66 80 87 84 86 91 117 133 148 147 143 138 124 95 63 40 28 26 25 19 11 7 6 6 4 3 2 3 2 3 2 3 3 3 3 3 3 3 3 3 2 1 1 1 1 1 0 1 1 1 1 1 1 1 1 1 1 2 2 3 4 4 4 4 4 5 5 5 5 5 5 5 4 3 3 3 2 2 1 1 2 2 2 2 2 3 4 3 2 2 1 1 1 1 2 2 2 2 2 2 2 1 1 1 1 1 0 1 1 2 2 2 2 2 1 1 1 1 2 3 3 3 3 3 3 3 2 3 3 3 3 3 3 3 3 3 3 2 1 1 1 1 1 1 2 2 2 2 1 1 1 2 1 0 0 1 1 2 2 3 3 2 2 1 1 1 1 1 1 1 2 2 2 2 2 2 2 2 2 1 2 2 2 3 3 4 3 4 3 3 3 3 2 1 1 1 1 1 1 1 1 1 0 0 1 1 1 1 2 2 2 3 3 4 4 3 3 4 4 4 4 4 4 3 2 2 2 3 4 4 2 0 
0 1 2 3 2 3 3 3 3 2 1 0 1 2 2 2 2 4 4 5 6 6 5 5 3 3 3 3 4 4 3 3 2 1 1 1 0 0 1 1 2 2 1 1 0 1 1 2 2 1 1 0 0 0 0 1 2 4 4 5 5 5 4 3 2 2 1 1 1 2 2 4 5 6 6 5 5 3 2 1 1 1 2 3 3 3 3 3 3 3 2 2 3 4 4 4 3 3 3 4 3 3 3 3 2 2 2 2 2 1 1 1 1 1 1 1 1 1 1 2 3 3 3 2 2 1 2 2 2 1 2 3 3 3 3 3 2 1 1 1 1 1 1 1 2 1 2 2 3 3 2 2 2 2 2 2 3 2 3 3 3 4 6 7 7 5 4 3 2 1 1 1 1 2 2 2 2 2 1 1 1 1 2 3 4 4 3 2 2 2 2 3 4 4 5 5 5 9 11 13 11 9 10 10 9 8 8 7 6 5 4 4 4 3 3 2 1 1 1 1 0 0 0 0 1 0 1 0 1 0 1 1 2 4 4 4 4 4 4 3 3 2 2 2 2 2 2 2 2 2 2 2 2 1 1 0 0 0 1 2 2 2 1 1 1 1 1 1 2 1 1 2 2 3 4 6 7 13 18 24 30 42 53 55 55 51 61 78 97 100 96 84 66 48 34 25 20 18 13 8 4 3 4 4 3 3 2 3 3 3 3 3 3 3 3 3 2 3 3 3 1 0 0 1 1 1 0 1 1 1 1 1 1 1 1 1 1 2 2 2 3 3 3 3 3 3 4 3 3 3 2 3 3 3 3 3 2 2 2 2 2 2 2 2 2 3 3 4 3 2 2 2 2 1 1 1 1 2 2 1 1 0 0 1 1 1 1 1 1 2 2 3 3 2 2 1 1 2 2 3 4 3 3 3 3 4 3 3 2 2 2 1 1 1 2 2 2 2 1 0 1 1 2 2 2 2 2 2 2 2 1 1 1 0 0 1 1 2 1 2 3 2 3 2 2 2 2 1 1 0 0 0 1 1 1 2 2 2 2 2 1 2 2 3 4 5 4 4 3 3 3 3 2 1 1 1 1 1 1 1 1 1 0 0 1 1 1 1 1 2 2 3 3 4 3 3 2 2 2 2 2 2 2 2 1 1 1 2 2 3 2 0 
0 1 2 2 2 2 2 2 2 2 1 0 1 1 2 2 3 4 4 6 6 7 6 4 3 2 2 2 2 3 2 1 1 1 1 1 1 1 1 1 2 2 2 1 1 1 2 2 2 2 1 0 0 0 0 1 2 4 4 5 5 5 4 3 3 2 2 2 2 2 2 3 4 4 4 4 4 3 3 2 2 1 2 3 3 3 2 3 3 3 2 1 2 3 4 4 3 3 3 3 2 3 3 3 3 2 2 2 2 1 1 1 1 1 0 0 0 0 0 1 2 3 3 2 2 2 2 2 2 1 2 2 3 3 2 2 2 1 0 0 1 0 1 0 1 1 2 2 2 2 2 2 2 2 2 2 2 1 2 2 2 3 4 5 5 4 3 3 2 1 0 1 1 1 1 1 1 1 1 1 0 1 2 3 3 3 2 2 2 2 2 2 3 3 3 3 5 9 12 13 11 9 10 10 11 10 9 7 5 3 2 2 2 3 3 3 2 2 1 1 0 0 0 0 1 0 1 0 1 0 1 1 2 2 3 4 4 3 3 3 2 2 2 2 3 2 2 2 2 2 2 1 0 0 0 0 0 0 1 2 2 2 1 0 0 0 0 1 1 1 1 1 2 3 4 5 5 8 11 19 20 22 19 21 27 35 38 37 33 33 33 34 35 32 27 20 15 10 5 3 3 3 3 3 3 3 2 3 3 4 4 3 3 2 2 2 1 2 2 2 1 0 0 1 1 1 1 1 1 1 0 0 0 0 1 1 1 1 2 2 3 3 3 2 3 4 4 4 3 3 3 3 3 3 3 3 3 3 3 2 2 1 1 1 1 2 3 3 3 2 2 2 1 1 1 1 1 1 1 1 1 0 1 2 2 1 1 1 2 2 3 3 4 3 2 2 2 3 3 4 4 3 3 3 4 5 4 4 3 2 1 0 1 1 2 2 2 2 1 1 1 2 2 2 2 2 2 2 2 1 1 1 1 1 1 1 1 1 1 2 3 2 3 3 3 3 2 2 1 0 0 0 0 0 0 1 1 1 2 1 1 2 2 2 3 4 4 4 3 3 3 2 2 1 1 1 2 1 1 1 1 1 0 0 1 1 0 0 0 0 1 2 2 3 2 3 2 2 2 2 3 3 2 2 1 1 1 2 2 2 1 0 
0 1 2 2 2 1 2 2 2 2 1 0 0 1 2 3 3 4 5 6 6 6 6 4 3 2 1 1 1 1 1 1 1 1 1 1 1 1 1 2 2 2 2 1 1 1 2 2 2 2 1 0 0 0 0 1 2 4 4 4 4 4 4 4 3 2 2 2 2 2 2 3 4 5 6 6 6 6 6 4 3 2 2 2 2 2 2 2 2 2 1 1 1 2 3 4 3 3 2 3 3 3 3 3 3 3 3 3 2 1 1 1 1 0 0 0 0 0 0 0 2 2 2 2 2 2 2 2 2 2 2 2 3 2 3 2 2 1 0 0 0 0 1 0 1 2 2 2 2 1 1 1 1 2 2 2 2 1 1 1 3 3 5 6 6 5 4 3 2 1 0 0 1 1 1 1 1 2 1 0 0 0 1 2 2 3 3 2 2 1 2 3 4 4 4 3 4 8 11 13 11 9 9 9 11 11 9 7 3 1 1 1 1 2 3 3 3 2 1 1 0 0 0 0 1 0 1 0 1 0 1 2 3 5 6 6 6 6 6 4 3 1 1 2 2 2 2 1 1 2 2 1 0 0 0 0 0 0 0 1 2 2 1 0 0 0 0 0 1 1 1 1 2 3 5 6 6 6 6 9 11 18 20 25 25 25 25 26 24 24 25 27 26 22 18 12 8 5 3 3 2 2 2 3 3 3 2 3 3 4 4 3 3 2 1 0 0 1 1 1 1 0 0 0 1 1 2 2 1 0 0 0 0 0 0 0 1 1 2 2 2 2 2 1 2 2 3 3 3 3 3 3 3 3 4 4 4 5 5 4 2 1 0 0 0 1 2 2 2 1 1 1 1 1 1 1 1 1 1 1 1 1 1 2 2 2 2 2 2 2 3 3 3 3 2 2 2 3 3 4 4 3 3 3 4 4 4 3 2 2 1 1 1 2 2 2 2 2 2 2 2 2 2 2 2 2 2 3 2 2 2 2 1 1 1 1 1 1 1 2 2 2 3 3 4 3 2 2 0 0 0 0 0 0 0 0 0 0 1 1 1 1 1 1 2 3 3 4 3 3 3 2 2 0 0 1 2 2 2 1 1 1 0 0 1 1 0 0 0 0 0 1 2 2 2 2 2 2 2 2 2 2 2 2 2 2 1 1 2 2 1 0 
0 1 2 2 1 1 1 1 2 2 1 0 0 1 2 2 3 4 5 5 6 6 5 4 4 3 2 1 0 1 0 0 1 1 1 1 1 1 2 2 2 2 1 1 1 2 2 2 2 3 2 1 0 0 0 1 2 4 3 3 4 5 5 4 3 3 3 2 2 2 2 2 3 4 5 5 6 6 6 5 3 2 2 1 2 2 1 1 1 1 1 1 1 2 4 4 3 3 2 3 3 3 3 2 2 3 3 3 2 1 1 1 1 0 0 0 0 0 0 0 1 2 2 2 2 2 2 2 2 1 2 2 3 2 3 2 2 1 0 0 0 0 1 1 1 2 2 2 1 1 1 1 2 3 3 2 2 1 2 1 2 2 3 4 5 3 2 2 2 1 1 1 1 1 1 1 1 1 1 0 0 0 0 2 1 2 2 2 2 1 2 2 4 5 4 3 2 5 9 12 12 10 10 10 11 10 8 5 2 1 0 0 1 2 4 4 4 2 2 1 0 0 1 0 1 0 1 0 1 0 1 1 2 3 3 3 3 3 3 3 2 1 1 1 1 1 1 1 1 1 1 0 0 0 0 0 0 0 0 1 2 2 1 0 0 0 0 0 1 1 1 2 3 4 4 5 5 6 5 6 5 7 6 6 5 5 6 8 8 11 13 17 15 11 7 6 6 5 4 3 2 3 2 3 3 3 2 2 3 3 3 3 3 2 1 0 0 0 1 1 1 0 0 0 1 1 2 2 1 0 0 0 0 0 0 0 1 2 2 2 2 1 2 2 2 3 3 3 2 2 2 3 2 3 4 4 4 5 5 4 3 2 1 1 1 2 2 2 2 1 1 1 1 1 1 1 1 1 1 2 2 2 2 3 3 3 3 3 3 2 3 3 3 2 2 2 2 2 2 3 3 2 2 3 3 3 3 3 2 2 2 1 1 1 2 2 2 2 2 2 2 2 3 3 2 3 2 3 3 3 3 2 2 2 2 1 1 1 1 2 2 2 3 3 4 3 2 2 0 0 0 0 0 0 0 0 0 0 0 0 0 0 0 0 1 3 3 5 3 4 3 2 2 1 1 1 2 2 2 1 1 1 1 1 1 1 0 0 0 0 0 1 2 2 2 1 1 2 2 2 2 2 2 1 1 1 1 2 2 2 1 0 
0 1 1 1 1 1 1 1 2 2 1 1 0 1 2 2 3 3 4 5 5 6 5 4 4 3 2 1 0 1 0 1 1 1 1 1 1 1 1 1 1 1 1 1 2 3 3 4 4 4 2 1 0 0 0 1 2 3 3 3 4 5 5 4 3 3 3 3 2 1 2 2 4 5 5 5 6 6 7 7 5 2 1 1 2 2 2 1 1 1 1 1 1 2 4 4 3 2 3 3 3 3 2 2 2 2 3 3 2 1 1 1 1 1 0 0 0 0 0 0 1 2 2 2 2 3 3 2 2 1 2 2 2 2 3 3 2 2 1 1 1 1 1 1 1 1 1 1 1 1 1 1 2 3 3 2 2 2 2 2 3 3 3 3 4 4 4 3 2 1 1 1 1 1 1 1 1 1 1 0 0 0 0 1 1 1 1 1 2 2 2 3 4 6 5 4 2 4 8 11 12 11 10 10 10 8 6 4 2 0 1 0 2 2 4 4 4 3 2 1 1 0 1 0 1 0 1 0 1 0 1 1 2 4 5 6 5 5 5 4 2 1 0 0 0 0 0 0 1 1 1 0 0 0 0 0 0 0 0 1 2 2 1 1 0 0 0 0 1 1 1 2 2 3 4 5 7 7 5 5 4 4 6 6 7 7 6 6 4 5 6 8 8 7 7 4 4 3 2 3 3 3 3 3 3 3 2 2 2 3 3 3 2 2 1 1 0 0 1 1 1 1 0 0 1 1 1 1 1 0 0 0 1 1 1 1 1 2 2 3 2 2 2 2 2 2 2 2 2 2 2 3 3 3 3 3 4 5 6 5 3 1 1 1 1 1 2 2 1 1 0 1 0 1 1 1 1 1 1 2 2 2 2 2 2 3 3 3 3 2 2 2 2 2 2 1 1 1 2 3 3 3 3 3 3 3 2 2 2 3 3 4 4 4 4 3 3 2 2 2 2 2 3 3 3 3 2 3 3 3 3 2 2 2 2 2 1 0 1 1 1 2 3 3 4 3 2 2 1 0 0 0 0 0 0 0 0 1 0 0 0 0 0 0 1 3 3 5 4 4 4 3 3 1 1 1 2 2 2 1 1 1 1 1 2 2 1 0 0 0 0 1 2 2 2 1 1 2 3 3 3 3 2 2 2 1 1 2 3 3 2 0 
0 1 1 1 0 0 1 1 2 2 2 1 1 2 2 2 3 2 3 4 4 5 5 5 3 3 2 1 1 0 1 1 1 1 1 1 1 1 1 1 1 1 1 1 2 2 3 4 4 4 2 1 0 0 0 1 1 2 3 4 4 4 4 3 3 3 3 3 2 1 2 2 4 5 6 5 6 5 5 5 4 2 1 2 2 2 2 1 1 1 1 1 2 2 4 3 3 2 3 3 3 3 2 2 2 2 3 3 2 1 1 2 2 1 0 0 0 0 0 0 1 1 2 2 2 2 2 2 2 1 1 2 2 2 2 2 3 3 2 2 1 2 1 2 2 2 1 1 1 1 1 1 2 2 2 2 1 1 2 2 2 2 3 4 5 4 3 2 2 2 1 1 1 0 1 1 1 1 1 0 0 0 0 1 1 1 2 2 2 2 2 4 5 7 6 5 3 3 6 9 11 11 11 10 9 7 5 3 2 1 1 1 2 2 4 4 4 3 2 1 1 1 1 1 2 0 1 1 1 1 1 0 1 2 3 3 3 2 1 1 1 0 0 0 0 0 0 0 2 2 2 1 0 0 0 0 0 0 0 1 2 2 2 1 1 1 1 1 1 2 1 2 2 3 4 5 5 6 5 5 4 4 4 4 4 5 6 6 5 5 6 9 10 7 5 3 3 3 3 3 3 3 3 3 3 2 2 2 2 2 2 2 2 1 1 1 1 1 1 2 2 1 1 1 1 1 1 1 1 1 1 1 2 2 1 1 2 2 3 3 2 2 2 2 2 3 2 2 2 2 2 2 2 2 2 3 3 5 5 5 3 2 1 1 1 2 2 2 1 1 0 0 0 0 0 1 1 1 2 2 2 2 1 2 2 2 3 3 3 2 2 2 1 1 2 2 2 2 2 2 2 2 2 2 2 2 2 2 2 3 4 5 5 5 4 4 3 2 1 1 1 2 2 2 3 2 2 2 3 3 3 2 2 2 2 3 2 2 1 1 1 1 2 3 3 2 2 1 1 1 1 1 0 0 0 1 1 1 1 1 1 1 1 1 1 3 3 5 4 4 4 3 3 2 1 2 2 2 2 1 1 1 1 1 2 2 2 2 1 1 1 2 2 3 2 1 2 2 2 2 3 3 2 2 1 1 1 2 3 3 2 0 
0 0 1 0 0 1 1 1 2 2 2 2 3 4 4 4 4 3 3 3 4 4 4 4 3 3 2 1 2 2 2 1 1 1 1 1 1 1 0 0 0 0 1 1 2 3 4 5 5 4 3 2 2 2 2 2 2 2 3 4 4 4 3 2 3 3 3 3 2 2 2 3 4 4 5 5 5 5 5 5 3 2 1 2 2 3 3 2 1 1 2 2 2 2 3 3 3 2 2 3 3 3 2 2 2 3 3 3 2 1 2 2 3 2 1 0 0 0 0 0 1 1 2 2 3 4 5 4 3 1 2 2 3 2 2 2 3 3 3 3 2 2 2 2 1 2 1 1 1 1 1 2 2 2 2 2 1 1 1 2 2 3 3 3 3 3 3 3 2 1 1 0 1 0 1 1 1 1 0 0 0 0 0 1 1 1 1 1 2 1 2 4 4 7 5 6 4 4 5 6 8 8 9 9 8 6 4 3 2 2 2 2 2 2 4 3 4 2 2 1 1 1 1 1 2 1 2 1 1 1 1 1 1 3 4 4 3 3 2 2 1 0 0 0 0 0 0 1 3 2 3 1 1 0 0 0 0 0 0 1 2 3 3 3 2 1 2 2 2 2 1 2 2 3 3 4 5 5 4 4 4 4 5 5 5 5 5 5 5 3 3 4 5 5 3 2 1 1 1 2 2 2 2 2 2 2 2 2 2 2 2 1 1 1 1 2 2 2 2 2 2 1 1 2 2 1 1 1 1 2 2 3 3 3 2 2 3 3 3 2 2 2 2 3 2 3 2 3 2 2 2 2 2 2 2 2 3 4 4 4 3 3 2 1 1 2 3 3 1 1 0 0 0 0 0 1 2 2 2 2 1 1 1 2 2 1 2 2 3 3 2 2 2 3 3 3 2 2 3 3 3 3 3 3 3 3 3 2 3 4 5 5 6 5 5 4 3 1 0 1 1 2 2 2 2 2 1 1 1 2 2 2 2 2 2 3 2 2 1 1 1 2 3 3 3 2 2 3 2 2 2 2 2 3 2 3 5 5 5 3 2 2 1 1 2 2 3 4 3 3 4 4 3 2 1 1 2 2 2 1 2 2 2 2 3 3 3 3 2 2 2 2 2 2 2 2 2 2 2 2 3 3 3 2 1 1 1 2 3 4 2 0 
0 0 1 0 0 1 1 2 1 2 3 3 4 4 3 4 3 3 2 2 3 3 3 3 2 2 1 1 1 1 1 1 1 0 0 0 0 0 0 0 0 0 0 1 2 2 3 4 4 4 3 3 3 3 3 2 2 2 3 3 3 3 3 2 2 2 3 3 3 2 2 3 4 5 6 5 5 4 3 3 2 1 1 2 3 3 3 2 1 1 1 2 2 2 3 3 3 2 2 3 3 4 3 3 2 3 3 3 2 2 2 2 3 2 1 0 0 0 0 1 2 1 2 2 2 3 4 3 3 2 2 2 2 2 2 2 3 2 3 3 2 3 2 3 3 3 3 3 2 3 3 3 2 2 2 1 1 1 1 2 2 2 3 3 3 3 2 2 2 1 1 1 1 1 1 1 1 0 0 0 0 0 0 1 1 1 1 1 1 1 1 3 3 6 5 6 5 4 4 4 4 5 6 6 5 4 2 2 1 2 2 2 2 2 3 3 3 2 1 1 1 1 2 2 2 1 2 1 2 2 1 1 1 2 2 3 2 2 1 1 1 0 0 0 0 0 1 1 3 2 3 1 1 0 0 0 0 0 1 1 2 3 3 3 2 2 2 2 2 2 1 2 2 3 3 3 3 3 3 3 4 4 5 4 4 3 3 4 3 3 2 4 4 4 2 1 1 1 1 1 1 1 1 2 2 2 2 2 2 2 2 1 1 1 1 2 2 2 2 1 1 1 1 2 2 1 1 1 1 2 3 3 3 3 2 3 3 3 3 2 2 2 2 2 2 3 2 3 3 2 2 3 3 3 2 2 3 4 4 4 3 2 1 1 1 2 2 2 1 1 0 0 0 0 0 1 2 2 2 2 1 2 1 2 2 1 2 2 3 3 3 3 3 3 3 3 3 3 3 3 3 2 2 2 2 2 2 2 2 3 3 4 4 4 3 3 2 1 1 1 1 1 2 2 2 2 1 0 1 1 2 2 2 2 2 2 3 3 2 2 2 1 2 2 3 3 2 3 3 3 3 3 3 3 3 5 6 7 6 5 3 2 2 1 2 2 3 3 3 3 3 3 2 2 1 1 1 2 1 1 2 1 1 1 3 3 4 3 2 2 2 2 2 2 1 2 1 2 1 2 2 2 2 2 2 1 2 2 3 4 2 0 
0 0 1 1 1 2 1 2 2 2 3 3 4 4 4 4 3 3 3 3 2 2 2 2 2 2 2 1 2 2 2 2 1 0 0 0 0 0 0 0 0 0 0 1 1 2 2 2 2 3 3 3 3 3 3 3 3 3 2 2 2 2 2 2 3 3 3 4 4 4 3 3 4 4 6 4 4 4 3 3 1 1 1 1 3 3 3 2 1 1 1 2 2 2 2 3 2 2 2 3 3 4 3 3 2 3 3 2 2 2 2 2 2 2 1 1 0 0 0 1 2 2 2 2 2 3 4 4 4 3 2 2 2 2 2 2 2 2 3 2 2 3 2 4 3 4 3 3 3 3 3 3 2 2 2 2 1 1 1 1 2 2 3 2 2 2 2 3 2 2 1 1 1 1 1 1 1 0 0 0 0 0 0 1 2 2 1 1 0 1 1 2 2 4 5 5 5 4 3 2 2 2 3 3 3 3 2 2 1 2 2 3 3 2 1 2 2 2 1 1 1 1 2 2 2 2 2 2 2 3 2 2 2 2 2 3 3 3 3 2 2 1 1 0 0 0 1 2 3 2 3 1 2 1 1 1 0 1 1 1 2 2 3 4 3 3 3 3 2 2 2 2 2 3 3 4 3 2 3 3 4 4 5 3 4 2 2 3 2 2 1 2 2 2 2 1 1 0 0 0 0 0 1 1 1 1 1 1 1 1 2 2 2 2 2 2 2 2 2 2 1 1 1 1 1 1 1 1 1 2 3 3 3 2 2 3 3 2 2 1 1 1 1 1 1 3 3 3 3 3 3 3 4 4 4 4 4 3 3 3 3 3 2 1 1 2 2 2 1 0 0 0 0 0 0 1 2 1 2 1 1 1 2 2 2 1 1 2 3 3 3 3 3 3 3 3 3 3 3 3 2 3 3 3 3 2 2 2 2 2 3 3 3 3 2 2 1 1 1 1 1 2 2 2 2 1 0 0 0 0 1 2 2 2 1 1 1 2 2 2 3 2 3 3 3 3 2 3 3 3 3 3 3 3 4 6 7 9 8 7 5 3 2 2 2 2 2 2 2 2 2 3 2 1 1 2 2 2 1 2 2 2 3 2 3 3 4 3 2 2 1 1 1 1 1 1 1 1 1 1 1 2 2 2 3 3 3 3 3 3 1 0 
0 1 1 1 2 3 2 3 3 3 3 3 3 3 3 3 2 2 2 2 2 1 1 1 2 2 2 1 1 1 1 1 0 0 0 0 0 0 0 0 0 0 0 0 0 1 1 1 2 2 2 2 1 1 2 2 2 2 1 1 2 2 3 2 3 2 3 4 4 4 3 3 4 4 5 3 3 3 2 2 1 1 1 1 2 3 3 3 1 1 1 1 1 1 2 3 3 2 1 2 2 2 2 2 2 3 3 2 2 1 1 1 1 2 2 1 1 0 1 1 2 2 2 2 1 2 3 4 3 3 2 1 1 1 1 1 1 1 2 2 2 2 2 3 4 4 4 4 4 5 4 4 3 3 2 2 1 1 1 1 2 2 2 2 2 2 2 3 2 2 1 1 1 1 1 0 0 0 0 0 0 0 0 1 2 2 1 0 0 1 1 2 2 3 4 4 4 3 3 2 2 2 1 1 1 1 1 1 1 2 2 3 2 2 1 1 1 2 2 2 2 2 2 2 2 2 2 2 2 3 2 3 2 2 2 4 5 5 5 3 2 1 1 1 1 1 1 2 3 3 3 1 2 1 1 1 0 1 1 1 1 1 3 3 3 3 3 3 2 1 1 2 3 4 4 4 3 3 2 2 3 3 4 2 3 1 2 2 2 2 2 2 2 2 2 1 1 0 0 0 0 0 1 1 1 1 0 0 1 1 2 2 3 3 2 2 1 1 2 1 1 1 1 1 0 0 0 0 1 2 3 2 3 2 2 3 2 2 1 1 0 0 0 1 1 2 3 3 3 2 3 2 3 4 4 4 4 4 4 3 3 2 2 1 1 1 1 1 1 1 1 0 1 1 1 1 2 1 1 1 2 2 2 2 2 2 2 2 2 2 3 3 3 2 2 2 2 3 3 3 3 3 3 3 3 3 2 1 1 2 2 2 2 2 2 2 2 2 2 1 1 1 1 2 2 2 1 0 0 0 1 1 2 2 1 1 0 1 1 2 3 3 3 3 3 3 2 2 2 2 2 2 2 3 4 6 6 9 8 7 6 3 3 3 2 2 1 1 2 2 2 2 1 1 1 1 1 1 1 2 2 3 3 2 2 2 3 3 3 1 0 0 1 1 2 1 1 1 1 1 1 1 1 2 3 3 3 3 2 3 2 0 
0 1 2 2 2 3 3 4 3 3 3 3 3 3 3 2 2 2 2 1 1 1 1 1 2 2 2 2 2 3 2 2 1 0 0 0 0 0 0 0 0 0 0 0 0 0 0 0 1 1 1 0 0 0 0 1 1 1 1 1 2 2 3 3 3 3 3 3 4 4 4 4 5 4 5 3 3 2 2 2 1 1 1 1 2 3 3 2 1 1 1 1 2 2 2 3 3 3 2 2 2 2 2 2 3 3 2 1 1 1 0 1 1 2 2 2 1 1 1 1 2 2 1 1 1 2 2 3 3 4 2 1 1 1 2 2 1 1 1 2 2 2 2 2 3 4 4 4 4 4 4 4 3 3 2 1 0 0 0 0 1 2 2 2 2 2 2 3 2 2 1 1 1 1 1 1 0 0 0 0 0 0 0 1 2 2 1 0 1 1 1 2 2 2 3 3 3 2 2 2 2 2 1 1 1 2 1 1 1 2 2 3 2 2 1 1 1 2 2 2 2 2 3 3 2 2 2 3 3 3 3 4 3 3 4 5 6 7 6 5 3 1 1 1 2 2 1 3 3 3 3 1 2 2 2 1 1 1 1 1 1 1 2 2 2 3 3 3 2 1 1 2 3 3 4 4 4 3 2 3 3 3 4 2 2 2 2 3 2 2 1 1 1 1 1 1 1 0 0 0 0 1 1 1 1 0 0 0 0 1 2 2 3 3 2 2 2 1 1 1 1 1 0 0 0 0 0 0 1 2 3 2 3 2 2 3 2 2 1 0 0 0 0 0 1 2 3 4 4 2 3 2 4 5 5 5 4 4 3 3 2 2 2 2 2 1 1 1 1 1 1 1 1 1 1 2 2 1 1 1 1 1 2 2 2 2 2 2 3 2 2 2 2 2 1 2 2 3 3 3 4 4 4 4 4 4 3 2 1 1 1 2 2 2 2 2 2 2 1 2 2 2 1 1 1 1 0 0 0 0 0 1 2 2 1 0 0 0 1 2 3 3 3 2 3 3 3 2 2 2 2 2 2 2 3 5 5 7 7 7 6 4 4 4 3 2 1 1 2 2 2 1 1 1 1 1 1 0 0 2 3 3 3 3 2 2 3 4 3 1 0 0 0 1 2 2 1 1 1 0 0 0 0 2 3 4 4 3 2 3 1 0 
0 1 3 2 3 3 3 4 4 4 3 3 3 4 4 3 2 2 1 2 1 2 1 1 2 2 2 2 2 2 2 2 1 0 0 0 0 0 0 0 0 0 0 0 0 0 0 0 0 1 1 0 0 0 0 0 0 1 1 1 2 1 3 3 3 3 3 3 4 4 4 4 4 3 4 2 2 2 2 2 1 1 1 1 2 3 3 2 1 1 2 2 2 2 3 3 3 3 3 2 2 1 2 2 2 2 2 1 0 1 1 1 2 2 2 1 1 1 1 2 2 2 1 1 1 2 2 3 3 3 2 2 1 1 2 2 2 1 1 1 1 2 2 2 3 4 4 5 5 6 5 4 3 2 1 1 1 0 0 0 1 1 3 2 3 2 2 2 2 1 1 1 1 1 1 1 0 0 0 0 0 0 1 1 1 1 1 1 2 2 1 1 1 2 2 2 2 2 2 2 1 1 1 1 1 1 1 1 1 1 1 1 2 1 1 1 1 2 2 3 3 3 3 3 3 4 4 4 4 4 4 5 4 4 5 6 7 9 6 6 3 1 1 2 2 2 2 3 4 4 3 1 2 2 2 1 1 1 1 1 0 1 1 1 2 2 3 3 2 1 0 2 2 3 3 3 3 3 2 3 3 3 3 2 2 1 2 2 2 1 1 1 2 2 2 1 1 0 0 0 1 1 2 1 1 0 0 0 0 1 1 2 3 3 3 2 2 2 2 1 1 1 0 0 0 0 0 0 1 2 3 2 3 2 2 3 2 2 0 0 0 0 0 0 1 2 2 3 3 2 2 1 3 4 5 5 4 4 4 4 3 3 2 2 2 1 1 1 1 1 1 1 1 1 1 2 2 2 1 1 1 1 2 2 2 2 2 2 2 2 2 2 2 1 1 1 2 3 3 3 3 4 3 3 3 3 2 2 1 1 1 1 1 1 2 2 2 2 2 2 2 2 2 1 1 1 0 0 0 0 0 1 2 2 1 0 0 0 1 2 3 3 2 2 2 2 2 2 2 2 2 2 2 2 3 4 5 6 6 6 5 3 4 4 3 2 1 1 2 2 2 1 1 1 1 1 1 1 1 2 2 3 3 2 1 1 3 4 3 1 0 0 0 1 2 1 1 1 0 0 0 0 0 1 3 4 4 3 2 4 2 0 
0 2 3 3 3 3 3 3 3 3 3 4 4 4 3 3 4 3 2 2 1 2 1 2 2 3 2 2 2 3 3 3 2 1 0 0 0 0 0 0 0 0 0 0 0 0 0 0 1 1 1 0 0 0 0 0 0 0 2 2 2 1 2 3 3 2 2 2 3 4 4 4 5 4 4 2 2 2 2 2 2 1 1 1 3 3 2 2 1 2 2 2 3 3 3 3 3 3 3 3 2 2 2 2 2 2 1 0 0 0 1 1 2 3 2 1 1 1 1 1 1 1 1 1 1 2 3 3 3 3 3 2 1 1 1 2 2 1 1 1 2 3 3 3 3 3 4 4 4 4 3 3 2 2 1 1 2 1 1 1 1 1 3 3 3 2 3 3 3 2 2 2 2 1 1 1 1 0 0 0 0 1 1 2 2 1 1 1 2 2 2 1 1 1 2 2 2 2 2 2 3 3 2 1 1 1 1 1 1 1 1 1 1 1 1 1 2 3 4 5 5 5 5 5 4 3 3 4 5 4 4 4 4 3 5 6 6 8 6 6 4 2 2 2 3 2 1 3 4 4 4 2 2 2 3 2 2 1 2 1 1 1 1 1 1 2 3 3 2 2 1 2 2 2 2 2 3 2 2 3 3 3 3 2 2 1 2 2 2 1 1 1 2 2 2 1 1 0 0 1 1 1 2 2 2 1 1 0 0 1 1 1 2 2 3 2 2 2 2 1 1 1 1 1 1 1 0 1 1 2 3 2 3 2 2 3 3 2 0 0 0 0 0 0 1 2 3 3 3 2 2 1 3 4 4 3 3 4 4 4 3 3 2 2 2 2 2 2 1 2 1 1 1 2 2 3 3 3 2 1 1 1 2 2 2 1 2 2 2 2 2 2 2 1 1 1 2 3 3 3 3 4 4 4 4 5 4 3 2 1 1 1 2 2 1 2 2 2 2 3 3 3 3 2 1 1 0 0 0 0 0 1 2 2 1 0 0 0 1 2 2 3 2 1 2 2 2 2 2 2 2 2 1 2 2 3 4 5 5 5 4 2 4 3 3 2 1 1 2 2 2 1 1 1 1 1 1 1 1 2 2 2 2 2 1 1 2 4 3 1 0 0 0 1 1 1 1 1 1 1 1 1 1 2 3 4 4 5 3 4 1 0 
0 2 3 3 2 2 3 3 3 3 3 4 3 3 3 3 3 2 2 2 2 2 1 2 2 2 2 2 2 2 2 2 2 1 0 0 0 0 0 0 0 0 0 0 0 0 0 0 1 1 1 0 0 0 0 0 1 1 2 2 2 1 2 2 3 2 2 3 4 5 5 5 5 4 4 2 2 2 2 2 1 1 2 2 3 3 2 2 1 1 3 3 4 4 4 3 3 3 3 2 2 1 1 1 1 1 1 0 0 1 1 2 3 3 2 1 1 1 1 1 1 1 2 2 2 2 2 2 2 3 2 2 1 1 1 1 1 1 2 2 2 3 3 4 4 4 5 5 5 5 4 3 2 2 1 2 2 2 2 1 1 1 3 3 4 3 3 3 2 2 1 1 1 1 1 1 1 1 1 1 1 1 2 2 2 2 2 2 3 3 3 2 1 2 2 2 2 2 2 2 2 2 2 2 2 2 2 2 1 1 1 1 1 2 1 2 2 4 5 6 7 7 6 6 6 5 5 5 6 5 5 3 3 2 4 5 6 6 5 5 4 3 2 3 3 2 1 2 3 4 3 2 2 2 3 2 2 1 1 1 1 1 1 1 1 2 3 3 3 2 2 2 2 1 2 2 2 3 2 3 3 3 3 2 2 1 1 1 1 0 1 1 2 2 2 1 1 1 1 1 2 2 1 1 1 1 1 1 0 0 0 1 2 2 3 2 2 1 1 1 1 1 1 1 1 1 1 1 2 2 3 2 2 1 2 3 3 2 0 0 0 0 0 1 1 2 3 3 3 2 1 1 2 3 4 3 3 4 5 5 4 2 2 2 2 2 2 2 1 2 1 1 1 1 1 2 2 2 2 2 2 2 2 2 2 2 2 2 2 2 2 2 2 1 1 1 2 3 2 2 2 3 3 3 4 4 4 3 3 2 1 2 2 2 1 1 1 2 2 2 2 2 2 2 2 1 0 0 0 0 0 1 2 2 1 0 0 1 1 2 3 3 3 2 2 1 1 1 1 1 1 1 1 1 2 3 4 4 4 4 3 3 4 3 3 2 1 1 2 2 2 1 1 1 1 2 2 2 2 2 2 2 2 1 1 1 2 3 3 2 0 0 1 0 1 0 1 1 2 2 2 2 2 2 4 5 5 5 4 4 2 0 
0 2 3 3 2 2 2 2 2 2 3 3 3 3 3 3 3 3 2 2 2 2 2 3 3 2 2 2 1 2 2 2 2 1 1 0 0 0 0 0 0 0 0 1 1 1 1 1 2 1 1 0 0 0 1 1 2 1 2 1 2 2 2 2 2 1 1 2 3 4 4 5 5 5 4 3 2 2 2 2 2 1 2 2 3 3 2 2 2 3 4 5 4 4 4 3 3 2 2 1 1 1 0 0 0 1 1 0 0 1 1 2 3 3 4 3 3 3 2 1 1 2 2 2 2 1 2 2 3 3 2 2 1 1 1 1 1 2 2 3 4 5 4 4 3 3 4 4 4 4 4 3 2 2 2 3 3 3 2 3 3 3 4 4 4 4 3 3 2 1 1 1 1 1 0 1 1 2 2 2 2 2 2 3 3 3 3 4 5 5 4 3 3 3 3 3 3 3 3 3 4 4 3 3 3 3 2 2 2 2 2 1 1 2 1 2 3 4 6 7 6 6 6 5 4 3 3 3 3 3 2 2 2 2 3 4 4 4 4 4 4 4 3 4 3 3 2 2 3 3 3 2 2 2 2 2 3 2 1 1 1 1 2 2 3 4 5 5 4 2 1 2 2 2 2 2 2 3 3 4 3 3 2 2 1 1 1 1 1 0 0 1 2 1 1 1 1 1 1 2 2 3 3 3 3 3 3 3 2 1 1 1 2 2 2 1 1 1 1 2 2 2 2 2 1 1 2 2 2 2 3 2 1 1 2 3 3 2 1 0 0 0 1 1 2 2 2 3 3 2 2 1 2 3 2 2 2 3 4 4 4 3 3 2 2 2 2 2 1 1 1 1 2 2 1 2 2 2 2 2 2 2 2 3 2 2 1 2 2 2 2 2 2 2 1 1 2 2 2 2 2 3 3 4 4 4 4 4 3 2 1 1 1 1 1 1 2 2 2 2 2 2 2 2 2 2 1 1 0 0 1 1 2 2 2 1 1 2 2 2 2 2 3 2 2 2 1 1 1 1 1 1 1 1 2 2 4 4 5 5 4 3 4 3 3 1 1 1 2 2 3 2 2 1 2 2 2 2 1 2 1 2 2 2 2 2 2 3 3 1 1 0 0 0 0 0 1 1 2 2 3 2 2 2 2 2 3 4 4 4 2 0 
0 2 3 3 2 2 2 1 2 2 2 3 3 4 3 3 2 2 2 2 2 2 2 2 2 2 2 2 2 2 2 1 1 1 1 0 0 0 0 1 1 2 2 2 2 2 2 2 2 1 0 0 0 1 1 1 2 1 2 1 2 3 2 2 1 1 1 2 3 3 3 4 5 5 4 3 3 3 2 2 1 1 2 2 3 3 2 2 3 4 6 6 6 5 4 3 3 2 1 1 0 0 0 0 0 1 1 0 0 1 1 2 2 3 3 3 4 3 2 1 1 1 2 2 1 1 1 1 1 2 2 2 2 1 1 1 1 1 3 3 4 5 4 4 3 3 3 4 4 4 3 3 3 3 3 3 3 3 3 3 3 3 3 4 4 3 3 2 2 1 1 0 1 0 1 1 2 2 2 2 3 3 3 3 3 4 5 5 5 4 4 3 3 3 3 2 2 2 2 3 3 3 3 3 3 3 3 3 3 3 3 3 3 3 3 3 3 5 6 7 7 7 6 6 5 4 3 3 3 3 3 2 2 2 2 3 3 3 2 2 3 3 3 3 3 3 3 2 2 2 2 2 1 1 1 2 2 1 1 1 0 1 1 2 3 4 5 5 3 2 1 1 2 2 2 2 2 3 3 3 3 2 2 2 1 1 1 1 1 0 0 1 2 1 1 1 1 1 2 2 3 3 4 3 3 3 3 3 3 2 2 2 2 2 1 1 1 1 1 1 2 2 2 1 1 1 2 2 2 2 2 2 1 1 2 3 3 3 1 1 1 1 1 1 2 2 2 3 3 3 3 2 4 4 3 2 2 3 5 5 4 2 2 2 2 2 2 2 2 2 2 1 2 2 1 2 2 2 2 2 2 2 2 3 2 1 1 1 2 2 2 2 2 1 1 1 1 2 2 2 1 2 2 3 3 3 3 3 2 2 1 1 1 1 1 1 0 1 1 2 2 2 2 2 1 1 1 1 1 1 1 2 2 2 2 2 2 2 2 2 3 3 3 2 2 1 1 1 1 1 1 1 1 1 2 2 4 4 5 5 4 3 3 3 3 2 2 2 2 3 3 2 2 2 2 3 2 2 1 2 2 2 2 3 3 3 2 3 2 1 0 0 0 0 0 1 1 2 2 2 3 3 3 2 2 3 4 4 4 4 2 0 
0 1 3 3 3 2 2 1 1 2 2 2 3 3 3 3 2 2 2 2 2 2 2 2 2 3 2 2 1 1 1 1 1 2 1 1 0 0 1 2 2 2 2 2 2 2 2 2 2 2 2 1 1 1 1 2 2 1 1 1 1 2 2 1 0 0 0 1 2 2 2 3 4 4 4 4 3 3 2 1 1 1 2 2 2 2 2 2 3 6 7 7 6 4 4 3 3 2 1 0 0 0 0 0 0 1 1 0 0 1 1 2 2 2 3 4 4 3 3 2 2 1 2 2 1 1 1 1 2 2 2 2 2 1 1 1 2 2 3 3 4 4 3 3 2 2 2 2 3 3 3 2 2 2 3 3 2 2 2 3 3 3 3 4 4 3 2 2 1 1 1 1 1 1 1 2 2 2 2 2 3 3 3 3 3 3 4 4 5 5 5 4 3 3 2 2 2 3 3 3 3 3 3 3 3 4 4 4 3 4 3 3 3 3 3 4 4 4 5 4 4 3 3 3 3 3 2 1 2 2 2 2 2 1 2 2 2 2 2 2 2 3 3 3 3 3 3 2 2 1 1 1 1 0 0 1 2 2 2 1 1 1 2 3 4 5 5 4 2 0 0 2 2 2 2 2 3 3 4 3 3 2 2 2 2 1 1 1 1 1 1 1 1 1 1 1 1 2 1 2 3 3 4 4 4 3 3 3 3 2 2 2 2 2 2 2 1 1 1 2 2 2 3 2 2 1 2 2 2 2 2 1 1 0 1 2 3 2 2 1 1 1 2 2 2 2 2 3 4 4 3 3 3 3 2 2 2 2 2 2 2 2 2 2 2 3 2 2 2 2 2 2 2 2 2 1 1 1 2 2 2 2 2 2 1 1 0 1 1 1 2 2 2 2 2 2 2 2 2 2 1 1 2 2 2 2 2 2 2 2 1 1 1 1 1 1 1 1 1 2 2 2 2 2 1 1 1 1 1 1 1 2 2 2 2 3 2 2 2 2 2 2 2 2 2 1 1 1 1 1 1 1 1 1 1 2 3 4 4 4 3 2 3 3 3 3 2 2 2 2 3 2 2 2 2 3 2 2 1 1 2 3 3 3 2 2 2 2 2 1 1 0 0 0 0 1 1 2 2 2 2 3 3 2 1 2 2 3 3 3 2 0 
0 1 2 3 3 2 2 1 2 1 2 2 3 3 3 2 1 2 2 2 2 2 1 1 1 3 2 2 2 2 2 2 2 2 1 1 1 1 2 2 2 2 2 2 1 1 1 2 2 2 3 3 3 2 2 2 2 1 1 1 1 2 1 1 0 0 1 2 2 2 2 2 3 4 4 4 3 2 1 1 1 1 2 2 2 2 2 3 4 6 6 6 5 4 4 3 4 2 1 0 0 0 0 0 0 1 1 0 0 0 1 1 1 1 2 3 3 3 2 2 2 1 1 1 1 1 1 1 1 2 2 2 1 1 1 1 2 3 3 3 3 3 2 2 2 2 2 2 2 2 1 1 2 2 2 3 2 2 2 2 2 2 2 2 2 2 1 2 2 2 2 2 2 1 2 2 2 2 2 2 2 2 2 2 3 3 3 4 4 4 4 4 4 3 2 2 2 2 2 3 3 3 3 2 3 3 4 4 3 4 4 4 4 4 4 3 4 4 5 5 4 4 4 4 3 3 2 2 2 2 3 3 2 1 2 2 3 2 2 2 2 3 3 2 2 2 3 2 2 1 1 1 1 1 1 1 2 2 2 2 1 1 1 2 4 5 4 3 1 1 1 2 3 3 2 2 3 3 3 3 3 1 1 1 2 1 2 2 3 3 3 2 2 2 2 2 2 2 1 2 2 2 3 3 3 2 2 2 2 2 2 2 2 2 1 1 1 1 1 1 2 2 3 2 2 2 2 1 2 2 2 1 1 0 1 2 2 2 1 1 1 1 1 2 2 2 2 3 4 3 3 3 3 2 2 1 1 2 2 2 2 2 2 3 3 3 2 2 1 1 1 2 1 1 1 1 2 1 1 1 1 2 2 2 1 0 0 0 1 2 2 2 2 2 2 1 1 1 2 2 1 1 1 2 3 3 3 3 2 2 1 1 1 1 1 1 1 1 1 2 2 2 2 2 1 1 1 1 0 0 1 1 2 2 2 2 2 2 1 1 1 2 2 1 1 0 1 1 1 1 1 0 0 0 0 1 3 4 5 4 3 2 2 3 3 3 3 2 2 2 2 3 3 3 2 3 2 2 1 1 2 3 3 3 3 3 2 2 2 2 1 0 0 0 0 1 1 2 2 2 2 2 3 2 2 2 2 3 2 3 1 0 
0 2 3 3 3 3 2 2 2 1 1 1 3 3 3 2 1 1 1 2 2 1 1 1 1 2 2 2 2 2 2 2 2 2 2 1 1 1 1 2 2 1 1 0 0 0 0 1 2 3 4 4 4 3 3 3 2 2 1 1 1 1 1 1 1 1 2 2 2 2 2 2 3 4 4 4 3 2 1 0 1 1 1 1 1 2 2 3 4 5 5 6 5 3 4 4 5 3 2 1 0 0 0 0 0 1 1 0 0 0 0 0 0 1 1 2 2 2 2 2 1 2 2 2 2 2 2 1 1 2 1 1 1 0 0 1 2 3 4 4 3 2 2 3 3 3 3 3 2 2 1 1 1 2 2 2 2 2 2 2 3 2 3 2 2 2 1 2 2 2 2 2 2 2 2 2 2 2 2 2 2 2 2 2 3 3 3 3 3 3 4 3 3 2 2 2 2 2 2 2 3 3 3 2 3 2 3 3 3 3 3 3 4 4 4 4 4 4 4 4 3 3 2 3 2 2 2 2 2 3 3 3 2 2 2 2 3 3 3 2 2 3 2 2 1 2 3 2 2 1 1 1 1 1 1 1 2 2 3 3 2 2 2 3 4 4 3 2 1 1 1 3 3 3 2 2 2 2 3 3 2 1 1 1 1 1 2 2 3 3 3 2 2 2 2 2 2 1 2 2 2 2 2 2 1 1 1 1 1 1 1 1 2 3 3 3 2 2 2 2 1 2 2 2 3 2 2 2 2 1 2 1 1 1 1 1 2 2 1 1 0 0 0 1 2 2 3 3 4 4 3 3 2 2 2 2 2 2 1 1 2 2 3 4 4 4 2 2 1 1 1 1 1 0 1 1 1 0 1 1 1 1 2 2 1 0 0 0 0 1 1 1 1 1 2 1 2 1 2 2 2 2 2 2 3 3 3 2 2 1 1 1 1 1 1 1 1 1 1 1 1 2 2 2 1 1 1 0 0 0 0 1 2 2 2 2 1 1 0 1 1 1 1 1 1 0 0 0 1 1 0 0 0 0 0 1 3 4 4 3 3 3 3 3 3 3 3 2 1 2 2 3 3 3 2 3 2 2 1 2 2 3 3 3 2 2 1 1 2 2 1 0 0 0 0 1 2 2 3 3 2 2 2 2 2 2 2 2 2 2 1 0 
0 2 4 4 3 3 3 3 3 2 2 2 2 2 2 1 1 1 2 2 2 1 1 2 2 2 2 1 1 1 1 1 1 1 1 1 0 0 1 1 1 1 0 0 0 0 1 2 3 3 5 5 4 4 4 3 3 2 2 1 0 1 1 1 1 1 2 2 2 2 2 2 3 3 3 3 2 1 0 0 1 1 1 1 1 1 2 3 3 5 5 5 4 4 5 4 5 3 2 1 0 0 0 0 0 1 1 0 0 0 0 0 0 1 1 2 2 2 2 3 2 2 2 2 2 2 2 2 1 1 1 1 0 0 0 1 2 3 3 4 3 2 3 3 3 2 2 2 2 2 1 1 2 2 2 2 2 3 3 2 3 2 3 3 2 2 1 1 2 3 3 3 3 2 3 2 2 2 3 3 3 3 3 3 4 4 4 3 3 4 4 4 3 2 3 2 2 2 2 2 3 3 3 2 2 2 3 3 3 4 3 3 3 3 3 3 3 3 3 3 2 2 2 2 2 2 2 2 3 3 3 3 2 2 2 3 3 3 3 2 2 2 2 2 1 2 3 2 2 1 1 1 1 1 1 1 2 2 3 3 3 3 3 4 4 4 4 2 1 1 2 3 2 2 1 2 2 2 2 2 2 0 0 1 1 2 2 2 3 3 2 2 1 1 1 1 1 1 1 1 1 1 1 1 1 1 1 1 1 0 0 1 2 2 2 2 2 1 2 1 1 1 2 2 3 2 3 2 2 1 2 1 1 1 1 1 1 1 1 1 0 0 0 1 2 3 3 3 4 4 4 3 2 2 2 2 2 2 2 2 2 3 4 4 4 3 2 1 0 0 1 1 0 0 0 0 1 0 1 1 2 2 2 2 1 0 0 0 0 0 0 1 1 1 1 1 1 1 2 2 2 2 2 2 2 2 2 2 1 1 0 0 0 1 1 1 1 1 1 1 2 2 2 2 2 1 1 0 0 0 0 1 2 2 2 2 1 1 0 1 0 1 1 1 1 0 0 0 1 1 1 0 0 0 0 1 2 3 4 4 3 3 2 3 3 3 3 2 2 2 2 3 3 3 3 3 2 3 2 3 2 3 3 3 3 3 2 2 2 2 2 0 0 0 0 1 1 2 3 3 2 2 2 2 2 2 2 2 2 2 1 0 
0 3 4 3 2 3 3 3 3 2 2 2 3 3 3 2 2 2 2 2 2 2 2 2 2 2 2 2 2 1 1 0 1 1 1 0 0 0 0 1 1 1 1 1 0 0 2 3 4 4 5 5 5 5 4 3 3 2 2 1 0 1 1 1 1 1 2 2 1 2 2 3 3 3 3 3 2 2 1 1 1 1 1 1 2 2 2 2 3 4 4 4 4 4 5 4 5 3 2 2 1 0 0 0 0 1 1 1 0 0 0 1 1 1 2 2 2 3 2 2 2 2 2 2 2 2 2 2 1 1 1 1 1 0 1 1 2 2 3 3 3 3 3 2 2 2 2 2 1 1 1 1 2 2 2 2 2 2 3 3 3 2 2 3 2 2 1 2 1 2 1 1 2 2 2 2 3 3 4 4 4 4 4 3 4 4 4 4 3 3 3 3 3 1 2 2 2 3 3 3 3 3 2 2 1 1 2 3 4 5 4 3 3 3 3 4 4 4 3 3 2 2 2 3 2 2 2 2 2 2 2 3 2 2 3 3 3 3 3 3 2 2 2 2 1 2 3 2 2 1 1 1 1 1 1 1 1 2 3 3 3 4 4 3 3 3 3 2 1 2 2 3 2 2 1 1 1 2 2 3 2 1 1 1 1 1 2 2 1 1 1 1 1 1 1 1 1 1 2 1 2 1 1 1 1 1 2 2 1 1 1 2 2 2 3 3 3 2 2 2 2 2 2 2 3 2 3 2 2 1 2 1 1 1 1 1 1 1 1 1 0 0 0 1 2 2 2 2 3 3 4 4 3 2 1 1 1 1 2 2 3 4 4 4 3 2 1 1 0 1 1 1 0 0 0 0 1 1 1 1 2 3 2 2 1 1 0 0 0 0 0 1 1 1 1 1 1 2 2 2 2 2 2 2 2 2 2 2 1 1 0 0 0 1 1 1 1 1 1 1 2 3 2 2 1 1 1 0 0 0 0 1 2 2 2 1 1 1 1 1 0 1 0 1 1 0 0 0 1 1 1 0 0 0 0 1 2 3 3 3 2 2 2 3 3 3 2 3 2 2 2 3 3 3 2 2 2 2 2 2 2 2 2 3 3 3 2 2 3 2 2 0 0 0 0 1 2 3 3 3 2 2 2 2 2 2 2 2 2 2 1 0 
0 3 4 4 3 4 4 4 3 3 2 2 3 3 2 2 3 3 3 3 2 2 2 2 2 2 2 1 1 1 1 0 1 1 1 1 0 0 1 1 1 1 1 1 1 1 1 3 5 5 5 5 4 3 3 2 3 2 2 1 1 1 0 1 1 1 1 2 2 2 2 2 3 2 2 2 2 2 2 2 2 2 2 2 2 2 2 2 3 3 3 3 3 3 5 4 4 3 2 2 1 1 1 0 1 1 1 1 1 1 1 1 1 2 2 2 2 2 2 3 3 2 2 2 1 1 2 2 1 2 2 1 1 0 1 1 2 2 3 2 2 2 2 2 1 1 1 1 1 2 2 2 1 2 2 2 2 2 2 2 2 2 2 3 3 3 2 2 2 2 2 2 2 1 2 2 3 3 4 4 4 4 3 3 4 5 5 4 3 3 4 5 4 3 2 2 2 3 3 3 3 2 2 2 1 1 1 3 4 5 5 4 4 4 3 3 2 2 2 1 1 1 1 2 2 2 2 2 2 2 2 3 2 3 3 3 3 3 3 3 3 2 2 2 2 2 2 2 2 1 1 1 1 1 1 1 1 2 3 3 3 4 5 5 4 3 3 2 1 1 2 3 2 1 1 1 1 2 2 2 2 1 1 1 1 2 2 1 1 0 0 0 1 1 1 1 1 1 2 2 2 1 1 1 1 2 2 2 2 1 1 1 1 1 1 1 1 1 2 2 2 2 3 3 3 2 2 2 2 1 1 1 1 1 1 2 1 1 1 0 0 0 0 1 2 3 4 3 4 5 5 5 3 2 1 1 1 1 1 2 3 4 4 4 2 1 1 0 1 1 1 1 0 0 0 0 1 1 1 2 2 2 2 2 1 1 1 1 1 1 1 1 1 1 1 2 2 2 2 2 1 1 1 2 2 2 3 2 2 1 1 1 1 1 1 1 1 1 1 2 2 3 2 2 1 1 1 0 0 0 0 1 1 2 2 1 1 1 1 1 1 1 1 1 1 1 1 1 1 1 1 1 1 1 1 2 2 2 2 3 2 2 1 2 3 3 3 3 3 3 3 3 3 3 2 2 2 2 2 2 1 2 3 4 4 4 3 3 3 2 1 0 0 0 0 1 2 3 3 3 2 2 2 2 2 2 2 2 1 2 1 0 
0 1 2 2 2 2 2 2 3 3 4 4 4 4 4 3 3 3 3 3 2 2 1 2 3 3 2 2 2 2 1 0 1 1 1 1 0 1 1 1 1 1 1 1 2 2 3 4 5 5 4 4 4 4 3 2 2 1 1 1 1 1 1 1 1 2 2 2 2 2 2 2 3 3 2 2 2 2 2 2 2 2 2 2 2 2 2 2 2 3 3 2 2 2 3 3 3 3 1 1 1 1 1 1 1 1 1 2 2 1 2 2 2 2 2 2 1 2 2 2 3 3 3 2 2 2 1 1 2 3 2 2 1 1 1 2 2 2 3 2 2 2 2 2 1 1 1 1 2 2 3 2 2 2 2 2 2 2 2 2 1 2 1 2 2 2 2 2 2 2 1 1 1 1 1 2 3 3 4 3 3 3 3 3 3 4 5 5 4 4 5 5 5 4 2 2 3 3 4 4 2 2 1 1 1 1 2 3 5 6 5 4 3 3 3 3 3 2 2 1 1 1 2 2 2 2 2 2 2 2 2 3 2 3 3 3 2 2 3 4 4 4 4 4 4 3 3 2 1 1 1 1 1 1 1 1 1 2 3 3 4 5 5 5 5 4 3 2 1 1 2 2 2 2 2 2 2 2 2 3 2 2 1 1 1 1 1 1 1 1 0 1 2 2 2 1 1 2 2 3 3 2 1 1 1 2 2 2 2 2 2 2 2 2 1 1 1 1 2 3 3 3 3 3 4 4 3 2 2 1 1 1 0 1 1 2 2 2 1 1 1 0 1 1 2 2 3 3 3 4 4 3 2 2 1 1 1 1 2 2 4 4 4 3 1 1 0 0 1 1 1 0 0 0 0 0 1 1 1 1 2 2 2 1 1 1 1 1 1 1 2 2 2 2 3 2 3 3 3 2 2 3 2 3 3 3 3 3 2 1 1 1 1 1 1 1 1 1 1 2 2 2 2 1 1 2 1 1 0 0 1 1 2 3 2 2 2 2 1 1 1 1 1 1 1 1 1 1 1 2 1 2 1 2 1 2 2 2 2 2 2 2 1 2 2 2 2 2 3 3 3 4 4 4 3 2 2 1 1 1 1 1 1 2 2 2 3 3 2 1 0 0 0 0 1 1 2 3 3 3 3 2 2 2 2 2 1 1 1 2 1 0 
0 1 2 2 2 3 4 3 3 3 3 3 3 2 3 3 3 3 2 3 2 2 2 3 3 3 2 1 1 1 1 1 1 1 1 1 1 1 1 1 1 1 1 2 2 3 3 4 5 6 4 3 3 3 3 2 1 1 1 1 1 1 1 1 2 2 2 2 2 2 1 1 2 2 2 1 1 1 2 2 2 3 2 2 1 1 1 1 2 2 2 2 2 2 2 3 3 2 1 1 1 2 2 2 1 1 1 2 2 2 2 2 1 1 1 1 1 1 1 2 3 3 3 3 2 2 1 2 2 3 2 2 1 2 1 2 2 2 3 2 2 1 2 1 2 1 1 1 2 2 3 3 3 3 3 2 2 2 1 1 1 1 1 1 2 2 3 2 2 2 1 2 1 1 0 1 2 2 3 2 3 2 2 2 3 5 6 6 6 5 6 7 5 4 2 2 2 2 2 2 2 2 1 2 1 1 2 2 4 5 5 6 6 6 5 3 2 2 2 2 2 2 2 2 2 2 1 1 2 2 2 3 2 2 3 3 3 2 3 4 5 5 5 5 5 4 4 3 2 1 1 1 1 1 2 2 2 2 3 4 4 5 6 6 5 3 2 2 1 1 1 2 2 2 3 3 2 2 2 2 2 2 1 1 1 1 2 2 2 1 0 1 2 2 2 1 1 2 2 3 3 2 2 2 1 2 2 2 2 2 1 1 1 1 1 0 0 0 1 1 2 2 3 4 4 4 3 3 1 1 0 0 0 1 1 2 2 2 1 1 1 1 1 2 2 3 3 3 3 4 4 3 2 2 2 2 1 1 2 2 4 4 4 3 2 1 1 0 1 1 1 0 0 0 0 0 1 1 1 0 1 1 1 1 1 1 1 1 1 1 2 2 2 2 2 2 2 2 2 2 2 2 2 3 4 4 3 3 2 1 1 1 1 1 1 2 1 1 1 1 2 2 2 2 2 2 2 1 1 1 1 2 2 3 3 2 2 2 2 1 1 1 1 2 2 2 2 2 2 2 1 2 1 2 2 2 2 2 3 3 3 3 2 2 2 2 2 2 3 3 3 4 4 4 3 2 2 2 2 1 1 1 1 1 2 2 2 2 2 1 0 0 0 0 1 2 3 3 3 4 4 3 2 2 2 2 1 1 1 2 1 0 
0 1 1 2 2 3 3 3 3 4 4 3 3 2 3 3 2 2 2 2 2 2 2 3 3 3 2 1 1 1 1 1 1 1 1 1 1 1 1 1 1 1 2 2 3 3 3 4 4 4 3 3 4 3 3 1 1 1 1 1 1 1 1 1 2 2 2 2 1 1 1 1 2 2 2 2 1 1 1 2 2 3 2 1 1 0 1 1 2 2 2 2 1 1 1 2 2 2 2 1 1 1 1 2 1 2 1 2 2 3 2 2 1 1 1 1 0 0 1 2 3 3 4 3 3 3 2 2 2 3 3 2 2 2 2 2 2 2 2 2 2 2 2 2 2 1 1 1 2 2 3 3 3 2 2 2 2 2 1 1 1 1 1 1 2 2 3 3 2 2 2 1 1 1 1 1 2 2 3 2 2 2 2 2 3 4 4 4 4 5 5 5 4 4 2 3 2 2 2 2 1 1 1 1 1 1 2 3 3 3 3 3 3 3 2 2 2 2 2 2 2 2 2 2 1 1 1 2 2 3 3 3 2 2 3 3 3 3 3 4 5 6 6 6 5 5 4 3 2 1 1 1 1 1 2 2 3 2 3 3 4 5 7 7 5 4 2 2 2 1 1 2 2 3 4 5 4 3 2 2 1 1 1 2 1 1 1 2 2 1 1 1 1 2 1 1 0 1 2 3 3 2 2 1 2 1 1 1 1 1 1 2 2 2 2 1 1 1 1 2 3 3 3 3 5 6 4 4 2 1 0 0 0 0 1 1 1 1 1 1 1 1 1 1 1 1 2 1 2 2 2 2 1 2 2 2 1 1 1 2 4 4 4 3 2 2 1 0 1 1 1 0 0 0 0 0 1 1 0 0 0 1 2 2 1 2 1 1 1 2 2 2 2 2 2 2 1 2 2 3 2 3 3 3 3 3 3 2 2 1 1 1 1 1 1 1 1 0 1 1 2 2 1 1 2 2 2 1 1 1 1 2 2 3 3 2 2 2 3 2 2 1 1 1 1 2 2 2 2 3 1 3 2 3 3 3 3 3 3 4 4 3 2 2 2 3 3 2 3 3 3 4 4 3 3 3 2 2 2 2 1 0 0 0 0 0 0 1 1 1 0 0 0 0 1 2 3 3 3 3 3 3 2 1 1 1 1 1 1 2 1 0 
0 1 2 3 3 4 4 4 3 4 4 3 2 2 2 3 3 2 2 2 2 2 2 3 3 3 2 1 1 1 1 1 1 1 1 1 1 1 1 1 1 1 2 3 3 3 3 4 5 5 5 4 5 4 4 3 1 1 1 1 1 1 1 1 1 2 2 2 2 1 1 1 2 2 2 2 2 1 1 2 2 2 2 2 1 1 1 2 2 2 2 2 2 1 1 1 2 2 2 2 2 1 1 2 2 2 1 2 3 3 3 3 1 1 1 1 1 1 2 3 3 3 4 4 4 3 3 3 3 2 3 1 2 2 2 2 1 0 1 1 1 1 2 2 2 2 1 1 1 2 3 4 3 2 1 1 1 2 2 2 1 1 1 1 1 2 3 3 3 2 2 2 1 1 1 1 3 2 3 2 2 2 2 2 3 3 4 5 4 4 4 3 2 2 2 2 2 2 1 1 1 1 1 1 1 1 2 2 3 3 4 4 4 4 3 2 1 1 2 2 3 2 2 1 1 1 1 2 2 3 3 3 2 2 2 3 3 3 2 3 5 6 6 5 5 5 4 3 2 2 2 2 2 2 2 2 3 2 2 3 4 4 5 5 4 3 2 2 1 1 1 1 2 3 4 4 4 3 3 2 2 1 1 1 1 1 1 1 1 1 0 0 0 1 0 0 0 1 1 3 3 3 3 2 2 1 1 1 1 1 1 1 1 1 1 1 1 1 1 1 2 2 3 4 4 5 4 4 2 1 0 0 0 0 0 0 0 0 0 0 0 0 1 1 1 1 1 1 1 1 2 2 2 2 2 1 1 0 1 1 3 4 4 3 3 2 2 0 0 1 1 0 0 0 0 0 1 1 0 0 0 1 2 2 1 1 1 2 2 2 2 2 2 2 1 1 1 1 1 2 1 2 2 2 1 1 1 2 2 2 1 1 2 2 2 2 1 1 1 2 2 2 2 2 2 2 1 1 0 1 1 1 2 2 2 2 2 3 3 3 3 3 3 3 3 3 3 3 3 3 2 3 2 3 4 4 4 4 5 5 5 4 3 2 3 3 4 3 3 3 3 4 3 3 3 3 3 3 2 2 1 1 0 0 0 0 0 1 1 1 1 1 1 1 1 2 2 2 2 2 3 2 2 2 1 1 1 1 1 2 2 0 
0 2 3 4 4 5 4 5 4 4 4 3 3 2 3 4 4 3 2 2 2 2 2 3 2 2 2 2 2 2 1 1 1 2 1 1 1 1 1 1 1 1 2 3 3 2 2 3 4 5 5 4 5 4 4 3 2 1 1 1 1 1 1 0 0 1 1 1 1 1 1 2 3 3 3 3 2 2 2 2 2 2 3 3 2 2 2 2 2 2 2 2 2 1 1 1 1 1 2 2 2 1 1 2 2 2 2 2 3 3 3 2 2 1 1 1 1 1 2 3 3 4 4 4 4 3 3 3 3 2 3 1 1 2 2 2 0 0 0 1 1 1 1 2 2 2 1 1 1 2 3 4 3 2 1 2 3 3 3 3 2 1 1 2 2 2 3 3 3 3 2 2 2 2 2 2 3 2 3 2 1 2 2 2 3 3 3 2 2 2 1 1 1 2 2 2 3 3 3 2 2 2 2 1 0 1 1 2 2 2 2 3 3 3 2 2 2 2 1 1 2 1 1 1 1 1 2 2 3 2 2 3 2 2 2 3 4 4 3 3 3 4 5 5 4 4 4 3 2 2 2 2 2 2 2 3 3 2 2 2 3 4 6 6 5 4 3 2 2 1 2 2 2 3 4 5 5 4 3 2 2 2 1 1 1 0 0 1 1 1 0 0 0 0 0 0 0 1 1 2 3 2 3 2 3 2 2 1 1 1 2 2 2 1 1 1 1 1 1 2 2 3 3 5 5 6 5 4 2 1 0 0 0 0 0 0 0 0 0 0 0 0 1 1 1 1 2 2 2 3 3 2 1 1 1 1 0 0 0 0 2 3 3 2 2 2 2 1 1 1 1 0 0 0 0 0 1 1 0 0 0 1 1 1 1 1 1 1 2 2 3 3 3 3 2 1 1 1 1 1 1 1 1 1 0 0 1 2 3 2 2 2 1 1 1 1 1 1 1 1 2 2 2 1 1 1 1 1 0 1 1 1 1 2 2 1 2 3 4 4 4 4 4 4 4 4 4 4 4 3 2 2 2 2 4 4 5 4 4 5 4 4 3 3 4 4 4 3 3 3 3 3 2 3 3 3 3 4 3 3 2 1 0 0 0 0 0 1 2 2 2 2 2 2 2 2 2 2 1 1 2 2 2 2 2 2 1 1 1 2 1 0 
0 2 5 5 5 5 5 6 5 4 4 3 3 2 2 3 4 3 2 2 2 2 1 2 1 2 2 3 3 3 2 2 2 2 2 1 1 1 2 2 2 2 2 3 3 2 3 3 3 4 5 5 6 5 4 3 2 1 1 1 1 1 1 0 0 1 1 1 2 2 2 3 4 4 4 4 3 3 2 2 2 2 3 3 3 2 2 2 2 1 1 1 1 1 1 1 1 2 2 2 2 1 1 2 3 3 2 2 2 2 2 2 1 1 1 1 1 2 2 3 3 4 4 3 3 2 2 2 3 2 2 1 1 2 2 2 0 0 0 1 1 1 1 2 2 2 2 1 2 2 3 4 3 3 2 2 3 3 3 3 2 2 1 2 2 2 2 3 3 3 3 3 3 2 2 2 3 2 3 2 1 1 2 2 3 3 3 2 2 1 1 1 1 2 2 2 3 2 3 2 3 3 2 1 0 0 1 2 3 3 3 4 4 4 3 3 2 1 1 1 1 1 1 1 1 1 2 3 3 2 2 2 2 2 2 3 3 3 3 3 3 4 4 4 4 4 4 3 2 2 2 2 2 2 2 3 3 3 4 5 6 4 3 4 4 4 3 2 2 2 2 2 3 4 5 6 5 4 3 3 2 2 1 0 0 0 0 0 0 1 0 0 0 0 0 0 0 1 2 3 3 3 3 2 3 2 2 1 1 1 2 2 2 1 1 1 1 2 2 2 2 3 4 5 6 6 4 4 1 0 0 0 0 0 0 1 1 0 0 0 1 1 1 1 2 2 3 3 3 3 3 2 2 1 1 0 0 0 0 0 2 3 3 3 2 2 2 1 1 1 1 0 0 0 0 0 1 1 0 0 0 1 1 1 1 1 1 2 2 2 2 3 3 3 2 2 1 1 1 1 1 1 1 1 0 0 1 2 2 2 1 1 1 1 2 2 2 1 1 1 2 2 2 1 1 1 1 1 1 1 1 2 2 2 2 2 2 2 3 3 3 4 4 4 4 4 4 5 5 4 3 1 2 2 3 3 4 3 4 5 5 5 5 5 4 4 3 2 2 2 2 2 2 3 4 5 4 5 4 4 2 1 0 0 0 0 1 1 2 2 3 3 3 2 2 2 2 2 1 1 2 2 3 3 2 1 1 1 2 2 1 0 
0 2 6 6 7 6 6 6 6 5 5 4 4 3 4 4 4 4 3 2 2 2 1 1 1 1 2 2 3 3 3 2 3 2 2 1 1 1 2 2 2 2 2 3 2 2 2 2 3 4 5 5 4 4 4 3 2 1 1 1 1 1 1 0 1 1 1 1 2 2 2 3 5 5 5 4 3 3 3 3 3 3 3 3 3 2 2 2 2 2 2 2 2 1 1 2 2 1 2 2 3 2 2 3 4 3 3 2 2 2 2 2 1 1 1 2 2 2 2 2 3 4 4 4 3 2 2 3 3 2 2 1 1 2 2 2 1 0 0 1 1 1 1 2 3 3 3 2 2 3 4 4 4 3 2 2 2 3 3 3 2 2 1 2 1 2 1 2 2 2 3 3 3 3 2 2 3 2 2 2 2 1 2 2 3 3 3 2 1 1 2 2 3 3 3 3 2 2 2 2 3 3 2 1 0 1 1 2 2 2 3 3 3 3 3 3 3 2 1 0 1 1 1 1 1 1 2 3 3 2 1 2 2 2 2 2 3 3 3 2 2 2 3 3 3 3 3 3 2 2 2 2 2 2 2 3 4 4 4 5 5 5 4 4 4 3 2 2 1 1 2 2 3 3 3 4 4 4 4 3 2 1 1 0 0 0 0 1 1 2 1 1 0 0 0 1 1 2 2 3 3 2 3 2 3 3 3 2 1 1 1 2 2 2 1 1 1 1 1 2 2 3 4 5 5 5 4 4 1 1 0 0 1 1 1 2 1 1 1 1 2 2 2 2 3 3 3 3 4 4 4 3 2 1 0 0 0 0 0 0 1 3 4 3 3 2 2 2 1 1 1 0 0 0 0 1 1 1 0 0 0 0 1 1 1 1 2 2 2 1 2 3 4 3 3 2 1 1 1 1 1 1 1 1 0 1 1 1 1 1 1 1 1 1 2 2 2 2 2 2 2 2 2 2 1 1 1 1 1 1 1 1 2 2 2 2 2 2 2 3 3 3 3 3 3 4 4 5 6 5 3 1 1 1 1 2 2 3 3 3 4 4 4 5 4 3 3 2 2 3 3 2 2 3 5 5 4 5 5 4 3 1 1 0 1 1 1 2 2 2 2 2 2 2 2 2 2 2 1 1 1 2 2 2 2 2 1 1 2 2 1 0 
0 2 5 6 7 6 6 5 5 5 4 4 3 3 3 3 4 4 4 3 3 2 2 1 1 1 1 2 2 2 3 2 3 2 2 1 1 1 2 2 3 2 2 2 2 2 2 2 3 3 4 5 4 4 3 3 2 2 1 1 1 0 1 0 0 0 1 1 2 2 1 3 5 5 6 4 3 2 3 3 3 3 4 4 3 2 2 1 1 1 2 2 2 2 2 3 2 2 2 3 3 2 2 3 4 4 3 2 2 2 2 1 1 1 1 2 3 3 2 2 3 3 4 3 3 3 3 3 2 2 1 1 1 2 3 2 1 0 0 0 1 1 2 2 4 4 5 3 3 4 4 4 3 2 1 2 2 2 2 2 2 2 2 3 2 2 1 2 1 2 2 3 3 2 2 2 2 2 2 1 1 1 2 2 4 3 3 1 1 2 3 3 3 3 2 2 2 1 1 1 2 2 2 1 0 0 1 1 1 1 2 2 2 2 2 2 2 2 1 1 1 1 1 1 1 1 2 3 3 2 2 1 2 2 2 2 2 2 2 2 2 2 2 3 3 3 3 2 2 2 2 2 2 2 2 4 6 8 10 11 8 5 3 3 4 4 3 2 1 2 2 2 2 3 4 5 5 5 4 3 3 3 1 1 0 0 1 1 2 2 1 1 1 1 1 1 1 2 2 2 2 2 2 2 3 3 3 2 0 1 1 1 2 1 1 1 1 1 1 2 2 2 3 4 5 4 4 3 2 1 1 1 1 1 1 1 1 1 1 1 1 1 2 2 3 2 2 2 3 3 3 3 2 1 0 0 0 0 0 0 1 2 4 4 3 2 2 2 2 1 1 0 0 0 0 1 1 1 0 0 0 0 0 1 2 2 2 2 2 1 1 2 2 2 2 1 1 1 1 1 1 1 1 1 0 1 1 1 1 1 1 1 0 1 2 2 2 2 1 1 2 2 2 1 1 1 1 1 0 0 1 1 2 2 2 2 2 2 2 3 3 3 3 4 4 4 5 6 6 4 3 1 1 1 1 1 2 2 2 3 4 5 5 5 4 3 2 3 4 4 4 3 3 4 5 5 4 4 4 4 3 1 1 1 1 1 2 2 2 2 2 2 3 3 3 2 2 1 1 1 1 1 2 2 2 1 1 1 1 1 1 0 
0 1 3 4 5 4 5 4 4 4 3 3 2 3 3 3 4 4 4 3 3 2 2 2 1 2 2 2 2 1 2 2 3 2 2 1 1 1 1 2 2 2 3 3 2 2 2 3 4 5 6 5 4 4 3 4 2 2 1 1 1 0 1 1 1 1 1 1 2 2 2 3 5 5 5 3 3 3 4 4 4 4 3 3 3 2 2 1 2 2 3 3 3 3 2 3 2 3 3 3 3 2 2 4 3 4 3 3 2 2 2 2 2 1 2 3 3 3 2 2 3 4 4 4 3 4 3 4 3 2 1 1 2 2 3 2 2 1 1 0 1 1 2 3 5 6 6 5 5 4 4 4 3 2 1 1 2 2 2 2 2 2 3 3 2 2 1 2 1 1 2 3 3 2 2 2 2 3 3 2 2 2 2 2 3 3 2 1 1 1 2 3 4 3 2 2 2 1 1 2 2 3 2 1 1 1 1 1 1 2 2 2 2 1 2 2 2 2 1 1 1 1 1 1 1 1 2 3 3 2 2 2 2 3 3 3 2 2 2 2 2 1 1 2 2 2 2 2 2 2 2 2 2 2 2 4 5 7 7 7 6 4 3 3 4 3 3 2 2 2 2 2 1 1 1 2 4 4 4 4 3 2 1 1 1 1 2 2 3 3 2 2 1 1 1 1 1 2 2 2 2 1 2 1 2 2 2 2 1 1 1 1 1 1 1 1 0 0 0 1 1 2 2 3 4 3 3 2 2 2 2 1 2 2 2 2 2 2 2 3 2 2 2 2 2 2 2 2 2 3 3 3 3 2 1 1 0 0 0 1 1 2 3 4 4 3 3 2 2 2 2 0 0 0 1 2 2 2 1 0 0 0 0 0 1 2 2 2 2 1 1 2 3 3 3 1 1 1 1 2 2 2 2 2 2 2 2 2 1 0 0 0 1 2 2 2 2 2 1 1 1 2 2 2 2 1 1 1 0 0 1 1 2 2 2 2 2 2 2 2 3 3 3 3 3 4 4 4 4 4 3 2 2 1 2 1 2 2 3 3 4 5 5 5 4 3 3 4 4 4 4 4 3 4 5 4 4 4 3 3 2 1 2 2 3 2 2 1 1 1 1 1 1 2 2 2 2 1 1 0 1 1 2 2 2 2 1 1 2 2 1 0 
0 1 2 3 3 3 3 3 3 3 2 2 2 2 2 2 3 3 4 3 3 2 2 2 1 1 1 1 1 1 2 2 2 2 2 2 2 1 1 1 2 2 3 2 2 3 4 4 4 4 4 5 4 4 4 4 3 2 1 1 1 1 2 1 1 0 0 1 1 1 1 2 4 5 5 4 3 3 4 4 3 3 3 3 3 2 2 2 3 3 3 3 3 3 2 3 3 3 3 3 3 2 2 4 4 5 4 4 4 3 3 3 2 2 2 2 3 2 2 2 3 3 3 3 2 3 2 4 3 2 1 1 2 2 2 3 2 2 1 1 1 2 2 4 6 6 6 5 5 5 4 3 3 2 2 2 3 3 4 3 3 3 3 3 3 3 2 2 2 2 2 2 2 2 1 2 2 2 2 2 2 2 2 3 3 3 2 1 1 1 2 3 3 2 2 2 2 2 2 2 3 2 2 2 2 2 2 2 2 2 2 2 2 2 2 2 2 2 1 1 1 2 1 1 1 2 2 3 3 2 2 2 2 2 2 2 2 2 1 2 2 2 3 3 3 3 3 3 3 3 3 3 3 3 3 5 8 10 11 9 7 4 3 4 4 4 4 3 3 3 3 2 1 1 2 3 4 4 4 4 4 3 2 1 0 1 1 2 2 2 2 2 1 1 1 1 1 1 1 2 2 1 1 1 2 2 2 1 1 1 2 1 1 0 0 0 0 0 0 1 1 1 2 3 3 3 2 2 2 2 2 2 2 2 3 2 2 2 2 2 2 3 4 4 5 3 3 2 2 2 2 2 3 3 3 2 2 2 2 3 2 2 3 3 3 2 2 2 3 2 2 1 1 1 1 3 2 2 2 1 1 1 1 1 1 1 2 2 1 1 1 2 2 3 3 2 2 1 2 2 2 2 2 2 2 2 2 2 1 0 0 0 1 1 1 2 1 1 1 1 1 1 1 1 1 1 1 1 1 1 1 1 2 2 2 2 2 2 1 3 4 5 5 5 6 6 7 6 4 3 3 2 3 1 2 1 2 2 2 3 3 4 5 5 4 4 4 4 3 4 3 4 3 3 4 4 4 4 4 3 2 2 2 3 3 3 2 1 1 1 1 1 1 1 1 1 1 1 1 1 1 1 2 2 2 2 1 1 1 2 1 0 
0 0 1 1 1 2 2 3 3 3 2 1 1 1 2 2 2 2 2 2 3 2 2 1 1 1 1 1 1 1 1 1 2 2 2 2 2 1 1 1 1 2 2 2 2 3 4 4 4 5 5 5 4 4 4 4 3 3 2 2 1 2 2 2 1 1 0 0 0 0 1 2 4 5 5 4 3 3 4 4 4 3 2 2 2 2 3 3 3 3 3 3 3 3 2 2 2 2 2 2 2 1 2 4 4 4 3 3 3 2 3 2 2 2 2 3 3 2 2 2 3 3 3 2 2 2 2 3 2 2 1 1 1 2 2 3 3 3 2 1 1 1 2 4 6 6 6 4 4 3 3 3 3 3 3 3 3 4 4 4 4 4 3 4 3 3 2 2 2 2 1 2 3 2 2 2 3 4 4 3 3 2 2 3 3 3 2 1 1 1 1 2 2 1 1 1 1 1 1 2 3 4 4 4 4 4 3 3 3 3 3 3 2 2 2 2 1 1 1 1 2 2 2 2 2 3 3 4 3 3 3 2 2 3 3 3 3 3 3 3 2 2 2 2 3 3 2 2 2 3 3 3 4 4 4 4 5 5 5 4 4 3 3 4 5 5 5 3 3 3 3 3 3 1 3 3 3 3 2 2 3 3 2 1 1 1 1 2 2 2 2 1 1 1 1 1 2 2 2 2 1 1 1 1 1 2 1 1 1 2 2 1 1 0 0 0 0 0 0 0 1 1 1 2 3 3 3 1 1 1 2 2 2 3 3 5 5 4 3 2 3 4 4 4 5 4 3 1 3 3 3 2 2 3 4 5 4 4 4 5 4 4 4 3 4 4 4 3 3 3 3 2 2 2 2 3 3 3 2 1 2 2 2 1 1 2 2 2 1 1 1 1 2 3 3 3 3 3 3 3 3 2 2 2 2 2 3 3 2 1 1 1 1 1 1 1 1 2 1 1 1 2 2 2 1 1 1 1 1 1 1 2 1 1 1 1 2 2 2 2 2 3 3 3 3 3 3 3 2 2 3 2 3 1 2 1 2 2 2 3 3 4 4 5 4 4 4 4 3 3 2 3 2 2 3 3 3 3 3 2 2 2 3 4 3 2 2 2 2 1 1 1 0 0 1 1 1 1 2 2 2 1 2 2 2 2 2 2 2 2 1 0 
0 0 1 1 2 2 2 3 3 4 3 3 2 1 2 2 2 2 2 2 2 2 1 1 1 1 1 1 1 1 1 1 2 2 3 3 2 2 1 2 2 3 4 4 3 4 6 8 6 4 4 4 5 5 3 4 3 3 3 3 3 4 2 4 1 1 0 0 0 0 1 1 3 4 4 4 3 2 2 2 3 2 2 1 2 3 3 3 3 3 3 2 2 2 2 2 1 1 1 0 0 0 2 3 5 5 4 4 4 4 4 3 2 2 2 2 2 1 1 2 2 3 2 2 2 2 2 2 2 1 1 1 1 1 2 2 3 3 3 2 1 1 2 4 5 6 4 3 3 3 3 3 4 4 4 4 4 4 5 5 4 4 3 4 3 3 3 3 2 2 1 2 2 2 2 2 2 3 3 3 2 1 1 2 2 3 3 2 2 2 1 1 1 1 0 0 0 0 1 2 3 3 4 4 4 4 4 3 3 2 3 3 2 2 1 1 1 1 1 2 2 2 2 2 3 3 4 4 4 4 4 3 3 3 3 3 3 2 2 2 3 3 4 4 4 4 3 3 3 4 4 5 5 5 6 7 8 7 6 4 3 2 2 3 4 4 6 6 7 7 6 4 3 2 3 3 3 3 2 2 3 3 3 2 1 1 1 1 1 1 1 1 1 1 1 2 2 2 2 2 2 1 1 1 1 1 1 1 2 2 2 1 1 1 1 0 0 0 0 1 1 1 2 2 3 3 3 2 1 1 2 3 3 3 3 4 4 4 4 4 3 4 6 7 7 5 3 2 2 2 3 2 2 4 5 5 5 6 5 7 5 4 3 2 2 2 2 3 3 4 3 4 3 3 3 3 3 3 2 2 2 2 2 1 1 1 2 2 1 1 1 2 2 3 4 3 3 4 3 4 2 2 2 2 2 2 2 2 2 2 2 2 2 1 1 1 1 2 2 2 2 2 2 2 1 1 0 0 0 0 0 1 1 1 1 1 2 2 2 2 3 4 4 4 3 3 4 3 2 2 2 2 2 2 2 1 1 1 1 2 3 3 3 3 3 3 4 4 3 3 3 4 4 4 4 4 5 5 4 4 3 2 2 3 3 3 3 2 2 1 1 0 0 0 1 1 1 1 2 2 2 2 2 2 2 2 2 2 1 1 0 0 
0 0 0 1 2 2 2 2 3 4 4 3 2 2 2 2 2 1 1 1 2 2 1 1 0 0 0 0 1 1 1 1 2 2 3 2 2 2 2 3 4 4 5 5 5 7 7 8 7 6 5 5 5 4 3 3 3 3 4 3 3 4 2 3 1 1 0 0 0 0 0 1 3 4 4 3 2 2 2 2 3 3 2 2 2 2 3 2 2 2 2 2 2 1 2 2 1 0 0 0 0 0 1 2 3 3 3 4 4 3 4 2 2 2 2 2 2 2 1 2 2 2 2 1 1 1 1 1 1 2 1 1 1 1 2 2 3 3 3 2 1 1 2 3 5 5 4 3 3 3 4 4 4 3 3 3 2 3 4 4 4 4 4 4 3 3 3 3 3 2 2 2 2 2 2 2 2 3 3 3 2 1 1 2 3 3 3 3 3 2 2 1 0 0 0 0 0 0 0 2 3 4 4 4 4 4 4 4 3 3 3 2 2 2 1 1 1 1 1 1 2 2 2 2 2 3 3 4 4 4 4 4 5 5 5 5 4 4 4 3 2 2 2 2 2 2 2 2 3 4 4 5 5 5 5 5 4 3 3 2 2 2 2 3 5 6 7 7 6 5 5 4 4 2 3 3 3 2 1 2 3 3 3 3 2 2 2 1 1 1 1 1 1 1 2 2 2 2 1 1 1 1 1 1 1 1 1 1 2 2 2 1 1 1 1 1 1 1 1 1 1 1 2 3 4 4 3 2 1 1 3 3 3 3 4 5 5 4 3 3 3 4 5 6 6 5 3 2 2 3 3 3 2 3 5 5 5 5 5 6 6 5 4 3 3 4 4 5 4 5 3 5 4 3 4 3 4 3 2 2 3 2 1 1 0 1 1 2 1 1 1 2 2 3 3 3 3 4 3 4 2 2 1 1 1 1 2 2 2 2 2 2 2 1 1 1 1 1 1 2 2 2 2 2 1 0 0 0 0 0 0 0 1 1 1 2 3 3 2 2 1 2 2 2 2 1 1 2 2 2 2 2 2 2 2 1 1 2 2 3 3 3 2 1 1 2 3 2 2 3 3 4 5 5 6 6 5 5 4 3 3 3 3 3 3 3 3 3 3 1 1 0 0 0 0 1 2 1 2 2 3 2 2 2 2 2 2 2 2 1 1 0 
0 0 0 1 2 2 2 2 3 4 5 4 4 3 3 2 2 1 1 2 2 2 1 1 1 1 1 1 2 2 2 2 2 3 3 3 2 1 2 3 4 5 6 6 6 8 10 11 9 6 4 4 4 4 3 2 3 3 4 3 3 3 3 3 2 2 1 1 0 0 1 2 3 4 4 3 2 1 1 2 2 2 2 2 2 2 2 1 1 2 2 2 1 1 2 2 1 1 0 0 0 0 1 1 2 4 4 5 5 5 5 4 3 2 2 2 1 1 1 1 2 1 1 1 1 1 2 2 2 1 2 1 2 2 2 2 3 3 4 3 1 2 2 4 4 4 4 4 4 5 5 4 4 3 3 3 2 2 3 3 3 3 3 3 3 3 3 4 3 2 2 2 2 2 2 2 2 2 3 2 2 2 1 2 2 2 2 3 3 3 2 2 1 0 0 0 0 0 0 2 2 4 4 4 4 4 4 4 3 3 3 2 2 2 1 1 0 1 1 1 1 1 1 2 2 2 2 3 3 3 3 4 4 4 4 4 4 4 4 3 2 2 2 3 3 3 2 2 2 3 3 3 4 4 4 5 5 4 3 3 3 2 2 2 3 5 8 10 11 9 7 5 3 1 2 2 2 1 1 2 2 3 3 3 3 2 1 1 1 1 2 1 1 1 1 1 2 2 1 0 0 1 1 1 1 1 1 1 2 2 1 1 0 1 1 1 1 2 2 2 2 2 2 3 3 3 3 2 2 3 4 4 4 3 4 4 5 5 6 5 4 4 4 5 6 4 3 1 3 2 3 2 2 3 4 4 4 4 4 4 4 3 4 4 4 4 4 6 4 6 4 5 5 4 5 3 3 2 3 3 3 2 1 0 0 0 1 2 2 2 1 2 2 2 2 2 2 3 3 3 2 2 1 1 1 2 1 1 1 2 2 1 1 1 1 1 1 1 2 2 3 4 4 3 2 0 0 0 0 0 0 0 1 1 1 1 3 3 2 2 1 2 2 2 2 1 1 2 2 3 3 2 3 2 2 1 1 2 2 2 3 3 2 1 1 1 2 2 2 2 3 3 5 5 6 6 6 6 5 5 4 4 4 4 4 3 4 3 3 2 1 0 0 0 1 1 2 1 2 2 3 3 3 3 2 2 2 2 1 1 0 0 
0 0 1 1 2 2 2 2 2 3 3 3 3 2 2 2 2 1 2 2 2 2 1 1 1 1 2 2 2 2 2 2 2 3 3 3 2 2 3 4 5 7 7 7 6 7 8 9 8 6 4 4 3 3 2 1 2 2 2 3 2 2 3 3 3 2 1 1 1 1 1 2 3 5 5 3 3 2 2 2 3 3 3 2 2 2 1 1 2 2 2 2 1 1 2 2 2 2 2 1 2 1 1 1 1 3 3 6 5 6 5 4 3 2 1 1 1 1 1 1 2 1 1 0 1 1 2 2 2 2 2 2 2 3 2 2 2 3 4 3 2 2 3 4 3 4 4 4 6 6 6 4 3 2 2 2 2 2 2 2 3 3 3 3 3 3 4 4 4 3 2 2 2 2 2 2 2 2 2 2 1 1 1 2 2 1 2 2 3 3 2 2 1 1 0 0 0 0 1 2 2 2 2 2 2 3 4 4 3 3 2 2 2 2 1 1 0 1 1 1 1 1 1 1 1 1 2 2 3 3 3 4 5 6 5 4 4 4 4 3 2 2 2 2 2 2 2 3 4 4 4 4 4 3 3 3 3 3 3 3 3 2 2 3 5 8 10 9 7 5 4 3 2 1 1 2 2 1 1 1 2 2 3 3 3 3 2 1 1 1 1 1 1 0 1 1 1 1 1 0 0 0 1 1 1 0 1 1 2 2 1 1 0 0 0 1 1 2 3 3 2 2 2 2 3 3 3 2 3 3 4 4 3 4 4 4 5 4 5 4 3 4 4 4 5 3 3 1 2 2 2 3 2 3 3 3 2 2 3 3 4 4 4 4 4 5 4 6 4 6 4 6 5 4 5 3 3 3 3 4 3 2 1 1 1 1 1 2 2 2 1 1 1 2 2 2 2 2 2 2 2 2 1 1 1 2 1 1 1 1 1 1 1 1 1 1 1 0 1 1 2 3 3 2 1 1 1 1 1 1 1 1 1 1 2 2 2 2 2 1 1 1 1 1 1 1 1 2 3 3 4 2 3 2 3 2 2 2 2 2 3 2 2 1 1 2 2 1 2 2 3 3 4 5 6 6 6 5 4 4 4 4 4 4 3 4 3 3 3 2 1 1 0 1 1 2 3 2 3 3 3 4 3 3 3 2 2 2 2 2 1 0 
0 0 1 1 2 2 2 2 2 3 4 4 4 4 4 4 3 2 2 2 2 2 1 2 2 2 2 2 2 2 2 3 3 3 3 2 1 1 2 3 4 4 5 5 5 6 6 7 6 4 3 3 3 3 3 2 2 1 1 1 2 2 3 3 3 3 2 1 1 1 1 2 3 4 4 3 2 1 2 2 4 4 3 2 2 2 2 3 3 3 2 2 1 1 1 2 2 2 2 2 2 2 2 1 1 3 3 6 5 6 6 4 3 2 1 1 1 0 0 1 1 1 1 1 1 2 2 2 2 2 2 2 2 3 2 2 2 3 4 4 3 3 4 4 3 3 4 5 6 6 5 4 3 2 2 2 2 2 2 2 2 2 2 2 2 3 4 5 4 3 2 2 2 2 2 2 2 2 2 2 1 1 1 1 2 1 2 2 3 4 3 3 2 1 1 0 0 0 1 2 2 3 3 3 3 4 4 4 3 3 2 2 2 2 1 2 1 1 1 1 1 1 1 1 1 1 2 2 3 3 2 2 2 3 3 3 4 4 5 4 2 2 1 2 2 2 3 3 4 4 4 3 3 3 3 3 3 2 2 2 2 2 2 3 4 5 6 7 7 7 5 3 2 1 1 1 1 1 1 2 2 3 3 3 2 2 1 1 1 1 1 1 1 0 0 0 1 1 1 0 0 0 0 1 1 0 1 1 2 2 1 1 1 1 0 1 1 2 2 2 2 1 1 1 1 1 2 2 3 4 5 5 4 3 4 5 6 6 6 5 4 4 4 4 4 3 2 1 1 1 1 2 1 2 1 2 2 2 2 2 3 5 6 7 7 6 6 7 5 6 4 5 5 4 5 3 3 3 4 4 3 3 2 2 2 1 1 2 2 2 1 0 0 1 1 1 1 1 2 2 2 2 1 2 2 2 1 0 0 0 0 1 1 1 1 1 1 1 2 2 3 4 4 3 2 1 1 1 1 1 1 1 1 1 1 1 1 1 1 1 1 0 0 0 1 1 1 2 3 3 4 3 3 3 3 2 3 2 2 2 2 2 2 1 1 2 2 2 2 2 2 2 3 4 5 5 5 5 5 4 4 5 5 5 4 3 3 3 3 2 2 1 1 1 2 2 3 3 3 3 3 4 3 3 2 1 1 1 1 2 1 0 
0 1 1 2 2 2 2 1 1 1 1 2 3 4 5 5 4 4 3 3 3 3 2 3 2 2 2 2 2 2 2 2 3 3 3 3 2 1 2 3 4 5 7 6 4 4 4 5 5 5 3 3 3 3 3 2 2 1 1 1 2 2 3 3 4 3 3 2 2 3 2 2 2 3 3 2 1 1 1 3 3 4 4 3 2 2 3 4 4 3 2 1 1 1 1 1 2 2 2 1 2 2 2 1 1 3 3 5 5 5 5 3 2 1 0 0 0 0 0 1 1 1 1 1 2 2 2 2 2 2 2 2 1 2 1 1 1 2 3 3 3 3 4 4 4 4 4 4 5 6 5 4 3 3 4 3 3 2 2 2 2 2 1 2 2 3 4 5 5 4 3 2 2 2 2 1 2 2 2 2 2 1 2 2 3 3 3 4 4 4 4 3 2 2 1 1 1 0 1 1 2 1 1 2 2 2 2 3 3 3 3 3 3 3 3 2 2 2 2 2 2 2 2 2 1 2 2 2 3 3 3 3 3 4 4 3 3 3 3 3 2 2 1 2 2 3 3 4 4 4 4 4 3 3 3 3 3 3 3 2 2 1 2 3 4 6 6 6 5 4 4 3 2 1 1 1 1 1 2 3 3 3 3 3 3 3 3 2 2 1 1 1 1 1 1 1 1 1 1 0 0 1 2 1 1 1 2 2 3 3 2 2 2 2 1 1 1 2 2 2 2 2 1 1 1 2 2 2 2 3 3 3 3 3 3 3 4 4 4 3 2 3 3 4 3 3 2 2 1 1 1 1 2 2 2 1 2 2 2 3 4 5 6 6 6 6 5 5 4 4 3 4 4 4 4 2 4 3 4 4 3 3 2 2 2 2 2 2 2 2 1 0 0 1 1 2 1 1 2 2 2 2 2 2 2 2 1 0 0 1 1 1 1 1 2 2 1 0 0 1 2 2 2 2 2 3 4 4 4 3 3 3 2 1 1 1 1 1 1 2 1 1 1 0 0 0 1 1 2 2 3 3 3 3 3 2 3 2 2 2 2 2 2 2 2 3 3 3 3 3 3 3 3 4 4 3 3 3 3 3 3 3 4 3 3 2 2 2 2 3 2 1 1 1 2 3 3 3 2 3 2 3 3 3 2 2 1 1 1 2 1 0 
0 2 3 3 3 2 2 1 1 1 1 2 4 5 5 5 5 4 4 4 4 3 2 2 2 2 2 2 2 2 3 2 3 3 3 3 3 3 3 3 4 4 4 3 3 4 3 3 3 3 3 3 3 3 3 2 2 1 1 1 1 2 2 2 2 2 2 2 1 2 1 2 1 1 1 1 1 1 1 2 3 4 3 3 2 2 3 4 4 3 1 1 1 1 1 1 1 1 1 1 2 2 2 2 2 2 3 3 4 3 3 2 1 0 0 0 0 0 1 1 1 1 1 1 2 2 2 2 2 2 1 1 1 1 1 1 1 1 3 2 3 2 4 4 4 4 4 4 4 4 4 4 5 4 6 4 4 2 2 1 1 1 0 1 2 3 4 4 5 4 3 2 3 3 2 1 2 2 3 2 2 1 2 2 3 4 4 4 5 4 4 3 2 2 1 1 1 1 1 1 1 1 2 2 2 2 2 2 3 3 3 2 2 2 3 3 2 2 2 2 2 2 2 1 1 1 2 2 2 2 2 2 2 3 4 5 5 5 4 3 2 2 1 1 2 2 2 2 3 3 3 3 3 3 3 2 3 3 3 2 2 2 2 2 2 3 3 4 5 5 5 3 2 1 1 1 1 1 2 4 4 4 3 3 2 2 2 2 2 1 1 1 1 1 1 1 1 1 1 1 1 1 1 2 2 2 2 2 2 2 2 4 4 4 3 2 2 3 2 1 1 1 1 1 1 2 2 2 2 2 2 2 2 1 2 4 4 5 4 2 2 3 5 4 4 2 2 1 1 1 2 1 1 0 1 1 2 2 2 3 4 5 6 6 6 6 5 4 3 3 2 3 3 3 3 2 3 3 3 3 2 3 2 2 2 2 2 2 2 2 1 1 1 1 1 1 1 1 2 2 2 2 2 2 2 2 1 0 0 1 1 1 1 1 2 2 2 1 1 1 2 2 3 3 3 3 4 4 4 3 3 2 2 1 1 1 1 1 1 1 1 1 1 1 0 0 1 1 2 2 3 3 3 3 2 2 2 2 3 2 2 2 2 2 2 3 3 3 3 2 2 2 3 3 4 3 4 4 3 3 3 3 4 3 3 2 2 2 3 3 2 2 2 2 2 3 2 2 2 2 2 2 2 2 2 1 1 1 1 2 1 0 
0 2 4 4 3 3 2 1 1 1 1 2 3 4 5 5 4 4 4 4 4 3 3 3 2 2 2 2 2 2 2 2 3 2 3 4 5 4 4 3 3 3 4 4 4 4 4 4 3 3 2 1 2 2 2 2 1 1 1 1 1 2 2 2 2 2 2 2 2 1 1 1 0 0 0 1 1 1 1 2 2 4 4 3 2 2 2 3 2 2 1 1 1 1 1 1 1 1 1 1 1 2 2 2 2 2 2 3 3 2 2 1 1 0 0 0 0 1 1 1 1 1 2 2 2 2 2 2 2 2 1 1 0 1 1 1 1 1 2 1 2 2 3 4 4 5 4 5 5 5 4 4 5 5 7 5 5 3 1 1 1 0 0 1 2 3 3 4 5 4 3 2 3 2 2 1 2 2 3 3 3 3 2 3 4 5 6 5 5 4 3 3 2 2 1 1 1 1 1 1 1 1 2 2 3 3 3 3 4 3 3 2 2 3 3 3 2 1 1 1 2 2 2 1 1 1 1 2 1 1 2 2 2 3 3 4 3 3 2 2 2 2 2 2 2 2 2 1 1 1 1 1 1 2 2 3 3 4 3 3 2 2 2 2 3 3 3 3 4 4 4 3 3 2 2 1 1 1 2 3 4 3 3 3 3 3 3 3 2 1 1 1 1 1 1 1 2 2 1 1 1 1 2 2 2 3 4 4 3 3 3 4 4 5 4 3 2 3 3 3 3 2 2 1 1 1 1 1 1 1 1 0 0 0 1 1 2 3 2 2 2 2 3 3 4 5 6 6 5 4 3 2 1 1 1 1 1 1 1 2 3 4 4 5 4 4 3 2 2 2 1 2 2 2 2 1 3 2 2 2 2 2 2 2 2 1 1 2 2 2 1 1 1 1 1 1 1 1 2 2 2 2 2 3 3 2 2 1 0 1 1 1 1 1 2 3 2 1 0 1 1 1 1 2 2 3 4 4 4 4 3 2 1 1 1 1 1 1 1 1 1 1 2 1 1 1 1 1 1 2 3 3 3 3 2 1 1 2 3 2 2 2 2 3 3 3 3 2 2 2 2 3 4 4 4 3 2 1 1 1 2 2 3 2 2 2 1 1 2 2 2 2 2 2 3 3 2 2 1 1 1 1 2 2 3 2 2 2 1 2 1 0 
0 3 4 3 3 3 2 1 1 1 2 3 4 4 5 4 3 3 3 3 3 2 2 2 2 2 2 2 2 2 2 1 1 2 3 4 5 4 4 3 2 2 2 3 3 3 3 3 2 2 1 1 1 2 1 1 0 1 1 1 1 1 1 1 1 1 2 2 2 2 1 1 0 0 0 1 1 2 1 2 3 4 4 3 2 1 2 3 3 2 1 1 1 1 1 1 1 1 1 2 2 2 2 3 2 2 2 2 2 2 2 2 1 0 0 0 1 1 1 1 1 1 2 2 2 2 1 2 2 2 1 1 1 1 1 1 1 1 2 1 1 1 3 4 4 5 6 6 6 5 4 4 5 5 7 5 5 4 2 1 0 0 0 1 2 2 2 4 5 5 3 2 3 2 2 2 2 3 3 3 2 2 2 3 4 5 6 6 5 4 3 3 2 2 1 1 1 1 1 1 1 1 2 2 2 3 4 4 4 3 2 1 1 1 2 2 1 1 0 0 1 1 1 1 1 1 1 1 1 1 1 1 2 3 4 5 5 5 3 3 2 2 2 1 1 1 1 1 1 2 2 2 2 3 4 4 4 4 4 4 3 3 2 2 2 2 2 2 3 3 3 3 3 2 2 1 1 2 2 3 3 3 3 3 3 3 3 2 1 1 0 0 0 0 1 2 3 3 2 1 1 1 2 3 5 5 5 4 4 4 5 6 7 6 4 3 3 4 4 4 3 2 2 1 1 1 1 1 1 1 0 0 0 0 0 1 3 3 3 2 2 4 5 6 5 6 6 6 6 5 4 2 1 0 0 1 1 1 1 2 4 5 4 3 3 3 3 2 2 1 1 2 2 1 1 1 2 2 2 2 2 2 3 2 2 1 1 1 2 2 2 2 1 1 0 0 0 1 1 1 2 2 2 2 2 3 2 2 0 1 1 2 2 2 2 3 2 2 1 1 1 1 1 1 1 2 2 3 3 3 2 1 0 1 1 1 1 1 1 1 1 1 1 2 1 1 1 1 2 2 3 3 3 3 2 1 1 1 2 2 1 2 2 2 2 2 2 2 2 2 3 4 5 5 5 4 3 3 2 2 2 2 2 2 2 2 2 2 2 2 2 2 2 2 2 2 2 1 1 1 1 1 2 2 3 1 1 1 1 2 0 0 
0 3 4 4 4 3 2 1 1 2 2 3 3 4 4 3 3 2 2 2 3 2 2 2 2 2 1 1 1 1 0 1 1 2 4 4 5 5 4 3 2 1 2 3 4 4 3 3 3 2 1 1 1 1 1 0 1 1 1 1 1 1 1 1 1 1 2 2 2 2 1 1 0 0 0 1 2 2 2 3 3 4 4 3 2 2 2 3 3 2 1 1 1 1 1 2 2 2 2 2 2 2 2 3 2 3 2 2 2 2 2 2 1 1 0 0 1 1 1 1 1 1 2 2 2 1 1 2 2 3 3 2 2 2 2 2 2 2 2 1 2 2 3 4 4 5 6 7 7 6 5 4 5 4 5 4 5 4 2 2 1 0 1 1 2 2 2 3 5 5 3 2 3 2 2 2 3 4 4 4 4 4 3 3 4 5 5 5 4 3 3 2 1 1 1 1 1 1 1 1 1 1 1 1 3 4 5 5 4 3 1 0 0 1 2 2 1 1 0 0 0 1 1 1 1 1 1 1 1 1 1 2 2 2 2 3 3 3 3 4 2 2 1 0 1 1 2 2 1 1 1 1 2 2 3 3 3 3 3 4 4 4 3 2 2 1 1 1 2 2 2 2 4 3 3 1 1 2 2 3 3 2 3 3 3 3 3 2 2 1 0 0 0 0 1 2 3 3 2 1 1 1 2 2 3 4 6 6 5 5 5 6 6 7 6 4 3 3 5 5 4 3 2 1 1 1 1 1 1 1 1 0 0 0 0 1 2 2 2 2 2 3 3 4 5 7 8 9 8 7 4 2 1 0 0 0 1 1 1 2 3 4 4 4 4 3 3 2 2 2 2 1 2 1 1 1 1 2 2 2 2 2 3 3 2 1 1 1 2 2 2 2 1 1 1 0 0 1 1 1 1 3 3 4 4 4 2 2 1 1 1 2 2 3 2 3 2 2 1 2 1 0 0 0 1 1 1 2 2 2 1 0 0 0 1 1 1 1 1 0 0 1 1 1 1 1 1 1 1 2 3 3 3 3 2 1 1 2 2 2 1 1 1 1 1 1 1 1 2 2 2 3 4 5 5 5 3 3 2 2 2 1 2 1 2 2 2 2 2 1 1 1 1 2 2 2 1 1 1 1 1 1 2 2 3 1 1 1 1 1 0 0 
0 2 4 4 4 4 2 1 1 2 2 2 3 4 5 4 3 2 2 2 3 3 2 1 1 1 1 1 0 0 0 1 1 2 4 5 5 5 4 4 3 3 3 4 4 4 3 3 3 2 1 1 1 1 1 1 2 2 2 2 1 1 1 2 2 2 2 3 2 2 2 1 1 0 0 1 2 2 2 3 4 4 4 3 3 3 2 4 3 3 2 1 1 1 1 1 2 2 2 2 2 3 2 3 3 3 2 1 1 2 2 3 1 1 0 0 1 1 1 1 1 1 2 2 2 2 1 2 3 3 3 3 3 3 3 2 2 2 2 2 2 3 3 3 3 4 5 6 6 5 5 3 4 3 4 3 5 4 3 3 1 1 1 2 2 2 2 3 4 4 4 2 3 3 2 2 3 4 4 4 4 4 3 3 3 4 4 4 4 4 3 2 1 0 1 1 1 0 0 1 1 1 1 1 3 4 5 5 4 3 2 1 0 1 1 2 1 1 0 0 0 1 1 1 1 1 1 1 1 1 2 2 2 3 3 3 2 3 3 3 2 2 1 1 1 1 2 2 3 3 3 3 3 3 3 3 2 2 2 4 4 4 4 3 2 2 1 2 1 2 2 2 3 3 3 1 1 2 2 2 2 2 3 3 3 3 3 3 3 1 1 1 1 1 2 2 3 3 2 2 1 2 2 3 5 6 7 7 7 7 7 8 7 7 6 4 3 4 4 5 4 3 2 2 1 1 1 1 2 1 1 1 0 0 1 1 3 3 3 3 3 3 4 4 5 6 8 8 7 5 4 3 2 1 1 1 1 2 1 2 3 4 4 4 3 3 3 3 2 2 2 2 2 2 2 1 1 1 2 2 2 2 3 3 2 1 1 1 2 2 3 2 2 2 1 1 1 1 1 2 2 3 4 4 4 3 2 1 1 2 2 2 2 3 2 3 2 2 1 1 1 1 1 1 2 2 1 1 1 1 1 0 0 0 0 0 1 1 1 0 0 1 1 1 0 1 1 0 1 2 3 3 3 2 2 1 1 2 1 1 1 1 1 1 1 1 1 1 2 2 2 3 4 4 4 4 4 4 4 3 3 2 1 1 1 2 2 2 2 1 1 1 1 1 1 1 1 1 1 1 1 2 2 2 2 1 0 0 1 1 0 0 
0 2 3 4 4 3 2 1 1 2 2 2 2 4 4 3 3 1 1 2 3 3 2 1 1 1 1 0 0 0 0 1 2 3 5 5 5 5 4 5 4 4 4 4 4 4 3 3 3 2 2 1 1 1 1 1 2 2 2 2 2 2 2 2 2 3 3 3 2 2 1 1 1 1 1 1 2 2 2 3 4 4 4 3 3 3 3 4 4 3 2 1 0 1 1 1 1 1 2 2 3 4 4 5 5 4 3 3 3 3 2 2 1 1 0 1 1 1 1 1 1 1 2 2 2 2 2 2 3 3 4 3 3 3 2 2 2 2 2 2 2 3 3 4 4 4 5 6 6 5 4 2 3 2 2 3 3 5 4 4 2 2 2 2 3 2 2 2 4 4 3 2 3 2 2 2 2 3 4 5 6 5 4 3 2 2 2 3 3 3 2 1 0 0 0 1 1 1 1 1 1 1 1 1 2 4 5 5 4 3 2 1 1 1 1 2 2 2 1 0 0 1 1 1 1 1 1 1 1 2 2 2 2 2 1 1 1 1 2 3 3 2 2 1 1 1 2 2 2 2 2 2 2 2 2 2 2 2 3 4 4 5 4 3 2 1 1 2 2 2 2 2 3 3 2 2 1 2 2 3 3 2 2 2 3 3 4 4 3 2 2 2 2 2 2 2 3 3 3 2 2 2 2 2 2 4 7 8 7 7 6 7 7 6 6 4 4 4 4 5 4 3 2 2 1 1 1 1 1 1 2 2 1 1 1 1 3 3 4 3 2 1 1 2 3 4 5 6 6 5 4 2 2 1 1 0 0 1 1 2 3 3 3 3 3 3 2 3 2 3 2 2 3 2 2 1 1 2 2 3 4 4 3 3 2 1 1 2 3 3 3 3 2 1 1 1 2 2 2 2 2 4 4 5 4 3 2 1 2 2 2 2 2 3 2 2 1 2 1 1 1 1 1 2 2 2 1 1 1 1 0 0 0 0 0 0 1 1 1 0 0 1 1 0 0 0 1 0 1 2 3 3 3 2 2 1 1 2 1 1 1 2 2 1 1 1 2 2 2 2 2 2 3 3 2 3 3 3 4 3 2 2 1 1 2 2 2 3 2 2 1 1 1 1 1 1 1 1 1 1 1 1 1 1 2 0 1 1 1 2 1 0 
0 2 4 5 5 4 2 1 1 1 2 2 2 4 4 3 2 2 1 2 3 2 2 1 1 1 0 0 0 0 0 1 2 3 5 5 5 5 4 5 5 4 5 5 6 4 3 3 3 2 2 2 2 1 1 2 2 2 1 1 2 2 2 2 3 3 3 3 2 2 1 1 1 1 1 2 2 2 2 3 3 3 3 2 2 2 3 3 3 3 2 1 1 1 1 1 1 1 1 2 2 3 4 5 5 4 3 2 2 2 2 2 1 0 0 0 1 1 1 1 1 1 1 2 2 2 2 2 3 3 3 2 2 2 2 2 2 2 2 2 2 3 4 4 4 5 5 6 5 4 3 2 2 2 2 3 3 6 5 5 3 2 2 3 3 2 2 2 3 3 3 2 2 2 2 2 2 3 4 4 5 4 3 2 2 1 1 1 2 2 2 1 1 0 0 1 1 1 1 1 1 1 0 1 2 3 4 4 3 3 2 2 1 1 1 1 2 2 1 1 1 1 1 1 1 1 1 1 2 2 1 1 1 1 1 1 1 1 1 2 3 3 3 2 2 1 1 2 2 2 3 3 3 2 2 2 3 3 3 4 5 5 5 3 3 2 2 2 2 2 2 2 2 2 2 2 2 2 2 3 3 3 2 2 2 3 3 3 3 2 1 1 2 2 2 2 3 3 3 3 2 2 2 2 4 4 6 6 6 6 5 6 6 6 6 4 4 3 4 4 4 3 2 1 1 0 0 0 0 1 1 2 1 1 1 2 3 4 4 3 2 1 1 2 3 5 6 6 5 4 4 4 3 2 1 1 1 1 1 2 2 2 3 2 3 2 2 3 2 3 3 3 3 2 2 2 2 2 3 4 4 4 4 3 2 1 2 2 2 2 3 3 3 3 2 2 2 2 3 3 3 3 4 4 3 3 2 1 1 2 2 3 3 3 2 2 2 1 1 1 1 1 1 2 1 1 1 1 1 0 0 0 0 1 1 1 1 1 1 1 1 1 1 1 0 1 1 1 1 2 3 3 3 2 2 2 2 3 2 2 1 2 2 2 2 3 3 3 3 3 3 3 4 3 3 2 3 3 3 3 3 2 2 2 2 2 2 2 2 2 1 1 1 1 1 1 1 1 2 2 2 1 1 1 2 1 1 2 2 2 1 0 
0 2 3 3 2 2 2 1 2 2 2 2 3 5 4 4 2 2 1 2 3 2 2 2 1 1 1 0 0 1 1 1 1 2 3 4 3 3 3 3 3 3 3 2 3 3 3 2 2 2 2 2 2 1 1 2 1 1 1 1 1 1 1 2 2 4 4 4 3 3 3 3 3 2 2 2 2 3 3 3 3 3 3 3 2 2 3 4 4 4 3 2 2 2 1 2 2 3 3 3 3 5 6 7 6 5 4 3 2 3 2 2 1 0 0 1 1 1 1 1 0 0 1 2 2 2 3 2 3 3 3 2 2 1 1 1 2 2 1 1 2 2 4 4 5 6 6 5 4 3 2 2 2 2 3 3 4 6 5 5 3 2 3 3 3 2 2 2 3 3 3 2 3 3 3 3 2 2 3 3 3 3 2 2 1 1 1 2 1 1 2 1 1 1 1 1 2 2 2 2 2 1 0 1 1 3 3 3 3 2 2 2 2 1 1 2 2 2 2 2 2 2 2 1 1 1 1 2 2 2 2 1 0 0 0 0 1 1 2 3 3 3 3 2 2 2 2 1 2 2 3 3 3 3 3 4 4 5 5 6 6 5 4 3 2 1 2 2 2 2 2 2 1 2 2 2 2 3 3 4 4 3 2 2 3 4 3 4 3 2 2 2 2 1 2 2 3 4 4 3 3 2 3 2 3 4 6 6 6 5 5 5 5 4 4 3 3 3 4 4 3 2 1 0 0 0 0 0 0 0 1 2 2 2 1 3 3 4 3 2 2 1 1 1 2 2 2 2 3 3 3 3 3 2 1 1 1 1 1 2 2 2 2 1 1 2 3 3 3 3 3 2 2 2 2 2 2 3 4 5 5 5 4 3 2 1 2 3 4 5 5 5 4 3 3 2 2 3 2 3 3 3 3 3 3 3 2 1 1 2 2 2 2 2 2 2 2 2 1 1 1 1 2 2 1 1 1 1 1 1 0 1 1 1 1 1 2 2 1 1 1 1 1 1 1 2 2 2 2 3 4 4 4 4 2 2 3 3 3 2 2 2 2 3 3 3 3 3 3 4 4 5 6 4 4 2 2 2 3 2 2 1 2 2 2 2 2 2 2 2 2 1 1 1 1 1 2 1 2 2 1 1 1 1 2 1 2 2 3 3 1 0 
0 2 3 3 3 3 2 2 1 2 2 2 2 3 3 3 1 1 1 2 3 2 3 2 1 1 1 1 1 1 1 1 2 3 3 3 2 2 3 2 2 2 2 2 2 2 2 2 2 2 2 2 2 2 1 1 1 1 1 1 1 1 1 2 3 3 4 4 3 3 3 4 4 4 3 3 2 2 3 3 3 2 2 2 2 2 2 2 2 3 2 2 2 2 1 2 2 4 4 5 4 4 6 6 7 5 4 3 1 2 2 2 1 1 1 1 1 1 2 2 1 1 1 2 2 2 3 3 3 3 3 2 2 1 1 1 1 2 1 2 2 2 3 4 5 6 5 5 4 3 2 2 2 2 3 3 4 5 5 4 2 1 2 3 4 3 2 2 3 3 3 3 3 3 3 3 3 3 3 3 3 3 2 1 1 1 1 2 2 1 2 2 3 2 2 2 3 3 2 2 2 1 1 1 2 3 2 2 2 2 2 2 3 3 2 2 2 2 2 3 3 3 2 1 1 1 2 2 2 2 1 1 0 0 0 1 1 2 2 3 3 3 3 3 3 2 2 2 3 2 3 3 3 3 3 4 4 5 5 5 5 5 3 2 2 1 2 1 2 2 1 1 1 1 2 2 3 4 4 4 4 3 2 2 2 3 2 3 2 2 2 1 2 2 2 3 4 5 5 3 3 2 2 3 4 4 4 3 3 3 4 4 4 4 4 3 2 3 3 4 4 3 2 1 0 0 1 1 0 0 1 2 2 2 2 3 3 3 2 2 1 1 1 1 2 2 3 3 3 3 3 4 3 3 2 2 2 2 2 2 2 2 1 1 1 2 2 3 3 3 2 3 4 3 3 3 3 4 3 4 4 4 4 3 2 2 2 2 2 2 3 3 4 4 3 2 2 3 3 3 2 2 2 3 2 2 1 1 1 1 2 2 2 3 3 3 3 2 2 1 2 2 2 2 2 1 2 1 1 1 1 1 1 1 1 1 2 2 1 1 0 1 1 2 2 2 2 2 3 3 5 5 4 4 5 5 5 5 4 3 2 2 2 3 3 3 3 3 3 4 5 5 7 5 4 2 2 2 2 2 2 1 2 2 2 1 1 1 2 2 3 2 2 1 1 1 1 1 2 2 2 2 1 1 2 2 2 2 3 2 1 0 
0 1 2 2 1 2 2 2 2 2 2 2 2 3 4 3 2 1 1 2 3 2 2 2 1 1 1 1 2 2 1 2 2 2 2 2 2 2 2 1 2 1 0 0 0 1 1 2 2 2 3 3 3 2 1 1 1 1 1 1 1 1 2 2 2 3 3 3 4 4 4 4 4 3 3 3 3 4 4 4 3 2 2 2 2 2 2 2 2 3 3 3 2 2 2 3 4 7 7 7 7 7 8 6 7 5 5 3 2 2 2 3 1 1 1 1 1 2 2 2 1 1 1 2 2 2 3 3 3 3 3 2 2 2 2 1 1 1 1 1 2 2 2 4 5 6 5 4 3 4 3 2 1 1 2 2 3 4 4 4 2 2 2 4 4 3 2 2 2 3 3 3 3 3 4 3 3 2 2 2 2 1 1 1 1 1 2 2 2 1 2 3 3 2 2 2 3 3 3 2 2 1 1 2 2 2 2 2 2 2 3 3 3 4 4 3 3 2 2 3 3 3 2 1 1 1 2 2 2 2 2 2 2 1 0 1 1 2 2 2 2 3 3 3 3 3 3 3 3 3 3 3 4 4 4 4 3 3 4 4 4 3 1 1 1 1 1 1 2 2 1 1 1 1 2 1 3 3 4 4 4 3 2 2 2 3 2 3 2 2 2 2 2 2 2 3 4 4 4 3 3 3 2 3 3 3 3 3 3 3 3 3 3 3 3 3 2 2 3 3 3 2 2 1 1 1 1 1 1 1 1 2 1 2 2 2 2 2 1 2 1 1 1 1 1 1 1 2 3 3 3 3 3 3 2 2 2 2 2 2 2 1 1 1 1 1 2 3 3 3 3 3 3 3 4 4 4 4 3 3 3 3 3 3 3 2 2 2 3 5 6 6 5 4 4 3 2 3 2 2 2 2 2 2 2 2 1 1 1 1 1 1 1 2 2 3 3 2 2 2 2 2 2 3 3 2 2 2 2 2 1 1 1 1 1 1 2 2 1 1 1 1 2 2 3 3 2 2 3 3 4 5 5 4 4 5 6 6 6 5 4 3 2 3 3 3 2 3 3 3 4 4 5 3 3 2 2 2 3 2 2 1 2 2 2 1 0 1 2 3 3 2 3 2 2 1 1 1 1 1 2 2 2 2 2 2 3 2 2 2 1 0 
0 3 4 5 5 6 5 5 3 2 2 1 2 3 4 2 2 1 1 2 3 2 2 2 2 2 2 2 1 1 1 2 2 2 2 2 1 1 1 1 1 1 0 0 0 0 0 1 2 2 3 4 3 3 1 1 1 1 1 1 1 1 2 2 3 2 1 2 2 3 3 3 3 3 3 2 2 2 3 3 3 3 3 2 2 1 1 1 1 2 3 3 2 2 2 3 3 6 7 8 7 6 7 6 7 5 5 4 2 2 2 3 2 2 1 1 2 2 3 3 1 2 1 2 3 2 3 3 3 3 3 2 2 1 1 0 0 0 1 1 2 2 2 3 4 5 5 4 4 4 3 3 1 1 1 2 2 3 3 3 2 1 2 4 4 3 2 1 2 2 3 3 3 3 3 3 2 2 2 1 1 1 1 1 1 1 2 2 2 2 3 3 3 3 2 2 2 2 1 1 1 2 2 2 2 2 2 2 2 2 2 3 3 4 4 4 3 3 3 3 3 4 3 2 2 2 2 1 2 2 2 2 2 2 1 2 2 2 2 1 2 2 3 3 4 2 3 3 3 3 3 3 3 4 4 3 3 2 2 2 2 1 0 1 1 1 1 1 2 2 2 2 1 1 2 2 3 3 3 3 3 2 3 2 2 2 1 2 2 2 2 2 2 2 3 4 5 5 5 3 4 3 3 3 3 3 3 3 3 3 3 2 2 2 3 3 3 3 3 3 3 3 2 2 1 1 2 2 1 1 1 2 1 1 1 1 2 2 1 2 1 1 1 1 1 1 2 3 3 3 2 2 2 2 2 2 2 2 2 2 1 1 1 1 1 1 1 2 2 2 2 3 4 5 5 5 4 3 2 2 1 2 2 2 3 3 2 2 2 3 4 4 4 3 2 2 2 3 3 2 1 1 1 1 1 1 1 1 2 2 2 2 1 2 2 3 2 2 2 2 2 3 3 4 3 3 3 3 3 3 1 1 1 1 1 2 2 2 2 1 1 1 2 2 3 2 2 2 2 3 4 4 4 5 6 7 6 5 5 5 5 4 4 3 3 3 2 2 2 3 3 3 4 3 3 2 2 2 3 3 3 2 2 2 1 1 1 1 2 3 3 3 3 2 1 1 1 1 1 1 2 1 1 2 3 2 2 1 2 1 1 0 
0 3 5 5 5 6 5 5 5 3 3 2 2 3 3 2 2 1 2 2 2 2 2 2 2 2 2 2 1 1 1 1 1 1 1 0 0 0 1 1 1 0 0 0 0 0 0 1 2 2 3 4 4 3 2 1 1 1 2 1 1 1 2 2 2 2 1 1 1 1 1 1 2 2 3 3 3 3 3 3 3 3 2 2 2 2 2 2 2 2 2 2 2 2 2 3 3 6 7 8 8 6 6 4 5 5 5 3 2 3 2 3 3 2 1 1 2 2 3 3 2 2 1 2 2 2 3 3 3 3 3 2 1 1 0 0 0 0 0 1 2 2 2 2 3 5 5 4 4 4 4 3 1 1 1 1 1 2 2 2 2 1 2 4 4 3 2 2 2 1 2 3 3 3 2 2 1 1 1 0 0 0 1 1 1 1 2 2 2 2 3 2 2 1 1 1 1 1 1 1 1 2 2 2 2 2 2 2 2 2 2 2 3 4 4 3 3 3 3 4 4 4 4 4 3 3 3 2 3 2 2 2 2 2 2 2 2 2 2 2 2 2 3 3 4 2 4 3 3 3 3 3 3 3 3 3 2 1 1 1 1 1 0 1 1 1 1 1 2 2 2 2 2 2 2 2 3 2 2 2 3 2 2 2 2 2 2 2 1 2 1 1 2 2 3 4 5 5 5 4 4 3 3 3 2 1 1 1 2 2 2 1 2 2 3 2 2 2 3 3 3 2 2 1 1 1 1 1 1 1 1 2 1 0 0 1 1 1 1 2 1 1 1 1 2 1 2 3 3 3 2 2 1 2 2 2 1 1 1 1 1 2 2 2 2 1 1 2 2 2 2 3 4 5 5 5 4 3 2 1 1 1 2 3 4 4 3 3 4 5 6 6 5 4 3 3 2 2 2 2 2 2 2 1 1 1 1 1 2 2 2 1 1 1 2 2 2 2 2 3 3 3 3 4 4 3 3 4 3 2 1 1 1 1 2 2 3 2 2 2 1 1 2 3 3 2 2 2 2 2 3 4 4 5 6 7 6 6 5 5 5 5 5 4 4 3 2 2 2 2 2 2 2 2 3 3 2 2 2 3 3 3 3 2 2 1 1 2 3 3 4 3 3 2 2 2 1 1 1 1 1 1 1 2 3 2 3 2 2 2 1 0 
0 5 8 8 9 9 10 9 7 5 4 3 3 3 2 2 1 1 2 2 2 2 2 2 2 2 2 2 1 1 0 1 1 1 1 0 0 1 1 1 1 0 0 0 0 0 0 1 2 2 3 4 4 3 1 1 1 1 1 1 2 1 1 2 2 2 1 1 1 1 1 2 2 3 3 3 4 4 4 4 3 3 3 3 3 2 2 2 2 2 2 2 2 1 1 2 3 5 6 6 6 6 6 5 5 5 4 3 3 3 3 3 3 2 2 1 2 2 3 2 2 2 2 1 2 2 3 2 3 3 3 2 1 0 0 0 0 0 0 1 2 2 2 2 2 4 4 3 3 4 3 3 1 1 1 1 1 1 2 1 1 1 2 3 3 3 2 2 2 1 2 3 3 2 2 1 1 0 0 0 0 0 1 1 1 1 1 2 3 3 2 2 2 1 1 1 1 1 1 1 1 2 2 2 2 1 1 1 1 2 2 2 3 4 4 3 3 4 4 5 5 6 6 6 6 5 4 3 3 2 2 1 2 2 3 2 3 2 2 2 2 3 3 2 3 1 3 2 3 2 2 3 3 3 3 3 2 1 1 2 1 1 1 1 1 1 1 1 2 2 2 2 1 2 2 3 2 2 2 2 2 2 2 1 1 1 2 2 1 1 1 1 2 2 3 4 4 5 6 5 5 5 5 3 2 1 1 1 2 3 2 2 2 2 3 2 2 2 2 2 3 2 2 1 1 1 1 1 1 1 2 2 1 1 1 1 2 1 1 1 1 1 1 1 1 1 2 3 3 2 1 1 2 2 2 2 2 1 1 1 2 2 3 2 2 1 1 2 3 4 4 4 4 5 4 4 3 2 1 1 1 1 2 3 3 3 3 3 4 5 6 5 5 4 3 3 2 2 2 2 2 2 2 2 1 1 1 1 1 2 1 1 1 1 2 2 2 2 2 2 2 3 3 3 3 3 3 4 4 3 1 1 1 1 2 2 2 2 2 3 2 2 2 3 3 2 2 3 3 4 4 5 6 6 6 6 5 4 4 5 6 5 5 4 4 3 3 2 2 2 2 2 4 3 4 2 2 2 2 2 3 3 3 2 1 1 1 2 3 3 4 3 2 2 1 2 2 2 2 1 1 1 1 1 3 2 3 2 2 3 1 0 
0 2 4 4 5 5 5 5 4 3 2 2 2 2 1 1 0 0 1 1 1 1 1 1 1 1 1 1 1 1 0 0 0 0 0 0 0 0 0 0 0 0 0 0 0 0 0 0 1 1 2 2 2 2 1 0 0 1 1 1 1 0 1 1 1 1 0 1 0 0 0 1 1 2 2 2 2 2 2 2 2 1 1 1 1 2 2 2 1 1 1 1 1 0 0 1 2 3 3 4 4 3 3 2 3 2 2 2 2 2 2 2 2 1 1 1 1 1 2 1 1 1 1 1 1 1 1 1 1 2 1 1 0 0 0 0 0 0 0 0 1 1 1 1 1 2 2 2 2 2 2 1 1 1 0 0 0 0 1 0 0 0 1 2 2 1 1 1 1 1 1 2 2 2 1 0 0 0 0 0 0 0 0 1 0 0 1 1 1 2 1 1 0 0 0 1 0 0 0 0 1 1 1 1 1 1 0 0 0 1 1 1 2 2 2 2 1 2 3 3 4 4 4 4 4 4 3 3 2 1 1 0 1 1 2 1 1 1 1 1 1 1 2 1 2 0 2 1 1 1 1 1 1 1 1 2 2 1 1 1 1 1 0 1 1 1 1 0 1 1 1 1 1 1 1 2 2 1 1 1 1 1 1 1 1 1 1 1 0 0 0 0 1 1 1 2 2 3 3 3 3 2 2 2 1 0 0 0 1 1 1 1 1 1 1 1 1 1 1 1 1 1 1 0 0 0 0 0 1 1 1 1 0 0 0 0 1 0 1 1 1 1 1 1 1 0 1 1 2 1 1 0 0 1 1 0 0 0 0 0 1 1 2 1 2 1 1 1 1 2 2 2 2 3 2 2 1 1 1 0 1 1 1 2 2 2 1 2 3 3 4 3 3 2 2 2 1 1 1 1 1 1 1 1 1 1 1 1 1 0 0 1 1 1 1 1 1 1 1 1 2 2 2 2 2 1 2 2 2 1 1 1 1 1 1 1 1 1 1 2 1 2 2 2 1 1 1 2 2 2 2 3 3 4 4 4 3 3 3 3 3 3 3 3 3 2 2 1 1 1 1 1 2 2 2 1 2 1 1 1 1 1 1 1 1 1 0 1 2 2 2 2 1 1 1 1 1 1 1 1 0 0 0 0 1 1 1 1 1 1 0 0 
0 0 0 0 0 0 0 0 0 0 0 0 0 0 0 0 0 0 0 0 0 0 0 0 0 0 0 0 0 0 0 0 0 0 0 0 0 0 0 0 0 0 0 0 0 0 0 0 0 0 0 0 0 0 0 0 0 0 0 0 0 0 0 0 0 0 0 0 0 0 0 0 0 0 0 0 0 0 0 0 0 0 0 0 0 0 0 0 0 0 0 0 0 0 0 0 0 0 0 0 0 0 0 0 0 0 0 0 0 0 0 0 0 0 0 0 0 0 0 0 0 0 0 0 0 0 0 0 0 0 0 0 0 0 0 0 0 0 0 0 0 0 0 0 0 0 0 0 0 0 0 0 0 0 0 0 0 0 0 0 0 0 0 0 0 0 0 0 0 0 0 0 0 0 0 0 0 0 0 0 0 0 0 0 0 0 0 0 0 0 0 0 0 0 0 0 0 0 0 0 0 0 0 0 0 0 0 0 0 0 0 0 0 0 0 0 0 0 0 0 0 0 0 0 0 0 0 0 0 0 0 0 0 0 0 0 0 0 0 0 0 0 0 0 0 0 0 0 0 0 0 0 0 0 0 0 0 0 0 0 0 0 0 0 0 0 0 0 0 0 0 0 0 0 0 0 0 0 0 0 0 0 0 0 0 0 0 0 0 0 0 0 0 0 0 0 0 0 0 0 0 0 0 0 0 0 0 0 0 0 0 0 0 0 0 0 0 0 0 0 0 0 0 0 0 0 0 0 0 0 0 0 0 0 0 0 0 0 0 0 0 0 0 0 0 0 0 0 0 0 0 0 0 0 0 0 0 0 0 0 0 0 0 0 0 0 0 0 0 0 0 0 0 0 0 0 0 0 0 0 0 0 0 0 0 0 0 0 0 0 0 0 0 0 0 0 0 0 0 0 0 0 0 0 0 0 0 0 0 0 0 0 0 0 0 0 0 0 0 0 0 0 0 0 0 0 0 0 0 0 0 0 0 0 0 0 0 0 0 0 0 0 0 0 0 0 0 0 0 0 0 0 0 0 0 0 0 0 0 0 0 0 0 0 0 0 0 0 0 0 0 0 0 0 0 0 0 0 0 0 0 0 0 0 0 0 0 0 0 0 0 0 0 0 0 0 0 0 0 0 0 0 0 0 0 0 0 0 0 0 0 0 
