P2
256 256 255
0 0 0 0 0 0 0 0 0 0 0 0 0 0 0 0 0 0 0 0 0 0 0 0 0 0 0 0 0 0 0 0 0 0 0 0 0 0 0 0 0 0 0 0 0 0 0 0 0 0 0 0 0 0 0 0 0 0 0 0 0 0 0 0 0 0 0 0 0 0 0 0 0 0 0 0 0 0 0 0 0 0 0 0 0 0 0 0 0 0 0 0 0 0 0 0 0 0 0 0 0 0 0 0 0 0 0 0 0 0 0 0 0 0 0 0 0 0 0 0 0 0 0 0 0 0 0 0 0 0 0 0 0 0 0 0 0 0 0 0 0 0 0 0 0 0 0 0 0 0 0 0 0 0 0 0 0 0 0 0 0 0 0 0 0 0 0 0 0 0 0 0 0 0 0 0 0 0 0 0 0 0 0 0 0 0 0 0 0 0 0 0 0 0 0 0 0 0 0 0 0 0 0 0 0 0 0 0 0 0 0 0 0 0 0 0 0 0 0 0 0 0 0 0 0 0 0 0 0 0 0 0 0 0 0 0 0 0 0 0 0 0 0 0 0 0 0 0 0 0 0 0 0 0 0 0 
0 39 76 76 76 76 76 76 76 76 76 76 76 76 75 75 74 74 75 76 76 76 75 75 75 76 77 77 76 76 77 77 76 76 75 76 76 76 75 75 74 74 74 75 75 75 75 75 75 75 74 74 74 74 74 75 76 77 77 77 77 76 76 76 76 76 75 75 75 76 76 76 75 75 75 75 76 76 76 76 76 76 76 76 77 77 77 77 77 77 76 77 77 78 78 77 76 75 75 75 75 76 76 76 76 76 76 76 76 75 75 75 75 76 77 77 77 76 75 74 74 75 76 77 77 76 75 75 76 76 77 77 77 76 75 75 74 75 76 76 76 76 77 77 77 77 76 76 76 76 76 76 76 76 76 76 75 75 75 75 76 76 76 75 75 75 74 75 75 75 76 76 76 76 76 75 75 76 76 76 76 76 75 74 75 75 75 74 74 74 75 75 75 75 74 74 75 75 75 76 76 76 76 77 76 76 76 76 76 76 75 75 74 73 73 73 74 75 76 76 76 76 76 75 74 74 74 74 73 74 74 74 73 72 72 73 74 74 75 75 75 75 75 75 76 76 76 76 75 74 74 75 77 77 40 0 
0 71 108 109 109 109 108 109 109 109 109 110 110 110 110 109 109 108 109 110 110 110 109 109 109 110 111 111 110 110 111 111 111 110 109 110 110 110 109 109 108 107 108 109 109 109 109 109 109 109 109 108 107 107 107 108 109 110 110 110 110 109 109 110 110 110 110 109 109 109 109 109 109 109 110 110 111 111 112 112 112 111 111 110 111 111 111 111 110 110 109 110 110 111 111 110 109 109 109 109 110 110 110 110 110 109 109 110 110 109 109 109 109 110 110 111 111 110 108 107 107 108 110 111 110 109 108 108 109 110 111 111 111 111 109 108 108 108 109 109 109 110 110 111 111 111 110 110 110 110 110 111 111 111 111 110 110 110 110 110 111 111 110 110 110 109 109 108 108 108 109 110 110 110 110 110 109 109 109 110 109 109 108 108 108 109 109 108 107 108 108 109 109 110 109 109 110 110 110 110 110 110 109 110 110 110 109 109 109 109 109 109 108 107 107 107 108 108 109 109 110 110 109 108 108 108 108 107 106 107 108 108 107 106 106 106 107 108 108 109 109 108 109 109 109 110 111 111 110 108 108 109 110 111 73 0 
0 7 12 12 12 12 12 11 11 11 11 11 12 12 12 12 12 11 11 12 12 13 12 11 11 11 12 13 13 14 15 15 14 12 12 12 13 13 12 12 11 11 11 12 12 11 11 12 13 13 12 11 10 10 10 11 12 13 13 13 13 13 13 13 13 12 12 11 10 9 10 10 10 10 10 10 11 12 12 13 13 13 12 11 11 11 11 12 11 12 12 12 13 13 13 12 11 10 11 12 12 12 12 12 12 11 11 11 11 10 10 10 10 11 12 12 13 12 11 10 11 12 13 13 12 10 9 9 10 11 12 12 13 12 11 10 10 10 11 10 10 10 11 12 12 11 11 11 11 11 12 12 13 13 14 13 13 12 13 12 13 12 12 12 12 12 11 11 10 9 10 10 10 10 11 11 11 12 12 13 13 12 11 10 10 10 10 10 10 10 10 11 11 11 11 11 11 12 12 12 12 12 12 12 12 11 11 11 11 11 11 11 11 10 10 10 11 12 12 13 13 13 12 11 11 10 10 10 9 10 11 11 10 10 9 9 9 9 9 9 10 10 10 10 11 11 11 12 12 12 11 10 12 12 8 0 
0 3 4 4 4 4 5 5 4 4 3 3 4 4 5 5 6 5 4 4 5 6 6 5 4 4 4 4 5 6 6 7 6 4 4 4 5 5 5 5 4 4 5 6 6 4 5 5 6 6 5 4 4 3 4 4 4 4 4 4 4 4 4 5 6 6 6 5 4 2 2 3 4 5 5 5 6 7 7 7 7 6 5 4 4 4 3 3 4 4 5 5 5 5 4 4 4 4 5 5 5 4 4 4 4 3 3 4 4 4 4 3 3 3 3 4 5 5 4 4 5 6 6 5 4 3 2 2 2 4 5 5 5 5 4 4 4 4 3 3 3 3 3 3 4 4 4 4 4 4 5 5 6 6 7 6 6 5 6 6 7 6 5 5 4 4 4 4 3 2 3 3 4 4 5 4 5 4 5 5 5 4 4 4 4 4 4 4 4 4 4 4 5 6 6 6 7 7 7 6 5 4 3 3 4 5 4 4 4 3 4 4 5 5 4 4 4 4 4 4 4 5 5 5 4 4 4 4 4 4 4 5 5 5 5 4 3 3 2 3 3 4 4 4 4 5 5 6 6 6 5 4 4 5 3 0 
0 1 2 2 3 2 3 3 3 2 2 1 2 2 3 3 3 2 2 2 2 2 3 3 2 2 2 2 3 3 4 3 3 1 1 1 1 1 2 2 1 2 3 4 4 2 3 3 3 2 2 2 3 3 4 3 2 2 2 2 2 2 2 3 3 5 5 4 3 2 2 3 3 4 3 2 2 3 3 4 4 3 3 2 2 2 1 2 3 3 5 5 5 5 4 4 3 3 3 4 3 2 1 1 2 2 2 2 2 1 1 0 0 1 1 3 3 3 3 3 5 4 5 4 4 3 2 2 2 2 2 3 3 3 2 2 2 2 3 3 3 2 2 2 2 2 2 1 1 2 2 2 3 3 4 3 3 2 3 3 4 4 4 4 3 4 3 2 1 1 1 1 2 2 3 3 3 3 3 3 3 3 2 2 2 2 2 3 3 3 3 2 2 2 3 3 3 3 4 4 4 3 3 3 2 2 2 2 3 2 2 2 2 2 2 2 2 2 3 3 3 3 3 3 3 3 3 2 2 2 2 3 4 3 4 3 3 3 2 3 3 3 3 3 4 4 4 5 5 5 4 3 3 3 2 0 
0 2 3 2 3 3 3 3 2 2 1 1 2 2 3 3 3 2 2 2 2 2 3 3 2 2 1 2 2 2 3 3 3 1 1 1 1 1 2 2 1 2 3 4 4 3 3 3 3 2 2 2 2 2 3 3 3 2 2 2 1 1 1 2 3 4 4 4 3 2 2 2 3 4 4 4 4 4 4 4 5 4 4 3 3 2 2 2 3 4 5 6 6 6 5 4 3 2 3 3 3 3 2 2 2 1 2 2 3 2 2 2 1 1 1 2 3 3 3 2 5 4 5 4 3 3 3 2 2 2 2 3 3 3 3 3 2 3 3 4 3 3 2 2 2 2 2 2 2 1 1 2 2 3 4 3 2 2 2 3 3 3 3 3 3 3 2 2 1 1 1 1 2 3 4 3 3 2 2 2 2 2 2 3 3 4 3 4 3 4 3 3 3 3 3 3 3 3 4 4 4 3 2 2 3 3 3 3 3 2 3 3 3 4 4 4 3 2 2 2 3 3 3 4 3 3 3 2 2 1 2 1 3 3 4 3 3 3 2 4 3 4 3 3 3 3 4 4 4 4 4 3 3 2 1 0 
0 1 3 3 3 2 2 2 2 2 1 2 2 3 3 3 3 2 2 2 2 2 3 2 2 2 2 2 3 4 4 4 4 2 2 2 2 2 1 1 1 2 2 3 3 3 3 2 2 2 2 2 2 3 3 3 2 2 2 2 2 1 2 3 3 4 4 3 2 1 2 3 4 5 4 4 2 2 3 3 4 4 4 3 2 2 3 4 4 4 5 5 6 5 4 4 3 2 3 3 4 4 3 2 3 2 3 3 3 3 3 3 3 3 2 3 3 3 3 2 5 3 5 3 4 4 3 4 3 3 3 3 3 3 2 2 2 2 3 4 5 5 3 3 2 2 2 2 2 1 2 2 2 3 3 2 2 1 1 2 3 3 3 3 3 4 4 3 2 1 1 2 3 3 3 3 2 2 2 2 3 2 3 3 3 3 2 4 3 4 3 3 3 3 3 2 3 3 4 4 4 3 2 2 3 3 4 4 4 4 4 4 4 4 4 5 4 4 3 3 3 4 3 4 4 4 3 2 2 2 2 1 3 2 3 2 3 3 3 4 4 4 3 3 3 3 3 4 4 4 4 3 2 2 1 0 
0 2 3 3 3 3 3 3 2 2 2 2 2 2 3 3 3 3 2 1 2 2 2 2 2 2 1 1 2 3 4 4 3 3 3 3 3 2 1 2 2 2 3 3 3 3 3 3 3 2 2 2 1 1 2 2 3 3 2 2 1 1 1 2 3 3 3 2 2 2 3 3 4 4 4 4 3 2 2 3 4 4 4 3 3 4 3 3 3 2 3 4 5 4 4 3 2 1 2 2 4 4 4 3 3 2 3 3 3 3 3 3 3 3 2 3 3 3 4 3 4 3 4 3 2 2 3 2 3 2 2 3 3 4 3 4 3 2 3 4 4 5 2 4 1 1 1 2 2 2 3 3 3 3 2 2 2 2 2 1 1 1 1 2 3 3 3 3 2 2 2 2 3 3 3 3 2 3 2 3 3 3 3 2 2 3 3 4 4 4 5 4 5 3 4 3 3 3 4 4 3 2 1 2 3 3 3 4 4 4 4 4 4 5 6 7 5 4 3 4 3 4 3 3 3 3 3 2 2 1 1 1 2 1 2 2 2 3 4 6 5 4 2 2 2 2 1 1 2 3 3 3 3 2 2 0 
0 2 3 4 3 3 3 4 3 3 2 2 3 3 3 4 4 4 3 2 2 2 2 2 2 2 2 2 3 3 3 4 6 5 6 5 5 3 2 1 2 3 3 3 2 3 2 3 2 2 2 2 1 1 1 2 1 1 1 1 1 2 3 3 3 3 2 2 2 2 3 4 4 4 3 2 2 2 2 2 3 3 3 2 2 3 4 4 3 2 2 2 3 2 1 1 1 1 2 2 3 4 3 3 2 2 3 2 3 2 3 3 3 4 3 3 3 4 4 3 4 4 4 4 3 3 3 2 3 2 3 3 3 3 2 3 2 3 3 4 4 4 2 3 1 2 2 3 3 3 4 4 5 3 3 3 3 2 2 1 1 1 1 2 2 2 3 3 3 2 3 2 3 2 2 3 3 3 3 4 4 3 4 3 2 3 3 4 4 4 5 4 6 3 4 3 4 4 5 4 3 1 1 1 3 4 4 4 4 4 4 3 4 4 5 6 5 5 3 4 4 3 3 2 4 3 3 2 2 2 1 1 1 1 2 1 2 3 4 5 4 4 3 3 2 1 1 1 1 2 3 3 3 3 2 0 
0 3 4 4 3 4 3 5 2 3 2 2 2 3 3 4 3 3 2 1 1 1 1 1 1 2 1 1 2 2 3 3 8 12 18 12 9 4 3 3 3 3 3 4 2 3 2 3 3 3 3 2 2 2 2 3 3 3 3 2 2 1 2 2 3 3 3 3 4 5 5 5 4 2 2 2 1 2 1 2 3 3 3 2 2 2 3 3 2 2 2 3 3 2 2 1 2 2 2 2 3 3 3 3 2 2 3 2 3 1 2 2 3 3 3 4 4 4 3 3 3 4 4 4 3 2 2 2 3 2 3 3 4 4 3 3 4 4 4 4 3 3 2 2 2 1 1 2 3 4 5 5 5 3 2 3 3 3 2 2 2 2 2 2 3 3 2 2 2 2 2 2 3 3 3 3 3 3 3 4 4 3 4 3 3 3 3 3 3 4 6 5 6 3 4 3 3 3 3 4 3 1 1 1 2 2 3 3 4 4 3 3 3 3 5 6 5 4 3 3 3 3 3 2 3 3 4 2 2 2 1 1 1 1 2 1 2 4 6 7 5 4 3 2 2 1 1 0 1 1 2 2 3 3 2 0 
0 3 4 3 2 4 3 6 3 4 2 2 3 3 3 3 3 3 3 3 2 2 2 2 2 2 2 3 3 2 2 3 13 14 23 14 15 6 5 4 4 4 4 4 3 4 3 4 3 3 3 3 2 2 2 2 1 1 1 1 2 3 4 3 4 3 4 3 4 5 5 5 4 3 2 2 1 2 1 2 1 1 2 1 2 3 3 3 3 2 2 3 3 2 2 1 2 2 3 2 2 2 2 2 2 2 2 2 2 1 2 2 3 3 3 4 4 4 3 3 3 3 5 5 4 3 2 1 2 1 2 3 4 4 4 4 4 4 3 3 2 2 2 2 1 2 2 3 3 4 5 5 4 3 2 3 3 4 2 3 2 3 3 3 3 3 3 3 2 2 2 3 3 2 2 3 3 4 4 4 4 4 4 3 4 3 3 3 3 4 5 4 5 3 4 3 3 3 2 3 2 1 1 2 3 4 5 6 5 4 4 3 3 4 4 5 4 4 3 3 3 2 2 2 4 3 4 2 2 2 2 2 2 1 1 2 3 4 4 4 4 3 3 2 2 1 1 1 2 2 2 3 3 3 2 0 
0 3 3 3 3 4 4 6 4 3 2 2 3 3 3 3 3 3 3 3 2 2 2 2 2 2 2 2 3 3 2 2 15 19 35 20 17 8 7 6 5 4 4 3 3 4 2 3 3 3 3 3 2 2 2 2 2 2 2 2 2 2 3 3 4 4 4 4 4 5 5 4 3 2 1 1 1 2 1 1 1 1 2 2 2 3 3 3 3 3 2 3 3 2 2 1 2 2 2 2 2 2 3 3 2 3 3 2 2 2 3 3 3 3 3 4 4 3 3 3 3 3 4 3 4 3 2 1 2 1 2 2 4 4 4 4 4 4 3 3 2 1 1 2 2 2 1 2 2 3 4 4 3 2 1 3 4 5 3 4 3 3 3 3 3 3 3 3 3 2 2 2 3 3 2 2 2 2 3 3 3 3 3 3 4 4 3 3 3 4 5 4 5 4 4 4 3 3 3 3 3 2 1 1 2 2 4 5 6 5 4 3 3 3 3 5 4 4 3 3 3 3 3 3 4 3 4 2 2 2 2 2 3 3 3 3 3 4 4 4 4 3 3 2 1 1 1 1 2 2 2 3 2 2 1 0 
0 2 3 4 3 5 5 6 5 5 4 4 4 4 3 3 3 4 4 4 4 4 4 4 4 4 4 3 2 2 2 1 10 13 20 15 15 8 7 5 4 4 4 3 5 4 3 3 3 3 3 2 1 2 1 2 1 1 1 1 2 2 4 4 5 4 4 4 4 4 4 3 2 2 2 2 2 2 2 2 2 2 2 3 3 4 3 4 3 3 3 3 3 2 2 1 3 2 3 2 1 1 2 2 2 3 2 3 3 3 4 3 3 3 2 3 3 3 3 2 3 3 4 3 3 2 2 1 1 1 2 2 3 4 5 4 4 4 3 3 2 2 1 1 1 1 1 1 2 2 3 3 3 2 2 3 4 4 3 3 3 3 3 3 3 3 4 4 4 3 3 3 3 2 2 2 2 3 3 3 3 3 3 3 4 5 4 4 3 4 4 3 5 4 4 4 3 3 2 2 2 1 1 2 2 3 5 6 7 6 4 3 3 3 4 5 4 4 3 3 2 2 3 3 4 4 4 2 2 1 2 2 3 3 3 3 3 3 3 2 4 3 3 3 2 2 2 2 3 3 3 3 3 3 2 0 
0 2 2 4 3 5 5 5 4 3 3 3 5 5 4 5 3 4 4 4 3 3 3 3 4 4 4 3 3 2 2 2 7 12 16 12 9 6 6 4 3 2 2 2 3 3 3 2 2 2 3 2 1 1 1 1 1 1 1 1 2 2 3 4 5 4 3 3 3 3 2 2 1 1 2 2 2 2 2 2 2 2 3 3 3 4 3 3 3 3 2 3 2 2 1 1 2 2 2 2 1 2 2 3 3 3 3 4 3 4 4 4 3 3 3 3 3 3 3 2 3 2 2 2 3 3 3 2 1 1 2 2 3 3 3 2 2 2 3 3 2 2 1 1 2 2 1 1 1 1 2 2 3 2 3 3 4 4 4 3 3 2 2 2 2 2 3 3 5 4 4 3 2 2 1 2 2 2 2 2 3 3 4 4 4 5 4 4 3 4 4 4 5 4 5 3 2 3 3 3 2 1 1 1 2 3 4 5 5 4 4 4 3 2 2 3 3 4 3 3 3 3 3 3 4 3 4 1 2 1 2 3 4 4 4 4 3 3 3 2 4 3 3 3 2 2 2 2 3 3 3 3 2 2 1 0 
0 2 3 5 3 3 3 4 5 4 5 4 5 6 4 6 3 4 3 3 3 3 5 5 7 6 4 2 1 1 1 2 3 4 4 4 5 4 4 3 3 3 3 4 4 6 5 3 3 2 2 2 1 1 1 1 1 1 2 1 1 1 3 4 5 5 4 5 4 4 3 2 1 1 2 2 2 2 2 2 3 2 3 3 3 3 3 4 3 3 3 3 2 3 2 2 2 2 2 2 1 1 2 2 3 3 3 4 3 5 3 4 3 3 2 2 2 3 3 2 2 2 3 3 3 3 3 2 1 1 1 2 2 2 3 2 3 3 4 5 4 3 2 1 1 1 1 1 1 1 2 2 3 3 3 3 3 3 3 2 3 2 2 2 2 2 3 3 5 4 4 3 2 2 2 2 3 3 3 2 3 4 4 3 4 4 4 4 3 4 4 3 4 4 4 3 2 2 2 3 2 1 1 1 1 2 4 5 5 5 4 4 3 2 3 4 3 3 2 3 3 2 2 2 3 2 3 1 1 2 2 2 2 2 3 3 3 3 3 4 4 3 3 3 3 3 3 2 3 3 3 3 3 3 2 0 
0 2 2 3 2 3 3 3 3 2 4 4 5 6 4 6 3 4 3 3 3 3 4 4 4 3 3 2 2 2 2 3 4 5 4 3 2 2 3 3 2 3 3 4 4 5 4 3 3 2 3 3 2 2 1 1 1 1 1 2 2 2 2 3 4 4 3 3 3 3 2 1 1 1 2 2 2 1 2 1 2 1 2 2 2 3 2 3 2 2 2 2 2 2 1 2 1 2 2 3 3 3 4 3 3 4 3 5 3 5 3 4 3 3 3 2 2 2 3 2 2 2 2 2 3 3 4 3 2 2 2 2 2 3 2 2 3 3 3 3 3 2 1 2 2 2 2 2 2 2 3 3 2 2 2 3 2 2 3 2 2 2 2 2 2 3 4 3 4 4 3 2 2 2 3 3 3 3 3 2 3 3 4 3 4 3 4 3 4 4 5 3 4 3 3 3 2 2 2 3 2 1 1 1 1 2 3 4 4 5 4 4 3 3 2 3 3 3 2 2 3 3 2 2 1 1 2 1 1 2 2 2 3 3 4 4 4 4 3 4 4 3 2 2 2 2 2 2 2 2 3 2 2 2 1 0 
0 2 2 3 3 3 3 2 2 2 4 3 4 4 3 4 3 3 2 2 3 4 4 4 4 4 3 3 2 2 2 1 2 2 2 1 2 3 3 3 3 3 4 4 4 4 4 3 3 2 3 3 3 2 2 1 1 1 1 1 1 1 2 3 3 4 3 3 3 3 3 2 2 1 2 2 2 1 2 1 1 1 1 1 1 2 2 2 2 3 3 3 2 2 1 2 2 2 3 3 3 3 4 3 3 4 2 4 3 4 3 3 2 2 2 2 2 2 3 2 2 2 3 2 3 3 3 3 2 2 1 1 2 2 3 3 3 3 3 3 3 2 2 2 3 2 2 2 2 2 3 3 3 2 2 2 2 2 2 2 2 2 2 2 3 3 4 4 4 3 3 3 3 3 3 4 3 3 3 3 4 3 3 2 4 3 4 2 4 3 4 2 3 2 3 2 2 2 2 2 2 2 1 1 1 1 2 3 4 4 4 3 3 3 3 3 3 2 2 2 3 3 3 2 2 2 2 2 2 2 3 2 2 2 3 4 5 5 4 4 4 3 2 2 1 2 2 2 2 3 2 2 2 3 1 0 
0 1 2 3 3 3 3 2 2 1 2 2 3 4 3 5 3 3 2 2 2 3 3 2 2 2 3 3 3 2 2 2 3 2 3 2 2 3 3 3 3 3 5 5 5 4 2 2 2 3 3 3 3 3 2 1 1 1 1 1 1 1 1 2 1 2 2 2 2 2 2 2 2 2 3 3 3 3 2 2 1 1 1 1 1 2 2 3 2 3 4 4 3 2 2 2 2 3 3 3 3 3 5 4 4 4 3 4 3 4 3 3 3 2 2 2 2 2 2 2 2 2 2 2 2 2 3 3 2 1 2 1 2 2 3 3 2 2 2 2 2 2 2 3 4 3 3 2 2 3 3 2 2 1 1 1 1 1 2 2 2 2 3 3 3 3 3 2 2 2 2 2 2 3 3 4 3 3 3 2 3 2 3 3 4 4 4 2 4 2 4 2 2 1 1 2 2 2 2 2 2 2 2 2 2 2 2 3 4 5 4 3 2 2 2 2 3 2 2 1 2 2 2 2 2 2 2 2 2 2 2 2 3 2 4 5 5 5 4 4 4 3 2 1 0 0 1 1 2 3 2 3 2 3 1 0 
0 1 2 3 3 3 4 2 2 2 2 2 2 2 2 3 3 3 3 3 4 4 3 2 2 3 3 4 4 3 2 1 2 1 2 1 2 3 4 3 3 3 3 4 3 2 1 2 2 3 3 3 3 3 2 1 1 1 1 2 2 1 1 1 1 1 1 1 1 2 2 2 2 2 3 3 3 3 3 3 2 1 1 1 1 2 2 2 2 3 3 3 2 2 1 3 3 4 3 3 3 2 3 3 4 3 3 3 2 3 2 3 3 2 1 2 2 3 2 2 2 2 2 1 1 1 2 2 2 1 1 1 2 2 2 3 2 2 2 2 2 2 3 3 3 3 2 2 2 2 1 1 1 1 1 1 1 1 2 2 2 3 3 3 3 3 3 3 2 2 2 3 3 4 4 4 3 3 2 2 3 2 2 3 4 4 4 2 3 3 3 2 1 1 1 1 2 2 2 2 2 2 2 2 2 2 2 2 3 3 3 2 2 3 4 4 3 3 2 1 1 1 2 2 2 2 2 2 2 2 2 3 3 3 4 4 5 4 4 4 4 3 2 1 0 0 1 1 2 3 3 3 3 3 1 0 
0 1 2 3 4 3 4 3 3 2 2 2 2 2 3 3 3 3 3 3 3 3 2 2 2 3 4 5 4 4 3 2 2 2 2 1 2 3 3 3 3 3 4 5 5 4 2 2 2 3 2 3 3 3 2 2 1 1 1 2 2 1 1 1 1 1 1 1 1 1 1 2 2 2 3 3 3 3 3 3 2 2 2 2 2 3 3 4 4 5 6 5 5 4 5 6 6 5 4 4 3 2 4 3 5 4 4 3 2 2 2 2 2 2 1 2 2 3 2 3 2 2 2 1 1 1 2 1 1 1 1 1 1 2 2 2 2 2 2 3 3 3 3 3 3 3 2 2 1 2 2 2 1 1 1 0 1 1 2 3 2 3 3 3 3 3 2 2 2 2 2 2 2 2 3 3 3 2 2 2 2 3 3 4 4 4 3 2 3 3 3 2 2 1 1 1 2 3 3 4 2 2 1 2 2 2 2 3 3 3 2 2 2 3 3 4 3 2 2 2 2 1 1 2 2 2 2 2 2 2 2 2 3 2 4 4 4 4 3 4 3 3 2 1 0 0 1 2 2 4 3 4 3 3 2 0 
0 1 2 3 4 3 4 3 4 4 3 2 2 1 1 3 4 4 4 4 4 3 2 2 2 4 4 4 4 4 3 2 2 2 2 1 1 2 2 3 2 2 3 4 4 3 2 2 1 2 2 2 2 2 2 2 1 2 2 2 2 2 2 1 1 1 1 1 1 1 1 1 1 2 2 3 3 3 2 3 3 3 2 2 2 4 3 5 4 4 4 3 4 5 7 9 10 11 9 8 7 6 6 5 6 4 5 3 3 2 2 2 2 2 2 2 2 4 3 3 2 2 1 1 0 0 1 1 1 1 1 1 2 2 2 2 2 2 2 3 3 3 3 2 2 1 1 1 1 2 1 1 1 1 1 0 1 1 2 3 2 3 2 2 2 3 2 2 2 2 2 3 3 4 4 4 3 2 2 2 2 3 3 5 4 5 3 3 3 3 4 3 3 1 2 1 2 3 3 4 2 2 0 1 1 1 2 2 2 2 1 2 2 4 4 5 4 3 3 3 3 2 2 1 1 1 1 1 1 1 2 2 3 2 4 4 3 4 2 4 2 2 2 1 0 0 1 2 3 4 4 4 3 3 2 0 
0 1 2 3 4 3 4 3 3 3 3 2 2 1 1 1 2 2 2 2 2 2 2 2 3 4 4 4 4 4 3 3 2 2 2 2 1 2 2 3 2 2 4 5 5 4 2 3 2 2 2 2 2 2 1 2 1 1 1 1 1 1 1 2 2 1 2 2 1 1 1 1 2 2 2 2 2 2 2 4 4 4 4 3 4 5 4 6 9 15 23 29 34 35 32 27 20 14 10 8 7 8 8 6 6 5 5 4 3 2 2 2 3 3 3 3 3 4 3 4 2 2 1 1 1 1 2 3 2 1 1 1 2 2 2 2 2 1 2 3 3 3 2 2 2 1 1 1 1 1 1 2 2 2 2 1 2 2 2 3 2 2 2 2 2 2 1 2 2 2 2 2 2 2 2 2 2 3 3 4 3 3 3 4 3 4 3 3 3 3 5 3 4 2 2 2 1 3 3 3 2 2 1 1 1 2 2 3 2 2 1 1 2 3 3 3 2 3 3 3 3 3 2 2 2 2 2 2 1 1 2 2 3 2 3 3 4 4 2 3 2 2 2 1 1 1 2 2 3 4 4 4 3 3 2 0 
0 1 2 3 3 3 4 4 5 5 4 3 2 1 1 2 3 4 4 3 3 2 2 2 3 3 3 3 2 3 2 3 2 2 2 2 2 2 3 3 3 3 4 5 5 4 2 3 2 2 2 2 2 2 1 1 1 1 1 1 1 1 2 2 2 2 2 1 1 2 2 2 3 3 3 3 4 4 4 5 7 8 8 6 5 7 13 23 33 46 60 71 77 77 74 68 61 52 42 33 26 21 16 10 7 4 5 4 4 4 3 3 3 3 4 3 4 5 4 4 2 2 1 1 2 2 3 3 3 3 2 3 3 3 3 3 3 1 2 2 3 3 2 2 2 1 1 1 1 1 1 2 3 3 2 2 2 2 2 3 2 2 2 2 3 3 2 2 1 1 2 2 3 3 3 3 2 3 2 4 3 3 2 3 3 4 3 3 3 3 5 3 4 3 3 2 2 2 3 3 3 2 2 3 2 3 2 2 2 2 1 1 2 2 3 3 3 3 2 3 4 3 3 2 2 2 2 1 1 1 1 2 3 2 3 4 3 4 2 3 2 2 1 2 2 2 2 2 3 3 4 4 3 3 2 0 
0 2 2 3 3 4 4 4 4 4 4 3 2 1 1 1 2 2 2 2 2 2 3 3 4 2 3 2 1 2 1 2 2 2 3 2 2 2 3 4 4 3 4 5 5 4 2 3 2 2 2 2 2 1 1 1 1 1 1 0 0 1 2 3 3 3 3 3 2 2 3 4 4 4 4 4 6 7 8 9 9 9 11 14 23 34 47 61 73 85 94 99 102 103 102 99 94 86 78 70 63 58 51 40 29 21 15 10 7 5 5 4 4 4 5 4 6 5 5 3 2 2 2 2 2 3 4 5 4 3 3 3 3 4 3 4 3 2 2 2 2 2 2 2 2 1 1 1 1 1 2 3 4 4 3 3 3 3 3 3 2 2 2 2 3 3 2 2 2 3 2 2 2 2 2 2 2 2 3 3 3 3 2 1 2 2 4 4 4 3 3 3 3 3 3 3 2 2 3 3 4 4 4 5 3 3 2 2 2 1 1 1 2 2 2 2 2 3 2 3 3 3 4 2 3 2 3 2 2 1 2 3 3 3 2 3 4 4 2 2 1 2 2 2 3 3 2 2 2 2 3 3 3 3 1 0 
0 1 2 3 3 4 4 4 5 5 5 4 3 2 2 2 3 2 3 3 2 2 3 3 3 2 2 1 1 1 1 2 2 2 3 2 2 2 3 4 3 3 4 5 4 4 2 3 2 2 2 2 2 2 2 2 1 1 1 1 2 2 3 3 4 3 4 3 3 4 4 6 6 6 6 6 8 8 8 9 16 27 40 50 62 73 84 94 98 98 95 89 86 86 91 98 103 107 105 101 97 91 85 76 69 61 52 43 36 28 21 16 12 7 6 4 8 5 6 3 2 2 2 2 3 3 4 4 4 4 4 5 5 5 4 4 2 2 2 1 2 1 1 1 2 1 1 1 1 1 2 3 4 3 3 3 3 3 3 3 3 2 1 2 2 2 2 2 2 2 2 3 3 2 3 2 2 1 3 2 3 2 2 2 2 2 3 2 3 3 2 2 2 3 3 3 3 3 4 4 5 6 5 6 3 3 2 2 2 1 1 1 1 1 1 2 1 2 2 3 4 3 4 2 4 2 2 1 1 1 2 2 2 2 1 3 3 4 2 2 2 2 1 2 3 3 2 2 2 2 3 3 2 2 1 0 
0 1 1 2 2 4 4 4 4 4 4 4 4 3 3 2 2 1 2 2 2 2 3 3 3 3 2 2 1 1 1 1 2 2 2 1 1 2 3 4 4 4 4 5 4 3 1 2 2 2 2 2 2 2 2 2 1 1 1 2 2 2 3 3 4 4 5 6 6 6 6 8 7 7 6 6 11 17 26 40 53 67 80 90 97 98 96 91 83 76 67 57 49 47 52 61 69 79 83 88 91 95 97 96 93 90 86 82 79 74 67 57 44 29 17 8 8 5 5 3 3 3 2 3 3 3 3 3 3 4 5 4 5 4 3 2 2 2 2 1 2 2 2 2 2 1 1 1 1 1 3 3 4 3 4 3 3 3 3 4 3 3 2 3 2 3 3 3 3 3 2 2 2 1 2 2 3 2 3 2 3 4 2 3 2 2 2 2 2 2 1 2 2 2 3 4 3 4 5 4 5 6 5 6 3 3 1 2 1 2 1 1 0 0 1 1 1 2 2 3 3 3 3 3 3 2 2 2 2 2 2 3 2 2 1 3 3 3 2 2 2 2 2 2 2 2 2 2 3 2 3 2 2 1 0 0 
0 1 1 2 2 4 4 3 2 3 4 4 4 3 3 2 2 1 1 1 1 1 2 3 3 2 2 2 2 2 2 2 2 2 2 1 1 2 3 4 3 3 3 4 4 3 2 2 2 2 2 2 2 3 2 2 2 2 2 2 2 2 3 4 4 4 4 5 6 8 9 9 9 11 15 23 35 48 62 76 87 97 101 100 94 84 72 62 55 51 46 40 33 31 31 34 36 43 47 55 60 66 71 76 82 87 91 94 99 101 99 93 81 57 32 12 6 5 4 4 3 3 2 2 2 2 2 2 4 5 6 6 6 3 3 1 2 2 2 2 2 2 2 1 2 1 1 1 1 1 2 3 4 3 4 4 3 3 3 3 4 4 4 3 3 2 3 3 3 3 2 2 2 1 2 2 2 1 2 2 3 3 2 3 2 2 2 1 2 1 1 1 2 2 3 4 3 6 5 5 4 5 4 6 3 3 1 2 2 2 1 1 0 0 0 1 1 1 1 2 2 3 3 4 3 3 2 2 2 2 2 3 2 2 2 3 3 3 2 2 3 3 2 2 1 2 1 2 2 2 2 2 2 1 0 0 
0 1 1 3 2 4 4 4 3 3 4 4 4 3 3 2 1 0 1 1 1 1 2 2 3 2 1 2 2 2 2 2 2 1 1 2 2 2 2 3 3 3 3 3 4 3 2 1 1 2 2 2 2 3 2 2 2 2 2 2 2 2 4 5 6 6 7 8 8 8 9 13 22 35 47 60 73 84 96 102 100 94 85 75 63 51 43 40 41 41 38 35 30 27 23 24 29 33 35 38 39 42 44 47 54 59 66 73 83 91 96 101 104 84 54 21 6 5 5 4 4 3 3 3 2 2 1 2 2 4 5 5 4 2 2 1 2 1 2 2 2 2 2 2 2 1 2 1 1 1 2 2 3 3 3 3 3 3 2 3 3 3 4 4 3 3 3 3 3 3 2 2 1 1 2 2 2 2 1 1 2 3 2 2 2 2 2 1 1 1 1 1 2 2 2 4 3 6 4 4 3 4 4 5 3 3 2 3 2 2 1 0 0 0 0 1 1 1 2 2 2 3 2 4 3 3 2 2 2 2 2 3 2 3 3 3 3 2 1 2 3 3 2 2 1 2 1 2 2 3 2 2 2 1 0 0 
0 2 2 4 3 5 5 4 4 3 3 3 3 3 3 2 1 0 1 1 1 2 2 2 2 2 2 1 2 2 2 2 1 2 1 2 2 3 2 2 3 3 3 3 3 3 2 2 2 2 2 2 2 2 2 2 2 2 2 2 2 3 4 6 6 5 4 6 12 20 32 44 59 74 87 95 99 99 95 85 72 61 52 45 40 35 31 31 34 40 46 49 41 38 35 33 30 28 25 26 29 34 38 39 42 44 48 48 51 54 60 81 104 97 67 25 4 5 5 5 5 3 3 3 2 2 1 2 3 4 4 4 4 3 3 2 2 1 2 2 3 3 3 3 3 2 2 2 2 2 2 3 3 3 3 3 3 3 2 2 3 3 3 3 3 3 3 3 3 3 2 2 2 2 2 3 3 2 1 2 2 3 2 2 2 2 2 2 2 2 1 1 1 1 1 3 3 4 3 3 2 3 3 4 3 3 3 3 2 2 1 1 1 1 0 1 1 2 3 2 2 2 2 4 3 3 2 3 3 3 2 3 3 4 3 3 3 1 1 1 3 3 3 2 1 2 2 3 3 3 3 3 2 1 0 0 
0 2 2 4 4 5 5 4 5 4 3 2 2 2 2 2 1 1 1 2 2 2 2 2 2 1 1 2 2 2 2 2 2 2 1 2 2 3 2 3 3 3 3 3 3 3 3 2 3 3 4 4 4 3 3 2 2 2 4 5 5 6 5 6 7 11 19 31 45 57 70 82 93 100 101 96 87 77 67 57 49 45 44 40 34 29 31 38 46 48 44 37 27 22 20 26 33 39 40 44 43 42 38 34 34 36 42 44 42 38 38 63 95 100 73 29 5 5 5 5 5 3 3 3 3 2 2 2 3 3 4 3 3 4 3 3 2 1 2 2 3 3 4 4 4 3 2 2 3 3 4 4 4 3 2 2 3 3 3 2 2 3 2 2 3 3 4 4 3 2 2 2 3 3 3 3 3 3 2 2 2 2 2 2 1 2 2 2 2 2 1 1 1 2 2 2 2 3 2 2 1 3 2 3 2 3 4 4 3 3 2 1 1 1 1 1 2 3 3 3 3 3 2 3 2 4 3 3 3 3 2 3 3 3 3 3 3 2 2 2 3 2 2 2 2 2 2 3 4 4 4 3 2 1 1 0 
0 2 3 4 4 4 4 4 5 4 3 2 2 2 2 2 2 2 2 2 2 3 3 3 2 2 2 1 1 1 1 1 1 2 2 2 2 3 2 3 4 4 3 3 3 2 2 3 3 4 4 5 4 4 3 2 3 3 5 6 6 6 5 6 13 30 49 69 84 94 100 99 95 89 78 69 59 53 47 42 42 42 42 42 43 44 39 32 29 31 34 34 30 26 24 25 23 23 20 26 29 38 41 45 49 54 53 46 38 32 35 68 103 106 72 26 3 5 5 5 5 3 3 3 3 3 3 2 5 4 4 4 3 4 4 3 2 1 2 2 4 4 6 5 5 3 3 3 4 4 5 5 4 3 2 2 2 3 3 3 2 2 2 2 2 4 4 4 3 2 2 2 2 3 3 4 3 3 3 2 3 3 2 2 1 1 1 2 3 2 1 1 1 2 2 2 2 2 2 2 1 2 2 2 2 3 3 4 3 3 2 2 2 1 1 1 2 3 3 3 3 2 2 3 2 2 2 2 2 2 1 2 2 2 3 2 3 2 3 3 3 3 2 2 2 2 3 4 5 4 4 3 2 2 1 0 
0 2 2 3 4 4 4 4 4 4 2 1 2 2 2 2 2 2 1 2 2 2 2 2 1 1 2 1 1 1 1 1 1 1 1 2 2 2 2 3 3 3 3 2 2 1 2 2 3 4 4 4 4 4 4 4 5 4 6 7 7 6 5 9 29 59 86 102 103 99 90 79 70 62 54 51 45 42 38 37 42 50 54 49 40 32 29 30 30 30 30 26 19 17 17 23 22 25 23 30 27 28 25 25 29 41 52 57 56 48 54 88 115 109 67 21 3 4 5 4 4 2 2 2 3 3 4 3 6 4 4 3 4 5 4 4 2 1 2 2 3 3 4 4 4 3 3 3 3 4 5 5 4 3 2 2 2 3 3 3 2 1 2 1 3 4 4 4 3 2 2 2 2 3 3 3 3 3 2 2 2 2 2 1 1 1 2 2 2 2 2 1 2 2 3 2 2 2 2 2 2 2 2 2 1 3 3 4 3 3 3 2 1 1 1 1 2 3 3 3 3 3 3 2 2 2 2 2 2 2 2 2 2 2 2 2 4 3 4 4 3 2 2 2 2 2 3 3 4 4 4 3 2 2 1 0 
0 1 2 3 3 4 3 4 3 3 2 2 2 2 2 3 3 4 2 2 2 2 3 2 2 2 2 1 1 1 1 1 1 2 2 2 2 2 2 3 3 3 2 2 1 1 1 2 2 3 3 3 3 3 3 3 4 4 5 5 5 5 4 14 49 83 104 100 83 72 61 53 49 48 46 43 37 36 35 38 40 40 38 34 32 31 28 26 20 17 12 13 14 19 18 24 18 19 12 16 18 21 22 27 32 39 42 39 37 36 56 98 119 106 57 14 3 5 5 5 3 2 2 2 2 2 3 4 5 5 5 3 3 5 4 3 2 2 2 2 3 3 4 3 4 3 3 3 3 4 4 4 3 3 2 3 2 3 3 2 1 0 1 1 2 3 3 4 4 3 3 3 3 3 2 3 2 2 2 2 2 1 1 1 1 1 1 2 2 2 2 1 3 2 3 2 2 2 2 2 4 2 3 1 2 3 3 3 3 3 3 1 1 1 1 1 2 2 2 2 2 2 2 2 2 1 2 2 2 2 1 2 2 2 2 2 3 3 3 4 3 3 2 2 2 2 2 2 3 3 2 2 2 2 1 0 
0 1 1 1 2 3 3 4 3 3 2 1 1 1 2 3 3 3 3 2 2 2 2 2 2 2 2 2 1 1 1 2 2 2 2 2 2 2 2 2 2 2 1 1 1 1 1 2 2 2 1 1 1 1 2 3 4 3 4 4 4 4 4 20 66 100 110 87 59 51 46 44 43 43 45 48 47 41 31 26 26 31 36 34 27 22 20 21 16 16 18 19 16 15 13 21 14 19 12 11 13 13 17 19 23 31 36 39 40 38 60 101 116 96 44 8 3 5 5 5 2 2 1 2 2 2 3 4 5 4 4 3 3 4 4 4 2 2 2 3 3 3 3 3 3 3 3 2 2 3 3 4 2 3 3 3 3 3 2 2 1 0 0 1 2 2 2 3 4 5 5 4 3 3 2 2 2 2 2 2 2 1 1 1 1 1 2 2 2 2 3 2 3 2 4 3 2 2 3 3 5 3 4 2 2 2 2 3 3 3 2 1 1 1 1 2 1 2 2 3 3 3 3 2 3 2 2 2 2 2 2 3 3 3 4 4 4 4 3 4 2 3 2 2 2 1 1 1 2 2 2 2 2 1 1 0 
0 1 2 2 2 2 3 3 3 3 3 2 2 2 2 3 3 3 3 2 2 2 3 2 3 2 2 2 1 1 1 2 3 2 2 2 2 2 2 2 2 2 2 2 2 2 2 2 2 2 2 2 2 2 2 2 3 3 4 5 5 4 3 22 73 107 111 80 47 44 41 40 42 47 50 43 33 28 27 29 29 28 26 22 16 13 12 12 15 16 18 17 18 16 14 18 12 13 10 11 15 12 15 15 17 18 21 24 25 24 53 96 107 84 33 5 5 5 4 4 1 1 1 1 2 3 4 4 5 4 3 3 3 4 4 4 2 2 2 3 3 4 4 4 4 3 3 2 2 3 3 4 3 4 3 3 3 3 3 2 1 0 0 1 1 1 2 3 4 4 4 4 3 2 2 2 2 2 2 2 2 3 2 2 2 2 2 1 2 2 3 2 3 2 3 3 3 2 3 3 5 4 4 3 2 3 3 3 4 3 3 1 1 2 2 2 2 2 2 3 3 3 3 3 3 2 2 2 2 2 2 3 3 4 3 3 3 3 2 4 2 3 2 2 2 2 1 1 1 1 1 1 2 2 2 0 
0 1 2 2 2 2 3 4 3 3 2 2 2 2 2 3 3 3 3 2 2 3 3 2 3 2 2 2 1 1 2 2 3 2 3 2 2 2 2 3 2 2 2 3 3 3 3 3 1 1 1 2 2 2 2 3 4 4 5 6 5 4 3 21 77 117 122 86 49 47 48 45 41 34 32 32 32 30 27 24 21 17 16 12 11 10 12 14 16 17 27 21 21 16 16 17 14 15 16 14 15 13 14 16 18 17 14 12 14 17 50 90 101 76 27 5 6 5 5 3 2 2 2 2 2 2 4 4 5 4 3 3 3 4 4 4 3 2 2 3 4 4 5 5 4 3 2 2 2 3 3 4 3 3 3 2 3 2 3 2 2 1 1 1 1 2 2 3 4 4 4 4 3 2 2 2 2 2 2 2 3 3 4 3 3 3 2 2 1 2 2 2 2 2 3 2 2 2 3 3 5 4 4 4 2 3 3 3 4 3 2 1 1 2 3 3 2 2 3 4 4 3 4 3 3 2 1 2 2 2 3 3 3 3 3 3 3 3 2 3 2 3 2 2 2 2 1 1 1 1 1 1 2 2 2 0 
0 2 2 2 2 2 3 4 3 3 2 2 2 3 3 3 3 2 2 2 3 4 4 3 3 2 2 1 1 1 2 2 2 2 3 2 2 2 2 3 3 4 4 4 4 4 3 3 2 3 3 3 2 2 2 3 4 5 6 6 6 4 3 18 73 122 135 103 59 41 36 31 29 28 29 26 22 20 20 19 18 11 10 7 9 9 9 10 14 14 22 16 20 17 19 21 15 11 10 13 14 13 11 15 14 14 11 12 12 10 44 87 99 74 26 5 7 5 5 3 2 3 2 2 2 3 4 5 5 4 3 3 3 5 4 5 2 2 1 2 3 4 4 5 4 3 3 3 3 3 3 4 4 4 3 2 3 3 4 3 2 1 1 2 2 2 3 3 3 3 2 2 2 2 2 3 3 3 2 2 3 3 4 4 3 3 2 2 2 2 2 2 2 1 2 2 2 1 2 3 4 4 3 4 2 3 4 4 4 3 3 2 1 2 3 3 2 3 3 4 4 3 4 3 4 4 3 2 2 2 2 3 2 2 2 2 2 2 1 2 2 2 2 2 2 2 1 2 1 1 1 1 2 3 2 0 
0 1 2 2 2 2 3 3 3 3 2 2 1 1 1 3 3 2 3 2 3 4 4 3 3 3 2 2 1 2 2 2 2 2 3 3 3 3 3 4 4 4 5 5 5 5 3 3 2 2 2 2 2 2 3 4 4 5 6 6 5 4 4 15 63 118 133 103 49 28 29 30 26 22 19 16 15 13 12 9 9 6 8 8 9 11 12 10 11 14 20 17 19 19 21 28 17 16 10 11 13 14 15 19 15 13 11 9 12 13 51 90 101 74 26 5 7 5 5 4 2 3 2 3 3 2 2 3 4 4 3 3 3 4 4 5 3 2 1 2 2 2 3 3 3 3 3 3 3 3 3 2 2 2 2 2 3 2 3 2 3 2 3 3 3 3 3 3 3 3 2 2 1 1 2 2 2 2 2 2 3 3 3 3 3 2 2 2 2 2 2 2 2 1 1 1 1 1 2 3 3 4 3 3 2 2 3 3 3 3 2 1 1 2 3 3 3 2 2 3 3 2 3 3 4 3 2 2 2 2 2 2 2 2 2 2 2 1 1 2 2 2 2 2 2 2 1 2 2 2 2 1 2 2 1 0 
0 2 3 2 2 2 2 2 2 2 1 1 1 1 1 2 2 2 2 2 3 4 4 3 3 2 2 1 1 2 2 2 3 3 4 4 4 4 3 5 4 5 4 5 5 4 3 3 3 3 3 3 3 2 3 4 5 6 6 5 4 4 4 9 49 107 127 107 54 28 26 24 20 16 13 10 10 8 10 10 12 9 9 9 10 11 11 10 12 13 13 15 14 20 21 28 18 17 11 9 13 13 18 18 18 12 11 11 17 18 54 92 102 73 24 5 6 5 5 3 2 2 2 2 2 2 2 3 4 4 4 3 4 3 3 4 3 3 2 2 2 2 3 3 4 3 3 3 3 3 2 2 3 3 3 2 3 2 3 2 3 3 3 3 3 3 2 3 3 3 2 1 1 1 2 2 3 2 2 2 2 3 3 3 2 2 2 1 2 2 2 2 2 0 1 1 1 1 2 3 3 3 3 3 3 2 3 2 3 2 2 1 1 2 3 3 3 3 3 3 3 2 2 2 3 3 3 2 1 2 2 2 2 2 2 3 2 1 1 1 1 2 2 2 2 2 1 1 2 2 2 2 2 2 1 0 
0 1 2 2 2 1 1 1 1 2 2 2 1 1 1 2 2 2 2 2 2 3 3 3 3 2 3 2 2 2 3 3 3 3 4 4 4 6 4 6 4 5 5 5 6 5 4 2 3 2 3 3 4 3 4 4 6 6 5 4 3 3 4 5 38 94 117 102 49 20 20 18 15 10 11 12 13 10 9 8 10 10 12 11 12 12 12 9 8 10 11 15 12 18 17 20 17 14 13 10 15 14 22 18 20 11 11 12 14 16 54 92 103 71 23 3 3 3 4 3 3 2 3 3 3 2 1 3 3 4 4 3 4 2 4 3 3 2 3 3 3 2 2 1 2 2 2 2 2 2 2 2 2 2 3 3 3 2 4 3 4 3 3 3 3 2 2 2 3 3 2 2 2 2 2 2 2 2 1 2 2 2 2 2 2 2 2 1 1 1 2 2 2 1 1 1 1 2 2 3 2 2 3 3 2 1 2 2 2 2 1 1 1 2 3 3 2 2 2 2 2 2 2 2 3 2 2 1 1 2 2 2 2 2 2 2 2 2 2 1 1 2 1 2 2 2 2 2 3 3 3 2 2 2 1 0 
0 2 3 3 2 2 2 1 1 1 2 2 2 2 2 2 2 2 2 1 2 3 3 3 2 2 2 2 2 2 2 2 2 3 4 5 4 6 3 6 4 5 4 4 4 3 3 2 3 2 3 3 4 4 4 4 6 5 6 5 3 3 4 3 33 87 110 96 45 14 14 15 15 12 12 9 8 8 7 10 11 11 11 9 10 9 10 10 10 12 10 12 11 17 18 17 16 13 17 15 17 13 18 15 18 13 11 12 12 15 54 91 102 70 21 2 2 3 3 3 3 2 2 2 2 2 2 2 3 3 3 2 3 2 2 2 3 2 3 3 3 2 1 2 3 3 2 2 2 2 2 3 3 4 3 3 3 2 3 3 3 3 3 3 2 2 1 2 2 2 2 2 2 3 2 2 2 2 2 2 2 2 2 2 2 2 2 1 1 1 2 2 2 1 1 1 2 2 3 3 2 2 3 2 2 1 1 1 2 1 1 1 1 2 2 2 2 2 1 2 2 2 2 2 3 2 2 2 2 2 2 3 2 2 3 3 3 2 2 2 2 2 1 3 3 3 2 2 3 3 4 3 3 3 1 0 
0 2 3 3 3 3 3 2 2 1 2 2 3 3 2 3 3 3 1 1 2 3 3 3 2 2 2 2 1 2 2 2 2 2 3 4 4 5 3 5 3 4 3 3 3 3 2 2 3 2 3 3 4 4 3 3 5 5 6 5 4 2 2 3 32 86 110 93 45 14 14 14 10 7 7 8 9 11 11 10 10 10 11 10 11 9 9 7 6 9 9 13 14 18 18 18 17 13 14 17 17 17 16 15 15 13 9 12 8 11 51 89 101 69 20 2 1 2 3 4 3 3 3 3 2 1 1 2 3 2 3 2 2 2 3 3 3 2 2 2 2 2 2 2 4 3 3 2 2 2 3 3 3 4 3 3 3 3 4 4 4 3 2 2 1 1 2 2 1 2 2 3 3 3 2 2 2 1 2 2 2 2 1 2 3 3 3 2 1 1 2 2 2 2 2 1 2 2 3 3 3 3 3 2 2 1 1 1 1 2 2 1 2 2 2 1 1 1 1 1 2 2 2 2 3 2 2 2 3 4 3 3 3 3 3 2 3 3 3 3 2 3 2 4 3 4 3 3 3 3 4 3 3 3 1 0 
0 3 5 5 4 4 4 4 3 2 2 2 3 2 2 3 3 2 2 1 2 3 3 3 3 3 2 2 1 2 1 1 1 1 3 3 3 4 2 3 3 3 2 2 2 2 2 2 3 2 3 3 3 3 3 3 4 4 6 6 5 4 3 4 34 88 111 92 43 9 9 7 7 6 5 5 7 10 10 9 10 9 8 9 10 11 12 10 11 12 10 16 17 22 20 19 15 15 14 16 17 16 16 16 14 16 10 13 10 14 57 93 102 67 19 2 2 2 3 3 2 2 2 2 2 2 2 2 3 3 3 2 2 1 2 3 3 2 2 2 2 2 3 3 5 4 4 3 2 2 2 2 3 3 3 3 2 2 2 3 3 3 2 1 2 1 2 2 2 2 2 2 2 3 3 3 2 2 1 1 1 1 1 2 2 2 2 2 1 0 1 1 2 2 2 2 2 2 3 3 4 3 4 2 1 1 1 2 2 1 1 1 1 1 1 1 1 1 1 1 2 2 2 3 3 3 3 2 2 3 3 4 4 4 4 3 3 4 3 5 3 3 2 4 4 5 4 3 3 2 2 3 3 3 1 0 
0 3 5 5 4 4 4 4 4 3 2 2 3 3 3 2 3 2 2 1 1 2 2 2 2 2 3 2 2 2 2 2 2 2 3 2 3 2 2 3 2 1 1 1 1 2 2 2 2 2 2 2 2 2 3 3 4 4 5 6 5 4 3 5 36 89 112 92 43 9 9 8 6 6 5 6 6 8 8 7 6 9 10 14 13 12 12 10 10 11 12 18 17 22 17 22 16 17 11 11 18 16 20 16 12 13 10 15 15 19 63 97 103 66 17 2 3 3 4 4 3 3 3 2 2 2 2 2 3 3 3 2 2 1 2 3 3 2 2 2 2 2 3 3 5 4 4 3 2 2 2 2 3 3 3 2 2 3 3 4 4 3 3 1 2 2 2 3 2 2 3 3 2 2 2 3 3 2 1 1 1 1 1 1 2 2 2 1 1 0 0 0 2 2 2 2 1 2 3 3 5 4 4 3 1 2 1 2 2 2 1 1 1 0 1 1 1 1 1 1 2 2 2 2 3 3 3 2 3 4 4 5 4 4 4 3 3 4 4 5 3 3 2 4 3 5 4 4 3 2 3 3 3 3 1 0 
0 2 4 3 3 3 3 4 4 3 2 3 3 3 3 1 2 2 2 1 1 2 3 3 3 3 3 3 3 3 3 3 3 2 3 2 3 2 2 2 1 1 0 1 1 2 2 2 2 2 2 1 1 1 3 3 4 4 4 4 4 4 4 5 38 90 112 90 39 8 7 7 6 6 5 7 5 6 4 5 5 7 8 12 12 13 12 11 14 11 11 15 15 19 14 17 12 14 10 11 16 14 23 18 16 16 10 15 16 22 67 98 104 65 16 2 3 3 4 3 2 2 2 2 2 3 3 3 4 3 4 2 2 1 3 3 3 2 2 2 2 2 3 2 5 4 5 4 2 2 2 2 3 2 2 2 3 3 2 3 4 4 3 2 2 3 2 3 3 3 3 3 2 2 3 3 3 3 2 2 1 2 1 1 1 1 1 1 1 0 0 1 2 2 2 1 1 2 4 4 5 5 4 3 2 2 2 3 3 2 1 1 0 0 0 1 1 1 1 1 1 2 2 3 4 4 3 2 1 2 3 4 4 3 3 2 3 3 3 4 3 3 2 3 3 4 4 4 3 1 2 2 2 2 0 0 
0 1 3 2 2 2 3 4 4 4 3 3 3 3 3 2 2 2 2 2 3 4 4 4 4 4 4 3 3 3 3 3 3 2 3 2 3 2 3 2 2 1 1 1 1 2 2 2 2 1 1 1 2 2 3 3 5 4 4 3 3 3 3 5 39 91 111 89 38 8 8 7 7 7 5 8 5 6 3 3 3 6 10 13 14 11 12 10 12 12 12 17 14 16 12 15 13 15 13 16 23 22 26 21 17 16 10 16 19 27 77 107 108 68 15 2 3 3 4 4 3 3 2 3 2 3 3 3 3 3 3 2 2 1 2 3 3 2 2 2 2 2 3 3 5 4 5 5 4 4 5 4 6 4 4 3 3 3 3 4 4 4 3 3 3 3 2 2 3 3 4 4 3 2 2 3 3 3 2 2 2 2 1 1 1 1 2 2 2 2 1 1 1 2 2 1 1 2 4 5 5 5 3 3 2 2 3 3 3 2 2 2 1 1 1 1 1 1 1 1 1 2 2 3 4 4 3 2 2 3 4 3 3 2 2 2 2 2 3 4 3 2 2 2 2 3 3 3 3 3 2 2 2 2 1 0 
0 1 1 1 1 1 2 4 4 4 4 4 4 4 3 2 2 2 2 3 4 4 4 4 4 4 4 3 3 2 3 3 3 2 3 2 3 2 3 2 2 1 1 1 1 2 2 3 2 2 1 1 2 2 4 3 4 4 4 3 3 2 3 5 41 92 110 89 37 9 9 6 6 6 5 8 6 9 8 9 8 8 9 9 12 9 12 12 12 12 10 13 14 20 21 24 19 19 18 23 30 33 35 34 30 28 22 26 30 36 82 118 116 76 16 3 4 3 4 3 2 3 2 3 3 3 3 3 3 3 3 2 3 4 5 4 4 2 2 2 2 3 3 3 5 3 5 5 4 4 5 5 7 4 3 3 4 4 4 4 3 4 4 4 3 3 3 3 4 4 4 4 3 3 2 2 2 2 2 1 1 1 1 1 1 1 2 2 2 2 2 2 2 1 1 1 1 2 3 4 4 4 3 3 3 3 3 3 2 2 2 2 2 2 2 1 1 1 1 1 1 2 2 3 4 3 3 2 2 2 2 3 2 2 1 1 2 2 2 3 4 3 2 1 2 3 3 3 3 3 3 2 3 4 2 0 
0 0 1 1 1 1 3 4 4 5 5 4 4 3 3 3 2 3 3 4 5 6 6 4 4 4 4 3 2 2 2 2 2 2 2 2 2 2 2 3 3 2 2 1 1 1 2 3 3 3 2 2 3 3 4 3 3 4 4 4 4 4 4 5 42 91 109 86 36 9 8 6 7 6 5 7 9 12 12 9 7 7 8 7 10 9 13 14 14 13 12 19 17 22 19 27 24 27 24 25 25 26 26 28 29 34 34 36 38 40 89 130 127 86 19 4 4 3 4 3 3 3 3 4 4 3 3 3 4 4 4 3 3 3 4 3 3 2 3 3 3 4 3 4 4 3 4 4 5 5 6 5 5 4 4 4 4 4 4 4 3 3 3 3 2 2 2 2 3 3 5 5 4 3 2 2 2 2 2 2 2 2 2 2 2 2 3 5 5 5 3 2 1 1 2 2 2 2 3 3 3 3 2 2 2 3 3 2 1 1 2 2 2 2 3 2 2 1 1 1 1 2 2 3 3 3 4 3 3 3 2 2 2 2 1 1 1 2 3 3 3 3 3 2 2 2 2 3 3 3 3 3 4 4 2 0 
0 1 1 1 1 1 2 4 4 5 5 4 4 2 2 2 2 3 3 4 4 4 4 3 3 3 4 3 3 3 2 2 2 2 3 2 2 2 2 2 3 3 2 2 2 2 3 3 3 3 3 2 4 3 3 2 2 3 4 5 5 3 3 7 46 92 108 84 34 9 6 6 7 6 6 7 10 14 15 14 12 9 9 8 8 8 12 13 14 13 13 19 18 27 24 37 30 34 28 33 35 34 33 34 34 37 37 36 36 34 85 129 134 93 24 5 4 5 3 3 2 3 3 4 4 4 2 3 4 4 4 4 4 5 5 5 4 3 3 4 3 5 3 5 3 3 3 3 3 3 3 5 6 5 4 4 4 5 4 5 3 4 5 4 3 2 3 3 4 4 4 4 3 3 2 2 2 3 3 3 3 3 3 2 2 2 3 4 5 5 4 3 2 2 2 2 2 3 2 3 3 3 3 2 2 3 3 2 2 2 1 1 1 2 3 3 2 2 2 2 1 2 2 3 3 3 4 3 3 2 2 2 2 2 2 2 2 2 3 3 4 4 4 4 3 4 3 3 3 3 3 4 4 4 3 0 
0 1 2 2 2 2 2 3 3 4 4 4 4 2 2 2 2 3 4 4 4 4 4 3 2 2 4 4 4 3 2 3 2 2 3 3 3 2 3 3 3 2 2 2 2 2 2 2 2 2 2 2 3 2 3 2 1 2 4 5 5 4 4 8 47 92 107 81 31 9 8 8 8 7 6 11 14 19 16 13 9 8 7 6 6 7 12 11 14 10 15 20 18 24 19 32 29 42 50 59 59 48 34 24 22 28 32 37 37 34 78 120 131 101 44 22 16 13 8 5 3 3 4 4 4 4 4 6 6 7 7 7 5 5 4 4 3 3 4 5 4 5 4 4 3 3 3 3 3 4 5 5 4 4 5 4 5 5 4 5 4 4 4 3 3 3 2 3 3 3 4 4 3 3 2 2 2 2 2 3 3 3 2 2 2 2 4 5 6 6 4 3 2 2 2 2 3 3 3 3 3 4 3 3 2 2 2 3 3 3 1 0 1 2 3 3 3 3 2 2 1 1 2 3 3 3 4 4 5 4 4 3 2 2 2 2 2 3 3 3 4 4 5 6 4 5 4 4 3 3 3 4 4 4 1 0 
0 1 2 2 2 2 1 2 2 4 4 4 4 2 2 1 2 2 3 3 3 3 2 2 2 3 3 4 4 4 3 3 2 3 3 3 2 2 2 3 3 3 3 2 2 2 2 2 1 1 1 1 2 2 3 2 1 1 3 4 5 4 4 8 49 93 106 78 30 9 8 9 8 10 8 11 13 14 13 14 9 9 8 7 6 6 9 10 16 12 13 16 15 21 18 26 28 45 65 89 99 95 79 57 35 23 19 21 19 22 57 99 120 113 83 71 64 52 38 26 17 10 7 4 4 6 5 6 5 6 5 7 6 7 5 6 4 4 3 4 4 4 4 3 3 3 3 2 2 2 4 6 7 6 5 5 5 5 4 4 4 5 6 4 4 3 3 4 4 4 4 3 3 2 2 2 2 3 2 2 2 2 2 3 3 2 3 4 5 5 4 4 3 2 3 3 3 4 4 4 5 5 4 4 3 4 3 4 3 3 2 1 1 2 3 3 2 2 2 1 1 1 2 3 3 4 4 4 4 3 3 3 3 2 3 3 3 3 3 3 4 4 5 7 5 7 5 6 3 3 3 3 3 3 2 0 
0 1 3 2 2 2 1 2 3 3 4 4 4 2 2 1 2 2 3 3 2 3 2 2 2 2 4 4 4 4 3 3 2 3 2 3 2 3 3 3 3 3 2 2 2 2 1 1 1 0 1 1 1 3 2 2 1 2 3 4 4 3 3 7 49 95 107 79 29 11 8 13 8 10 10 11 15 14 13 13 9 9 6 6 6 7 10 11 11 10 10 12 12 18 17 19 27 51 82 109 121 120 117 98 74 53 34 28 24 28 47 76 100 112 110 113 112 105 94 81 69 57 44 32 23 17 13 11 8 7 6 7 6 7 5 6 4 4 3 3 3 3 3 2 3 2 2 2 3 3 4 4 4 4 5 5 5 4 5 6 6 6 5 5 5 3 3 3 3 4 3 3 3 3 3 3 1 1 1 0 0 1 1 2 3 2 4 3 4 5 4 4 3 2 3 3 4 4 4 5 4 6 5 5 4 4 4 5 3 3 2 1 2 3 3 3 3 2 2 1 1 1 2 3 3 4 4 3 4 3 4 3 3 2 3 3 3 3 3 3 3 3 5 5 4 7 5 6 3 3 2 3 3 3 2 0 
0 1 3 3 2 3 2 3 3 4 4 3 3 2 2 1 2 2 2 2 2 3 2 2 2 2 3 5 5 4 3 3 3 3 2 2 2 2 2 3 3 3 2 2 2 2 2 2 1 0 0 1 1 3 2 3 2 3 3 4 4 3 3 8 51 98 109 81 29 14 9 11 8 10 11 10 10 12 11 11 8 7 4 7 4 5 6 10 12 10 8 11 12 17 16 14 22 49 86 108 120 117 129 126 113 97 75 58 34 23 28 46 69 90 105 118 125 127 124 119 115 109 99 87 76 65 53 40 29 22 17 14 11 9 5 5 5 5 4 2 2 2 2 2 2 1 2 2 2 3 3 5 5 6 11 20 31 37 35 31 23 16 10 6 6 3 3 3 3 4 3 3 3 4 3 5 2 2 1 1 1 1 2 2 4 2 4 3 3 4 4 4 3 2 3 3 4 4 4 5 4 6 4 6 5 5 5 5 4 3 3 2 2 3 4 4 3 2 1 1 1 1 2 4 4 4 4 2 3 2 3 2 3 2 2 2 2 3 2 2 2 2 4 5 5 7 5 6 4 3 3 2 2 3 1 0 
0 1 3 3 3 3 2 4 4 4 5 3 3 2 2 2 2 1 2 2 2 3 2 2 2 2 3 4 5 5 4 4 3 2 2 2 2 2 2 3 3 2 3 3 3 2 2 2 2 1 1 1 1 3 2 4 3 4 4 4 3 2 2 8 54 102 112 82 28 11 8 9 9 10 11 9 10 10 10 11 7 8 7 9 8 7 9 9 9 8 7 9 12 17 18 17 24 56 97 107 106 92 109 124 129 127 115 99 76 54 39 33 41 54 69 79 90 100 107 113 117 122 124 123 119 112 103 92 80 70 60 53 46 40 35 30 23 16 10 5 4 2 2 2 3 3 4 3 4 5 6 6 6 13 35 65 91 103 100 89 69 44 24 10 6 4 2 2 2 2 2 2 3 6 4 6 3 3 2 1 1 2 3 3 5 3 4 3 3 4 4 4 3 2 2 2 3 3 3 4 4 6 4 6 5 6 6 4 4 3 3 2 3 4 4 4 2 3 2 1 0 1 1 3 3 4 3 2 3 2 2 2 3 3 2 2 2 2 3 3 2 2 3 3 3 5 4 4 3 2 2 3 2 2 1 0 
0 2 4 3 3 3 2 4 3 4 3 3 3 3 3 3 2 1 2 2 3 3 3 3 2 2 4 4 5 4 4 4 3 2 2 2 2 2 2 2 2 2 2 2 2 3 3 3 2 2 1 1 1 2 2 3 3 5 5 5 3 2 3 11 58 104 113 83 32 15 11 9 11 12 13 10 12 11 11 9 6 7 8 10 11 11 9 8 8 7 7 9 13 16 18 18 24 64 111 119 101 66 72 95 115 132 139 136 123 104 88 73 60 46 40 40 46 53 58 70 79 92 102 111 120 123 121 116 112 109 107 105 102 99 95 93 90 86 79 68 59 49 40 31 23 16 11 8 6 6 6 6 7 26 67 111 142 148 142 132 113 78 42 12 5 4 2 2 3 4 3 3 3 6 5 6 3 4 2 2 2 2 3 3 4 3 4 3 3 4 4 4 3 2 2 1 2 2 3 4 3 5 4 6 4 5 5 4 3 3 3 2 3 4 4 4 2 2 1 1 1 2 2 2 3 3 3 2 2 1 2 2 3 3 2 2 3 3 4 4 4 4 3 3 3 3 3 3 3 2 3 2 2 2 1 0 
0 2 3 2 3 2 3 4 4 4 5 4 4 3 3 3 2 2 1 2 2 3 3 3 3 2 4 3 4 4 3 3 2 1 2 2 2 3 3 3 3 3 3 3 3 3 2 2 2 2 2 1 1 2 3 3 4 6 7 6 4 2 3 11 57 102 108 77 26 10 8 10 11 13 11 8 8 8 9 9 8 8 10 11 13 14 14 14 10 10 10 9 11 15 18 18 29 73 121 126 98 49 40 56 76 98 122 137 142 138 129 116 101 81 59 38 25 22 18 23 27 40 51 63 77 89 94 96 99 106 113 119 124 127 130 133 132 127 122 115 108 101 96 91 85 77 66 55 45 37 30 22 17 42 98 149 170 157 140 150 145 110 65 17 6 6 5 5 4 3 3 3 4 6 6 6 4 3 2 2 3 3 3 3 4 3 2 2 3 3 4 4 3 2 2 1 1 2 2 3 3 4 5 6 3 4 3 3 3 2 2 2 3 3 3 3 2 2 2 2 1 2 2 2 3 3 2 2 2 3 3 3 3 3 3 3 3 3 5 5 6 4 3 3 2 2 2 1 1 1 2 3 2 2 0 0 
0 1 2 2 2 2 2 3 2 2 3 3 4 4 3 4 2 2 1 2 3 3 4 3 3 2 4 4 4 3 2 3 2 2 2 3 3 3 3 2 3 2 2 2 2 2 2 2 2 1 1 1 2 1 2 2 4 6 7 6 4 2 2 12 57 101 107 78 29 14 10 10 11 15 12 10 8 7 7 9 10 10 12 13 19 19 19 16 15 13 12 12 15 15 21 20 34 73 127 143 115 64 37 37 46 59 79 101 121 132 136 138 135 123 104 80 54 32 18 14 16 16 17 20 28 38 45 52 57 68 81 92 100 108 114 120 124 127 124 120 117 115 114 115 115 113 109 105 100 94 86 75 63 82 132 165 167 138 111 145 159 130 81 18 6 5 5 4 4 5 4 4 6 7 6 5 3 3 3 2 2 3 2 2 2 2 2 2 2 3 3 3 3 3 2 1 1 2 3 2 2 3 4 4 3 3 3 3 2 2 2 2 2 3 3 3 2 2 1 1 2 2 2 3 3 3 3 3 3 3 2 3 3 3 3 3 3 4 5 6 7 5 3 3 2 2 1 1 1 1 2 2 2 1 0 0 
0 1 2 2 2 2 2 3 4 4 5 4 4 3 3 3 2 2 2 2 3 3 3 3 3 2 4 3 3 2 2 2 2 2 2 2 2 3 3 3 3 3 3 2 2 2 2 1 2 1 1 1 1 2 3 4 5 6 7 6 5 3 2 11 58 101 105 72 21 8 7 8 9 11 11 13 13 11 9 12 13 15 14 14 20 17 20 15 17 16 19 16 20 17 19 16 31 65 122 164 165 128 80 46 31 32 42 57 73 88 101 115 128 135 133 120 100 71 44 21 19 17 15 12 11 15 18 21 23 28 31 41 50 63 71 78 78 78 77 78 81 86 93 98 105 109 112 115 118 122 125 122 115 126 166 174 149 100 75 131 164 144 92 24 12 8 8 6 4 2 3 3 5 6 5 6 3 3 2 3 4 4 4 3 3 2 2 1 1 2 3 2 2 2 2 1 1 2 2 3 2 3 4 4 4 3 3 2 2 2 2 2 2 3 3 3 3 2 2 2 2 2 2 3 4 4 4 4 4 4 3 3 3 2 3 3 3 4 4 5 6 4 3 2 2 2 2 2 1 1 1 2 1 1 0 0 
0 1 2 2 2 1 2 2 2 3 3 4 3 3 3 3 2 2 2 3 3 3 3 2 2 2 3 3 2 1 1 1 2 2 3 2 2 3 3 2 3 2 2 1 1 1 1 1 2 1 1 1 1 1 2 3 4 5 6 5 4 3 2 11 61 103 107 74 26 12 9 8 9 12 13 11 11 10 10 15 14 16 17 14 21 17 20 16 20 20 22 18 20 18 24 19 26 50 97 153 192 203 177 126 73 37 23 27 33 42 50 65 88 111 128 134 131 119 98 73 51 31 20 11 8 14 16 17 17 18 17 19 17 23 26 30 27 19 15 17 21 27 35 43 56 65 74 85 96 108 119 128 130 132 156 155 144 115 102 142 165 157 118 67 52 40 30 19 12 8 7 7 7 6 5 5 3 3 2 4 4 4 4 3 4 3 2 2 1 2 2 2 2 1 2 1 2 2 3 2 2 3 3 4 4 4 4 3 3 2 2 3 3 3 4 3 2 2 2 2 2 2 3 3 3 3 4 4 4 4 3 3 2 2 3 3 3 3 3 4 5 4 3 2 2 2 2 2 1 1 1 1 1 1 0 0 
0 1 2 2 2 2 2 3 3 5 4 4 3 3 2 2 2 2 2 3 3 3 3 3 3 2 3 2 2 2 1 1 2 2 2 2 2 3 3 2 3 2 2 1 1 1 1 1 1 1 1 1 1 1 3 4 4 4 4 4 4 3 2 12 63 105 109 70 21 9 8 10 7 8 12 13 15 14 13 17 16 16 16 14 18 14 13 14 15 16 17 16 19 16 19 15 18 34 78 139 193 223 235 216 172 116 65 34 20 23 27 37 53 73 96 119 135 140 134 119 101 77 50 25 11 11 18 27 30 24 20 20 18 23 27 28 24 17 13 14 14 14 15 15 16 20 27 38 49 60 71 84 94 98 116 119 123 108 104 124 142 151 136 115 108 101 93 81 67 53 39 27 17 11 7 6 3 3 3 4 5 5 5 5 4 4 3 3 2 3 2 2 2 1 1 1 1 2 3 3 3 3 3 5 5 6 5 3 3 2 2 3 4 4 3 2 2 1 1 1 2 2 3 3 3 3 4 4 4 4 3 3 2 2 3 3 3 3 3 3 3 3 3 2 2 2 2 3 1 1 0 1 1 1 1 0 
0 0 1 2 2 2 2 3 3 4 3 4 2 4 3 3 3 3 3 3 3 3 2 2 3 3 2 2 2 2 2 2 2 2 2 2 1 2 2 2 2 2 3 2 2 2 1 1 1 1 1 1 1 1 2 3 4 3 3 3 4 3 2 12 65 105 109 70 23 11 10 11 9 10 10 8 9 11 12 13 13 13 11 14 14 17 15 12 12 14 14 15 19 19 20 14 15 25 56 94 147 189 224 248 245 213 164 109 59 31 21 22 29 40 56 77 102 124 139 144 141 129 105 74 44 26 20 22 24 25 25 21 19 18 20 26 23 18 15 19 23 25 24 21 19 17 16 16 16 19 22 32 42 46 58 71 96 108 108 106 106 114 127 136 137 137 134 129 122 112 101 89 75 59 46 34 24 16 10 7 5 5 4 4 4 4 4 3 3 3 3 3 2 2 1 1 1 2 2 2 2 3 3 5 5 7 6 3 3 1 2 3 4 4 4 3 2 2 2 2 2 2 3 4 3 4 3 3 4 4 5 4 3 2 3 3 3 3 2 3 3 2 3 2 2 2 2 2 2 1 1 0 1 1 1 0 
0 0 1 1 1 2 3 4 4 5 3 4 2 3 2 2 3 3 4 4 4 3 3 4 5 4 3 2 3 4 4 4 3 3 2 2 1 1 1 2 3 3 3 3 2 2 1 1 1 1 1 1 1 1 2 2 3 3 4 4 3 2 2 13 68 107 110 68 19 9 10 11 9 8 9 8 10 8 10 11 10 12 11 13 13 13 13 14 12 10 12 13 17 18 20 16 13 20 56 87 108 125 153 198 240 255 243 208 153 94 47 25 19 23 31 43 60 80 102 121 136 145 141 122 93 63 38 29 26 23 24 21 21 18 16 17 14 13 16 23 24 23 21 21 18 17 18 21 21 19 14 11 12 13 21 46 70 90 84 74 77 82 92 100 107 116 124 128 131 129 126 122 116 108 98 87 75 63 52 43 34 28 21 16 11 7 5 4 3 4 3 4 4 3 2 1 1 2 2 2 2 3 3 6 5 6 4 3 2 2 2 4 5 5 3 3 2 2 1 1 2 3 3 3 3 3 4 3 4 4 4 4 2 2 2 3 3 3 2 2 2 2 3 3 2 2 2 3 3 2 1 1 1 2 1 0 
0 0 1 1 2 2 4 4 5 5 4 3 2 2 2 2 3 3 4 4 3 2 2 3 4 3 3 3 4 6 6 5 4 2 2 1 1 1 1 2 3 3 3 3 3 2 2 1 1 1 1 1 2 2 2 3 3 4 5 5 3 1 1 14 70 108 109 67 18 10 8 10 9 9 9 8 9 8 9 10 8 8 8 9 10 13 13 13 13 13 15 16 21 21 22 17 15 17 43 82 102 96 90 107 159 211 247 255 231 187 130 80 44 24 19 24 34 46 59 77 99 122 139 144 134 113 85 59 37 24 20 16 18 19 18 16 14 14 17 24 30 31 23 17 12 11 13 13 14 13 13 13 14 12 15 37 52 73 66 56 52 56 62 63 64 68 76 84 94 100 107 112 116 117 118 116 113 108 101 97 92 88 81 70 56 41 29 19 12 9 6 5 4 4 4 3 2 2 2 2 2 2 2 4 5 6 6 4 2 1 1 2 4 4 4 4 3 3 2 3 3 3 3 3 4 4 4 2 4 4 4 4 3 2 3 3 3 3 2 3 3 3 3 2 2 2 3 3 3 2 1 1 1 2 1 0 
0 0 1 1 1 2 4 5 5 4 3 3 1 2 1 1 1 2 3 3 2 2 2 4 5 6 5 4 5 5 5 5 4 3 2 1 0 1 1 2 3 4 4 3 3 3 2 2 2 1 1 1 2 2 3 3 4 5 6 6 4 2 2 16 73 109 106 63 13 8 9 11 11 10 8 9 11 9 8 8 8 9 6 7 9 10 11 14 16 17 21 18 18 14 17 15 15 13 31 71 100 98 74 55 72 114 171 222 239 231 202 167 126 78 40 21 18 26 33 42 55 77 102 123 134 131 120 104 85 62 42 27 21 18 14 13 12 13 16 19 19 19 17 13 11 13 17 20 22 20 18 12 9 8 11 28 41 54 52 57 54 47 35 27 24 23 25 29 37 43 51 62 73 84 95 105 112 116 119 124 128 130 128 122 113 101 87 73 60 48 38 29 22 16 10 6 5 4 3 3 2 2 2 4 4 5 5 4 4 3 5 5 6 6 6 5 4 3 2 3 3 3 3 3 4 3 4 2 3 3 4 3 3 3 3 3 3 3 3 3 3 3 3 2 2 1 2 2 3 2 1 1 1 1 1 0 
0 1 2 1 2 3 4 5 5 4 3 2 2 2 1 2 2 3 3 2 2 2 2 3 3 4 4 4 5 5 5 4 3 2 1 1 1 1 1 2 3 3 4 3 3 2 2 2 1 1 0 1 1 2 3 3 4 5 6 6 4 2 2 17 74 109 103 59 11 8 8 10 12 12 11 10 10 10 12 11 10 9 6 8 7 9 8 10 15 16 20 20 20 18 17 14 16 17 29 61 94 103 81 45 30 45 79 139 178 206 209 211 203 167 117 68 34 23 22 26 31 43 61 84 106 122 130 128 123 110 89 63 41 28 20 14 11 14 18 22 24 22 20 16 16 16 19 20 17 17 17 14 12 9 11 21 33 42 43 43 44 47 42 35 25 20 22 18 18 14 13 13 18 29 45 62 75 85 94 104 113 120 124 127 127 127 123 117 111 103 95 85 75 65 55 44 35 28 22 15 10 6 4 4 5 6 7 5 7 5 5 4 5 5 5 5 5 4 4 4 3 3 2 2 4 3 4 2 2 3 3 3 4 4 4 4 4 4 4 4 3 3 2 1 1 1 2 2 2 2 1 1 1 1 0 0 
0 1 2 1 1 2 3 4 3 3 2 3 3 3 2 3 2 2 1 1 1 1 2 2 4 5 5 5 4 4 3 2 2 2 1 1 1 1 2 2 3 3 4 3 3 2 2 3 2 1 0 1 1 1 3 3 4 6 6 6 5 3 4 20 74 108 101 56 9 6 8 12 13 10 9 9 13 14 12 11 10 9 6 7 6 8 8 10 14 18 19 19 17 17 13 12 15 17 28 50 85 100 88 55 26 21 37 81 102 141 155 188 208 210 185 145 97 56 29 19 19 26 37 49 67 87 109 126 137 139 132 113 87 61 41 30 24 18 15 13 14 19 20 17 16 16 19 23 24 25 20 16 13 14 16 19 22 29 33 34 29 24 19 17 18 15 20 17 18 12 11 10 10 13 18 24 30 35 45 54 66 76 81 89 98 108 114 116 117 118 119 119 117 112 103 94 86 81 75 66 55 43 32 23 17 12 10 8 8 6 7 6 5 6 5 4 4 3 3 3 3 3 3 2 4 3 4 2 2 3 3 3 4 4 4 4 4 3 3 3 2 2 1 1 1 1 1 2 2 2 2 2 2 2 1 0 
0 1 3 3 3 3 4 5 4 3 2 3 3 4 2 3 2 3 2 2 2 1 1 2 3 3 3 4 4 4 3 2 2 2 1 1 1 2 2 2 3 2 4 2 3 2 2 3 2 2 0 1 1 1 2 3 3 5 5 5 5 4 4 20 74 108 100 56 10 6 8 11 11 10 10 9 11 13 13 13 9 9 10 11 7 7 6 9 11 13 14 19 20 24 22 19 18 18 27 41 77 98 93 64 31 24 37 73 75 96 87 137 164 189 193 186 164 130 91 54 29 18 24 31 42 54 69 86 106 125 136 137 129 113 90 64 41 26 23 20 15 13 12 13 12 12 14 16 16 18 15 14 14 18 23 22 17 14 19 28 30 29 24 17 16 14 18 14 12 11 10 10 12 18 23 24 23 18 19 18 19 21 23 32 42 58 68 79 84 91 99 106 115 121 122 121 118 117 116 112 107 101 94 86 76 64 51 39 31 22 16 9 5 4 4 5 4 4 3 4 3 4 4 3 4 3 3 3 2 4 3 4 4 4 4 5 4 4 3 2 2 1 1 1 1 1 1 2 2 2 2 2 3 2 1 0 
0 2 4 4 3 3 3 5 3 3 2 3 3 3 2 2 1 1 1 1 1 1 1 2 3 4 4 5 5 5 4 3 2 2 1 1 1 2 2 2 3 2 4 2 2 2 2 3 3 2 2 1 2 1 1 2 2 4 5 5 4 3 3 22 75 109 99 54 9 6 8 11 10 8 8 10 15 14 13 12 11 11 9 9 7 7 7 11 14 15 12 15 21 25 26 20 19 15 16 27 65 95 98 74 34 25 44 82 86 98 68 83 91 117 140 163 179 178 161 129 89 51 26 18 26 36 45 54 66 83 104 121 131 134 129 114 89 59 34 18 13 13 10 9 7 9 11 15 19 21 20 17 17 21 25 22 19 16 17 18 17 15 14 14 17 16 15 13 11 10 12 16 16 20 22 21 17 13 13 15 17 16 15 17 17 26 25 29 29 35 47 59 73 86 97 105 110 116 121 123 123 123 123 123 120 115 107 97 87 76 65 53 42 33 25 19 13 9 5 3 3 4 4 3 4 4 4 3 3 4 3 3 3 2 2 3 2 2 1 1 1 1 1 1 1 1 1 2 2 2 3 3 4 3 2 0 
0 2 3 4 4 4 4 5 4 4 4 3 3 3 3 3 2 2 2 2 2 2 2 2 3 4 4 4 4 4 4 3 3 2 1 1 1 2 2 2 3 2 4 2 2 1 2 2 3 2 3 2 2 1 1 1 1 4 4 5 4 3 3 24 79 111 100 55 10 7 8 10 10 8 9 10 12 13 14 12 9 12 10 13 8 8 7 12 14 17 16 18 22 25 31 22 18 12 12 18 50 89 98 80 39 29 54 91 93 91 64 63 54 49 64 97 138 173 196 199 181 142 93 51 27 24 29 33 39 49 65 85 106 123 134 135 125 106 81 54 31 17 9 6 7 9 9 11 13 17 18 16 16 16 21 20 17 15 19 25 29 23 21 18 16 14 15 14 14 14 14 19 23 29 27 24 22 22 19 16 13 11 13 18 16 27 19 21 13 10 11 15 24 35 45 55 61 70 77 85 91 98 107 117 124 128 128 125 121 116 111 106 100 91 81 71 61 51 41 31 21 16 11 8 5 4 3 3 3 4 3 3 3 2 3 3 3 3 3 3 3 3 3 2 1 1 2 2 2 3 3 4 5 4 2 0 
0 3 4 4 3 3 4 5 5 5 4 4 3 3 3 2 2 2 2 2 2 2 2 2 3 3 3 4 5 4 4 3 2 2 1 1 1 2 2 2 3 3 4 2 3 2 2 2 3 3 3 3 3 2 1 0 1 3 4 6 5 3 4 27 83 113 99 51 8 7 9 10 11 10 9 12 13 13 13 14 12 13 10 11 13 13 11 12 13 16 15 17 20 23 24 19 20 17 18 19 40 79 95 84 44 34 64 95 91 73 48 45 42 32 32 52 88 136 181 212 225 217 185 138 86 46 26 22 23 29 38 50 66 86 107 123 130 128 116 97 75 50 29 13 9 10 11 11 11 16 21 19 18 12 14 13 15 17 20 17 15 13 15 14 14 12 10 12 15 17 18 19 20 22 23 23 18 18 19 18 14 12 13 20 17 26 19 24 14 11 12 13 15 17 19 24 26 32 34 35 37 42 54 69 82 91 99 106 112 118 122 126 128 127 122 115 108 101 94 86 75 64 51 39 28 19 13 8 5 4 4 3 3 2 3 3 4 4 4 4 4 5 4 3 2 2 3 3 3 4 4 5 5 5 3 0 
0 3 4 3 3 3 4 4 6 5 5 4 2 2 3 4 3 3 2 2 2 2 2 2 2 3 2 3 3 3 4 3 3 2 1 1 1 2 3 3 4 3 4 2 3 2 2 2 2 3 3 3 3 2 1 1 1 3 5 6 5 3 4 30 86 114 98 50 10 7 8 9 10 13 11 11 10 13 13 12 10 9 10 14 14 15 15 16 17 22 18 18 17 19 19 19 21 21 24 20 33 67 87 83 50 38 71 92 82 51 29 32 43 52 56 61 67 84 114 154 195 225 232 217 181 132 80 41 23 21 26 31 38 50 68 90 110 123 127 125 117 100 75 48 30 22 20 21 21 21 19 15 16 12 13 12 14 15 15 16 16 16 18 18 15 9 8 10 15 17 18 19 22 23 21 19 22 25 22 17 13 12 12 16 16 24 18 18 12 12 12 12 14 15 14 14 13 15 14 12 9 8 12 22 31 39 49 55 64 76 88 97 105 109 113 116 120 125 127 127 123 117 109 99 88 75 61 49 38 29 22 17 13 9 6 5 5 5 5 5 5 6 7 7 6 4 4 4 5 6 5 5 5 5 3 0 
0 3 4 4 3 2 4 4 5 4 4 4 3 3 2 2 2 2 2 2 2 2 2 2 2 2 2 2 3 3 3 2 2 1 1 1 1 2 3 3 4 3 3 2 3 2 2 2 2 3 3 2 2 2 1 1 2 4 7 7 6 4 5 34 89 115 97 46 9 8 12 13 14 15 12 11 9 9 10 9 8 8 10 16 19 23 18 16 12 14 12 14 16 21 24 24 24 25 32 22 29 58 84 82 56 42 72 90 88 68 62 70 74 74 71 66 59 55 58 74 108 155 201 230 233 214 176 124 74 37 21 21 25 32 40 53 70 90 109 123 131 131 120 98 72 50 37 31 29 26 21 14 12 10 11 12 14 20 16 11 9 10 15 16 16 12 9 7 12 16 16 13 13 15 19 18 13 12 12 11 11 13 19 28 36 39 32 24 14 9 9 11 12 13 14 13 14 17 16 13 8 8 10 12 13 13 13 14 22 27 35 42 53 58 69 76 86 95 105 114 120 123 125 125 123 118 112 105 97 87 77 67 58 49 40 31 26 21 14 8 5 7 8 8 7 5 4 4 4 4 4 4 4 5 3 0 
0 2 3 3 3 2 3 3 4 3 3 2 2 2 1 2 2 2 1 1 1 2 2 2 2 2 2 2 2 3 3 2 1 1 1 1 1 2 3 3 4 3 3 2 2 3 2 2 2 2 2 2 1 1 1 2 2 4 7 7 6 3 4 37 90 115 96 45 13 10 10 9 12 14 14 13 10 12 11 9 7 7 10 14 15 17 14 16 15 14 13 14 20 23 26 22 26 20 22 19 27 57 86 87 61 42 62 85 97 83 78 77 76 72 67 59 50 40 28 25 34 62 107 162 207 233 235 212 173 122 71 36 20 19 26 35 46 58 73 90 109 126 134 129 116 97 75 54 40 30 25 21 19 16 14 17 19 22 17 14 13 17 24 27 27 21 16 11 10 14 16 16 18 14 14 12 11 11 8 6 8 14 22 36 46 53 43 30 17 12 11 9 11 12 12 11 11 11 11 10 9 9 14 18 21 21 21 19 16 16 18 15 14 12 21 25 37 47 58 70 79 88 97 105 110 113 115 118 120 119 117 114 111 105 97 89 79 68 54 38 25 21 21 19 13 7 5 4 5 5 4 3 3 4 3 0 
0 2 3 4 3 3 3 2 3 2 2 2 3 2 1 1 2 2 2 2 2 3 4 4 4 3 2 2 2 3 3 2 2 2 2 2 2 2 2 2 3 2 2 1 2 2 2 3 2 2 1 1 1 1 1 2 3 5 7 7 6 3 5 38 91 113 94 44 14 15 15 14 18 16 13 13 11 11 10 9 10 11 11 14 16 17 16 12 12 10 11 11 18 22 31 21 22 13 15 18 21 52 82 90 66 41 46 64 78 76 77 73 67 55 46 33 24 20 18 18 16 21 36 71 120 172 214 233 230 207 165 116 68 37 22 20 27 37 46 57 73 93 113 125 127 120 107 88 67 46 31 22 17 15 14 13 16 18 17 15 14 16 17 20 20 18 15 11 8 9 13 13 14 11 13 10 6 3 3 5 10 16 27 45 51 63 49 41 24 16 12 9 9 10 10 11 13 15 17 12 11 11 11 10 12 13 14 13 13 14 12 12 14 9 12 9 13 16 21 25 27 32 39 50 60 71 80 90 100 108 115 121 126 127 124 119 113 107 99 88 81 75 71 64 53 41 32 24 18 14 10 7 5 4 2 0 
0 2 2 4 3 4 3 3 4 3 3 2 2 2 2 2 1 1 2 2 3 3 3 3 3 3 3 3 2 3 3 3 3 3 2 2 1 1 1 2 2 2 2 1 2 2 3 2 2 1 1 1 1 1 1 2 3 5 7 6 5 3 6 39 91 112 92 44 13 12 13 12 12 12 11 9 11 14 13 11 11 12 12 12 11 12 13 12 11 10 11 13 19 19 23 17 18 15 14 16 22 52 76 90 72 45 35 44 57 57 47 35 28 22 22 19 21 20 19 19 17 15 13 20 43 79 129 178 216 234 230 205 162 111 64 34 21 23 29 35 43 55 73 93 109 119 119 111 98 81 62 43 28 22 22 24 24 20 18 17 18 21 23 27 24 21 17 14 13 9 11 11 13 12 10 8 8 4 6 6 11 16 26 42 49 66 48 39 22 18 17 17 10 10 9 13 13 14 13 12 14 12 17 19 22 21 23 21 16 14 14 15 16 14 13 10 13 15 16 18 18 18 15 14 13 18 28 37 50 62 74 85 95 104 109 110 110 111 116 117 119 117 115 111 106 100 93 85 77 68 56 44 33 24 13 0 
0 2 2 4 4 5 4 4 4 3 3 3 3 3 2 3 3 3 3 2 3 4 5 6 6 5 4 3 2 3 3 3 3 3 3 2 2 2 1 2 2 2 2 1 2 2 3 2 2 1 1 2 2 2 1 2 2 5 6 6 5 3 6 40 92 112 89 40 11 12 13 15 16 14 12 12 12 12 12 11 13 13 12 11 11 14 15 14 12 11 10 12 13 13 15 16 15 16 15 21 20 36 60 83 77 55 32 25 25 20 15 14 16 16 18 15 14 15 17 20 22 21 18 17 20 28 48 79 128 178 217 235 230 203 156 104 58 29 19 19 26 34 44 57 73 93 108 117 117 112 100 79 54 35 26 22 20 19 19 17 14 13 11 13 11 12 13 11 10 7 11 14 18 21 22 17 13 6 6 7 14 21 29 40 43 51 46 40 27 21 17 15 12 13 10 16 16 19 17 11 12 13 17 16 16 16 17 18 18 18 17 18 17 17 16 15 12 14 17 19 18 17 14 12 10 8 9 9 11 16 24 33 40 48 56 61 64 70 85 99 110 114 117 120 125 128 126 122 116 112 108 102 95 85 52 0 
0 2 2 4 4 4 5 5 6 5 4 4 3 3 2 3 3 3 3 3 3 4 4 4 5 5 5 5 4 3 3 3 3 3 2 2 1 1 1 2 3 2 2 1 2 2 2 3 2 2 2 3 2 2 1 1 2 4 5 6 5 3 6 41 94 115 92 40 8 9 13 13 12 11 9 9 11 11 12 14 14 15 14 13 12 12 16 14 12 11 10 16 18 21 20 21 23 29 25 23 22 32 48 72 79 66 41 26 23 21 14 8 11 12 16 15 12 12 12 15 17 18 19 19 20 20 22 30 50 86 135 185 221 235 227 196 152 102 57 29 17 18 26 35 46 62 80 100 113 121 122 112 93 72 54 40 27 18 15 14 14 15 14 15 13 12 14 12 13 7 9 12 17 20 21 18 16 9 8 8 13 20 26 33 40 42 37 26 19 17 22 19 14 12 11 18 19 18 14 13 15 17 18 18 20 21 23 22 19 16 16 16 17 16 15 15 12 11 11 14 19 24 22 15 10 8 11 13 13 14 14 16 16 20 21 22 23 29 43 60 71 74 78 86 98 107 111 113 112 113 116 119 123 125 77 0 
0 2 3 4 4 4 5 5 5 4 4 3 3 3 2 4 4 5 4 4 3 3 4 5 6 6 5 5 4 3 2 2 1 1 2 2 2 1 2 2 3 2 2 1 2 2 2 3 2 2 2 3 3 3 1 1 2 3 5 6 6 4 6 42 96 115 93 40 9 8 10 12 13 12 12 15 13 15 14 18 18 16 16 13 15 14 16 13 15 16 16 21 22 24 26 25 26 24 24 30 28 34 39 65 80 73 49 28 22 20 12 7 9 11 15 14 12 10 10 14 16 18 19 20 21 19 17 16 17 27 48 88 142 191 227 239 227 196 146 94 50 26 17 19 28 40 52 67 83 101 117 122 117 105 91 73 54 32 22 15 14 15 15 17 16 14 13 12 13 11 14 18 24 30 31 27 20 12 9 9 11 17 21 25 31 32 33 27 23 18 15 12 13 14 13 18 19 19 16 13 13 18 23 27 26 23 20 19 18 16 16 14 17 19 20 20 17 11 10 9 9 11 13 13 11 9 9 10 10 12 13 16 15 15 16 15 14 13 14 20 24 24 28 33 44 55 59 66 70 76 87 98 108 115 71 0 
0 2 4 3 4 3 3 4 5 4 4 3 2 2 2 3 3 3 4 4 4 4 5 5 5 5 5 5 4 3 3 2 2 3 3 2 2 1 2 2 3 2 2 1 1 2 2 2 2 3 2 3 3 3 3 2 3 4 5 6 6 5 7 43 96 114 92 39 12 11 12 14 14 12 10 14 13 17 18 18 19 16 17 13 15 12 14 15 13 12 13 19 25 32 35 29 32 28 28 36 30 39 33 61 77 75 54 28 19 16 10 7 7 10 12 14 12 12 13 16 16 16 15 15 16 15 16 20 18 15 14 24 56 100 154 201 231 240 222 186 135 85 47 25 18 25 33 43 52 68 89 106 115 115 111 105 96 73 49 24 15 12 14 16 15 14 15 14 13 12 12 13 14 15 19 18 16 12 11 10 11 14 15 16 19 18 19 16 15 15 18 19 16 14 11 14 17 22 24 23 23 20 21 24 29 28 23 16 14 13 14 10 9 11 14 15 15 9 8 7 9 12 14 13 10 9 11 15 18 22 25 25 22 18 13 12 14 18 21 24 23 18 14 13 14 16 14 16 17 21 32 42 57 72 49 0 
0 3 6 5 4 3 3 3 4 3 3 3 2 3 2 3 4 3 3 3 4 4 4 4 4 4 3 3 3 3 3 2 2 2 2 3 2 2 2 3 4 3 2 1 1 2 2 2 3 3 3 3 3 3 3 4 4 7 7 7 6 5 8 44 95 111 88 38 13 11 12 14 14 14 14 15 16 16 18 18 16 13 13 13 16 13 12 12 14 17 17 18 23 24 29 28 32 33 33 40 33 47 30 57 74 78 58 28 14 14 10 8 8 10 12 13 10 10 11 14 14 15 15 15 14 12 12 15 16 16 13 10 17 35 66 111 159 204 230 236 219 182 134 83 44 22 17 25 33 43 58 75 89 102 111 118 122 114 96 67 39 22 20 23 22 19 16 16 15 16 16 13 13 14 19 18 17 12 11 11 9 7 8 11 15 19 19 18 16 14 11 11 12 15 15 15 17 19 20 19 18 18 24 28 34 28 23 16 15 15 15 13 12 13 16 15 16 10 8 5 6 9 11 14 14 13 12 15 18 19 19 18 18 15 12 12 15 19 21 26 24 20 15 13 12 15 11 12 11 10 10 11 14 18 14 0 
0 1 4 4 4 3 3 4 4 3 3 3 3 3 3 2 3 2 3 3 3 4 5 4 4 3 3 2 2 3 3 3 2 2 3 3 3 2 2 2 3 3 2 2 1 1 1 2 3 3 4 3 3 4 4 5 7 6 6 7 7 5 8 46 95 108 83 35 13 15 13 17 17 17 15 13 12 13 13 12 10 8 9 10 9 8 9 12 12 13 11 12 16 17 21 26 27 32 26 36 26 35 22 48 72 84 66 34 12 15 11 10 10 7 8 7 8 8 10 15 15 15 13 13 13 11 10 14 17 19 19 18 18 20 26 41 66 110 158 203 230 234 218 179 129 78 39 21 20 29 39 51 63 74 86 101 119 131 130 115 91 67 44 28 18 16 14 17 15 15 16 16 15 13 16 14 15 13 13 13 13 11 10 11 14 18 19 14 11 12 14 20 19 18 16 17 20 25 27 25 20 18 17 20 30 26 27 19 17 20 18 15 11 13 16 14 15 10 10 10 14 18 19 18 15 12 12 16 22 29 32 28 23 15 12 11 15 23 23 25 20 18 11 12 10 12 10 10 8 10 12 15 16 14 9 0 
0 2 4 4 4 4 3 4 4 3 3 3 3 3 4 3 3 2 2 2 3 3 4 3 4 3 2 1 2 2 2 3 2 2 2 3 3 2 2 2 3 3 3 2 2 2 2 2 3 3 3 3 3 4 5 4 7 7 9 8 6 5 8 49 97 108 84 34 14 18 18 20 17 16 15 15 14 12 13 11 9 8 10 11 10 8 6 8 11 16 14 17 21 24 23 26 26 41 28 32 20 26 20 36 69 86 74 44 14 18 14 11 10 8 11 9 10 10 10 10 11 13 14 14 12 11 12 15 16 19 21 25 25 26 23 23 28 46 75 118 166 207 235 237 216 175 123 76 40 23 22 30 41 51 59 70 88 109 126 132 129 120 104 81 51 27 15 11 8 11 13 13 13 12 14 13 15 16 18 18 15 11 8 9 14 16 19 16 14 15 13 15 14 16 16 17 16 16 15 18 18 22 23 21 24 21 24 22 18 20 17 16 12 11 13 12 12 11 12 16 18 20 20 19 18 17 14 12 14 16 17 16 15 14 16 20 21 24 22 24 18 15 8 9 11 14 14 13 10 9 9 9 12 11 8 0 
0 1 3 3 4 4 4 5 5 4 3 3 3 3 3 3 3 3 3 2 2 2 4 3 4 3 2 1 1 1 2 2 1 2 2 3 3 2 2 2 2 3 2 2 2 2 2 2 3 3 3 4 4 3 4 4 7 6 6 7 6 7 11 54 100 108 81 31 15 17 18 20 19 16 15 15 15 13 13 15 15 12 11 10 10 9 8 11 12 15 18 21 22 24 21 26 20 25 16 22 18 23 22 28 69 86 79 54 18 20 13 10 10 9 11 13 12 12 10 9 8 11 14 15 12 8 6 8 12 21 29 39 38 35 26 22 20 20 26 42 75 119 173 215 238 236 210 170 118 69 35 23 25 34 43 49 56 70 91 114 132 142 141 126 99 68 38 19 10 9 11 13 17 16 17 16 18 20 24 24 21 16 10 7 12 15 15 12 10 15 17 21 20 16 16 18 18 19 18 18 16 19 24 24 22 20 21 25 22 21 16 16 17 20 22 20 15 13 13 17 21 22 19 18 17 15 12 11 16 21 23 23 18 17 17 21 23 23 16 16 13 12 10 11 13 12 12 9 8 9 12 15 15 11 6 0 
0 1 3 3 4 4 4 5 4 3 3 3 3 4 4 4 3 2 3 2 3 2 4 4 4 3 2 1 1 1 2 2 1 1 2 3 3 2 2 1 2 2 2 2 2 2 2 2 3 3 4 4 4 4 4 4 5 6 6 6 5 8 23 69 109 106 72 26 13 17 20 20 16 13 15 17 18 18 14 13 12 10 11 11 12 13 10 10 12 13 16 21 28 34 31 26 21 19 17 22 21 25 26 22 58 78 80 61 23 22 14 11 10 12 13 15 14 13 11 11 12 14 16 15 12 8 6 9 11 20 24 37 35 34 25 19 18 17 18 16 24 43 78 127 178 219 238 234 208 163 108 60 29 20 25 32 37 43 54 72 95 119 139 148 143 123 93 61 33 18 12 10 12 13 16 15 17 19 21 22 21 17 13 11 15 17 18 18 15 18 17 18 17 15 13 11 10 14 20 24 24 24 25 26 25 22 18 20 20 20 18 15 14 15 15 18 17 17 14 15 16 15 13 14 15 14 11 7 7 9 11 15 14 17 18 21 22 22 19 17 13 13 12 14 15 14 14 11 11 9 9 11 15 15 9 0 
0 1 2 3 3 4 4 5 4 5 4 4 4 4 4 4 4 3 4 2 3 2 3 3 4 3 3 2 2 2 3 3 2 2 2 3 3 2 2 1 2 3 3 2 2 2 2 2 3 2 5 5 5 4 2 3 4 5 5 6 7 19 49 87 108 92 55 22 12 14 16 18 18 17 17 18 18 19 19 20 17 13 9 9 11 13 14 13 14 17 17 20 22 22 24 21 22 19 17 22 24 30 25 22 45 69 74 60 26 19 13 11 10 12 13 14 12 11 10 11 12 12 12 13 12 10 8 9 9 19 26 44 39 33 21 16 16 13 14 16 18 20 27 48 81 129 179 218 238 232 201 153 98 53 28 22 24 25 30 36 48 69 95 121 139 144 136 115 88 60 36 22 16 16 17 22 23 22 20 20 18 15 12 10 14 17 19 18 14 16 15 16 15 14 14 15 17 15 19 19 19 16 19 21 22 21 21 21 19 16 16 16 19 22 20 22 18 19 16 14 14 14 14 15 17 16 13 10 12 16 16 19 18 18 15 16 17 17 18 20 22 20 15 16 19 17 13 8 6 6 10 13 16 14 9 0 
0 1 3 3 3 4 3 4 4 3 5 5 6 6 4 4 4 3 3 2 3 1 3 3 3 3 2 2 2 3 4 4 4 3 3 3 4 3 3 2 3 3 2 2 2 2 2 1 2 2 5 6 5 5 4 5 5 5 5 6 15 40 67 93 100 83 47 20 13 14 16 16 17 15 13 14 16 13 12 10 12 14 15 15 16 14 13 12 13 14 15 16 19 20 22 21 19 20 16 23 19 28 21 22 35 62 70 61 31 17 14 11 12 11 12 12 11 8 9 12 13 14 14 16 15 12 8 7 8 15 18 23 23 26 23 17 14 11 12 14 17 20 19 19 25 46 84 134 185 222 236 225 190 141 91 49 26 18 21 23 27 36 51 74 102 126 142 144 133 111 83 56 32 25 20 21 18 15 11 12 14 16 17 17 21 19 21 22 21 19 13 14 14 15 14 12 13 17 26 25 23 16 13 16 18 20 18 16 15 13 13 13 15 18 15 18 15 16 13 10 9 10 11 13 14 13 11 8 9 12 13 17 19 20 16 13 14 18 20 19 17 15 16 14 15 14 12 9 7 6 8 12 17 16 8 0 
0 1 3 3 4 4 4 3 4 4 6 6 6 6 4 5 4 4 3 2 2 1 2 3 4 4 4 3 3 3 4 5 5 5 4 4 4 3 3 3 2 2 2 1 1 1 1 1 2 3 4 6 5 5 4 3 4 5 6 11 32 54 77 99 96 71 46 22 16 14 18 17 17 17 15 12 14 14 15 15 15 14 14 11 12 10 11 10 11 13 15 19 24 25 22 23 20 30 20 26 18 24 17 20 32 59 71 62 36 16 14 13 14 9 8 7 8 6 10 12 13 13 10 12 12 12 9 8 7 11 15 21 21 18 20 20 20 15 12 14 15 17 20 18 15 11 22 50 93 144 191 224 234 221 187 137 83 40 17 11 15 22 30 39 58 80 107 127 138 137 125 107 81 57 36 26 22 19 12 10 9 11 12 12 13 15 20 22 21 17 11 8 11 13 18 20 22 21 19 16 14 11 9 10 11 18 21 19 15 10 11 12 14 17 14 13 11 14 14 11 8 8 10 13 14 15 16 14 16 17 17 18 18 20 17 12 10 12 15 17 21 15 16 13 17 18 15 11 8 6 8 11 12 12 6 0 
0 1 2 3 3 3 3 3 4 4 4 5 5 5 4 5 3 4 3 2 1 1 2 3 3 3 3 3 4 4 5 5 4 4 3 3 3 3 4 3 3 2 1 1 1 2 1 1 3 3 4 6 6 5 6 6 6 7 10 27 50 67 89 92 100 82 59 24 16 12 14 13 15 11 11 8 8 7 8 9 13 16 18 15 15 11 12 9 9 11 15 24 27 32 26 28 18 25 18 24 17 17 17 19 30 51 67 61 40 17 13 10 10 7 8 5 8 6 9 9 9 10 10 14 13 10 5 4 5 9 8 8 10 12 21 19 18 14 12 11 10 11 17 18 18 14 12 15 25 54 99 151 199 229 237 220 179 126 72 34 16 14 21 25 34 45 62 84 107 123 131 133 126 110 83 53 28 15 9 9 13 20 22 21 18 14 13 18 20 19 14 8 10 12 16 17 18 20 19 16 12 8 7 8 8 13 19 22 22 16 13 11 11 15 15 12 7 9 9 8 6 6 7 9 9 9 10 8 11 13 16 17 17 17 17 15 13 12 14 13 19 14 19 11 13 12 12 10 12 14 18 20 21 16 11 0 
0 0 1 3 3 3 2 2 2 3 4 4 4 5 4 5 3 4 2 1 1 1 2 3 4 5 4 4 5 5 4 4 3 4 4 3 3 3 2 2 1 1 1 1 1 1 1 1 2 2 4 4 5 5 6 4 5 11 26 47 63 83 86 101 118 99 68 24 12 13 14 12 15 12 11 9 8 7 9 10 12 11 10 9 11 10 12 9 10 10 13 27 32 44 34 31 22 21 21 26 25 22 20 16 26 41 62 63 49 24 14 12 11 6 6 5 7 5 7 8 10 10 8 10 8 8 5 5 6 8 8 8 8 8 14 13 15 10 12 14 16 15 16 17 18 16 12 12 13 15 29 59 106 159 207 236 237 212 167 114 65 32 17 17 22 29 37 48 66 88 108 126 139 141 129 105 73 42 20 12 13 18 21 20 16 12 13 15 17 15 15 12 13 17 19 21 21 21 20 14 10 7 6 7 9 14 18 20 20 17 13 10 11 12 12 11 8 10 9 10 7 8 8 8 9 8 10 11 13 14 16 19 21 22 18 14 13 14 15 15 19 14 19 17 23 18 17 16 15 16 19 20 23 18 12 0 
0 0 1 3 3 4 3 3 3 3 3 3 3 5 3 5 3 4 3 2 1 1 2 3 3 4 3 3 4 5 5 4 3 3 3 3 3 3 3 3 2 2 1 2 2 2 1 1 2 2 4 3 4 4 4 5 11 27 49 64 83 96 86 114 126 118 80 26 8 8 9 9 11 11 9 6 6 8 12 11 12 11 11 9 10 9 13 11 12 12 17 27 26 39 30 29 22 17 22 25 30 26 22 17 19 25 46 58 57 40 20 10 9 6 6 5 5 5 5 5 7 10 12 13 11 11 11 12 11 9 7 7 9 9 12 10 13 8 12 13 16 15 15 15 17 17 15 14 12 12 13 18 36 69 120 172 214 233 231 207 162 109 60 30 19 20 23 29 39 53 70 89 111 130 139 135 117 92 63 40 31 31 31 24 17 14 12 12 13 14 13 13 13 16 16 19 17 15 16 16 15 11 7 10 12 13 17 19 21 21 17 15 13 13 13 12 10 10 8 11 9 12 17 17 15 13 11 11 11 14 15 18 18 18 20 19 16 14 14 15 17 16 18 14 15 15 15 15 19 26 28 27 27 21 15 0 
0 0 2 4 5 4 2 2 3 3 3 3 3 5 4 5 3 3 2 1 1 1 1 2 3 3 3 2 3 4 5 4 4 3 4 3 3 3 2 2 2 2 2 2 2 2 2 1 3 3 3 3 2 3 4 10 25 48 64 83 99 95 82 109 128 131 89 30 10 9 9 10 13 15 15 15 13 10 9 7 10 8 11 9 12 12 12 10 11 10 14 23 26 32 25 27 23 23 28 26 32 29 24 17 15 17 34 51 62 60 42 26 14 7 5 5 6 6 6 6 7 9 10 11 11 11 12 10 10 8 10 11 12 9 10 6 10 8 15 17 24 21 18 17 18 16 15 15 14 15 12 12 16 25 49 81 128 178 219 238 233 202 154 101 57 28 19 19 27 35 42 53 69 89 113 131 137 131 114 89 67 50 42 34 26 21 13 13 11 12 14 15 14 17 16 17 20 21 21 19 17 18 16 14 15 14 14 14 14 13 12 14 15 15 15 12 10 12 10 12 11 10 11 12 12 11 11 15 13 13 11 16 20 20 20 22 26 26 24 21 18 16 16 19 21 17 14 16 15 17 19 18 21 19 13 0 
0 1 4 5 5 5 3 3 3 2 3 4 3 5 4 4 3 2 3 2 2 2 2 2 3 3 3 2 2 3 4 4 4 3 4 3 3 3 2 2 2 2 2 3 3 2 2 2 3 3 3 3 1 3 7 24 47 63 82 99 98 91 69 98 132 141 98 32 11 10 12 12 13 13 12 11 12 13 14 10 10 8 9 8 8 10 12 9 10 10 13 18 19 20 18 22 22 26 25 25 27 23 22 16 17 14 24 46 63 70 59 42 26 14 9 6 6 7 7 6 5 7 9 11 13 11 16 12 12 11 12 12 14 10 11 6 10 11 18 18 18 16 13 10 11 11 12 13 15 19 19 19 21 21 23 29 45 80 133 187 224 237 225 192 147 94 51 24 15 22 27 32 37 48 67 92 115 132 136 128 113 90 66 46 30 22 14 12 11 12 13 12 13 18 19 18 19 20 23 25 21 18 21 21 23 16 14 11 15 17 18 18 18 16 14 14 11 13 11 10 12 16 22 24 21 16 13 15 14 14 10 9 11 16 18 19 20 19 18 17 15 14 13 14 13 11 10 12 16 21 22 18 19 20 14 0 
0 2 5 6 6 5 3 3 3 2 3 4 4 5 4 3 3 2 3 2 2 2 2 2 2 2 2 2 2 4 4 4 4 3 3 3 3 3 3 3 2 2 2 3 3 3 3 3 4 3 3 2 2 6 19 45 60 80 97 97 94 75 49 93 136 145 98 31 12 11 11 10 12 14 17 16 16 13 11 11 11 11 11 10 10 11 12 12 10 7 8 13 16 19 16 19 22 31 25 24 21 18 20 12 17 13 20 30 46 59 63 57 48 35 24 15 11 9 8 6 5 7 9 9 12 9 12 8 8 11 13 15 17 13 14 8 10 12 16 20 19 15 10 10 12 13 13 14 14 16 17 17 20 24 22 20 20 28 51 91 143 192 226 234 223 189 139 86 43 21 15 20 24 30 39 54 74 100 121 130 130 120 107 89 66 43 26 17 15 16 14 14 12 13 14 16 19 22 22 23 23 26 25 22 22 14 12 11 11 12 14 17 20 19 14 15 12 13 12 8 9 9 13 18 19 18 14 14 14 16 13 12 11 11 14 17 20 22 21 21 20 20 19 18 14 11 8 11 12 14 14 13 15 17 12 0 
0 1 4 5 5 5 4 4 3 2 3 4 4 5 4 3 2 2 3 2 2 2 3 3 3 2 2 2 2 2 2 2 2 1 2 2 3 3 3 2 1 2 2 2 2 3 3 3 3 3 2 1 4 14 38 55 72 97 97 97 79 50 51 107 148 141 88 25 12 11 13 12 12 12 11 12 13 15 15 12 13 10 8 7 8 10 11 10 9 8 9 17 18 22 16 21 21 24 24 26 31 25 26 13 18 13 21 20 31 40 53 60 61 53 40 26 16 11 9 7 7 7 6 5 9 10 13 9 9 12 15 19 19 16 15 10 9 12 14 14 11 9 7 9 11 14 12 12 11 13 16 17 19 19 17 16 16 16 17 25 52 95 148 196 227 235 218 178 127 77 38 18 14 20 26 32 42 59 84 104 118 120 118 114 104 84 58 38 27 27 21 20 19 21 20 17 15 17 20 24 26 27 28 25 20 14 11 11 11 14 15 16 15 14 11 11 11 13 13 10 12 14 19 22 21 21 19 20 16 15 15 16 16 15 15 13 12 10 13 16 16 14 12 11 9 9 7 9 10 14 15 14 14 16 12 0 
0 2 3 3 4 4 4 4 3 2 2 3 3 4 3 3 2 2 2 2 2 2 3 3 2 2 2 3 3 3 3 2 1 1 2 2 2 3 3 2 1 2 3 4 4 3 3 4 4 4 2 4 15 37 51 67 90 96 97 85 53 49 84 140 163 133 73 21 12 10 11 10 9 13 16 20 19 16 18 15 14 11 10 11 13 13 16 12 11 12 12 20 19 24 17 19 18 19 29 25 37 27 28 16 18 14 23 18 21 18 27 40 53 58 55 47 35 22 13 9 9 10 9 7 11 13 15 14 11 13 13 16 15 17 14 12 11 10 11 12 11 10 8 12 12 18 15 16 13 12 11 12 16 15 15 12 15 17 17 14 18 33 62 106 157 204 233 233 210 170 118 69 34 18 18 21 27 35 52 71 89 100 111 119 125 121 103 80 53 37 25 19 14 14 16 20 21 22 23 25 26 26 23 22 15 10 8 10 11 12 10 12 12 11 11 13 15 15 15 11 11 11 13 16 17 18 19 19 18 18 17 17 20 19 19 16 16 11 16 18 21 22 18 15 10 8 8 9 9 11 13 13 14 16 11 0 
0 1 2 2 3 3 4 4 3 2 2 2 3 3 3 2 2 2 2 2 2 2 3 3 2 2 2 3 2 2 2 2 2 2 2 3 3 3 2 2 2 2 3 3 3 3 3 4 3 3 5 13 37 52 66 86 90 93 86 57 49 82 136 169 157 102 46 14 9 8 11 11 13 13 16 16 17 16 14 12 11 9 8 9 12 12 13 9 8 13 16 25 22 25 17 21 21 24 31 27 47 33 31 18 17 18 22 19 20 17 22 27 37 46 52 53 51 42 32 22 17 15 13 12 16 18 16 13 8 12 13 15 12 12 10 10 10 8 8 6 6 9 8 12 11 14 13 13 11 10 8 9 13 15 17 14 17 18 19 17 14 13 17 33 66 113 167 211 233 232 205 160 107 57 26 12 16 23 36 48 61 71 86 102 119 131 128 118 93 66 43 32 28 30 27 23 20 19 24 31 37 37 27 21 14 13 12 12 14 16 14 14 11 9 7 7 10 11 13 12 14 12 13 11 11 14 16 18 16 14 17 18 21 23 25 21 19 11 12 14 15 15 11 9 8 9 10 10 8 10 13 14 16 16 11 0 
0 2 3 3 2 3 3 3 3 2 2 2 2 2 2 2 1 2 2 2 2 2 2 3 2 2 2 3 3 3 3 2 2 2 3 3 3 3 2 2 3 4 5 5 4 3 2 4 5 6 14 35 55 71 90 92 91 84 58 48 78 139 184 181 137 72 33 13 9 8 12 11 13 13 17 17 17 15 15 15 14 10 8 10 13 18 17 15 13 15 16 20 16 17 13 23 19 26 27 29 36 26 25 17 15 19 21 24 22 17 13 13 17 25 37 46 54 55 52 45 35 26 19 15 16 16 16 14 10 11 10 9 7 7 9 10 10 8 9 7 8 8 8 8 8 9 12 14 16 13 9 7 9 14 15 15 15 16 18 17 16 15 15 14 18 38 74 124 175 214 233 226 191 131 69 23 8 8 18 30 42 49 57 69 85 107 120 124 113 92 70 56 48 43 31 23 23 26 31 31 28 27 28 27 20 14 12 14 17 18 16 13 12 10 10 9 10 10 10 10 11 11 13 10 9 8 8 13 15 13 13 16 20 23 25 23 23 20 19 19 18 18 17 14 11 8 8 8 9 12 13 14 16 18 13 0 
0 1 2 2 3 3 4 3 3 2 2 2 1 1 1 1 1 1 1 1 2 2 2 2 2 2 3 4 4 3 3 3 3 3 3 3 3 2 1 2 4 4 5 4 3 2 1 3 6 16 35 56 72 98 98 96 85 56 43 72 131 188 192 153 91 44 26 14 11 8 10 13 17 16 13 13 13 13 14 12 13 12 9 9 10 16 17 14 13 12 17 22 24 27 21 28 22 34 23 26 25 23 22 15 15 19 18 23 19 21 20 16 17 17 23 33 44 53 59 57 51 41 29 22 18 16 11 9 8 8 8 7 8 8 9 9 11 9 8 6 7 8 8 5 5 5 8 9 11 10 8 5 7 10 15 16 14 14 15 17 16 14 13 15 13 14 21 44 82 132 182 223 236 202 133 57 14 5 6 13 23 33 39 45 53 70 89 109 120 117 114 117 124 126 114 96 82 72 65 55 49 35 30 24 21 18 15 15 14 16 17 17 15 10 6 6 8 10 10 10 13 14 16 14 11 7 4 6 10 11 12 13 15 16 19 19 20 17 13 11 11 12 14 13 12 12 15 14 11 10 11 13 13 14 9 0 
0 1 3 3 3 3 4 3 3 2 2 1 1 1 1 1 1 1 1 1 1 1 2 2 2 2 3 3 3 3 3 3 3 3 4 4 3 2 1 3 4 5 4 3 2 2 2 4 12 34 54 73 94 106 101 93 60 42 68 126 184 202 162 111 60 41 26 15 12 12 13 13 12 12 11 13 13 14 15 15 16 15 14 13 14 17 18 17 16 14 18 21 21 23 18 27 18 25 20 30 34 28 22 13 14 17 16 21 15 16 17 14 16 14 14 16 25 36 50 56 58 54 46 36 23 14 10 10 9 8 8 9 11 10 10 10 10 9 8 7 8 10 11 12 13 12 11 12 11 9 6 4 5 7 10 12 11 11 10 11 11 11 13 16 17 15 12 13 24 48 93 156 221 239 193 106 31 6 4 4 5 12 21 31 35 44 55 78 104 121 130 120 115 113 114 116 121 127 127 116 103 90 85 73 61 47 32 23 16 15 16 16 15 13 13 15 15 15 14 12 15 16 18 14 11 8 6 8 10 10 11 10 12 12 12 13 16 19 18 14 13 14 18 19 15 11 8 8 9 10 12 12 11 12 6 0 
0 1 3 3 4 4 4 3 3 2 2 1 0 0 1 1 1 0 1 1 1 1 2 2 2 2 2 3 3 3 3 3 4 4 4 3 3 2 2 3 3 3 3 2 2 2 2 7 29 54 71 96 105 105 96 67 44 62 118 178 203 171 109 70 49 44 28 18 14 13 12 13 14 12 11 12 13 13 10 11 12 15 15 15 16 15 15 14 12 11 16 23 28 34 21 24 14 19 25 26 33 25 24 13 13 17 18 22 19 18 16 15 16 16 20 18 19 18 29 36 46 51 50 45 36 23 17 10 8 7 6 7 8 8 8 8 10 11 11 13 13 15 13 13 13 13 11 9 9 9 8 7 7 9 9 10 9 9 8 9 10 12 14 16 17 16 14 11 11 15 31 73 157 231 227 154 57 9 5 6 6 7 8 13 19 28 37 53 77 96 116 125 137 141 144 144 139 127 114 105 105 110 119 125 124 116 104 90 76 64 56 47 37 27 20 16 17 18 17 13 17 17 21 16 11 8 7 8 10 11 9 7 9 7 6 7 9 11 11 9 9 11 15 17 15 13 11 10 10 8 9 11 11 11 6 0 
0 1 3 3 3 3 3 2 3 2 2 1 0 0 1 1 1 1 1 2 2 1 2 2 2 2 2 3 4 3 3 2 3 3 3 3 3 2 2 3 3 4 2 1 1 2 5 20 46 65 90 105 105 100 71 47 59 110 173 201 177 110 60 48 50 44 24 14 14 16 16 13 10 8 10 12 12 11 10 13 15 19 19 20 17 14 14 13 16 15 17 17 16 21 14 19 14 15 25 30 49 31 27 11 11 15 17 18 15 15 13 10 10 10 15 15 18 13 15 18 29 41 52 55 51 42 32 22 14 7 6 9 11 11 11 11 12 12 11 12 12 14 14 17 18 17 15 13 12 10 9 7 7 7 7 10 10 9 6 5 6 8 10 12 15 16 16 15 15 16 17 36 100 199 235 189 87 15 4 4 5 6 7 7 9 14 22 33 51 73 94 90 77 71 85 99 110 119 129 131 134 133 128 120 115 114 118 120 122 125 127 123 113 98 85 74 63 51 41 29 23 17 17 15 11 7 7 9 11 13 13 9 7 5 5 6 7 11 12 10 9 9 13 15 15 12 10 8 8 8 9 12 14 12 6 0 
0 1 3 2 2 3 3 3 2 2 1 1 1 1 1 1 1 1 1 2 2 2 2 3 3 2 2 2 3 3 3 2 3 2 3 2 3 3 2 3 3 2 3 3 4 6 16 37 54 77 102 104 101 76 49 59 104 167 200 179 120 54 34 41 51 42 24 14 13 15 17 17 18 13 11 13 9 9 7 10 13 15 14 15 13 13 13 13 14 10 10 13 13 18 15 15 13 12 22 21 32 24 26 16 15 18 16 19 16 14 10 8 8 12 16 16 13 9 9 10 17 25 36 43 46 46 43 39 31 22 15 11 9 8 9 10 12 14 14 16 14 13 12 12 12 12 10 10 12 13 14 10 9 7 7 8 9 9 7 5 7 8 10 12 13 13 14 15 18 20 19 21 59 165 228 208 114 22 4 5 6 7 6 5 5 5 11 18 37 71 100 104 100 81 73 67 61 54 52 59 75 94 110 121 130 133 139 139 131 121 117 119 123 123 123 121 120 117 114 103 91 79 62 45 30 19 13 11 13 13 13 13 15 12 11 13 13 15 14 12 9 8 12 16 17 15 11 9 8 6 6 10 14 16 11 0 
0 1 2 2 2 2 3 3 3 4 3 3 2 2 2 2 1 1 1 1 2 2 2 3 3 2 2 2 3 2 3 2 3 2 2 2 3 3 3 3 3 3 5 6 9 16 34 47 64 91 98 97 80 50 54 98 161 199 181 126 62 23 25 39 51 42 22 14 13 17 19 19 19 15 13 17 13 15 10 13 14 15 14 15 12 12 10 11 14 11 12 15 15 20 19 18 18 12 13 15 23 22 23 19 17 17 13 14 13 13 13 9 9 8 10 13 15 13 11 10 14 20 26 30 37 47 54 59 55 46 32 21 14 13 15 14 13 14 12 11 7 7 7 10 10 10 8 11 15 15 14 11 10 7 6 7 8 8 8 8 8 7 8 9 10 11 11 14 18 22 20 20 39 141 220 218 134 31 3 4 5 8 8 8 8 5 5 14 43 89 121 121 101 79 77 78 78 79 79 77 73 66 56 49 50 62 80 97 111 121 131 138 143 140 132 121 115 115 123 130 133 135 131 122 107 93 82 70 55 40 29 18 14 12 13 14 15 15 12 12 11 12 13 16 17 16 12 9 7 7 8 13 15 16 11 0 
0 1 2 2 1 2 3 5 4 5 4 3 3 3 3 3 1 1 1 1 1 1 1 2 2 2 2 1 2 2 3 3 4 3 3 3 3 3 3 3 3 4 6 10 22 39 48 60 80 90 92 80 52 48 92 154 198 187 131 68 27 17 29 46 54 43 21 11 11 14 17 18 17 15 12 14 12 15 13 16 14 12 9 9 9 12 12 12 14 14 15 16 16 22 20 20 17 15 17 17 19 22 22 25 22 20 15 15 13 12 9 7 10 11 14 12 13 12 12 14 17 17 17 18 22 30 41 51 57 59 53 43 32 23 18 16 15 17 12 11 8 8 8 11 9 10 8 9 12 14 15 12 9 7 7 9 10 12 11 11 8 6 6 9 11 11 12 11 14 20 18 18 29 126 214 222 146 39 4 4 6 9 12 11 9 5 5 20 60 112 139 130 94 66 57 55 58 60 64 69 75 81 85 86 79 68 54 47 44 46 52 64 81 96 109 118 131 137 147 150 146 134 124 119 120 123 127 130 126 115 101 89 80 68 56 41 29 20 17 18 17 18 19 19 19 17 18 17 14 13 13 15 17 17 9 0 
0 1 2 1 1 2 2 5 5 7 6 4 3 4 3 4 2 2 1 1 1 1 2 2 2 2 2 1 2 2 3 3 4 3 3 3 3 3 3 4 5 6 9 23 44 56 64 83 85 90 79 53 46 82 145 192 192 138 71 29 14 20 37 52 53 39 19 13 12 13 14 14 13 13 16 18 19 20 16 14 11 9 9 11 13 11 11 12 13 12 17 23 26 31 22 24 18 17 16 17 20 24 20 22 17 20 19 24 20 21 15 11 13 12 12 12 12 13 14 14 14 14 15 15 17 23 31 40 49 59 62 61 52 44 33 21 13 11 10 10 8 8 8 10 9 9 7 10 13 13 13 13 12 10 9 12 13 15 13 14 11 8 7 7 8 8 9 9 10 15 14 16 30 121 211 223 151 44 5 4 6 9 14 12 12 10 11 31 75 116 126 109 84 75 78 78 79 73 64 57 58 64 73 81 82 78 70 67 66 71 76 78 74 68 61 54 55 64 82 100 116 130 140 143 147 147 143 131 121 114 115 118 123 123 119 109 95 80 68 57 48 37 27 19 16 15 14 13 11 12 15 19 21 24 16 0 
0 1 2 1 1 2 2 5 5 5 4 3 2 3 3 3 2 2 1 2 2 2 2 2 2 1 1 1 2 3 4 4 4 4 4 4 4 4 3 4 5 8 19 42 57 71 90 94 93 84 54 47 77 137 185 191 148 80 32 13 13 23 41 54 49 35 13 9 8 10 10 10 12 11 14 15 15 15 17 18 15 11 11 9 13 13 16 14 19 18 21 20 22 25 19 26 19 23 20 25 29 28 23 20 15 23 19 27 20 19 11 10 11 11 13 10 10 10 11 12 12 12 11 12 14 15 16 19 25 35 46 57 61 58 48 35 25 14 12 9 12 10 11 10 10 11 11 12 11 11 12 13 14 12 11 13 15 16 16 14 14 11 11 9 8 9 11 10 9 12 14 16 32 120 209 220 150 45 7 4 7 8 11 15 24 35 51 79 115 140 138 112 80 59 46 41 45 53 61 68 79 89 94 112 124 123 101 86 85 83 75 72 77 77 78 79 80 80 76 71 64 58 60 71 88 103 116 127 139 142 145 142 135 124 114 109 109 112 116 121 122 115 105 90 77 64 51 37 24 17 16 20 19 19 9 0 
0 1 2 1 1 1 2 4 4 5 4 3 2 3 3 3 2 1 1 2 2 3 4 3 3 2 2 1 1 2 3 3 4 3 4 4 4 3 2 5 8 21 40 57 71 93 100 101 91 61 47 76 130 181 189 152 89 37 16 9 16 23 40 52 45 30 12 12 9 11 11 13 13 15 16 16 14 15 13 12 10 9 11 13 16 13 16 13 19 15 20 19 21 20 19 24 18 19 12 19 24 27 23 18 13 23 19 33 21 23 14 13 15 11 11 7 8 8 9 8 10 12 15 14 13 13 14 13 14 22 32 45 54 62 61 50 38 25 21 14 17 11 14 11 12 10 9 10 10 11 13 15 15 13 12 13 13 12 13 11 13 12 12 11 10 11 11 12 13 14 16 18 33 124 208 216 145 41 8 8 16 28 43 62 85 108 128 147 160 155 136 115 105 104 100 98 94 86 75 62 53 57 68 121 142 147 124 113 119 115 96 65 58 54 56 61 66 70 74 79 84 87 87 84 80 74 66 57 60 72 91 108 120 129 135 136 138 135 124 113 109 112 120 124 126 123 116 104 89 78 64 56 45 35 19 0 
0 1 2 1 1 1 2 3 4 5 4 3 3 2 2 1 1 1 1 2 3 3 4 3 4 2 2 1 2 3 4 3 3 3 3 3 3 3 3 6 15 39 54 72 90 98 101 96 67 50 71 126 177 190 152 92 41 17 12 12 16 24 43 56 47 32 12 11 11 13 11 12 11 12 12 11 8 11 11 14 13 12 11 11 13 12 13 11 17 15 20 17 16 13 18 24 27 23 17 20 20 26 21 20 15 24 17 29 15 18 10 10 9 8 8 7 10 11 10 9 10 10 12 11 11 11 12 13 13 11 13 21 31 43 53 56 54 48 43 33 28 16 15 11 12 12 14 12 10 9 10 13 13 13 10 11 9 10 11 10 12 11 12 12 11 12 12 11 11 13 15 18 35 128 203 207 142 55 49 67 89 108 128 146 162 173 178 176 168 146 120 97 88 85 84 88 97 107 115 117 113 110 96 137 154 152 116 110 131 130 107 74 76 76 74 70 66 60 56 56 60 66 70 75 79 82 84 86 86 83 78 71 62 56 59 73 91 104 114 124 135 144 150 148 136 122 111 110 111 114 116 117 110 99 62 0 
0 1 2 1 0 1 1 3 3 3 3 2 2 2 2 1 1 1 1 1 2 2 3 3 3 2 2 1 2 3 4 3 3 1 2 2 2 2 3 11 33 54 70 93 96 98 94 68 49 68 120 176 193 158 95 45 18 13 12 13 22 36 50 69 58 44 16 11 12 13 10 11 12 15 15 11 10 12 14 14 10 9 8 10 12 12 11 9 14 14 18 13 13 11 17 19 23 19 17 21 21 28 23 27 19 25 19 29 17 16 9 11 14 16 15 13 12 11 10 9 10 12 14 12 11 10 10 10 11 13 16 14 20 33 45 57 61 61 60 52 41 24 16 12 13 13 12 12 12 11 11 12 10 10 8 12 9 11 10 10 10 9 9 10 12 12 12 12 13 16 19 19 38 123 193 213 181 127 135 153 170 183 195 200 199 190 175 155 131 102 79 67 68 76 84 92 98 101 102 100 93 89 104 158 164 137 81 90 132 149 123 73 57 46 45 53 65 70 76 80 81 80 74 65 59 57 60 66 71 74 78 81 83 83 82 80 75 68 58 52 58 74 96 112 121 130 135 139 140 133 118 108 104 108 65 0 
0 1 2 2 1 2 2 3 4 5 5 4 3 2 2 1 1 1 1 2 3 3 3 2 2 1 2 2 3 4 4 3 3 2 2 2 1 2 8 28 51 69 92 98 97 92 66 46 63 113 170 192 164 100 45 20 11 15 12 21 36 46 65 85 71 52 16 12 13 14 12 11 11 13 12 11 10 9 12 14 13 11 8 8 8 11 11 9 11 10 15 12 14 10 14 17 23 25 27 28 28 28 25 21 18 23 20 24 18 18 14 13 12 12 14 14 12 11 12 11 11 7 8 11 14 14 12 9 10 11 15 16 17 20 24 34 42 49 57 58 56 45 34 23 15 13 12 12 11 11 12 10 7 7 7 12 11 13 10 10 9 9 8 9 9 9 9 10 11 14 16 16 36 106 171 211 202 183 195 203 207 206 201 190 172 147 122 101 84 67 53 44 42 43 47 52 61 73 82 89 93 98 131 171 163 125 67 99 147 168 149 114 112 104 99 88 81 70 57 47 46 53 64 71 77 81 83 81 74 64 57 56 59 62 65 69 74 77 80 80 79 76 71 65 57 54 60 75 92 106 115 126 131 138 86 0 
0 1 2 1 1 2 2 3 4 3 3 2 2 2 2 1 1 1 2 2 3 3 3 2 2 2 2 2 4 4 4 3 3 2 3 3 3 6 23 48 65 90 101 99 94 67 47 59 107 163 191 167 108 51 19 12 14 18 20 38 49 53 76 86 82 59 22 13 12 12 11 13 16 21 17 13 13 16 20 17 12 8 8 11 14 15 12 13 16 13 15 10 11 12 17 21 22 24 28 31 40 31 33 22 20 21 22 26 20 17 12 12 16 18 19 15 10 9 8 9 10 11 11 12 14 14 13 12 11 13 14 14 18 24 28 28 28 30 40 48 54 53 50 43 32 20 12 10 10 9 10 8 7 6 9 14 15 14 10 11 11 11 11 11 9 7 6 8 10 13 15 17 28 74 124 170 184 187 188 179 166 148 129 110 94 79 68 64 64 65 66 63 59 54 48 42 39 38 38 40 47 74 138 177 165 124 78 126 165 169 137 91 86 81 84 93 106 111 109 104 99 91 84 71 55 45 47 55 62 65 70 72 75 72 65 56 50 50 56 61 65 69 72 76 80 81 81 78 72 65 56 54 62 80 57 0 
0 1 2 3 3 3 3 3 4 4 4 3 2 2 1 1 1 2 2 3 4 4 5 3 2 2 2 3 4 4 4 3 4 4 4 3 7 20 44 60 83 103 102 96 71 46 58 101 160 190 171 114 53 20 9 10 15 22 37 54 56 55 71 85 86 59 20 10 12 14 15 14 14 13 11 12 12 13 14 13 12 10 13 14 15 15 15 13 18 17 19 15 14 15 17 21 26 30 31 31 37 27 26 14 16 20 20 23 17 18 16 14 13 10 9 10 8 10 12 13 12 13 14 17 17 18 15 15 14 15 15 18 19 17 15 12 10 7 15 26 40 51 60 62 56 44 29 17 11 7 8 7 7 6 9 11 11 10 8 6 7 8 11 11 11 10 8 11 13 14 16 18 21 43 73 106 123 123 111 95 79 64 51 45 43 44 46 49 55 60 63 62 62 61 59 57 55 53 51 47 49 84 146 163 153 112 98 148 171 155 119 75 78 83 87 86 84 82 80 77 80 88 98 104 106 102 97 90 81 67 55 48 46 47 52 56 64 69 74 73 64 56 49 48 51 57 62 68 73 78 83 85 83 78 46 0 
0 1 1 2 2 2 3 3 4 3 3 2 2 2 2 2 2 3 3 4 5 4 5 3 2 2 2 4 4 4 4 3 4 4 5 7 19 40 55 72 97 99 99 76 50 57 100 156 190 173 117 57 20 10 9 13 21 40 56 61 53 46 59 82 83 57 23 13 12 11 11 12 15 15 12 11 11 15 16 12 9 8 11 14 14 14 12 14 19 21 23 22 20 19 22 28 34 29 31 29 28 24 23 18 18 20 20 25 16 15 11 12 15 16 12 9 7 8 9 11 14 16 17 18 14 16 15 15 12 13 11 11 12 15 16 14 9 6 8 13 25 36 50 62 64 57 47 34 24 13 7 6 7 8 10 10 10 8 6 6 7 7 11 14 16 16 14 16 19 24 29 35 38 39 40 43 46 42 37 32 29 24 19 19 20 26 29 34 41 46 52 54 55 56 57 57 58 55 51 58 80 125 153 150 145 111 129 162 165 130 77 32 32 36 44 52 61 69 76 82 83 82 80 77 72 70 75 86 97 101 99 94 90 85 75 64 55 47 46 47 52 58 63 69 70 69 67 61 55 52 54 60 65 70 46 0 
0 1 2 2 2 3 3 3 3 2 2 2 2 2 2 2 3 4 3 3 4 4 4 3 2 2 2 4 4 4 3 4 5 6 7 18 40 51 66 87 94 97 83 53 55 94 151 188 176 122 62 23 10 10 12 17 34 51 59 57 44 35 59 82 79 52 18 9 9 11 11 9 9 9 12 16 15 11 9 8 8 11 12 15 11 11 7 11 16 19 27 29 29 24 23 20 27 24 27 26 24 22 14 15 18 24 22 25 17 17 15 17 14 13 9 8 7 8 11 13 17 21 19 20 14 14 12 14 12 13 14 14 10 7 7 9 10 9 8 6 10 18 34 50 60 63 64 59 50 37 23 14 8 8 9 6 5 6 7 8 8 10 14 19 25 32 37 44 52 60 69 74 75 63 44 28 17 13 13 13 15 15 14 14 16 20 18 18 19 19 20 21 24 29 39 45 56 68 92 119 133 146 142 143 128 125 152 164 157 124 82 58 52 45 43 38 35 33 33 36 39 45 51 60 69 77 81 81 78 74 71 69 69 74 82 90 96 95 92 83 76 70 60 50 43 41 46 54 62 67 71 75 74 65 36 0 
0 1 2 2 2 3 3 3 3 2 2 2 2 2 3 2 3 4 4 3 3 2 3 2 2 2 3 4 3 3 3 4 6 6 16 37 52 65 84 88 94 87 59 55 89 147 186 177 127 65 26 12 9 13 18 33 49 59 54 42 25 28 60 78 73 45 14 9 8 8 10 9 10 10 11 11 11 10 8 8 11 16 17 14 9 8 9 14 17 19 27 29 36 30 27 23 22 24 28 32 28 23 16 16 17 23 19 22 15 17 15 15 15 15 12 10 7 6 9 12 15 17 17 17 15 16 14 13 12 12 11 12 9 9 9 10 11 11 12 13 15 17 21 25 32 41 50 56 58 54 44 34 24 15 11 10 10 12 14 17 21 26 32 42 53 64 72 78 82 86 90 91 98 91 67 38 13 9 11 13 18 18 18 17 15 13 11 13 17 21 21 17 14 13 21 32 55 85 118 137 131 130 121 133 133 149 155 147 130 100 76 69 66 64 63 64 66 65 62 57 49 42 34 31 31 35 40 48 56 63 65 70 76 79 76 73 69 70 70 75 82 91 97 96 89 82 79 72 64 54 47 44 46 52 37 0 
0 1 2 1 2 3 4 5 4 3 2 2 2 3 3 2 4 3 3 2 2 2 2 2 2 2 3 3 3 2 2 3 7 14 38 53 69 88 89 93 89 63 55 84 139 184 182 134 70 27 12 10 10 16 31 50 57 55 35 24 15 30 61 77 69 38 9 6 8 7 10 9 10 12 15 17 14 12 12 14 15 16 17 15 11 9 11 16 18 17 24 24 33 27 25 18 14 23 26 38 35 28 21 16 16 23 20 21 13 14 15 15 10 8 8 9 9 9 11 12 16 15 17 16 15 13 15 12 11 11 12 12 10 12 12 13 14 12 11 10 9 11 15 19 23 31 43 53 57 61 60 54 44 32 24 19 19 23 30 39 49 59 67 74 82 89 94 96 96 96 94 92 108 110 89 52 15 10 12 13 16 17 17 16 16 13 12 12 16 19 21 16 15 15 31 56 93 128 145 142 120 110 101 122 134 138 130 112 93 72 64 66 66 65 63 67 70 72 71 69 67 67 67 65 61 55 50 43 36 31 29 30 35 40 44 54 61 75 77 78 79 80 76 71 68 70 79 92 101 102 98 92 84 74 43 0 
0 1 2 2 2 3 4 4 3 3 1 2 2 2 2 2 4 3 3 2 1 1 2 2 2 1 2 3 2 2 2 4 15 35 55 70 94 96 96 90 64 54 81 133 182 185 141 75 28 14 11 13 15 29 51 60 55 39 18 14 10 27 59 76 66 33 6 5 6 8 12 12 14 11 10 8 9 10 12 16 18 20 18 15 11 13 17 20 21 20 24 22 29 23 25 22 19 25 26 39 36 28 18 12 16 22 21 18 14 15 13 12 8 6 7 9 10 12 14 12 12 11 15 14 17 13 15 14 14 12 11 10 11 13 13 11 9 10 13 16 16 15 13 11 13 16 21 27 34 42 51 54 50 41 39 43 50 56 63 70 77 82 86 89 92 94 93 91 84 75 62 59 90 107 97 59 17 10 10 13 15 17 18 19 18 15 12 12 16 20 23 19 17 21 52 92 130 138 131 118 97 85 97 119 119 108 88 65 44 30 34 41 43 46 47 55 60 66 70 70 70 72 74 76 74 69 67 67 67 65 59 53 48 44 36 32 28 32 35 39 45 56 66 72 77 80 81 80 78 74 71 72 77 86 57 0 
0 1 1 1 1 2 3 4 3 3 3 3 3 3 3 2 4 3 4 2 2 2 2 2 2 2 3 3 3 2 3 11 32 55 74 98 105 102 94 65 50 75 127 177 188 148 84 34 12 11 12 15 27 49 60 58 42 22 11 12 11 28 60 76 66 31 7 7 9 10 10 9 9 9 10 10 9 12 14 16 15 16 12 13 11 13 15 20 20 19 22 18 20 15 16 17 18 23 27 31 27 26 23 22 21 24 23 22 14 13 15 17 14 12 12 11 11 12 12 12 12 12 15 15 18 15 14 11 10 9 9 10 12 13 15 15 12 11 9 10 11 14 18 20 24 23 21 18 20 33 51 57 55 51 56 65 72 76 79 83 86 87 86 82 75 66 58 53 51 50 46 53 87 107 97 58 15 11 10 14 15 16 17 17 18 17 13 13 16 18 21 19 19 37 80 118 131 121 108 91 90 100 110 105 90 68 46 29 19 13 14 15 14 13 14 20 27 35 39 41 48 56 64 68 69 68 70 72 72 70 68 66 65 64 62 62 61 57 49 41 37 33 31 31 32 38 48 58 68 74 78 81 81 77 44 0 
0 1 1 1 1 2 2 3 3 2 2 2 3 2 2 2 3 3 3 2 3 3 2 2 2 3 4 4 4 3 9 26 53 70 97 107 106 97 67 48 67 120 172 188 153 89 37 12 8 12 16 27 50 60 60 45 25 12 11 15 14 30 60 76 66 32 9 9 11 13 12 11 10 10 12 13 10 9 10 14 14 18 13 12 10 12 13 17 18 19 28 27 27 22 18 19 23 20 21 19 18 20 16 20 18 27 23 26 16 19 17 21 20 19 15 12 10 11 12 15 17 17 17 16 13 14 12 11 11 11 11 12 14 16 13 12 10 14 14 19 20 19 19 18 19 16 13 11 14 27 38 44 50 57 67 79 85 86 85 80 73 63 55 50 49 48 48 52 55 56 53 57 86 101 86 52 16 11 12 11 14 14 15 16 16 19 18 18 20 19 20 16 24 58 104 123 116 93 79 87 98 101 94 78 57 33 21 14 13 14 14 15 16 16 17 18 18 18 15 12 14 20 29 34 38 41 45 50 54 59 62 64 65 67 68 71 70 67 65 63 66 67 66 60 53 48 43 36 30 27 28 34 40 49 35 0 
0 1 1 1 1 2 2 3 3 3 3 3 4 3 3 3 3 3 3 2 3 4 4 5 4 5 4 5 5 9 28 51 69 87 108 106 103 73 48 63 113 169 190 158 96 41 15 9 12 15 27 47 61 60 50 28 15 12 14 15 14 29 59 74 63 33 14 15 17 15 12 9 9 9 10 12 13 13 10 12 11 12 11 11 12 13 15 19 21 21 26 26 28 21 16 17 18 21 28 28 25 23 18 25 19 26 19 22 14 16 15 22 20 20 17 17 15 12 12 15 17 16 13 13 12 13 12 14 14 12 11 11 12 13 11 13 12 15 15 16 17 18 19 18 18 15 10 8 11 33 48 61 68 69 79 75 68 59 52 49 50 49 50 48 46 45 46 50 56 61 63 65 83 89 71 42 15 12 14 13 15 13 13 13 13 15 14 17 20 20 21 16 34 81 120 121 97 66 77 92 91 81 69 51 33 17 14 15 16 16 14 14 13 13 12 14 16 17 16 16 17 18 18 14 12 12 17 21 24 27 32 36 41 46 53 59 63 64 66 67 70 71 69 67 66 68 71 73 69 62 54 47 38 31 17 0 
0 1 1 1 1 2 2 3 2 3 3 3 4 3 3 3 3 3 3 3 3 4 5 5 5 5 4 6 9 26 53 67 88 104 107 103 79 51 62 110 166 190 163 100 43 16 9 13 15 25 46 60 62 48 27 14 14 14 14 14 14 30 57 73 61 34 13 17 19 16 13 10 13 17 19 19 15 16 13 14 12 13 11 11 11 14 15 17 17 19 25 29 34 29 21 18 16 22 23 26 23 23 17 16 14 20 22 22 17 15 18 21 21 20 18 16 15 13 15 18 21 21 18 16 15 14 12 13 13 12 10 11 11 12 13 14 13 13 15 19 19 16 14 13 14 14 13 14 16 33 45 63 89 84 84 55 47 48 52 53 54 53 52 54 58 61 64 65 64 59 52 50 64 70 57 36 16 16 17 15 15 17 15 13 11 11 12 16 20 20 21 15 49 103 129 123 83 73 90 86 76 55 40 25 15 10 11 13 15 16 17 17 16 17 15 16 14 15 12 13 13 15 17 15 15 13 15 12 12 10 10 9 10 13 23 31 41 41 47 52 59 65 67 67 67 70 72 71 67 64 63 65 66 67 43 0 
0 0 0 0 1 1 2 3 3 4 3 3 4 3 4 3 4 3 3 3 3 3 5 5 5 5 5 11 26 54 67 84 105 105 103 82 54 62 104 161 190 167 108 47 16 9 10 15 23 45 61 63 51 29 15 15 17 16 13 12 11 27 55 71 57 31 12 14 16 15 15 15 14 14 13 15 14 16 15 16 12 10 8 11 11 15 16 20 19 14 16 18 20 19 17 16 15 24 30 47 42 36 22 15 19 19 23 17 15 13 15 17 16 13 14 17 18 19 21 25 24 19 16 13 13 11 14 15 13 11 9 8 10 12 13 15 16 20 18 18 16 14 13 13 13 11 11 12 15 31 47 68 106 94 89 50 39 41 49 57 64 67 68 66 62 57 51 47 44 42 36 36 50 58 52 35 18 17 19 21 26 25 23 18 12 9 9 13 16 18 18 15 61 119 137 132 82 85 99 93 83 52 29 15 12 13 15 15 18 22 23 22 20 19 15 14 11 13 12 14 15 15 17 17 17 15 16 15 16 15 15 14 13 13 16 17 18 17 17 20 25 29 31 36 41 49 56 60 61 64 65 68 67 67 39 0 
0 0 1 1 1 1 2 2 2 3 3 3 4 3 4 3 3 3 4 3 2 2 4 4 5 6 11 29 57 72 84 106 108 108 90 59 58 98 155 189 172 114 53 18 9 11 14 20 41 58 63 52 32 14 13 16 16 13 9 8 10 26 53 67 55 30 11 11 13 13 11 12 14 18 16 15 12 13 13 14 13 11 9 9 10 14 16 16 13 12 14 18 20 20 17 16 15 25 28 38 32 31 24 21 23 22 29 22 17 13 14 19 18 18 16 15 16 16 16 18 22 21 22 16 17 12 14 12 13 8 8 7 10 14 20 25 21 20 19 19 16 13 15 16 19 17 15 18 19 26 34 61 107 103 98 55 59 68 76 77 73 64 55 49 45 42 37 33 26 20 17 22 43 54 53 40 27 26 33 35 39 39 36 26 17 7 8 13 16 17 17 17 72 133 146 133 82 96 120 130 126 94 60 37 28 33 37 34 35 38 39 33 23 15 12 14 10 14 13 15 16 16 17 18 18 16 15 15 16 16 17 17 15 16 15 20 19 20 16 14 14 11 9 9 9 17 22 26 27 32 38 50 55 59 37 0 
0 0 1 1 1 1 1 2 2 3 3 3 3 3 3 2 3 3 3 2 2 2 2 4 5 7 26 56 73 88 108 110 110 96 62 56 90 150 187 174 121 57 20 9 10 12 19 39 57 61 57 38 19 12 16 17 17 13 10 10 14 28 53 65 55 31 11 8 7 9 12 12 13 11 10 11 11 14 14 14 13 13 11 8 8 9 12 15 14 14 14 19 20 18 13 16 16 22 24 31 30 37 25 24 22 23 27 24 20 19 18 19 16 16 13 15 15 18 22 22 20 16 14 10 12 9 15 12 14 13 16 21 29 36 39 34 27 24 19 17 13 9 11 14 20 19 16 15 14 21 26 67 109 110 103 61 80 87 86 68 53 47 41 32 26 23 19 15 11 14 24 39 69 87 92 78 62 56 61 57 51 46 44 35 28 12 10 11 14 14 12 16 81 143 153 127 75 88 114 131 138 128 96 66 41 36 38 36 48 58 63 47 32 17 12 12 11 15 16 18 17 16 15 14 15 14 14 13 13 14 16 19 21 21 18 19 16 17 15 13 12 9 8 9 10 13 12 12 9 10 10 13 16 21 15 0 
0 0 1 1 1 1 1 2 2 3 3 3 3 2 2 2 2 2 3 2 2 2 2 4 6 18 49 70 93 119 116 115 100 67 56 88 142 184 178 126 64 23 11 13 13 20 39 55 62 55 39 19 14 14 19 17 16 11 9 11 16 31 53 63 51 30 13 10 8 9 12 15 15 12 9 8 10 13 13 12 9 9 10 11 13 15 13 12 11 14 20 25 29 24 17 16 18 27 31 34 31 32 23 29 23 26 28 25 19 14 12 16 17 20 15 15 13 14 12 11 12 13 14 12 16 15 19 20 24 26 29 32 35 35 35 32 28 19 15 17 16 17 17 19 22 21 23 25 21 22 21 72 112 120 108 69 101 102 94 64 39 31 24 16 12 13 13 12 10 15 39 70 112 134 139 121 100 95 103 96 71 48 43 38 29 11 9 11 13 14 13 21 90 151 158 120 64 70 97 118 133 144 123 101 73 60 70 68 72 72 80 57 41 15 11 12 14 16 17 17 16 14 12 11 11 11 12 12 12 12 13 16 19 20 19 18 16 15 15 14 13 10 10 9 10 12 12 13 10 11 12 13 15 14 9 0 
0 0 1 1 1 1 1 2 4 3 4 3 3 3 2 2 3 3 4 3 3 3 3 5 14 38 61 83 112 117 118 106 69 54 81 137 181 180 134 69 26 10 10 15 20 38 55 61 56 37 23 16 16 14 17 15 13 9 9 14 23 40 55 57 44 28 14 11 10 9 10 13 15 15 11 10 12 15 15 15 15 14 12 13 14 16 14 14 11 12 23 24 34 23 20 16 18 23 22 26 25 29 20 21 17 25 31 28 26 22 20 23 26 25 19 15 11 14 14 15 15 17 22 26 31 35 37 34 29 28 33 44 51 55 56 46 33 21 17 17 15 15 13 14 18 20 21 23 23 27 33 89 124 129 103 67 108 110 97 54 25 25 25 18 11 13 11 10 8 19 59 100 135 150 147 133 116 124 150 137 99 60 42 39 27 11 6 7 9 9 10 22 98 158 162 115 59 64 94 101 108 139 134 114 78 40 46 56 75 85 97 63 45 15 10 11 13 12 12 12 12 10 10 9 9 11 13 13 13 13 14 14 15 15 16 14 13 13 13 14 15 16 16 15 14 13 12 13 13 13 12 10 13 11 8 0 
0 0 1 1 2 2 3 4 4 4 4 3 3 3 3 3 3 4 5 5 5 4 6 13 34 57 74 102 112 116 109 70 51 75 130 179 182 139 75 28 12 11 14 21 38 56 62 58 40 22 16 14 13 12 15 13 12 9 11 23 35 49 54 48 33 17 11 9 8 9 11 14 13 11 9 6 7 9 11 13 12 11 11 13 15 20 14 13 12 12 23 20 30 19 22 16 17 25 27 38 30 31 19 17 22 25 34 26 21 15 19 31 41 48 41 27 18 19 23 26 30 32 32 31 34 41 45 48 48 58 63 67 63 53 43 34 27 21 16 16 15 18 17 20 22 22 22 27 25 24 39 101 136 137 102 69 112 113 100 57 28 26 24 17 12 12 12 11 10 24 73 121 160 195 180 168 134 130 163 160 121 65 36 31 18 6 5 7 8 8 9 25 104 163 164 111 60 77 106 111 105 131 131 108 75 37 45 55 66 69 77 51 38 14 10 10 10 10 8 6 7 7 10 11 13 14 15 17 18 17 16 13 12 11 13 12 12 12 11 13 13 16 16 15 14 14 14 15 16 16 16 16 17 15 10 0 
0 1 2 2 2 2 3 4 4 3 4 3 4 4 4 3 4 5 6 6 8 7 13 31 55 72 92 106 109 104 70 47 70 121 173 185 145 83 31 10 9 11 20 40 59 67 59 42 23 16 14 13 13 14 15 10 9 8 16 33 46 54 47 33 21 14 9 9 9 12 12 12 11 10 10 8 8 8 9 13 15 18 17 18 14 17 13 13 10 12 18 18 24 18 21 19 17 21 15 26 20 25 18 14 25 23 41 27 25 23 27 46 56 59 55 46 35 29 27 27 30 37 49 58 66 69 68 71 64 63 58 60 58 50 43 37 29 20 17 19 16 15 11 15 17 19 18 20 22 26 44 106 142 135 104 72 117 116 99 56 30 26 23 17 13 13 13 12 12 23 66 111 146 176 154 160 135 163 190 172 127 66 31 26 17 10 10 11 11 11 10 26 106 166 164 108 61 105 140 151 121 114 110 85 52 25 27 35 51 55 59 37 24 10 9 11 9 10 10 11 11 10 14 14 16 15 16 18 18 17 14 10 8 5 6 9 11 13 14 16 16 18 18 17 17 16 16 16 15 14 15 15 14 12 6 0 
0 1 3 2 3 3 4 3 4 2 4 3 4 3 4 4 5 5 7 7 9 12 31 52 70 91 106 108 100 71 46 63 115 166 182 151 88 38 11 7 11 16 36 58 69 64 44 26 15 16 15 12 10 9 9 10 11 15 28 48 57 55 38 24 15 12 10 10 8 10 12 13 10 7 7 6 7 7 8 10 12 15 15 14 13 13 11 12 12 14 18 18 20 18 21 21 19 20 17 22 20 24 20 17 29 24 40 24 22 21 31 54 64 84 78 69 46 41 51 63 75 85 92 89 92 92 88 91 83 91 78 67 53 44 33 23 18 16 14 15 13 16 15 20 20 21 21 23 18 16 39 109 147 132 99 71 120 118 98 54 31 26 22 16 12 13 13 13 12 16 45 80 121 161 155 168 136 153 168 147 102 53 23 20 12 9 11 11 9 9 10 28 110 169 164 106 59 125 162 164 116 80 71 52 30 22 21 21 28 26 29 18 15 10 10 11 10 11 12 14 14 12 15 13 16 14 16 17 16 15 13 10 8 6 5 6 11 16 19 19 17 17 18 17 18 17 17 15 14 13 14 14 14 12 7 0 
0 2 4 3 3 2 3 3 4 1 4 3 5 3 4 5 6 6 6 7 12 26 50 64 87 105 106 101 74 49 58 106 160 179 151 96 44 21 11 11 14 28 53 68 67 49 27 15 12 13 12 12 11 11 11 11 15 24 41 57 56 43 22 13 10 12 11 10 9 12 14 15 12 9 8 7 9 10 10 10 13 15 17 17 17 16 13 9 8 9 15 16 22 17 19 18 19 18 15 14 17 21 24 21 29 28 40 31 26 19 29 55 61 102 83 88 68 66 76 86 92 95 99 100 124 128 121 115 93 94 64 50 33 29 19 16 18 14 15 18 17 20 20 21 21 23 20 19 17 18 45 114 148 129 88 70 118 120 97 53 32 28 21 16 11 11 10 9 10 11 24 43 77 115 117 127 116 128 132 103 65 31 16 16 12 12 13 12 12 12 12 31 113 171 163 103 57 135 176 164 98 39 29 23 19 20 19 18 16 15 15 11 11 12 13 13 11 12 14 15 17 15 18 13 14 11 11 14 11 9 7 8 7 8 7 8 12 17 21 21 19 16 16 16 16 15 14 12 11 9 8 9 10 11 7 0 
0 2 3 3 3 3 4 3 4 2 5 3 5 3 4 6 6 6 6 11 26 49 62 78 99 104 102 81 50 57 98 155 178 152 96 43 20 14 16 14 27 51 66 67 53 28 14 12 13 15 14 13 11 8 8 14 26 39 55 60 49 31 14 10 10 12 12 12 10 12 13 16 15 14 11 10 10 11 11 12 15 16 14 13 13 13 12 11 9 9 16 17 30 21 26 18 18 17 16 17 18 19 20 18 23 24 29 24 20 17 22 46 54 107 87 107 68 77 87 100 104 98 92 94 140 153 152 134 100 99 60 46 28 29 19 14 14 12 14 16 17 19 19 20 22 22 22 18 14 14 45 117 148 126 78 66 115 121 98 52 32 26 19 13 10 10 9 8 7 7 11 17 36 63 76 82 78 75 72 52 34 18 16 14 10 10 11 11 10 10 10 35 116 174 163 99 58 137 181 160 84 19 14 16 18 19 18 17 13 11 10 10 12 14 14 13 10 9 11 13 16 14 16 10 9 8 8 10 7 7 7 8 7 7 5 6 11 14 19 18 18 15 15 14 13 11 12 12 11 9 8 9 11 13 8 0 
0 2 4 3 3 3 5 4 5 2 6 3 5 4 5 6 6 5 9 26 49 62 75 93 99 102 84 53 48 91 147 180 159 103 47 17 17 15 19 26 48 64 65 52 31 16 15 15 12 12 13 13 10 8 14 26 43 55 62 54 36 18 6 5 6 9 10 10 9 14 15 19 17 18 15 15 13 14 13 13 13 13 12 12 13 15 13 11 10 9 16 14 25 18 25 18 18 16 13 18 16 22 20 18 21 20 28 23 21 15 17 31 47 100 85 116 73 104 99 96 78 57 52 65 136 168 174 146 108 105 63 48 29 30 20 15 13 11 14 16 18 20 24 21 21 18 17 14 13 17 51 121 150 124 70 61 109 122 102 53 32 22 14 9 8 9 8 7 6 7 9 11 20 42 64 71 57 40 29 20 20 15 14 11 8 8 8 8 8 9 9 37 120 175 163 95 61 136 180 157 80 20 14 14 13 14 14 17 16 17 15 16 14 14 12 12 8 8 9 10 16 14 14 10 9 10 8 9 5 5 6 8 7 7 5 7 10 12 15 11 10 8 10 10 11 12 14 13 13 11 10 11 13 15 10 0 
0 2 4 3 3 3 4 4 4 2 5 3 5 3 4 5 6 8 25 50 66 81 98 97 99 86 54 40 71 134 176 163 107 47 18 8 11 13 27 49 62 65 54 33 19 16 14 12 11 14 14 13 13 14 26 40 51 54 51 39 25 11 6 5 10 11 10 11 10 14 14 19 21 21 17 16 14 13 11 11 13 14 11 9 7 9 11 12 14 14 17 15 22 19 25 23 23 22 17 24 18 24 17 14 19 14 24 14 17 10 11 19 46 92 85 117 77 110 92 76 51 26 27 59 142 180 185 153 117 113 65 45 27 29 21 15 14 11 11 12 15 14 14 13 14 14 15 15 15 21 55 122 149 123 63 52 101 122 107 58 32 20 11 7 7 8 7 6 5 7 7 11 17 33 56 72 63 42 22 14 14 12 11 10 8 8 9 9 9 10 11 38 123 174 163 93 64 136 178 153 78 20 15 16 13 13 14 15 15 16 17 19 17 16 12 11 8 9 10 9 13 13 15 10 7 7 8 9 6 6 7 9 9 10 9 10 11 10 9 8 8 7 8 8 9 11 13 12 12 9 10 11 12 12 7 0 
0 2 3 2 2 2 3 3 3 2 4 3 4 3 4 5 7 19 47 63 84 101 101 99 87 56 34 45 105 161 173 129 67 29 18 12 13 24 45 63 65 52 31 17 16 15 13 12 10 11 11 11 13 21 37 51 54 48 37 24 15 8 8 9 13 13 11 10 9 12 15 17 18 16 17 15 14 15 13 12 10 7 7 8 9 10 11 13 14 15 16 15 15 15 21 24 24 23 19 22 19 25 25 23 27 18 29 18 21 12 11 18 48 89 97 117 87 118 101 80 50 28 35 72 151 186 185 156 125 124 71 42 24 26 20 17 15 13 11 9 11 16 17 15 11 9 9 11 13 20 57 124 150 124 58 44 91 117 109 68 42 34 21 11 6 6 5 6 6 6 5 10 14 26 46 65 64 46 24 16 15 14 13 12 9 7 5 5 6 8 9 36 123 174 162 92 64 138 178 149 72 13 11 12 12 12 12 13 13 16 16 17 14 13 13 12 13 13 15 17 18 17 17 11 11 9 8 7 6 6 9 11 12 12 12 12 11 11 10 7 7 6 7 9 9 14 16 15 13 9 10 11 11 9 5 0 
0 2 3 2 2 3 4 4 4 2 3 3 3 2 3 5 15 41 60 78 105 102 102 89 59 34 26 59 129 163 151 90 42 30 28 26 27 46 62 69 57 34 22 19 19 14 10 7 6 9 10 14 23 38 53 56 45 29 18 10 9 7 8 11 13 14 13 12 12 11 12 13 16 15 15 14 15 14 13 13 12 8 7 7 8 9 9 12 13 19 21 21 22 19 19 20 23 25 21 18 22 24 26 20 28 21 32 21 19 12 8 22 65 105 118 125 101 125 107 84 58 35 40 77 152 186 174 151 127 131 77 40 20 23 18 15 15 15 14 13 13 12 11 13 14 15 14 13 12 17 58 125 150 123 55 36 81 110 107 74 48 45 34 23 8 6 5 6 5 6 4 8 14 25 47 64 61 45 21 13 14 13 10 10 7 7 6 6 8 9 9 39 124 175 160 90 64 140 178 149 69 13 10 12 10 11 10 11 11 12 13 13 13 11 10 9 11 13 12 14 16 17 16 12 13 11 15 13 13 12 11 11 11 12 12 12 10 9 7 7 6 6 6 7 7 14 17 19 17 11 8 7 7 7 5 0 
0 2 3 3 2 2 3 4 4 3 3 3 4 2 6 13 37 57 74 101 101 101 92 57 33 18 22 73 136 151 128 65 47 45 41 39 46 75 81 75 45 21 19 18 17 12 10 9 10 11 12 21 36 48 52 43 29 18 13 9 8 7 10 14 14 13 12 12 12 14 13 14 13 14 16 15 14 13 13 14 13 9 7 7 10 11 10 11 12 15 22 24 30 22 21 18 17 20 22 22 25 20 28 21 29 21 26 21 18 14 10 25 77 118 134 136 114 138 112 84 59 37 40 76 148 182 163 140 126 138 85 43 16 23 15 15 14 16 17 17 19 20 17 15 16 19 20 17 15 18 61 124 149 121 53 31 71 101 102 73 52 56 43 31 10 5 4 6 5 6 4 7 15 26 48 62 56 39 17 10 12 13 13 14 11 10 8 7 9 10 10 44 126 175 158 86 65 140 178 149 68 17 12 16 13 13 12 10 9 9 10 9 11 12 15 15 16 16 16 17 18 16 15 12 14 13 14 12 11 10 10 10 10 11 10 10 8 8 7 8 7 8 7 7 5 10 14 20 20 17 15 12 11 10 6 0 
0 1 2 2 3 3 5 6 5 4 3 3 3 4 11 29 53 71 97 103 101 93 60 32 18 10 23 78 129 134 108 56 49 47 46 47 65 97 94 77 33 19 21 18 15 11 12 13 12 11 18 33 51 56 50 34 20 16 15 12 9 9 12 15 16 15 17 15 14 15 12 12 12 12 15 16 14 14 13 14 12 9 8 8 11 10 12 10 11 12 22 22 35 24 21 12 12 17 17 18 20 18 24 15 24 19 24 18 17 14 13 30 89 129 140 144 122 150 119 82 55 32 33 70 143 179 157 129 122 141 94 53 18 24 14 18 18 20 21 20 20 17 15 16 23 26 27 20 14 16 61 124 148 117 51 27 63 92 99 71 50 51 42 33 11 6 6 7 5 6 4 7 20 36 57 64 52 33 14 12 15 16 15 12 9 8 8 7 9 10 9 46 127 176 156 84 68 141 176 145 67 20 14 15 12 12 13 11 9 8 9 10 11 10 10 11 15 15 16 13 16 15 16 11 11 12 13 14 13 12 10 9 10 12 10 9 6 7 6 7 6 6 5 5 4 7 11 16 17 15 14 13 14 14 9 0 
0 1 2 2 2 2 3 5 5 5 5 5 5 6 16 41 64 94 104 101 93 62 34 20 10 7 23 71 116 127 104 62 48 43 42 44 70 109 105 85 33 21 18 14 11 11 13 13 14 20 38 55 65 56 37 19 13 16 18 20 19 20 20 18 14 12 15 14 17 12 16 14 16 16 14 12 10 11 13 15 13 10 8 7 12 11 12 10 10 9 17 19 29 24 29 23 19 19 17 22 21 17 18 13 22 16 24 16 19 14 14 31 95 136 138 141 124 158 128 81 53 28 30 67 142 177 153 117 115 140 103 63 22 26 18 25 26 29 26 21 19 19 15 13 18 24 27 21 18 19 64 124 146 113 49 21 56 85 99 72 48 38 33 28 13 7 6 6 5 5 4 9 26 47 61 59 43 27 12 9 11 11 12 12 14 16 19 19 19 16 12 49 129 177 155 85 71 143 173 141 63 17 12 12 9 10 12 9 8 8 10 12 12 16 17 18 19 16 15 11 12 10 10 10 8 9 10 11 9 7 5 9 10 12 10 8 6 6 6 5 5 6 5 4 3 4 6 10 14 17 17 16 15 13 7 0 
0 1 2 3 3 3 4 6 6 7 7 6 7 9 25 55 77 105 98 94 67 36 20 10 7 6 20 55 97 118 106 74 51 39 36 40 70 114 111 88 30 14 10 8 8 11 14 19 26 37 53 61 57 45 36 36 40 44 42 34 23 22 21 23 18 15 16 13 17 10 14 9 11 10 9 7 8 11 13 13 10 8 9 10 15 14 13 10 7 5 10 14 22 25 26 26 22 20 12 12 17 20 26 20 26 19 30 20 23 14 17 35 100 137 132 131 122 162 138 84 54 25 29 66 141 175 150 103 103 134 107 72 26 25 20 25 29 30 27 20 16 11 11 15 20 20 17 12 10 13 64 124 146 110 45 17 51 81 100 77 50 36 30 25 17 10 7 6 5 6 6 16 36 55 59 50 33 20 13 11 14 17 23 27 32 37 43 45 44 35 22 53 131 179 156 86 74 146 173 137 59 15 11 12 10 10 10 8 6 6 7 11 11 10 10 12 15 16 13 10 9 12 11 9 6 7 8 9 8 7 7 9 11 15 11 10 8 7 7 7 5 6 5 4 4 3 5 7 9 11 12 12 12 11 6 0 
0 1 2 2 2 1 2 3 4 5 6 7 12 17 32 55 73 93 88 71 41 20 10 6 7 6 13 35 68 100 106 88 60 37 30 33 69 116 116 89 29 12 10 10 11 12 17 22 34 49 60 57 44 37 41 53 61 60 52 46 42 42 35 28 16 11 11 11 16 13 17 14 16 12 11 7 8 12 14 15 11 9 8 8 12 11 13 12 10 11 13 18 17 24 27 40 30 24 13 11 17 19 27 18 27 17 30 23 25 16 18 38 104 138 127 119 117 163 147 94 61 29 34 69 142 171 146 91 90 124 105 77 30 23 23 29 35 34 28 19 19 16 16 14 16 18 20 17 17 17 69 128 147 109 42 16 49 78 97 78 47 28 24 25 23 18 14 12 9 9 7 23 47 63 55 36 22 18 20 24 32 38 40 41 43 48 52 55 56 49 32 62 135 183 158 88 79 152 176 136 55 11 10 10 8 10 10 9 8 11 12 12 11 10 10 11 11 11 8 9 7 7 7 7 6 8 10 10 8 6 6 9 9 10 7 8 9 8 6 6 5 7 6 5 3 4 5 7 9 11 13 12 10 7 3 0 
0 1 2 2 2 2 2 3 3 4 5 7 16 26 40 52 64 70 61 42 24 10 6 5 5 5 8 19 40 73 97 96 72 42 27 28 68 117 120 90 27 8 7 8 9 13 22 35 52 60 55 40 22 27 51 70 87 86 81 67 45 34 29 24 18 14 11 9 10 11 13 11 12 10 11 10 10 11 12 14 12 12 12 13 15 13 13 13 14 14 12 15 15 23 21 29 23 22 14 12 19 21 33 21 28 17 31 26 25 15 16 42 107 139 125 108 109 162 153 109 65 35 37 71 140 166 140 85 82 117 100 75 31 20 25 29 32 29 24 19 19 18 20 21 21 17 14 11 13 18 72 130 147 107 39 17 46 76 92 74 45 26 21 23 24 23 20 18 15 12 9 31 55 62 52 32 28 28 30 35 43 47 45 42 42 46 48 58 64 63 44 73 141 189 163 93 88 162 184 142 57 9 10 9 10 11 13 11 10 9 9 11 10 8 6 8 8 9 6 7 6 8 7 7 9 10 11 12 13 14 14 13 10 9 9 10 10 9 10 10 8 7 6 6 5 7 8 11 10 8 7 5 5 6 4 0 
0 0 1 1 1 1 1 2 2 3 3 8 21 33 43 42 42 39 33 22 12 6 6 8 13 19 27 34 42 57 79 90 78 47 24 21 66 119 125 94 29 8 8 8 10 17 33 50 58 52 38 23 15 24 56 70 101 95 83 67 54 54 45 28 19 13 10 10 8 11 13 14 14 13 11 10 11 14 16 16 14 13 12 11 11 10 13 15 15 17 14 19 12 17 16 21 19 20 14 15 18 18 23 17 24 19 29 22 21 14 15 45 110 141 126 97 98 156 153 118 66 35 34 70 137 160 136 85 81 112 94 70 31 19 28 35 40 36 23 18 18 19 20 21 20 21 23 22 17 20 73 131 146 106 37 19 45 73 87 67 40 21 14 18 19 22 24 24 23 19 16 36 60 62 56 29 33 30 36 44 54 52 41 33 32 33 29 42 54 64 51 82 149 197 170 96 92 169 192 150 59 10 10 9 14 11 14 9 10 11 14 17 14 12 9 10 7 8 6 8 7 7 7 8 10 10 11 12 13 14 13 12 11 9 7 8 9 9 9 9 8 7 7 5 6 10 11 12 9 9 8 7 7 6 3 0 
0 0 1 1 1 1 2 3 4 5 5 10 22 34 45 45 40 32 22 13 12 16 27 40 59 78 94 104 105 104 113 113 98 74 47 38 77 125 128 94 29 7 7 7 11 24 43 56 53 40 25 14 14 24 55 62 101 95 98 82 55 46 37 30 19 16 11 8 6 8 7 11 9 10 9 11 12 15 16 16 16 16 15 14 13 10 9 13 13 16 10 15 13 20 21 22 18 20 17 22 18 17 15 16 21 24 31 23 19 8 12 46 111 142 125 88 87 149 151 122 66 30 30 67 133 155 133 88 85 112 88 65 27 18 30 37 42 37 20 19 15 15 17 20 23 23 19 15 12 20 73 132 145 104 35 20 44 72 83 63 36 18 9 12 13 16 21 24 27 25 24 47 65 64 57 33 46 35 42 41 46 37 24 17 18 18 16 28 48 61 53 85 158 203 174 95 93 172 199 157 63 10 7 8 13 12 16 9 10 9 9 14 13 15 11 11 9 8 7 7 7 6 7 11 14 13 14 14 15 15 14 12 9 7 8 8 8 9 10 12 12 11 11 11 13 14 14 16 10 9 5 5 7 9 6 0 
0 1 1 2 3 4 5 7 8 9 8 11 20 27 34 35 36 33 35 39 56 77 100 120 137 149 156 159 157 150 150 151 137 119 97 92 120 146 128 85 25 5 6 9 20 37 55 59 46 26 12 10 13 20 43 52 98 93 104 75 59 56 37 29 15 14 11 9 6 7 5 9 9 11 9 10 12 15 17 15 16 13 14 15 13 14 12 16 15 20 14 15 12 16 17 22 15 20 14 22 18 22 20 21 24 27 34 22 19 7 15 51 113 141 121 81 79 142 147 121 61 23 24 64 131 152 131 88 88 112 85 62 24 18 30 37 44 36 20 18 15 13 14 12 14 16 19 18 15 22 74 132 144 104 36 22 45 71 81 60 34 15 7 8 8 9 13 17 22 26 30 57 70 72 56 38 43 33 44 39 39 26 17 17 20 22 22 23 43 57 56 94 167 206 173 88 88 170 203 161 66 10 6 8 14 12 13 6 8 8 10 14 12 14 11 9 9 8 11 10 8 6 6 8 11 13 13 12 11 8 7 7 7 6 8 8 7 6 7 8 10 11 11 9 11 13 13 14 9 10 9 10 11 11 6 0 
0 1 2 3 3 4 6 8 8 8 8 9 13 19 25 32 39 42 51 61 81 101 118 132 144 150 151 153 156 159 160 158 146 136 127 129 142 141 109 63 17 6 9 18 33 48 55 46 29 16 10 9 9 16 34 46 94 86 110 76 63 49 28 27 17 14 10 10 7 6 6 7 8 9 9 10 11 13 17 16 17 14 14 15 13 13 13 18 15 20 18 21 20 22 22 32 20 25 12 20 16 19 16 16 24 24 37 25 23 13 22 57 114 137 115 76 75 138 145 119 58 21 22 65 132 151 129 85 88 113 85 64 23 19 28 35 43 32 19 11 11 12 14 17 21 17 16 15 14 24 75 133 146 105 38 24 47 73 79 57 32 13 7 7 7 6 8 11 16 21 31 63 74 79 50 39 34 41 41 37 33 19 14 16 18 17 15 18 38 54 55 104 175 207 167 77 83 170 205 161 68 12 8 9 13 11 12 6 5 6 7 10 11 12 9 7 7 6 8 8 7 6 6 10 12 13 14 12 10 6 5 5 7 9 10 10 10 6 6 9 11 12 11 12 13 13 10 10 9 9 7 9 10 11 7 0 
0 1 2 3 3 4 6 8 8 9 9 11 12 12 13 17 26 36 52 72 104 138 165 181 184 176 162 148 141 141 140 139 133 129 125 124 122 106 73 37 12 9 19 31 46 55 49 36 20 12 11 11 11 13 21 40 85 85 115 79 70 43 19 16 9 10 10 9 7 8 8 7 9 8 10 10 10 11 12 13 14 17 18 17 19 15 18 22 23 27 28 27 23 20 17 24 17 25 17 24 19 23 24 19 24 18 33 24 25 19 30 62 113 131 108 72 74 136 142 117 56 21 22 68 134 150 128 78 86 114 88 70 24 21 27 35 41 30 19 17 14 14 13 17 16 18 17 19 20 27 76 133 147 106 39 25 49 73 78 55 30 13 7 7 6 4 5 5 9 13 25 61 75 80 46 40 29 50 42 40 30 20 20 21 17 15 15 16 27 49 53 115 182 205 159 68 82 171 205 160 70 16 15 15 17 12 11 6 4 4 8 10 12 9 8 5 5 6 8 8 8 6 5 7 9 10 11 9 9 7 6 5 5 7 10 10 8 4 4 7 7 9 8 9 10 10 7 8 7 8 10 12 11 9 5 0 
0 1 2 2 2 3 5 6 6 6 5 7 8 9 10 12 16 23 36 53 75 94 109 120 128 133 135 135 138 142 144 142 123 102 84 80 75 59 36 16 11 19 33 48 57 54 39 26 13 12 11 10 10 13 15 49 92 103 127 88 77 40 16 12 9 10 9 10 10 9 9 8 8 8 10 10 12 15 18 20 17 15 17 16 18 13 20 19 21 25 30 35 34 24 19 17 18 24 21 25 18 17 14 12 21 22 33 27 30 25 33 61 109 125 104 69 75 135 139 114 51 22 23 71 135 148 124 70 83 113 90 76 24 24 29 38 41 34 18 17 14 17 14 26 19 20 13 13 14 26 78 135 146 105 38 26 49 74 76 53 29 13 7 7 6 4 5 4 7 8 19 53 71 77 49 37 33 46 37 31 19 15 17 18 14 11 9 13 20 45 49 120 186 200 152 60 83 173 204 156 65 14 17 15 15 11 10 7 7 8 9 10 10 9 7 5 6 5 7 6 7 7 7 6 6 6 7 7 7 5 4 6 8 11 11 10 8 5 6 9 10 11 8 8 8 8 6 5 5 7 6 6 6 7 4 0 
0 1 1 1 2 2 4 5 6 6 6 7 9 8 8 9 11 12 16 24 39 58 78 96 109 119 126 130 132 132 139 151 140 105 58 31 26 16 14 14 20 34 49 57 52 39 25 17 11 9 8 9 12 15 16 62 105 122 141 102 91 45 14 8 7 7 7 8 10 11 15 14 11 10 11 12 14 14 15 15 14 13 15 15 18 16 24 24 30 27 29 31 29 22 21 16 20 27 31 34 23 20 16 19 22 26 31 29 29 26 34 59 107 121 103 68 76 134 135 112 47 24 25 73 134 143 120 63 81 112 90 79 25 28 34 44 44 34 18 18 14 15 11 20 15 19 14 15 19 29 79 135 143 103 36 25 49 73 75 52 29 13 8 7 6 4 5 4 7 7 13 43 62 65 46 27 30 31 30 24 20 21 21 20 14 12 8 11 13 34 45 115 186 192 145 54 86 175 202 151 60 12 18 16 16 11 9 7 7 8 9 14 13 14 11 10 7 6 8 7 8 7 7 7 5 5 5 6 7 6 6 5 4 6 7 8 6 5 7 11 12 11 10 10 11 10 7 6 5 6 6 6 6 5 2 0 
0 1 1 1 2 2 3 4 4 5 5 4 4 5 5 6 5 5 6 9 16 24 33 44 57 69 80 92 101 113 142 179 177 135 80 30 23 16 16 20 32 47 58 57 42 26 16 12 9 7 6 7 10 15 19 72 118 133 151 114 106 56 16 8 8 10 11 13 17 16 15 14 14 12 12 11 15 16 16 15 14 12 14 14 17 16 24 22 25 22 26 27 25 22 18 18 19 26 27 30 21 18 14 20 25 33 35 31 28 24 31 57 108 121 105 66 77 133 130 110 44 28 27 74 131 137 114 59 82 110 91 79 27 32 39 49 49 36 17 15 15 14 15 18 13 11 8 9 18 30 82 135 139 99 33 24 49 73 75 51 28 14 9 7 7 4 6 5 5 7 9 37 56 62 48 24 26 22 22 15 14 15 17 16 12 11 10 12 13 23 35 98 175 180 135 52 87 175 198 150 59 15 19 14 15 10 9 9 9 10 9 12 10 12 10 11 11 9 10 9 12 9 7 6 7 8 8 7 6 5 4 5 6 7 7 7 7 5 7 12 16 16 14 9 7 7 7 6 5 4 4 3 4 4 3 0 
0 1 1 1 1 2 2 4 4 5 4 4 4 4 3 3 2 3 3 3 2 2 4 5 8 11 15 22 29 44 90 153 185 160 103 49 28 18 21 33 50 61 61 49 29 13 9 10 13 12 8 9 11 14 24 84 132 136 152 117 118 69 25 16 13 12 11 11 15 17 21 18 19 14 16 15 14 14 13 12 12 13 15 16 20 21 27 25 24 19 18 16 13 18 15 25 19 28 22 24 21 21 22 25 28 30 38 29 30 23 31 64 113 123 105 63 79 130 123 107 40 29 27 73 128 131 109 57 83 108 91 77 29 33 42 51 52 35 15 9 9 10 14 16 16 15 17 18 25 33 83 132 136 95 30 23 49 73 75 50 27 13 9 7 7 5 6 7 4 7 6 33 52 55 40 17 16 12 12 11 14 16 16 15 15 12 11 11 15 19 29 87 159 167 123 47 86 170 191 150 65 32 32 27 21 11 7 8 10 14 15 19 15 15 13 14 15 13 13 9 10 9 10 10 11 11 11 9 7 6 6 5 6 6 7 6 6 5 7 10 12 14 12 11 11 10 11 10 9 7 7 5 5 5 3 0 
0 1 2 2 2 1 1 3 3 4 4 3 3 3 2 3 2 3 3 3 2 2 3 4 5 4 3 4 4 9 51 116 166 169 120 72 41 29 35 46 56 59 50 37 20 12 9 8 10 10 9 8 9 10 23 86 135 131 143 113 125 79 32 15 16 14 15 14 19 18 20 15 14 9 10 13 15 13 10 10 11 13 15 15 15 16 18 16 15 14 19 23 19 19 12 25 19 32 25 22 19 16 22 22 31 28 43 28 29 21 32 72 118 123 104 58 80 127 116 103 37 32 27 73 124 126 104 56 85 106 92 74 30 33 44 54 57 37 15 10 11 15 19 18 15 13 16 19 21 32 83 133 135 93 28 25 50 73 74 49 27 12 9 7 6 5 6 7 5 7 8 35 54 55 40 16 15 16 16 16 16 17 16 12 10 9 14 16 19 16 19 76 141 154 110 41 84 159 179 145 72 51 49 43 32 19 9 9 13 22 30 37 36 33 30 30 30 29 27 23 19 16 14 13 13 12 11 9 9 6 8 8 10 8 8 8 9 8 8 10 11 13 11 9 8 7 9 8 7 6 6 5 5 5 3 0 
0 1 2 2 2 2 3 4 4 4 3 3 3 3 3 3 2 3 3 3 2 1 3 4 5 4 4 5 5 7 36 88 135 162 138 103 79 69 71 68 62 54 42 31 19 18 17 16 17 14 11 8 8 8 26 92 140 130 134 108 127 88 45 21 20 14 14 10 13 12 17 16 15 12 14 13 14 15 14 13 13 13 14 16 16 16 13 10 8 14 17 24 19 20 15 22 21 30 29 24 22 15 24 21 33 27 42 27 30 26 35 78 121 121 101 54 80 123 111 97 32 32 26 73 120 121 99 54 84 103 93 70 29 31 45 57 57 35 13 10 13 18 21 22 19 19 20 25 22 32 82 134 136 90 27 27 50 73 73 48 27 12 9 7 5 5 7 7 5 6 10 37 55 54 37 13 12 12 11 13 15 16 13 12 12 13 13 15 19 19 22 78 135 148 102 37 81 145 161 127 63 52 56 58 47 30 10 10 23 38 48 50 48 43 40 41 45 49 48 45 42 41 36 28 23 17 16 12 10 6 8 9 12 10 9 7 7 7 8 9 9 11 11 11 10 9 10 9 8 8 11 10 9 6 3 0 
0 3 5 5 4 4 4 4 3 3 2 2 2 2 2 2 2 2 3 3 3 2 3 5 6 6 5 6 7 7 21 60 99 141 148 138 117 105 101 88 76 52 36 25 15 15 13 12 12 11 10 9 11 10 32 97 143 130 123 100 126 96 52 22 14 14 14 13 17 17 17 15 13 10 11 13 16 15 14 14 13 13 13 10 9 11 13 15 14 19 20 29 22 20 12 13 23 32 42 32 29 16 20 19 29 30 42 31 30 26 37 81 123 119 98 50 78 119 106 91 27 29 22 71 116 116 95 49 83 100 94 68 29 29 48 63 61 37 12 11 13 16 18 16 13 14 16 18 19 33 85 135 136 89 27 28 51 72 72 48 29 13 10 8 5 4 6 6 5 5 11 37 55 53 35 13 11 12 13 15 14 13 9 8 6 11 12 15 16 15 18 77 133 145 98 37 80 139 149 114 52 41 46 56 54 41 19 15 33 49 61 59 57 56 55 54 54 57 60 60 57 52 47 41 36 32 32 31 29 26 26 24 23 17 12 8 9 9 11 10 11 10 10 9 8 7 8 8 8 10 10 10 8 7 4 0 
0 2 3 4 4 4 4 4 3 2 2 2 2 2 1 2 1 2 3 3 3 2 3 4 5 5 5 5 6 7 11 32 62 103 121 126 112 112 115 112 98 70 44 29 15 15 15 13 12 10 9 8 10 10 35 100 144 129 112 90 123 105 64 30 13 12 13 13 14 13 15 16 16 15 16 16 18 20 17 15 14 11 12 10 11 11 11 12 12 16 19 23 18 20 17 18 24 27 42 32 30 16 16 19 25 33 37 29 24 22 36 80 124 119 96 48 76 116 103 87 25 25 20 68 112 111 90 44 83 98 97 68 29 27 50 66 64 39 10 11 14 16 15 14 13 13 19 21 23 34 89 136 135 89 26 29 51 71 71 48 31 15 9 9 5 5 6 6 5 4 11 37 56 55 37 16 12 11 10 9 10 9 8 11 14 17 13 12 14 16 23 81 135 144 97 38 81 138 142 99 35 25 32 49 56 51 34 28 46 55 58 43 36 36 37 40 43 47 52 56 58 57 55 51 47 46 46 47 46 43 41 40 39 35 30 26 23 22 22 20 18 13 11 9 9 8 9 9 9 12 13 12 9 6 4 0 
0 3 5 5 4 5 4 4 2 1 1 1 2 2 1 2 2 2 3 3 4 4 3 5 6 5 5 4 6 7 7 16 38 82 118 138 117 109 119 124 119 91 52 32 13 13 12 10 11 11 10 10 10 11 38 103 145 127 101 79 117 110 76 38 19 13 11 11 15 16 19 19 19 17 15 15 17 17 16 14 14 12 14 11 13 12 17 17 17 15 14 14 16 16 14 15 19 26 32 29 32 23 23 22 22 31 33 28 22 22 37 82 125 120 94 48 75 115 102 84 23 20 16 64 108 108 86 41 84 98 102 68 33 29 52 70 68 43 15 14 13 11 10 9 9 12 16 24 34 41 93 134 132 88 25 29 51 72 71 48 31 16 10 9 4 4 6 6 5 4 10 36 57 57 39 17 13 15 14 13 10 8 9 11 15 17 16 14 15 14 20 77 133 142 94 37 83 139 143 98 32 16 15 32 48 61 58 55 64 56 49 29 22 26 32 35 32 30 32 35 35 36 39 43 47 49 51 54 57 58 56 55 53 52 48 43 40 39 39 37 37 34 29 23 17 14 12 10 13 15 16 14 11 8 5 0 
0 1 2 2 2 3 3 3 2 1 0 1 2 2 2 2 2 2 3 3 3 3 2 3 4 4 4 3 3 4 7 11 30 73 96 97 73 64 101 111 125 91 54 34 12 12 9 8 8 9 10 11 10 13 39 103 142 125 91 70 110 108 82 39 18 15 16 12 10 11 14 16 16 15 16 17 18 19 17 14 11 9 12 12 18 15 18 15 17 18 22 22 22 18 18 19 16 20 22 26 27 25 28 26 26 29 31 24 18 20 36 84 125 120 92 48 75 115 101 84 21 18 14 62 107 107 83 40 83 97 111 81 58 54 74 88 79 51 20 15 13 13 9 10 9 12 15 20 26 38 93 134 130 87 24 30 52 73 71 46 30 15 10 9 4 5 6 7 7 4 11 37 57 58 42 24 18 16 12 10 8 7 10 12 19 17 16 15 18 18 25 80 132 139 92 38 86 141 143 96 30 16 15 22 33 48 55 56 60 48 37 20 18 22 22 21 17 15 14 17 19 23 27 30 32 33 34 36 41 45 48 50 52 55 56 57 56 54 51 49 47 47 45 42 37 34 31 27 26 26 26 26 22 16 9 0 
0 2 3 2 2 3 3 3 2 1 1 1 2 2 2 2 3 2 4 4 4 4 2 3 4 4 4 3 2 4 7 14 40 84 103 107 86 64 103 93 112 70 46 26 11 13 11 9 10 11 12 13 11 16 40 104 140 123 85 64 104 105 83 42 23 17 15 11 12 14 16 18 16 15 14 13 10 10 12 14 14 13 14 14 17 14 14 13 14 16 17 20 19 20 16 13 15 22 24 27 26 25 30 27 28 28 28 23 17 23 39 86 125 118 91 47 75 116 99 83 20 21 16 66 108 106 78 36 77 97 124 105 91 79 94 107 93 60 25 20 15 14 12 12 11 10 12 18 28 38 91 134 130 86 24 32 53 74 71 44 28 13 10 8 3 4 6 7 5 4 12 38 58 57 39 18 16 15 13 13 13 14 15 14 16 17 18 17 20 18 24 79 130 137 91 39 87 142 142 93 26 11 8 11 25 41 54 56 52 39 28 19 18 22 23 25 18 18 18 18 16 16 17 20 21 21 22 25 30 32 34 35 36 38 40 43 47 48 47 48 51 57 61 62 59 55 51 46 42 41 42 41 39 35 21 0 
0 1 3 3 2 3 2 3 2 1 1 1 2 2 3 3 4 3 4 4 4 4 3 3 4 5 5 4 2 3 6 16 47 96 109 98 65 48 87 67 87 43 35 19 9 9 6 5 6 8 11 13 12 18 42 104 137 121 83 62 103 103 80 35 15 15 17 14 15 14 13 10 9 10 13 15 17 16 16 15 13 12 15 17 17 16 13 14 15 19 22 32 24 21 12 12 20 21 28 23 25 19 23 27 29 34 30 27 18 25 42 87 126 117 89 47 75 114 100 90 37 49 49 92 116 102 70 28 60 82 108 100 89 82 112 129 111 73 29 20 18 11 11 10 9 8 11 11 18 34 92 136 131 85 23 33 54 74 70 43 26 12 8 7 3 5 6 7 5 5 13 40 58 55 38 17 14 12 11 12 13 14 12 12 13 15 16 17 20 17 25 83 133 138 91 40 90 143 140 91 29 22 21 18 16 18 25 28 27 21 18 20 25 33 28 26 20 19 16 15 13 15 14 17 17 20 21 20 17 17 19 18 18 18 22 24 28 29 29 29 32 38 45 51 55 57 58 57 56 54 54 56 57 55 34 0 
0 1 2 3 3 3 3 3 3 2 3 2 3 3 4 4 4 4 5 4 4 3 2 2 3 4 4 3 2 3 5 13 41 85 102 94 75 61 100 70 78 33 26 10 8 11 10 9 8 9 11 11 9 16 41 103 134 120 81 64 106 107 84 36 15 12 12 12 16 17 18 14 14 14 15 14 14 14 16 15 16 15 14 12 10 8 6 7 7 12 13 20 17 18 13 12 22 24 41 26 25 13 16 26 26 41 30 30 17 24 42 88 126 116 86 44 70 109 115 118 86 93 91 111 115 86 53 20 41 60 83 88 84 83 118 135 118 71 23 18 18 14 13 10 9 9 12 14 21 36 96 140 134 85 23 34 56 74 68 42 26 11 7 6 3 4 5 6 4 5 14 41 58 54 35 14 13 12 14 17 20 20 16 13 12 14 14 12 15 16 28 87 135 137 87 38 92 143 138 87 24 17 19 18 19 18 18 19 19 17 15 14 17 22 23 22 19 18 20 20 19 20 18 18 15 17 18 21 20 19 18 17 19 14 13 11 14 16 18 17 17 22 29 37 42 47 49 48 44 42 43 48 52 55 35 0 
0 1 2 3 3 3 4 4 4 4 4 4 4 4 4 4 4 4 4 4 4 3 3 4 5 5 5 4 3 4 5 9 32 79 106 101 89 67 91 70 67 28 23 11 9 9 8 10 10 11 8 8 10 19 43 103 131 118 80 67 112 110 86 33 15 15 16 16 17 15 15 13 13 11 10 13 17 17 16 13 11 11 11 13 11 10 10 11 10 10 14 18 18 16 13 13 24 21 30 20 23 15 14 25 25 46 35 35 22 25 42 89 125 115 83 41 60 98 120 124 109 106 96 93 85 64 46 30 39 47 59 59 51 57 102 130 120 72 22 16 14 13 12 13 10 11 11 14 21 37 100 142 135 84 24 35 56 73 68 42 26 11 6 4 2 4 4 6 5 7 15 41 58 53 33 9 9 10 12 13 13 13 10 11 14 15 17 15 16 17 31 92 137 134 81 35 92 140 138 86 28 22 29 21 19 13 12 15 13 15 13 17 21 23 26 23 22 18 14 13 11 15 16 17 15 17 17 21 18 16 15 13 13 10 10 9 8 8 11 13 14 13 13 16 21 24 26 28 30 31 30 32 38 45 30 0 
0 1 2 2 2 3 4 4 4 4 4 5 4 5 4 4 4 4 4 4 2 2 2 3 3 3 3 4 4 4 5 5 20 66 104 108 92 67 68 66 56 34 21 8 7 9 10 12 10 10 8 9 9 18 43 102 129 117 79 70 116 113 90 35 16 12 13 14 16 15 16 16 17 13 10 10 11 14 14 12 11 12 8 8 8 9 11 11 11 13 20 23 20 16 14 14 19 18 22 19 18 16 17 29 28 45 39 33 21 26 46 91 123 111 78 33 39 64 87 95 95 92 85 78 68 52 43 39 43 45 50 58 68 82 113 126 109 63 21 9 12 13 13 15 14 15 15 16 20 39 101 143 135 82 22 35 56 73 67 42 26 10 6 5 4 4 4 6 5 7 14 40 57 52 34 13 12 12 13 14 14 15 16 15 18 15 15 12 13 16 34 95 139 132 76 32 92 137 136 81 24 16 21 21 27 25 24 23 19 18 12 13 13 14 18 15 18 15 15 17 15 21 21 19 12 9 8 13 13 16 16 16 15 15 13 11 10 12 17 16 16 13 13 11 16 19 25 24 21 16 17 19 24 26 18 0 
0 2 2 2 2 2 4 4 4 4 4 5 4 5 4 4 3 3 4 4 3 2 2 4 5 5 4 4 4 5 4 3 15 63 106 119 88 57 40 51 41 38 23 10 8 6 6 8 10 11 9 9 12 21 44 103 129 118 80 73 119 115 91 34 19 17 18 16 15 14 16 15 13 11 8 10 10 10 9 10 8 8 8 9 10 10 13 14 16 20 19 26 20 23 16 14 16 15 15 14 17 23 21 31 31 43 39 32 30 47 71 107 123 102 73 39 38 49 63 68 66 57 46 40 42 51 64 76 88 102 116 128 134 132 133 126 96 59 27 13 12 12 15 18 16 14 12 11 16 38 101 143 133 78 20 33 56 74 67 42 25 10 7 6 5 5 6 7 6 7 16 40 56 51 31 11 12 13 12 10 10 10 12 14 18 17 19 17 15 14 31 96 140 131 75 32 93 136 135 81 24 17 19 20 20 19 18 17 15 16 15 19 22 23 25 22 21 18 14 13 11 17 18 20 18 16 17 19 16 14 12 11 8 9 11 14 15 14 16 17 20 14 13 9 13 12 15 16 18 16 15 13 17 20 16 0 
0 1 2 2 1 1 3 2 3 3 3 4 3 4 3 3 2 4 4 4 3 2 2 2 3 3 3 4 5 5 3 3 14 68 110 124 82 40 14 39 35 40 18 7 8 7 8 9 9 10 11 9 11 18 44 104 130 118 82 78 122 114 87 30 16 11 10 9 13 12 14 15 13 10 10 13 16 17 14 13 12 11 10 8 8 8 8 10 11 23 24 43 26 25 14 13 17 13 16 15 18 20 20 31 31 39 31 26 32 66 91 110 103 80 60 36 34 34 34 36 45 58 72 86 102 116 128 136 143 149 152 152 148 139 122 106 70 46 20 14 15 13 12 13 13 13 13 14 19 40 102 141 128 74 17 32 56 75 68 41 23 10 8 8 7 7 7 8 6 6 16 42 58 50 29 10 11 13 14 14 14 16 16 15 14 13 12 11 13 15 35 99 142 133 76 34 95 137 132 76 20 15 15 19 23 27 24 21 17 12 13 16 19 23 21 22 19 19 19 21 22 24 23 22 18 14 13 13 14 16 16 16 15 16 16 15 14 14 16 15 13 11 13 13 15 16 19 20 19 17 18 22 31 36 25 0 
0 1 2 1 1 1 2 2 3 4 3 4 3 4 3 3 2 4 4 5 4 2 2 2 3 4 4 4 4 5 3 4 16 72 115 123 80 36 15 44 37 42 19 7 7 8 8 8 9 10 12 10 11 17 44 106 132 118 84 85 124 111 77 24 17 13 14 9 11 9 12 14 15 13 15 14 15 14 13 12 11 9 8 8 9 9 9 12 12 24 20 34 22 27 22 21 25 19 23 19 22 22 20 30 28 37 25 26 48 91 109 105 74 56 53 54 66 78 92 107 122 134 142 148 151 150 147 142 138 136 140 145 144 133 105 81 48 32 18 18 18 17 16 15 13 12 11 12 18 40 102 139 125 72 15 32 56 76 68 40 22 10 9 9 8 9 9 9 6 5 18 45 59 50 27 10 12 14 13 13 12 13 12 12 10 10 11 12 11 11 33 101 144 133 76 37 98 139 131 74 19 16 19 18 14 11 11 13 17 19 20 20 19 24 19 20 16 18 21 20 22 20 22 19 19 20 23 23 20 17 14 13 14 15 18 20 21 18 16 14 12 14 15 14 13 11 10 10 12 15 18 22 32 45 34 0 
0 1 2 2 2 1 2 2 2 2 3 4 4 4 2 2 1 4 5 6 5 3 2 1 2 3 4 5 5 4 4 4 19 73 120 119 79 37 21 51 40 43 18 6 9 10 8 7 7 9 11 13 12 20 47 107 131 117 87 94 127 108 66 16 11 10 13 11 13 10 11 10 12 13 16 18 19 18 16 14 11 9 8 9 9 9 11 15 13 20 19 27 22 24 18 18 20 20 26 26 30 27 22 30 27 37 25 27 55 95 113 108 84 88 104 120 133 140 147 151 153 151 146 140 137 136 136 132 122 109 100 90 79 67 55 42 27 18 16 19 21 17 14 14 17 22 21 20 23 45 105 139 123 70 15 34 57 76 67 39 22 10 9 9 8 9 9 8 7 5 20 47 60 51 26 11 13 14 15 15 13 14 14 13 11 9 7 8 11 19 42 106 145 132 75 37 100 141 127 69 14 14 18 17 20 18 18 20 20 21 18 19 16 20 19 22 23 20 23 21 26 19 19 13 14 15 17 18 19 18 17 16 16 17 16 14 11 11 12 12 11 12 16 20 24 26 31 36 37 35 30 34 46 55 37 0 
0 1 2 2 2 2 2 3 3 2 3 5 5 5 3 2 2 4 5 5 4 3 2 2 2 3 3 4 4 5 4 4 18 73 124 117 82 37 24 55 42 45 22 7 7 7 9 8 7 9 8 11 10 16 45 107 130 116 93 106 131 105 55 12 10 13 14 15 10 9 9 10 12 12 14 16 17 18 15 16 12 10 8 8 8 9 13 16 17 23 26 30 26 24 20 24 22 22 26 27 27 23 19 26 26 35 28 29 63 98 131 142 130 140 147 148 146 144 141 142 146 150 145 132 116 99 83 66 49 37 33 37 40 38 33 26 20 15 15 18 21 21 21 21 23 23 21 19 25 47 106 139 122 68 16 35 59 76 66 38 22 11 9 8 7 7 7 6 6 5 21 49 61 51 25 11 14 15 14 13 13 14 13 14 15 15 16 17 17 20 43 107 144 128 73 37 101 140 126 70 14 14 20 17 17 10 12 20 26 33 28 26 20 21 20 20 24 20 23 13 16 13 17 16 16 16 18 18 16 14 10 9 9 12 13 15 14 14 14 12 14 13 15 15 20 28 42 52 60 62 59 56 54 48 34 0 
0 1 3 3 2 3 4 4 3 1 3 4 5 4 2 1 2 4 5 6 4 3 2 1 1 2 3 4 4 5 4 5 18 74 127 116 82 34 27 58 42 42 20 11 13 10 8 8 8 8 10 9 10 14 46 107 129 117 101 117 133 100 46 12 9 14 12 17 12 10 9 7 7 9 13 18 17 20 17 19 15 13 12 11 10 8 10 13 15 21 25 30 26 25 15 15 15 17 22 24 27 24 21 26 27 31 31 28 52 79 113 135 137 140 140 139 137 128 113 105 94 84 70 53 41 36 38 39 37 33 29 28 28 28 25 21 17 15 16 18 18 15 16 22 28 29 28 20 23 48 109 141 121 66 16 37 60 77 65 38 23 12 9 7 5 5 5 6 7 8 23 50 61 52 27 12 12 14 14 13 13 13 15 17 17 16 14 14 17 23 48 110 144 125 71 37 102 140 126 70 15 14 17 16 23 23 25 24 21 22 17 20 18 20 23 25 30 19 19 9 13 12 13 14 14 15 15 15 19 20 20 19 16 15 15 13 8 7 13 21 34 37 38 35 37 47 59 63 60 56 54 51 47 37 22 0 
0 1 2 3 3 4 4 5 3 2 2 3 4 4 2 2 2 4 4 4 3 2 2 2 2 2 2 3 4 6 5 6 19 80 129 117 79 29 33 53 43 37 19 10 10 9 11 9 14 8 11 6 8 11 47 107 127 119 112 126 131 90 35 10 8 13 11 15 11 11 10 11 9 9 9 16 15 19 16 17 14 12 12 11 8 7 7 9 13 24 30 42 31 26 16 16 15 14 19 17 18 15 16 23 24 26 24 26 39 67 94 118 126 120 108 90 75 59 44 38 38 43 44 40 37 34 30 26 22 21 20 21 18 17 16 14 11 10 11 13 14 14 16 19 21 22 21 19 25 51 112 143 121 63 16 38 61 77 64 38 24 12 10 7 4 3 3 5 8 8 24 50 62 52 26 10 8 7 7 10 11 12 12 13 16 21 23 24 21 23 46 109 145 125 69 39 104 141 128 73 20 16 17 15 18 17 19 21 22 21 17 20 20 21 19 16 21 19 21 15 13 13 16 19 16 13 11 12 17 18 20 18 16 13 12 12 13 13 18 32 49 60 62 59 59 62 55 51 48 47 49 45 38 32 16 0 
0 1 2 2 3 4 4 6 4 3 2 3 3 3 2 2 3 4 4 5 4 3 2 2 2 2 2 3 4 6 5 6 23 89 130 120 76 23 38 45 42 27 14 11 15 9 12 9 15 11 13 9 12 14 49 106 126 123 124 132 125 76 25 16 15 16 15 15 10 11 11 13 12 13 11 13 12 16 16 17 15 12 10 11 10 11 10 9 9 18 22 34 25 22 14 13 15 14 18 14 18 14 16 24 23 25 21 27 27 36 49 60 59 47 39 36 37 37 36 34 30 29 29 28 27 25 23 21 18 17 14 13 15 16 14 12 10 11 10 9 8 7 9 14 18 18 18 15 18 51 116 145 122 60 16 38 62 77 64 38 23 11 9 6 4 3 4 6 9 9 25 50 62 53 27 13 11 10 8 8 10 10 11 13 15 16 14 14 14 18 48 112 148 128 69 43 107 144 128 71 21 18 18 15 19 21 23 20 14 9 8 10 13 17 20 20 21 18 15 14 14 13 14 13 14 14 15 15 21 27 35 31 31 33 40 43 38 32 36 51 62 69 65 60 56 52 42 31 15 13 17 19 25 28 22 0 
0 1 2 2 3 3 4 5 4 3 3 3 3 3 3 3 3 3 3 3 2 3 3 3 2 2 2 3 4 6 6 8 27 99 130 123 70 24 46 42 40 21 11 11 17 13 15 11 12 10 10 10 14 19 54 108 123 130 133 136 119 65 19 15 12 14 14 14 15 14 13 13 12 13 13 13 11 11 11 12 12 11 9 11 11 12 14 14 17 22 25 28 22 17 14 14 17 15 20 15 17 12 15 25 22 27 16 21 23 28 32 34 38 37 36 31 29 28 27 24 22 18 18 19 20 18 12 10 8 11 13 13 12 10 8 9 10 13 15 14 15 15 14 14 15 15 17 15 22 57 120 149 123 59 16 39 62 76 63 37 22 10 8 5 4 3 5 6 9 8 24 50 62 52 26 14 11 12 10 12 11 9 8 9 11 14 14 16 16 19 50 115 150 128 68 46 112 149 133 75 27 23 21 14 15 12 15 18 21 22 21 19 21 20 18 14 14 17 21 23 22 21 20 15 16 12 14 15 22 20 23 20 28 37 50 58 59 54 52 53 55 62 61 62 61 53 39 23 14 12 10 11 26 29 26 0 
0 1 2 2 2 2 2 4 3 3 3 3 3 3 3 3 3 3 3 3 3 4 4 3 3 2 3 3 4 5 5 7 31 103 128 122 63 26 40 34 31 14 9 13 14 14 11 10 9 10 10 10 15 22 56 109 119 137 138 138 113 54 17 19 17 16 15 15 13 12 11 11 12 13 13 12 10 12 13 17 17 15 13 13 13 15 19 16 17 18 20 20 18 12 13 12 16 21 26 20 19 12 13 24 20 30 19 22 20 23 27 25 26 22 24 21 19 18 18 15 13 12 14 16 15 15 12 13 10 11 13 15 18 19 16 18 18 17 15 12 13 15 15 15 15 14 17 18 28 65 126 149 121 57 17 39 63 76 63 36 21 8 6 4 4 3 5 5 7 6 25 51 64 53 27 16 13 16 11 12 11 11 10 13 14 15 13 14 16 23 55 118 148 124 64 47 115 154 134 70 21 20 21 15 15 15 18 20 22 22 19 16 19 21 26 25 24 21 17 18 18 20 19 19 18 16 28 34 43 42 42 37 47 56 67 67 58 49 43 43 43 39 33 32 32 29 24 19 19 19 22 23 33 36 31 0 
0 1 2 2 2 2 2 4 3 3 3 3 3 3 3 4 4 4 3 2 2 4 4 4 3 3 3 3 3 4 4 6 34 102 125 116 58 31 35 32 23 13 12 19 18 18 12 10 7 6 7 12 24 38 72 116 112 140 136 138 104 43 16 11 9 10 9 12 13 12 8 6 7 10 12 13 9 11 11 14 15 16 15 14 14 12 16 16 20 23 26 25 23 19 19 20 22 23 24 19 16 11 10 22 20 30 21 18 15 15 21 19 21 15 15 11 12 11 10 12 13 13 11 12 13 16 15 15 15 16 17 15 14 13 13 18 21 22 20 18 18 17 17 17 19 19 21 25 34 67 124 143 116 54 17 39 64 76 61 35 20 8 5 3 3 3 5 4 5 5 26 53 64 52 25 15 13 15 13 16 12 11 9 13 15 15 14 15 17 23 55 116 144 119 59 47 116 155 136 75 26 22 19 16 15 15 15 20 26 31 32 27 24 22 24 22 21 18 17 19 19 28 27 25 19 23 39 49 56 49 46 40 46 47 53 54 47 41 32 27 25 25 28 31 32 33 34 33 32 28 27 25 30 37 22 0 
0 2 4 4 3 3 2 3 3 3 3 4 3 3 3 4 5 3 3 2 2 4 3 3 3 3 4 3 3 3 3 5 35 97 119 108 54 27 25 21 14 12 14 19 14 14 9 9 9 10 12 23 46 71 100 123 102 135 128 130 88 31 16 14 14 15 12 12 11 12 10 10 12 12 11 11 10 10 11 13 16 17 18 16 15 13 14 12 15 17 20 21 19 20 18 19 20 27 31 26 21 15 17 30 28 36 27 23 20 15 17 15 16 16 17 13 10 9 9 11 15 18 17 16 12 11 11 13 15 13 13 14 16 17 17 18 18 15 12 9 10 12 16 15 17 18 19 23 35 69 123 139 111 52 17 40 64 76 60 33 20 8 6 4 3 4 4 4 4 4 26 53 63 53 27 14 13 14 12 12 11 12 13 17 18 17 16 18 19 23 54 113 140 115 56 47 118 155 134 69 21 21 20 17 16 19 17 18 17 18 17 14 15 17 22 23 25 19 19 22 30 43 46 48 38 45 58 65 68 51 46 37 37 39 40 31 21 14 9 12 17 25 32 36 38 33 28 27 29 31 32 33 33 33 19 0 
0 1 3 2 2 3 3 4 3 4 3 3 3 3 4 3 4 3 4 3 3 4 3 3 2 3 4 3 3 3 4 6 36 93 114 101 49 20 17 13 11 15 19 19 14 13 10 11 10 8 15 38 71 96 103 96 83 121 121 115 67 18 11 10 11 13 11 13 8 9 10 11 11 11 12 10 12 11 13 11 13 14 13 12 11 11 14 15 19 21 22 23 18 21 20 24 23 25 28 26 24 20 22 30 28 35 25 25 18 17 18 22 21 18 16 17 18 18 19 20 18 18 17 19 20 23 24 23 21 17 13 11 11 13 14 14 13 11 13 14 16 16 14 14 18 18 18 21 31 64 118 134 108 50 17 41 65 75 58 32 19 9 7 4 2 5 4 5 4 6 26 54 61 52 25 14 14 12 13 14 11 11 11 13 15 17 14 17 15 19 51 112 141 116 56 50 121 154 132 64 18 18 17 13 12 11 10 13 15 18 18 15 16 15 19 16 16 13 22 32 48 62 69 70 59 60 64 58 56 36 35 29 29 28 27 24 20 16 17 25 29 30 29 27 30 30 34 39 40 36 30 27 26 25 15 0 
0 3 4 3 3 3 4 5 4 4 3 4 5 4 4 3 4 3 2 2 2 2 2 2 2 3 3 3 3 4 5 7 36 89 109 95 46 19 15 14 13 14 14 14 13 11 12 13 13 11 20 50 90 115 118 100 102 120 117 94 44 10 10 12 14 16 14 14 13 14 14 14 15 15 16 14 15 11 15 15 17 18 17 12 11 10 11 12 17 19 20 17 15 19 19 17 16 25 32 30 25 19 23 33 30 37 23 26 16 16 16 18 18 22 19 15 14 14 16 14 15 16 19 24 23 20 16 13 14 12 10 10 14 15 14 11 8 7 9 12 16 19 19 19 19 20 15 14 27 62 118 134 107 50 19 42 66 75 57 31 18 9 8 5 2 4 4 6 5 6 26 52 59 49 23 14 16 16 13 12 9 12 13 15 16 16 14 18 16 18 52 115 145 119 57 52 125 155 130 62 22 26 28 22 17 14 12 11 12 10 9 7 15 24 36 37 38 32 40 51 64 70 68 65 59 53 50 40 30 17 16 10 13 15 22 21 18 19 23 29 30 32 39 40 42 32 29 26 27 27 27 28 27 23 12 0 
0 1 2 2 2 2 4 5 6 4 4 5 5 5 4 3 3 2 3 2 2 2 2 1 2 2 2 3 4 5 6 7 35 87 105 89 38 11 11 12 12 13 12 11 11 10 13 11 12 10 18 50 91 123 139 124 125 125 103 66 26 8 7 6 8 9 12 11 11 13 13 13 12 13 16 15 18 14 15 13 16 15 14 9 8 8 12 12 16 17 17 15 18 16 17 17 20 25 29 29 28 21 21 27 21 32 21 26 17 18 18 19 18 18 16 14 14 16 22 22 21 19 15 18 21 23 21 17 16 11 11 8 11 13 15 13 10 10 10 15 20 19 17 17 16 15 12 12 27 62 122 136 107 49 20 43 67 75 56 31 17 10 9 4 1 3 5 5 7 6 27 51 58 47 22 13 14 16 16 16 11 11 9 11 13 13 11 14 16 19 57 119 147 118 56 53 128 156 128 57 16 19 22 18 14 11 9 10 12 9 9 10 25 37 48 49 53 53 62 65 62 64 57 52 46 37 31 26 18 15 16 18 26 25 27 22 19 21 31 43 51 49 42 33 29 28 31 30 30 23 21 19 17 13 6 0 
0 3 4 3 2 2 4 4 6 4 3 4 4 6 4 4 3 2 2 1 1 1 2 1 2 2 2 2 3 5 6 6 34 84 104 86 38 11 11 12 11 9 8 7 9 11 13 11 11 12 15 41 77 110 129 128 123 105 74 42 17 9 10 7 6 7 8 10 12 12 11 10 12 13 18 17 19 18 17 16 17 16 15 12 11 8 8 6 11 16 21 24 24 22 23 18 23 28 30 29 22 18 21 28 23 32 21 23 14 11 11 12 15 18 18 13 10 9 11 13 17 18 17 17 15 12 10 9 15 16 17 15 17 13 12 11 10 12 15 16 16 16 16 15 16 14 14 12 26 63 123 138 108 47 21 43 68 75 55 31 17 9 9 4 2 3 5 4 7 5 27 52 59 47 20 12 15 16 13 11 9 10 13 17 17 14 12 15 18 21 60 121 146 115 52 53 126 153 128 60 24 24 29 24 20 19 22 30 36 34 35 37 48 51 56 50 52 53 55 54 45 36 23 22 21 18 17 14 16 19 24 27 29 26 23 19 22 27 30 31 35 34 39 40 37 33 26 21 18 12 14 13 13 12 5 0 
0 2 3 2 2 2 3 3 4 4 3 4 3 5 4 4 3 2 1 1 2 2 2 2 2 2 2 2 3 5 6 6 35 83 101 83 36 9 9 8 8 9 10 11 12 10 10 13 14 18 15 30 54 87 110 115 102 73 45 23 18 13 13 13 12 11 10 8 10 11 13 14 15 14 14 14 14 15 13 12 12 13 12 11 10 10 10 10 12 16 18 21 23 19 19 17 24 32 35 34 24 22 22 28 25 30 20 23 16 16 13 13 14 15 15 15 13 14 18 21 23 20 17 13 15 15 16 13 13 14 16 16 18 18 19 17 19 15 14 13 13 10 10 9 10 9 11 12 24 67 125 141 109 45 22 44 68 75 56 32 18 10 9 5 3 3 5 5 8 6 28 52 58 48 21 13 13 14 16 15 14 12 13 14 12 10 5 10 16 23 65 124 146 112 48 54 122 149 123 52 19 14 17 14 16 25 32 46 50 52 51 50 52 45 41 33 36 40 41 38 31 24 22 20 14 13 15 18 21 20 22 28 34 36 31 27 25 23 27 28 37 34 33 28 26 25 20 13 8 4 6 7 9 10 6 0 
0 3 4 3 2 2 3 3 3 3 2 3 2 4 3 3 2 2 2 2 2 2 3 2 3 2 2 1 2 4 5 7 37 84 100 81 33 8 6 6 5 9 8 8 8 8 11 12 13 13 11 19 29 47 57 52 42 27 20 14 14 14 12 12 16 14 12 8 7 7 9 10 11 11 9 11 12 14 13 11 11 12 12 14 12 12 10 11 12 16 20 26 28 25 25 25 30 34 32 28 20 16 21 28 29 32 22 25 16 18 15 14 11 12 11 13 12 13 13 14 18 17 17 14 13 13 14 15 18 21 21 22 19 15 15 14 15 14 15 15 16 18 15 11 12 11 13 14 24 69 128 143 109 43 21 44 67 74 56 33 20 11 9 5 3 3 5 5 7 7 29 53 58 46 18 12 14 14 12 9 10 11 13 16 13 14 13 19 20 22 63 122 146 113 48 58 120 148 126 67 43 40 39 31 27 41 50 62 59 53 52 48 46 36 23 12 11 18 19 17 14 13 17 24 29 32 30 28 27 28 31 34 32 29 23 20 25 21 25 16 21 19 23 21 22 20 17 11 8 5 6 6 7 8 4 0 
0 3 3 2 1 2 2 2 2 1 1 2 1 3 2 2 2 2 2 2 2 2 2 2 3 2 2 1 2 3 4 7 40 86 99 79 31 9 6 8 6 10 9 11 9 7 8 11 15 16 13 13 16 20 22 21 19 16 15 17 16 16 18 18 20 17 15 11 10 9 10 10 11 12 11 9 8 7 6 9 9 12 9 10 9 10 11 13 13 14 14 17 21 20 19 17 23 29 32 27 17 9 18 25 33 33 24 26 18 18 14 12 11 12 12 13 12 15 18 21 22 17 13 10 10 12 13 14 15 16 18 19 18 17 17 17 17 13 12 14 14 15 13 12 12 11 13 12 25 71 130 144 107 43 21 44 67 73 55 33 20 11 9 6 5 5 6 6 7 8 30 54 57 43 15 11 11 13 13 14 13 14 14 13 11 12 11 14 16 20 66 125 149 116 50 61 121 151 132 76 51 51 51 50 48 54 54 53 50 40 39 34 28 20 15 14 12 14 19 23 24 24 27 30 28 26 23 24 26 25 22 23 23 25 21 18 22 18 18 12 14 15 14 13 14 15 13 10 7 5 5 7 9 12 9 0 
0 3 4 3 2 2 2 2 2 2 1 1 1 2 2 2 2 3 3 2 2 2 2 2 3 3 3 2 3 4 5 7 41 86 101 81 33 13 10 9 7 9 10 10 10 10 11 12 10 9 10 10 14 14 13 12 10 10 10 12 12 12 11 11 14 14 12 9 9 8 7 5 8 9 13 13 13 10 7 8 7 9 8 10 9 10 12 13 11 9 11 18 22 22 24 21 26 28 26 22 14 10 17 23 30 36 29 29 19 19 15 10 10 10 12 12 11 10 12 14 15 15 15 13 12 13 11 10 13 16 18 15 10 7 7 10 11 11 12 15 20 24 17 14 12 12 13 13 26 71 132 144 106 42 22 45 68 73 55 33 20 12 10 7 5 4 5 6 6 9 31 55 56 40 12 9 12 13 12 12 14 14 12 10 10 12 15 18 17 15 62 125 152 120 53 61 125 159 148 93 64 59 54 50 45 45 42 35 24 14 12 11 14 16 20 24 34 36 34 27 21 19 26 33 39 37 30 24 22 21 22 24 21 21 18 16 20 16 17 12 12 14 16 16 15 16 13 11 11 7 6 6 6 7 4 0 
0 3 4 3 2 2 2 2 2 1 1 1 2 2 2 3 3 3 2 2 1 1 2 2 4 4 4 3 4 5 5 8 42 88 102 80 33 11 11 10 11 9 12 9 11 10 12 12 11 12 10 8 8 7 7 6 5 6 10 12 13 12 12 12 11 10 10 11 13 16 16 15 16 17 18 15 13 11 9 9 7 8 8 8 8 11 12 14 16 16 19 21 20 18 16 15 19 20 19 20 14 14 16 26 28 37 27 29 17 13 10 7 9 9 13 11 12 14 16 17 19 15 13 12 12 10 8 8 10 12 14 15 13 11 10 12 12 11 14 15 16 15 12 12 10 12 15 15 29 75 133 144 105 40 22 45 68 72 54 32 19 11 10 7 5 4 4 6 6 10 33 57 58 42 15 11 10 8 10 9 12 14 13 12 12 12 11 9 11 16 64 125 152 122 56 58 128 169 159 94 50 42 39 38 36 32 28 24 21 17 14 13 16 19 26 29 32 31 31 29 30 27 27 25 24 17 14 13 15 16 16 15 13 15 13 14 17 14 16 12 12 14 15 15 16 14 14 10 10 10 9 9 9 10 6 0 
0 3 5 4 3 2 1 1 1 2 2 2 2 2 3 4 4 4 2 1 1 1 2 2 3 3 4 4 4 4 4 8 42 87 101 79 36 14 12 9 9 8 12 9 14 11 14 12 10 9 10 11 9 8 8 8 7 7 10 11 13 13 11 13 16 16 12 13 16 17 15 14 16 17 18 17 14 14 10 10 7 8 9 10 11 15 17 18 20 19 19 18 16 16 16 19 24 24 23 22 16 18 17 27 23 39 26 31 19 14 13 10 10 9 12 12 14 15 17 16 13 10 12 13 14 13 11 8 7 8 9 10 11 12 11 10 9 9 10 14 17 17 14 12 11 12 13 15 26 74 133 143 104 37 22 45 68 73 53 32 17 10 9 6 4 3 3 5 5 10 34 58 59 43 14 10 11 10 13 13 12 10 9 10 12 15 20 23 27 32 70 130 158 129 64 53 126 178 174 105 41 19 15 16 17 14 13 14 16 16 17 20 25 24 28 36 45 40 30 21 16 15 18 19 19 16 16 14 14 14 13 13 19 31 34 29 22 15 18 18 16 15 13 14 18 15 14 11 11 11 8 9 10 8 5 0 
0 2 4 3 2 1 1 1 1 2 2 3 3 3 4 5 4 4 2 2 1 1 1 2 3 4 4 5 5 5 4 8 44 86 99 73 29 9 9 9 10 8 10 7 9 8 11 12 12 11 9 8 8 10 10 11 10 10 10 12 11 11 12 13 14 14 11 13 15 19 19 17 16 17 14 15 10 11 8 12 10 12 12 13 13 14 13 14 22 23 29 22 18 15 18 19 23 21 19 19 17 16 16 28 25 38 23 28 17 15 15 13 11 10 8 8 10 12 14 15 13 10 10 11 13 14 14 13 12 12 12 14 13 13 11 12 11 13 15 15 13 11 12 12 15 18 20 19 28 76 133 142 102 35 23 45 68 73 52 32 16 8 8 5 3 4 4 6 6 10 34 57 58 44 17 10 9 10 11 11 10 8 7 8 12 16 23 30 41 53 87 146 176 149 83 48 115 177 178 114 40 14 14 12 12 14 20 23 24 19 18 18 22 21 24 22 23 18 14 13 16 19 14 14 11 11 9 9 13 10 12 13 27 36 45 39 31 19 16 16 15 13 11 11 14 13 13 13 11 12 10 11 12 9 7 0 
0 2 3 2 2 1 1 1 1 1 2 2 3 3 4 5 4 4 3 2 1 1 1 1 2 2 3 4 4 3 2 8 47 87 97 69 25 8 6 8 10 11 13 10 9 7 6 8 9 12 12 14 11 11 13 14 13 12 13 17 18 14 12 14 15 17 13 16 14 14 10 8 8 11 12 13 12 12 9 11 9 10 10 13 17 22 22 16 22 20 24 17 18 16 18 19 23 21 18 16 15 13 20 29 32 40 28 27 18 15 15 12 12 9 9 9 10 12 13 13 11 12 12 15 16 16 13 13 12 13 13 14 13 13 9 9 11 13 17 19 18 14 13 12 15 16 16 17 27 77 133 141 100 33 24 46 69 72 52 32 15 7 5 4 3 6 6 7 6 11 34 57 58 42 14 8 8 11 14 14 10 8 6 7 12 18 32 44 51 55 74 139 190 179 117 66 124 200 203 140 56 23 20 23 28 24 23 21 22 19 23 18 22 15 13 14 19 20 20 18 14 12 9 12 10 11 11 12 15 12 15 13 36 50 72 58 40 23 20 21 21 16 11 11 13 13 14 17 15 13 8 8 10 11 7 0 
0 1 2 1 1 1 1 2 2 2 2 2 3 3 3 4 4 4 3 2 1 1 1 2 2 2 3 4 4 4 3 8 50 90 97 68 23 10 9 11 12 12 12 9 8 8 7 10 9 11 10 11 10 11 12 11 12 13 15 14 13 10 9 9 10 12 9 11 12 14 11 9 8 9 10 12 11 11 11 10 11 10 11 15 16 17 16 14 21 20 24 18 15 16 19 19 20 18 19 21 19 15 19 26 32 34 25 22 18 17 19 14 13 10 10 10 10 11 9 9 6 9 12 15 15 17 16 15 14 15 19 21 19 15 12 9 12 15 20 18 17 15 17 20 23 24 21 19 28 80 133 140 98 32 27 48 70 72 50 31 14 7 6 5 5 8 8 8 5 9 33 55 57 42 16 12 15 15 16 13 13 15 20 26 33 37 45 46 46 49 61 125 196 212 171 116 153 211 202 142 61 37 26 25 24 23 23 23 24 20 24 16 17 11 12 14 17 16 15 14 13 12 10 10 10 12 13 13 13 12 17 15 31 38 53 49 41 25 17 15 16 16 15 14 13 15 17 17 16 13 11 11 11 13 9 0 
0 1 1 1 2 2 2 3 3 3 3 3 3 3 3 3 3 3 3 2 1 1 1 1 1 1 2 3 4 3 3 9 53 92 99 68 21 9 11 13 15 14 13 11 9 8 6 7 7 11 11 13 13 12 13 12 16 14 16 16 15 13 10 9 8 8 8 9 10 12 12 13 13 15 14 12 11 14 17 14 12 8 7 10 14 22 21 20 25 24 25 19 15 18 19 18 16 11 10 12 12 15 19 27 30 35 27 25 20 19 16 16 12 11 9 9 9 11 11 11 13 13 13 14 15 14 13 12 13 14 16 17 16 12 11 12 15 15 18 18 19 18 17 18 17 15 14 16 29 83 133 138 95 31 27 49 71 71 49 29 13 6 5 6 7 10 9 9 6 10 33 55 57 44 19 19 26 31 35 35 39 43 48 53 54 53 52 42 31 24 29 81 163 206 213 190 208 218 196 144 68 48 29 29 27 24 15 11 13 14 17 16 18 13 12 12 14 17 19 16 10 7 8 12 16 17 15 16 16 15 18 19 25 34 42 40 32 20 15 17 18 18 15 16 13 17 19 19 19 13 12 12 14 17 11 0 
0 1 1 2 2 3 4 5 4 4 3 4 3 3 2 2 2 2 3 2 2 1 1 1 1 1 2 2 3 4 4 10 55 95 101 69 25 12 13 11 11 12 11 11 11 11 10 11 10 7 6 7 10 11 16 14 19 15 15 12 9 10 11 15 16 14 10 10 10 13 15 19 20 20 15 13 11 14 15 13 11 9 10 13 12 15 16 18 24 28 29 21 14 16 18 19 16 13 14 15 13 14 15 23 24 28 21 24 17 21 18 16 13 9 7 7 8 10 13 12 15 13 12 8 8 9 13 13 12 12 14 17 15 12 12 12 15 14 16 15 14 15 16 19 18 14 11 15 29 83 132 135 91 31 27 50 71 71 48 29 12 5 5 6 7 11 9 9 5 8 33 59 68 62 47 50 58 63 63 61 59 56 54 53 53 52 47 37 24 20 24 58 130 169 193 188 196 178 148 96 54 43 21 20 17 12 9 8 12 16 23 21 17 13 17 16 16 15 12 12 10 8 9 11 13 16 19 16 14 17 19 21 20 20 22 24 20 17 11 13 14 21 18 19 15 20 22 17 15 11 14 15 14 15 9 0 
0 0 1 1 2 3 4 5 5 4 3 3 3 3 2 3 2 2 2 2 2 1 1 1 1 2 2 2 3 4 4 11 57 97 102 66 20 9 11 12 13 14 14 12 11 10 10 9 9 7 7 6 11 11 17 16 20 16 14 11 11 12 13 15 14 12 9 8 8 12 16 20 21 25 17 17 12 14 17 16 12 10 8 10 12 12 12 17 25 29 31 21 17 21 22 24 16 13 9 10 8 10 16 24 32 34 28 26 18 18 18 16 14 9 6 5 5 6 13 14 23 16 16 8 6 8 11 13 13 13 10 8 5 6 10 14 17 14 12 12 12 14 13 12 12 12 11 15 29 85 133 135 89 30 27 51 71 70 47 29 13 6 4 5 7 9 8 7 6 9 37 68 83 76 57 56 59 61 59 56 55 55 58 58 59 53 42 32 21 22 29 40 66 99 131 135 134 108 84 56 42 29 14 15 18 14 11 7 8 9 11 11 13 11 12 12 11 9 9 9 8 9 9 13 17 18 15 15 13 14 17 20 19 20 19 20 18 18 15 19 18 23 19 18 15 19 20 20 20 21 25 28 27 26 15 0 
0 0 1 1 2 3 5 6 5 4 3 3 3 3 2 3 2 2 2 2 2 2 2 2 2 2 2 2 3 4 4 13 60 99 101 66 20 10 10 8 9 12 13 14 13 11 11 11 13 8 8 5 8 7 15 15 19 17 15 12 9 8 14 17 19 17 12 10 8 10 12 20 19 24 18 16 14 14 13 12 10 8 9 12 14 18 19 21 26 27 28 20 19 23 23 26 18 19 13 11 9 12 26 29 37 30 26 19 15 13 13 13 11 9 7 6 6 6 12 15 28 21 20 11 8 7 8 11 10 11 11 12 11 12 12 12 13 13 14 15 14 14 13 12 8 9 10 17 33 89 132 133 87 28 28 52 71 69 45 27 13 6 3 3 5 8 8 8 6 11 43 78 95 89 70 68 70 72 71 66 63 54 47 41 35 30 30 30 26 28 31 41 47 50 55 59 58 44 36 28 22 15 12 12 13 12 11 10 10 10 10 10 8 10 13 14 12 8 9 10 12 14 16 17 14 17 17 18 15 19 18 19 17 21 22 29 26 24 20 18 17 18 19 27 36 53 63 72 77 84 91 96 95 90 56 0 
0 0 0 1 2 3 5 6 5 4 2 2 2 3 2 3 2 2 2 2 2 3 3 3 3 3 3 2 3 4 3 14 62 101 99 62 15 9 10 9 10 12 16 13 12 8 10 8 11 9 10 9 9 6 11 11 13 12 13 14 13 11 11 12 13 12 9 8 8 9 9 15 14 16 16 16 13 12 12 12 11 8 7 10 11 12 15 19 22 19 16 11 14 21 24 27 17 15 10 13 15 15 27 31 41 32 29 24 19 16 12 11 10 8 8 10 12 14 18 19 21 19 19 15 12 10 8 9 10 11 10 11 13 15 16 17 15 13 10 10 10 12 12 12 14 15 14 19 35 91 132 129 84 25 30 52 72 68 43 27 14 8 5 2 4 6 7 8 10 20 55 86 95 82 60 58 61 57 50 41 37 36 38 39 39 36 35 37 44 44 35 27 23 16 13 12 14 15 15 13 11 10 10 12 13 12 11 11 9 6 4 6 6 9 13 16 17 16 12 12 13 15 16 17 20 21 19 17 12 14 12 14 12 17 21 28 33 38 44 52 64 75 86 98 109 119 121 120 115 111 108 115 132 151 100 0 
0 0 1 1 2 3 5 7 5 4 3 2 2 2 2 3 3 3 2 2 2 3 4 4 4 4 3 3 3 4 4 15 64 101 98 61 15 11 8 7 8 8 13 11 13 8 9 7 10 9 9 10 11 13 14 14 15 13 14 12 12 12 13 12 12 10 9 10 11 15 16 17 20 18 15 12 11 9 11 10 10 8 8 11 12 17 20 23 21 15 9 8 13 21 23 22 17 17 17 18 17 18 30 34 34 27 18 22 21 21 14 12 10 10 10 10 9 10 12 18 23 21 18 14 13 13 13 12 11 10 11 11 14 14 14 11 10 10 11 13 13 13 16 19 19 16 13 22 39 95 131 123 79 22 29 52 72 67 41 25 13 9 7 3 5 9 14 23 32 46 74 90 81 62 36 38 44 49 50 48 46 43 38 31 25 17 26 29 35 34 30 22 19 15 14 11 9 10 9 8 7 10 12 12 10 10 11 13 14 13 9 8 8 10 11 14 14 14 12 16 17 22 25 22 21 16 16 17 17 24 31 44 53 65 77 88 97 102 107 113 118 119 117 114 115 113 114 118 126 130 134 144 154 162 100 0 
0 0 1 1 2 4 5 7 5 5 2 2 2 1 2 3 3 3 3 3 3 3 4 4 4 4 3 3 4 4 4 16 66 101 97 59 14 11 9 9 10 11 13 12 12 10 12 9 10 7 8 9 10 11 12 13 13 12 12 12 15 12 13 12 12 9 9 12 12 13 16 17 17 15 14 9 10 9 10 9 10 10 11 11 11 14 19 21 19 12 9 9 11 15 18 17 16 14 15 16 17 18 22 30 29 31 25 30 28 23 16 15 11 10 9 10 13 15 18 19 17 16 16 13 14 11 11 11 12 11 12 13 15 12 13 14 16 17 14 11 9 11 11 14 16 16 16 25 42 96 129 119 75 20 31 52 72 66 40 25 12 10 8 11 21 35 46 55 61 69 79 76 59 42 30 43 51 51 42 31 25 25 22 16 15 13 23 30 43 39 29 20 13 12 10 9 12 16 16 12 10 10 12 15 13 12 10 13 14 14 13 14 14 12 12 12 13 16 16 17 17 21 25 30 40 49 62 72 84 95 104 112 115 118 120 118 113 106 102 105 116 129 138 142 139 128 119 106 97 89 82 97 119 139 88 0 
0 1 1 2 3 4 5 6 5 4 2 2 1 1 3 3 4 3 3 3 3 3 3 4 3 3 2 3 4 4 4 17 67 101 96 58 15 12 10 8 8 10 10 11 10 10 12 8 9 5 5 7 9 13 15 16 14 13 11 12 13 13 16 14 16 14 16 17 20 22 19 20 18 15 13 12 11 10 10 10 12 11 15 15 17 14 20 23 24 19 17 18 22 23 22 18 17 17 20 20 14 14 19 29 27 25 17 20 20 19 17 14 14 14 14 12 9 8 12 16 19 16 14 11 13 12 15 13 11 11 12 13 13 11 10 9 11 12 14 15 15 17 20 23 20 17 18 28 48 101 132 120 74 18 31 51 71 65 41 30 25 32 38 45 54 66 75 80 79 72 67 56 42 27 19 19 21 24 22 21 18 18 18 17 19 19 23 21 23 22 19 17 14 12 7 7 11 14 14 12 15 18 23 20 14 12 10 15 15 18 20 19 19 16 13 14 20 33 45 59 72 84 95 105 110 114 120 124 126 124 119 112 111 117 128 137 139 135 127 122 118 111 98 80 61 44 36 38 46 52 61 85 93 95 59 0 
0 0 1 2 3 3 5 6 5 4 2 2 3 3 4 4 4 4 3 3 2 2 2 3 2 1 1 2 4 4 3 18 68 101 94 56 13 9 10 9 11 10 10 9 8 9 13 11 12 8 8 8 7 8 10 12 12 14 11 13 13 11 14 13 14 14 17 19 17 14 11 13 11 11 11 12 13 13 11 11 12 12 16 15 20 22 28 28 26 20 20 19 19 17 15 16 18 21 19 17 14 14 20 23 29 26 24 23 18 13 12 12 13 12 11 12 14 17 20 19 17 14 14 15 14 11 9 8 8 10 12 15 15 11 9 9 16 19 17 13 14 16 19 18 17 15 17 26 46 103 137 125 75 19 33 54 75 73 57 56 56 63 68 72 76 79 79 76 70 59 51 40 36 29 28 27 27 27 23 22 18 17 18 21 26 25 24 22 22 23 23 24 20 16 10 10 13 18 20 19 22 26 28 26 24 26 23 20 18 24 36 48 59 66 75 84 93 103 113 123 128 129 126 120 111 110 119 135 149 153 148 137 129 119 115 107 91 72 52 40 38 43 47 49 49 48 49 50 51 53 62 94 123 132 87 0 
0 0 1 2 3 3 4 5 4 4 3 3 3 4 4 4 4 4 4 3 2 2 2 2 1 1 1 2 4 4 3 20 69 101 92 51 9 7 9 8 11 9 10 7 7 8 10 10 13 10 8 7 7 8 12 15 11 12 9 12 15 16 19 21 18 21 19 21 20 19 15 11 9 8 10 11 12 11 13 16 18 18 15 13 14 14 18 22 24 23 25 23 23 21 19 19 16 18 18 16 13 13 23 20 32 17 18 11 10 10 7 7 9 10 12 13 14 17 19 20 17 14 12 13 15 16 14 13 10 10 12 14 14 13 12 14 15 15 13 12 11 16 22 22 20 17 18 27 49 108 143 129 77 21 41 72 104 108 95 89 83 84 81 77 71 64 58 53 45 33 30 28 31 29 24 18 13 12 15 20 19 16 16 19 24 25 24 22 21 25 26 25 20 16 11 13 16 20 17 19 24 28 32 37 49 63 78 88 100 108 119 126 128 127 125 120 116 112 110 116 127 142 150 149 142 135 129 123 115 100 81 59 47 44 51 57 60 58 52 48 49 51 54 54 53 53 56 62 68 76 83 103 132 151 101 0 
0 0 2 1 2 2 2 4 3 3 3 3 5 5 4 4 4 4 4 3 2 2 2 2 1 1 1 2 4 4 4 21 70 99 89 48 10 7 9 10 13 12 13 8 7 7 11 13 14 12 12 9 8 9 10 13 12 13 10 12 14 16 16 16 15 15 16 18 14 12 10 9 8 6 7 7 10 12 16 17 19 16 14 11 11 14 19 19 19 20 20 19 17 13 13 17 19 19 18 18 13 12 23 17 33 17 22 11 10 10 9 8 7 5 6 9 15 19 21 19 15 12 11 15 13 13 11 11 11 13 13 14 13 12 12 15 17 17 12 10 9 12 15 17 18 15 14 22 45 107 141 134 101 71 104 133 149 139 118 104 91 82 71 60 47 35 25 23 27 25 30 30 31 29 25 22 18 14 17 20 22 21 21 26 32 32 24 17 14 18 24 28 24 18 15 23 33 45 52 63 76 86 100 109 128 146 155 150 141 130 121 112 114 126 141 149 148 141 134 133 128 121 107 88 68 52 46 49 55 58 60 60 61 62 63 63 58 50 45 48 53 58 68 78 83 80 74 71 69 66 70 88 117 142 94 0 
0 1 2 1 2 2 2 3 3 2 3 4 5 5 5 3 3 3 4 3 2 2 2 2 1 1 2 3 5 5 4 23 72 99 91 49 14 12 9 10 11 10 9 7 7 8 11 12 13 10 10 8 7 8 11 13 11 10 7 11 14 17 20 16 17 13 13 13 12 15 12 12 11 8 7 6 9 10 15 17 25 18 15 8 8 9 12 15 19 23 23 21 15 15 17 19 20 19 20 16 12 10 20 18 35 20 21 11 9 11 12 14 14 13 13 13 15 15 15 15 15 14 12 13 13 14 12 13 14 15 15 15 14 15 18 19 16 15 15 15 14 13 12 11 12 13 16 25 43 100 134 155 147 137 159 171 164 139 108 85 65 48 34 28 22 16 15 16 20 19 20 23 24 25 25 24 23 22 24 26 25 19 17 19 23 25 25 20 22 30 44 56 64 73 81 93 105 115 123 129 130 122 114 109 114 126 143 160 169 168 159 148 139 131 124 112 94 75 58 50 50 55 59 62 61 60 60 60 60 60 61 62 63 65 69 71 71 80 86 93 100 112 113 100 88 86 89 91 94 95 97 91 91 102 67 0 
0 1 2 1 2 2 2 3 3 2 2 3 5 5 5 4 3 4 4 4 4 4 3 3 2 2 3 4 5 5 4 25 75 101 91 47 12 12 10 11 10 11 11 8 9 8 12 10 11 9 10 9 8 8 9 11 12 14 12 14 16 14 13 8 9 10 12 13 9 10 9 10 10 11 11 9 10 12 15 16 18 13 15 11 13 15 17 18 22 25 25 23 15 16 15 20 22 23 21 17 12 12 25 26 42 27 25 13 8 11 11 14 14 13 12 13 15 16 15 14 13 13 13 13 12 10 9 9 10 13 16 15 14 16 16 17 17 13 12 14 14 14 14 13 14 13 16 21 36 87 127 168 173 171 170 158 133 99 66 44 33 27 23 23 23 22 22 19 20 21 23 28 27 23 23 24 25 21 19 20 20 23 32 45 60 72 80 83 93 100 112 122 126 125 121 117 114 110 111 120 135 145 147 145 144 147 147 142 126 103 79 59 51 52 59 63 66 66 66 66 66 64 62 61 60 60 61 64 67 70 70 70 68 64 61 61 80 111 120 124 125 141 145 133 106 84 73 59 54 53 60 71 83 94 63 0 
0 1 2 2 2 2 3 3 3 3 2 3 4 5 5 5 3 3 4 4 4 4 3 3 2 3 4 5 6 5 5 27 79 104 92 49 15 13 12 12 10 8 10 9 12 11 14 12 13 11 12 11 10 8 8 9 9 12 13 14 14 11 10 7 8 10 11 11 11 14 15 17 15 13 16 16 17 14 13 13 14 9 9 8 12 15 19 19 23 25 24 23 17 19 15 20 20 26 24 22 16 15 28 28 44 28 28 13 10 13 16 21 20 19 15 15 16 14 11 9 9 11 12 13 15 13 10 10 11 12 12 13 14 16 19 21 19 21 19 18 17 17 17 16 19 23 31 37 46 72 101 134 144 141 123 100 71 46 26 16 16 14 19 24 23 20 22 24 25 25 28 35 33 28 30 34 44 54 66 77 86 94 103 117 131 137 135 127 119 111 105 108 119 135 144 146 142 136 133 128 125 117 100 78 58 50 52 59 64 66 67 69 68 67 66 65 63 61 61 61 62 64 66 65 63 61 58 57 61 70 80 89 93 92 89 85 102 135 143 138 129 151 160 130 85 69 85 92 99 105 110 110 105 102 59 0 
0 2 2 2 2 2 4 3 3 2 1 2 3 4 4 4 4 3 3 4 5 6 5 3 3 3 4 4 5 4 6 30 83 108 92 44 7 8 10 10 10 9 11 10 11 9 12 12 14 13 13 13 13 12 11 12 14 14 16 16 15 12 8 7 7 9 10 12 13 17 17 16 16 16 18 16 16 12 16 12 14 11 9 8 12 16 18 19 23 23 24 24 21 25 19 21 16 23 18 17 13 16 29 28 45 28 29 15 13 14 12 13 11 12 10 11 11 13 14 14 14 13 12 11 11 11 13 13 12 12 10 10 13 16 16 17 15 18 19 22 26 28 34 37 38 38 37 37 37 48 68 85 84 69 45 35 26 23 16 10 12 16 27 34 36 34 28 31 44 58 72 84 91 95 99 104 110 114 117 119 117 113 108 106 112 124 141 150 153 148 139 135 126 123 114 98 78 57 45 44 52 60 64 65 66 67 69 68 65 62 60 60 60 61 62 64 64 62 58 53 52 58 68 77 84 87 88 88 87 85 81 74 63 54 49 54 88 142 151 125 100 129 167 159 124 87 88 81 74 72 74 76 79 85 53 0 
0 2 2 2 2 2 3 3 2 2 2 2 3 3 4 4 3 2 2 2 3 3 3 3 3 3 4 4 5 4 7 32 86 109 92 43 7 8 9 11 12 13 13 16 13 12 12 12 13 11 12 12 13 13 11 9 10 12 17 13 11 9 8 11 11 15 13 12 11 14 17 16 15 16 18 20 19 14 15 15 17 15 13 11 12 16 20 22 23 20 21 23 25 30 23 22 19 20 17 19 14 14 25 23 41 27 25 13 9 11 14 15 15 11 9 9 9 12 12 13 15 14 15 16 17 15 13 12 13 14 14 15 15 17 21 25 26 30 32 30 31 29 31 30 31 32 34 39 37 39 34 34 31 26 21 23 20 17 15 15 25 38 54 69 78 86 98 113 124 136 145 148 140 127 116 108 103 106 118 135 144 146 144 141 141 136 132 120 103 81 59 47 45 52 58 60 62 64 65 66 66 66 66 66 65 62 59 56 55 56 56 53 50 51 58 69 77 81 82 81 81 81 79 74 65 55 51 53 62 72 82 89 93 102 104 107 124 164 166 134 88 104 155 162 130 82 77 80 79 75 71 65 58 52 31 0 
0 1 2 1 1 2 2 2 2 1 1 2 2 3 3 3 2 1 1 2 3 3 3 3 2 2 2 2 4 4 6 35 88 110 91 41 6 6 7 9 10 13 13 15 11 10 8 9 10 9 10 9 13 13 16 16 17 16 15 12 12 9 8 12 14 15 13 12 12 12 13 12 13 17 20 21 18 17 14 15 18 17 15 13 13 14 15 17 20 20 21 21 22 27 24 22 18 15 13 15 13 16 26 26 41 34 32 23 18 14 13 10 13 12 14 15 12 11 12 16 19 16 16 15 14 13 12 11 13 13 12 12 15 23 27 30 30 32 33 32 32 28 30 28 29 28 28 32 30 29 22 19 23 32 45 54 64 72 82 93 105 120 133 141 143 134 122 113 111 114 124 137 150 155 153 145 134 129 124 122 113 96 76 56 47 47 54 60 63 65 67 68 68 68 68 67 65 65 65 65 65 63 62 60 56 53 54 61 70 77 82 83 82 80 78 77 70 61 51 47 50 62 76 88 95 99 103 106 112 112 106 96 82 72 68 70 91 146 171 157 104 100 147 172 158 104 65 49 39 34 33 32 32 34 24 0 
0 1 1 0 0 1 1 2 1 1 2 2 2 2 2 3 2 2 2 1 1 1 1 2 3 3 2 1 3 4 6 37 88 109 91 41 9 9 7 9 10 13 14 16 12 9 8 6 5 4 6 5 9 7 11 11 14 15 15 12 9 7 9 11 14 16 15 12 10 9 8 9 14 15 17 18 15 14 11 11 15 17 18 16 14 15 19 21 20 17 14 16 17 19 17 19 22 23 19 15 11 12 24 27 39 32 28 18 10 9 12 10 12 13 17 19 19 20 18 15 13 13 14 15 16 15 13 11 12 13 16 19 22 33 38 42 39 38 38 34 32 26 24 17 14 19 32 51 64 74 81 90 105 117 128 130 128 123 119 116 114 110 111 119 131 143 149 150 146 143 140 135 126 111 94 75 56 47 47 56 63 66 68 69 70 72 72 73 72 71 68 66 64 64 63 61 59 56 55 58 65 74 83 89 89 85 78 70 63 57 52 48 49 57 67 78 87 93 97 104 108 111 109 103 92 78 70 68 72 74 76 76 75 74 74 70 82 131 169 176 134 98 134 159 161 114 64 39 31 32 41 48 51 52 31 0 
0 1 2 1 1 1 1 2 2 2 3 3 2 2 2 3 2 1 1 1 1 2 2 3 4 3 3 2 3 4 5 38 88 107 88 37 11 12 12 12 10 12 12 13 13 11 9 7 6 4 6 8 13 13 16 16 17 15 14 14 12 10 9 11 13 12 11 10 10 10 10 10 11 14 16 18 16 16 16 14 15 12 12 11 14 13 13 12 11 12 11 10 8 9 11 15 19 22 20 18 15 17 30 30 44 32 30 19 15 14 15 14 15 15 16 21 20 20 19 18 14 12 11 11 12 13 17 22 29 36 41 48 51 55 51 44 37 36 42 48 56 65 75 82 92 104 118 133 139 138 131 123 118 114 111 112 120 132 143 150 153 149 145 137 131 120 102 80 60 48 46 50 56 60 64 66 68 68 69 71 74 75 74 71 67 65 64 64 62 61 58 57 60 69 79 85 87 84 80 78 76 72 63 55 52 56 64 75 85 90 95 102 108 112 112 107 99 87 77 72 72 74 76 78 80 79 73 68 63 60 56 51 47 44 42 40 54 106 160 186 169 123 130 138 147 134 103 83 74 64 60 58 56 56 34 0 
0 1 2 2 2 2 2 2 3 3 3 3 2 2 2 2 2 2 2 1 2 2 3 3 5 4 4 2 3 3 5 39 88 106 85 37 12 13 12 10 8 7 9 12 13 13 13 12 10 9 11 11 12 11 12 12 13 13 11 10 11 11 12 13 14 15 13 12 12 12 14 16 14 14 11 10 12 10 11 11 12 11 12 13 17 20 20 17 13 9 8 10 12 15 13 15 20 25 24 21 16 16 30 25 40 22 22 10 9 11 11 12 11 14 15 19 20 24 20 17 14 15 21 30 37 43 49 52 50 47 41 45 59 78 88 92 96 106 120 133 142 146 145 137 127 119 114 115 121 131 141 146 149 147 141 137 126 120 110 97 81 62 50 46 52 57 60 62 65 67 69 70 71 72 73 72 70 67 65 65 67 67 64 59 57 62 71 83 89 91 87 81 76 71 64 57 52 52 54 60 71 83 93 104 109 113 113 108 100 88 77 71 71 74 76 77 79 82 85 85 78 68 59 51 49 46 43 43 42 42 44 44 48 53 57 62 70 98 145 179 185 156 132 131 119 117 105 107 112 118 122 116 103 86 50 0 
0 2 3 2 2 2 3 2 3 3 4 4 3 3 3 2 1 1 1 2 2 2 4 3 5 4 5 3 4 4 5 40 89 106 82 34 9 11 10 10 8 6 8 10 13 14 12 11 10 9 12 14 17 15 16 15 14 14 16 16 16 13 12 14 15 17 14 10 9 10 12 13 12 14 15 15 20 18 16 16 13 13 13 16 20 22 18 15 10 8 10 14 14 17 14 16 16 18 20 22 24 26 36 27 40 21 22 10 8 11 13 16 17 18 18 19 20 20 19 16 14 20 27 37 47 59 75 93 111 125 137 151 158 161 155 144 133 127 122 119 118 124 137 149 156 156 149 142 135 128 120 107 89 69 51 43 44 50 55 61 67 70 71 72 74 76 76 73 69 68 68 67 66 63 60 56 56 60 68 77 85 88 87 81 75 71 68 61 56 53 56 60 66 74 82 88 93 97 102 104 105 99 88 79 74 76 79 79 80 81 80 76 71 66 60 55 50 48 47 47 44 39 39 37 42 48 54 60 64 65 64 63 64 65 66 67 69 82 118 155 181 183 159 139 116 113 97 101 105 117 129 133 128 116 71 0 
0 1 3 4 4 4 3 2 3 4 3 3 2 3 3 2 1 1 1 3 3 4 4 3 5 4 4 4 4 4 6 43 92 106 81 34 8 9 8 9 9 9 11 13 13 12 11 12 13 13 18 16 15 11 12 15 18 15 12 9 10 12 13 16 15 16 15 13 13 13 14 17 16 14 13 13 15 15 11 12 9 13 14 17 21 23 19 19 19 21 19 21 18 25 16 15 11 13 20 22 25 26 32 25 35 21 24 12 9 11 11 11 14 16 17 19 26 35 45 54 62 77 95 120 140 153 162 165 160 147 129 116 111 118 128 140 148 154 155 151 145 137 129 120 106 87 65 49 43 46 53 58 61 65 70 73 75 76 76 75 74 72 70 68 69 68 66 62 58 57 62 73 84 90 89 83 79 72 68 62 56 53 53 57 60 68 78 86 95 100 104 106 103 97 84 71 63 63 66 71 76 80 84 85 84 76 68 58 52 45 40 37 36 35 34 35 39 47 53 59 62 61 59 57 59 62 67 72 72 71 69 66 63 60 59 57 56 57 76 108 144 169 174 162 138 118 97 93 93 103 117 130 142 143 88 0 
0 3 5 4 4 3 3 3 3 4 3 3 2 3 3 3 2 1 1 3 3 4 3 4 4 4 4 4 5 5 7 46 92 105 82 32 12 10 7 7 7 7 7 8 8 8 8 7 11 12 17 18 18 16 17 15 18 15 16 14 11 11 9 11 11 14 14 12 11 11 11 12 13 14 16 19 23 23 18 18 14 17 17 16 16 16 15 19 19 26 23 29 17 19 13 19 21 23 21 18 20 20 27 21 33 22 28 17 14 14 16 19 20 18 19 29 48 69 86 92 92 94 97 101 102 106 116 132 147 158 163 162 154 146 134 126 115 101 82 62 47 43 47 55 60 63 65 67 68 68 68 69 70 70 70 69 69 70 69 67 62 58 57 62 73 85 93 93 87 80 75 68 61 57 56 57 61 67 77 84 89 95 97 102 104 103 98 87 75 67 67 69 71 71 72 71 69 65 61 59 55 52 49 46 44 40 37 34 35 36 38 41 46 50 55 59 58 58 59 64 67 68 66 64 63 62 62 59 54 50 46 43 40 36 34 31 27 23 33 58 91 120 143 154 154 142 121 100 84 83 93 99 108 116 72 0 
0 2 5 6 7 5 5 4 4 4 4 3 3 4 4 5 3 2 2 3 3 4 3 4 4 4 4 5 6 6 9 48 92 102 79 31 16 11 7 8 9 11 10 9 8 8 9 9 11 14 16 18 13 11 15 17 22 16 13 9 10 14 14 14 10 8 9 10 13 14 15 15 17 16 16 15 16 18 17 16 15 16 17 16 15 12 12 21 25 39 30 30 18 18 16 18 20 24 23 19 13 13 24 19 33 24 27 17 13 13 13 14 14 13 13 27 57 84 100 104 111 123 134 142 145 146 142 138 132 117 96 71 50 40 40 49 57 63 66 69 72 75 77 76 73 70 67 64 62 59 58 58 59 59 59 61 69 82 90 91 88 81 75 69 62 58 58 61 62 62 67 77 87 95 98 102 104 103 97 87 76 68 65 67 69 73 77 80 79 76 69 60 54 49 47 43 39 37 36 38 38 40 43 49 54 55 56 57 58 56 55 57 60 63 65 64 62 60 58 57 56 54 49 42 39 36 35 31 27 24 20 20 20 22 20 22 18 16 14 24 45 66 87 105 121 132 135 132 123 110 98 91 90 93 58 0 
0 3 6 6 6 4 5 4 5 5 4 3 3 4 4 4 3 3 2 2 2 3 3 5 5 5 4 4 5 5 10 50 93 101 75 28 13 11 7 6 4 4 4 6 7 9 9 9 9 11 13 16 16 16 17 15 15 13 13 12 12 14 16 15 16 15 17 16 14 12 12 13 14 18 19 21 19 18 19 17 16 14 15 13 13 14 13 17 18 29 27 28 21 17 17 22 30 35 24 18 7 10 23 21 33 24 26 18 14 13 15 16 16 18 19 32 64 91 113 112 101 94 84 72 57 46 43 48 55 61 65 68 69 70 73 76 78 78 75 73 71 69 67 65 61 57 54 55 59 66 71 75 78 77 72 66 58 55 56 59 60 58 59 63 70 81 91 99 103 101 95 86 74 68 67 69 72 77 82 82 79 74 69 63 57 54 50 49 47 43 40 37 38 42 47 52 56 60 62 63 60 59 57 56 57 59 62 62 60 57 54 54 53 52 51 47 42 36 31 28 26 24 22 17 16 16 17 19 17 15 16 18 20 21 19 23 16 17 11 11 16 23 38 51 66 82 99 115 126 133 131 123 110 98 60 0 
0 2 4 5 5 5 5 4 5 5 4 3 3 4 5 5 5 3 2 2 2 3 3 4 5 5 5 5 5 5 12 54 95 99 70 24 11 10 8 8 8 7 6 6 7 9 11 11 11 10 12 12 14 14 18 17 18 14 11 10 14 15 17 16 17 17 17 15 13 14 13 16 14 17 16 17 18 21 20 17 16 13 14 15 17 17 14 15 16 20 19 20 19 19 18 20 18 24 19 22 17 17 28 24 34 21 21 16 15 14 11 10 10 13 15 26 52 67 73 63 57 61 65 69 72 74 75 77 79 79 76 72 69 68 69 70 68 65 61 58 60 67 76 82 85 84 78 70 57 50 48 53 59 59 56 54 57 67 78 87 95 98 96 89 77 66 62 63 65 67 71 77 80 78 72 62 56 52 51 50 48 43 40 38 35 37 40 47 55 61 63 61 61 62 63 63 62 61 61 60 58 57 56 55 53 50 51 50 47 41 37 34 30 27 22 17 15 10 9 9 10 9 11 11 13 12 13 17 20 22 23 22 21 19 15 17 13 12 7 7 9 10 13 17 26 37 55 73 90 104 117 125 127 123 75 0 
0 2 4 3 3 4 5 5 5 3 3 3 3 4 4 3 4 3 3 2 2 3 4 4 5 5 6 7 12 20 35 76 106 98 64 16 8 9 9 9 8 8 8 8 7 8 8 9 9 11 17 17 21 17 17 15 13 11 12 12 15 16 15 15 14 17 20 17 14 14 10 14 13 17 16 17 18 21 20 18 11 9 10 11 13 15 13 14 13 17 14 17 17 21 16 18 15 21 22 19 20 20 33 23 34 20 23 20 20 22 15 14 12 15 18 20 34 50 64 69 67 65 66 68 69 69 67 68 70 71 68 64 63 67 74 79 83 84 83 77 71 61 55 49 45 43 42 46 53 66 76 85 92 95 93 85 73 62 56 57 61 63 65 66 67 66 64 60 56 52 50 48 46 44 43 41 41 41 44 45 47 51 56 58 56 53 52 56 60 62 64 65 65 64 62 60 58 57 54 51 47 43 37 30 25 25 25 22 18 15 16 16 15 12 9 10 12 14 15 11 10 10 14 14 14 14 15 18 20 21 19 18 15 12 8 11 11 10 9 8 10 12 13 13 14 15 18 24 37 52 67 81 95 107 70 0 
0 1 3 2 3 3 3 4 4 3 3 2 3 4 5 4 5 3 3 2 4 4 5 3 6 11 24 39 58 76 92 115 118 89 52 11 10 11 13 13 12 11 9 7 5 7 7 10 12 13 14 15 20 23 24 23 16 11 10 11 14 14 11 10 12 12 13 13 10 13 15 22 20 18 16 16 20 23 20 19 13 11 11 12 13 13 10 16 15 20 14 17 14 19 15 17 14 15 19 20 26 19 32 22 34 20 24 21 22 22 15 14 9 12 12 13 19 28 36 40 41 45 52 57 60 62 68 75 82 86 87 81 73 61 54 49 50 54 55 51 49 50 56 62 67 73 78 81 79 73 69 69 70 69 67 64 61 59 57 55 53 51 50 48 46 42 39 35 36 40 45 50 55 59 59 56 53 53 54 55 55 57 59 60 58 56 55 57 60 59 57 50 47 41 37 31 26 23 17 15 12 13 15 15 14 14 13 15 14 13 14 15 15 13 10 10 12 14 16 13 13 12 13 14 15 13 15 16 18 19 18 16 14 12 9 11 11 11 11 11 11 11 12 14 15 14 13 10 9 13 24 34 47 63 43 0 
0 1 3 4 4 4 5 4 4 2 2 2 3 4 5 5 6 5 5 3 5 7 14 20 36 55 78 97 113 124 129 129 109 73 35 10 11 10 13 11 12 10 9 8 5 5 7 9 11 13 14 17 15 16 14 15 13 13 12 12 13 14 15 14 14 14 13 11 10 11 13 15 16 14 13 11 13 16 15 14 10 11 12 13 10 10 7 15 19 30 24 23 17 18 14 13 12 12 16 13 17 15 28 21 33 20 24 21 19 18 15 12 10 13 13 12 12 14 20 30 41 51 61 67 71 67 62 56 55 56 59 59 61 64 69 73 78 87 92 90 82 73 67 61 58 60 66 75 80 80 75 68 63 58 54 51 46 43 39 37 37 38 40 43 46 48 51 53 56 58 60 62 62 60 58 57 57 58 57 54 51 50 49 47 41 35 30 30 31 28 27 22 18 13 11 10 10 12 10 12 12 13 13 12 11 12 12 11 10 11 13 17 16 14 11 10 12 16 17 17 15 13 15 15 16 14 16 15 16 14 12 13 12 14 15 12 11 12 12 12 11 10 8 10 13 15 14 13 13 11 13 13 19 35 24 0 
0 2 4 5 4 4 4 4 5 5 5 5 6 6 6 6 5 6 11 20 35 48 63 76 93 110 124 132 135 133 128 113 88 55 25 12 13 11 14 9 11 9 8 8 7 8 8 9 10 9 6 8 12 16 17 15 11 9 11 12 15 14 13 12 11 11 13 10 9 7 11 16 18 18 16 16 15 13 12 11 12 13 13 16 15 13 9 15 17 28 23 23 18 19 16 16 19 19 18 15 13 14 26 21 32 20 24 16 17 14 15 15 16 14 13 10 10 10 13 14 18 26 32 32 29 28 33 37 44 51 62 69 71 69 62 57 58 63 67 70 71 73 75 78 79 79 78 78 72 64 55 47 41 38 37 39 43 47 49 50 51 52 54 56 56 53 53 54 58 60 59 58 56 54 50 43 37 36 36 31 30 25 23 21 13 11 8 11 13 15 14 14 13 13 14 12 10 9 7 8 9 11 15 13 12 9 7 5 6 9 10 17 16 16 12 9 10 12 14 16 15 15 16 15 16 14 13 12 12 10 8 9 10 11 11 10 12 13 12 12 10 10 11 12 13 16 18 18 16 13 15 19 18 29 16 0 
0 3 6 7 6 6 5 5 5 5 6 6 7 7 10 15 24 38 56 73 90 103 114 123 132 136 134 127 117 106 97 82 67 46 28 14 12 10 14 10 11 8 6 6 6 7 8 10 11 11 10 11 12 11 11 8 10 11 13 12 12 11 12 12 12 13 13 11 8 6 7 8 8 8 8 12 13 13 15 14 13 13 13 15 15 14 12 15 17 26 22 27 21 24 17 15 14 13 16 13 14 13 24 19 30 18 25 19 23 19 17 13 13 15 18 17 18 16 15 15 17 23 27 30 30 30 33 36 43 52 66 80 90 95 94 91 87 86 85 81 75 70 66 63 60 55 51 51 49 48 45 44 46 45 44 45 49 54 57 58 58 58 57 55 52 49 48 46 44 39 34 32 32 29 22 16 12 11 13 11 14 12 13 13 11 12 11 13 12 12 11 13 14 16 14 13 9 9 10 12 15 13 13 10 10 8 7 6 7 11 12 15 15 15 14 11 11 12 14 14 13 14 17 16 17 15 12 11 9 8 8 7 8 9 10 10 11 12 11 10 9 9 11 12 15 21 25 25 22 18 18 24 25 36 21 0 
0 5 7 6 5 5 5 6 6 6 8 13 23 34 49 64 78 91 105 117 126 129 130 128 124 116 104 90 78 67 60 57 60 52 36 17 10 8 11 9 13 11 10 8 8 8 10 13 10 10 8 8 12 10 12 8 11 10 11 13 12 11 9 7 6 11 11 12 9 9 12 15 14 14 12 13 14 15 17 19 16 14 11 11 14 13 12 14 15 19 16 23 21 30 20 20 16 14 20 15 19 14 28 19 33 18 24 18 21 21 21 21 20 19 17 16 17 17 14 10 9 11 13 14 15 15 22 31 41 46 51 56 63 70 72 71 69 69 72 76 80 83 85 84 81 76 71 70 64 56 49 45 46 44 43 44 47 48 46 42 39 36 35 31 27 21 17 16 15 13 10 9 12 13 17 15 15 14 15 16 18 19 17 15 13 11 12 12 11 9 8 10 14 17 17 18 14 18 16 17 17 15 16 12 10 8 8 9 11 14 14 16 14 14 14 12 12 11 11 11 12 15 19 19 17 14 11 11 9 9 9 8 8 5 5 7 9 12 10 10 9 12 13 15 20 23 30 29 24 18 19 25 33 39 25 0 
0 5 7 6 5 5 5 7 11 21 39 58 77 93 105 113 119 124 128 127 119 108 96 87 78 66 54 47 44 44 48 61 72 64 41 17 9 12 17 16 17 13 11 8 8 8 8 11 11 13 12 13 13 10 11 10 12 13 12 11 8 9 7 8 7 10 10 14 13 15 17 19 15 11 8 9 12 13 15 15 12 10 10 9 9 8 11 14 17 20 18 22 19 26 20 23 20 17 19 14 21 14 30 21 36 21 27 22 24 21 16 12 13 18 21 21 19 18 16 15 14 15 17 14 13 14 22 29 39 41 45 45 51 57 60 62 60 61 64 68 70 70 69 68 69 70 74 82 87 76 57 36 31 28 24 22 21 23 27 24 21 19 18 17 16 14 12 12 11 11 10 10 13 14 16 16 15 15 14 19 18 19 15 14 10 10 11 11 9 8 9 11 14 15 16 17 17 18 16 16 16 15 15 12 11 10 10 12 12 14 11 11 9 12 14 14 15 14 14 13 15 17 18 16 13 12 11 11 8 7 8 6 5 4 6 7 8 11 10 11 10 12 14 21 31 34 44 35 26 16 18 23 30 40 26 0 
0 3 5 4 7 15 28 45 62 80 97 112 125 131 132 127 120 112 102 87 68 51 41 35 32 31 34 38 37 35 41 59 71 65 39 15 7 9 11 12 15 14 12 9 8 10 12 13 10 8 9 9 12 11 12 11 12 11 10 10 10 12 12 13 13 17 16 16 14 15 16 18 16 14 10 7 7 8 11 12 12 10 9 8 9 9 12 16 19 23 21 26 23 25 21 23 23 18 21 13 18 17 35 30 44 26 27 16 16 17 18 19 20 20 17 13 12 13 8 12 9 12 11 12 13 11 13 14 20 17 19 18 24 31 38 41 42 44 49 56 61 63 67 68 71 76 84 102 115 98 63 22 8 7 7 8 13 17 18 17 18 18 19 19 18 17 15 14 15 14 13 13 12 13 13 17 15 16 14 17 17 18 13 11 8 8 6 7 8 10 12 13 12 12 13 15 17 17 17 16 15 13 12 10 8 8 8 9 10 10 7 7 7 11 13 16 16 17 16 15 16 16 15 13 11 11 8 9 7 8 8 6 6 5 9 9 9 9 8 8 8 13 26 50 68 75 73 49 36 20 22 24 26 36 23 0 
0 5 14 26 47 67 85 99 110 121 131 136 135 127 114 96 79 63 51 37 25 16 16 17 21 23 26 28 25 22 30 58 72 64 35 13 9 13 15 16 14 12 10 9 9 11 10 9 9 7 8 8 11 11 13 12 12 10 11 11 13 13 14 15 15 14 14 16 16 16 15 15 14 12 10 9 8 7 6 6 9 9 10 9 9 9 11 13 14 19 18 21 15 14 19 21 35 25 28 18 21 29 40 44 52 36 32 19 15 13 12 12 13 15 14 12 11 16 12 15 10 13 11 9 9 10 13 14 18 15 13 11 12 13 18 19 18 20 19 22 26 27 29 30 35 42 53 88 124 119 82 27 5 6 6 8 11 16 19 20 20 18 20 18 17 15 14 14 13 13 12 13 11 13 13 12 13 12 14 16 17 15 13 11 9 9 8 10 10 12 13 12 9 8 8 13 13 15 12 12 13 10 10 9 9 11 9 8 6 5 4 5 5 8 11 14 14 14 14 15 14 15 13 12 9 10 8 9 7 8 8 8 10 11 13 11 9 5 5 5 8 20 53 98 125 140 119 84 52 30 34 30 27 34 22 0 
0 40 70 87 103 115 125 128 126 122 117 106 91 72 55 40 30 21 18 13 9 9 14 16 17 18 26 31 28 28 38 64 69 58 32 12 8 8 7 8 7 7 5 6 8 9 10 10 10 9 10 10 12 12 13 14 16 14 17 15 18 17 18 15 15 15 16 16 16 14 12 10 10 10 10 11 13 14 14 15 14 11 9 7 9 11 14 17 17 20 18 24 23 19 20 16 30 21 27 19 18 32 39 51 50 37 30 19 19 20 20 20 20 15 11 9 9 13 13 17 13 11 7 6 5 6 9 12 14 14 16 16 19 16 13 12 12 13 14 15 17 17 15 15 14 19 27 71 124 130 98 34 8 6 5 7 10 13 14 12 13 12 13 11 11 12 14 16 17 15 13 12 12 13 12 12 14 10 15 12 12 8 8 9 10 11 10 11 11 12 12 12 8 7 4 7 8 11 13 17 19 17 12 9 8 9 8 6 4 3 3 4 4 6 9 10 13 12 12 11 9 11 9 12 9 12 11 12 10 11 11 12 12 12 12 11 9 6 5 5 8 26 79 131 159 180 143 116 61 43 52 46 39 38 22 0 
0 71 117 124 129 130 124 113 99 82 64 50 40 31 24 17 15 12 10 8 8 9 13 16 18 20 26 38 55 71 84 94 80 54 27 12 10 10 11 11 9 8 6 7 8 8 7 6 7 8 9 8 10 11 16 14 15 13 15 15 19 18 18 16 12 10 12 15 18 18 20 21 21 14 12 11 14 15 16 16 18 17 14 9 10 10 11 12 11 12 15 18 21 18 22 19 29 22 23 20 22 35 34 45 42 34 27 17 16 16 16 15 13 10 9 8 10 13 12 12 11 10 9 8 7 6 7 10 13 15 18 18 19 19 20 21 21 21 19 16 17 20 17 16 14 23 36 83 142 143 109 36 8 9 10 12 12 11 9 8 10 11 10 9 8 10 12 14 18 14 15 12 11 12 11 11 11 11 14 13 13 10 11 13 14 15 16 16 15 13 12 11 8 6 5 7 8 10 13 18 17 16 11 10 9 9 10 7 6 6 7 8 9 9 10 9 9 9 9 8 8 10 9 10 9 9 10 11 11 10 11 12 14 14 14 13 10 9 9 8 9 29 90 154 206 236 169 137 65 47 56 55 48 48 23 0 
0 74 121 116 108 96 79 59 41 27 20 20 20 20 19 18 14 9 7 7 9 10 15 21 27 39 59 85 108 124 130 122 95 60 28 12 9 7 7 8 7 6 5 5 6 7 7 8 10 10 11 9 11 8 10 12 16 16 17 16 16 16 17 17 15 14 14 16 16 16 17 18 17 13 13 13 19 20 21 18 22 15 16 9 11 11 15 18 19 19 19 19 24 20 20 15 17 16 17 16 14 24 25 34 31 24 21 15 18 18 16 17 16 14 12 11 8 7 9 12 14 15 16 14 11 9 10 11 15 14 15 16 19 17 15 15 14 14 14 16 16 15 14 14 17 35 49 100 158 155 118 38 10 11 12 13 13 13 13 14 12 11 9 9 8 9 10 11 16 14 17 14 13 13 13 14 13 13 15 12 10 8 9 11 12 13 13 13 12 11 11 11 11 10 9 8 10 11 11 16 16 19 14 13 10 7 9 8 10 11 13 12 12 11 11 10 10 7 8 7 9 12 12 10 9 9 12 12 12 10 11 9 10 10 11 13 14 13 12 10 10 22 72 128 168 194 146 121 61 51 64 62 51 56 24 0 
0 54 82 67 53 40 31 25 22 19 19 18 20 24 23 24 23 24 23 22 22 21 24 33 52 78 104 129 149 162 161 148 112 67 30 9 7 6 7 9 10 10 12 13 11 10 8 8 8 7 8 8 10 11 12 12 10 11 11 13 13 14 14 15 15 16 17 17 14 14 16 22 21 17 14 12 15 16 18 15 19 15 18 10 13 12 14 18 17 20 17 20 18 16 19 20 23 19 13 12 12 22 23 32 28 23 19 12 11 10 11 13 12 11 11 10 9 8 8 11 14 15 15 14 12 11 12 11 14 16 22 18 16 14 16 19 19 22 19 17 15 13 12 10 17 44 62 127 174 164 120 37 9 10 13 15 15 15 15 17 14 12 9 11 11 11 11 10 14 15 17 15 13 13 13 14 13 15 15 12 9 8 10 11 13 12 12 11 11 12 14 15 17 15 15 11 12 11 13 15 12 14 12 13 11 7 6 7 9 10 13 13 14 13 12 10 10 8 11 9 13 13 12 10 10 9 9 9 10 9 10 7 8 8 12 15 15 14 12 11 9 13 44 91 127 146 111 82 43 37 47 50 44 55 26 0 
0 18 22 16 17 17 17 14 14 15 17 20 22 23 23 30 38 46 55 57 57 56 64 81 101 124 144 160 167 164 152 149 123 84 41 8 7 6 7 6 8 10 10 11 11 13 10 11 11 10 11 10 9 8 8 11 11 13 10 10 9 9 11 13 14 15 15 15 13 12 10 10 10 11 12 15 19 18 18 17 14 10 13 10 13 14 17 22 22 29 19 18 11 12 16 16 22 18 17 12 10 23 23 36 27 24 15 12 14 13 13 14 15 15 13 10 9 9 8 9 12 16 17 14 12 13 13 15 18 18 19 17 16 12 9 11 12 15 15 18 14 15 17 14 19 46 56 123 167 162 118 36 13 15 16 14 14 16 16 19 13 13 11 12 12 11 9 7 8 11 13 13 12 13 12 13 13 14 13 11 9 10 9 10 9 9 10 10 10 12 13 15 16 16 15 13 12 11 11 12 10 10 11 13 12 12 7 8 9 12 15 15 16 14 14 12 13 11 11 9 11 11 10 9 8 9 10 10 11 11 13 11 9 8 10 12 12 12 10 9 8 8 17 40 59 71 58 52 49 53 60 65 67 67 37 0 
0 5 9 12 14 16 24 34 44 53 59 65 70 77 91 104 118 128 130 129 132 139 142 142 143 149 153 150 139 123 114 136 130 100 49 9 8 8 9 8 8 10 12 14 12 12 12 11 13 12 14 15 13 12 13 16 17 18 14 12 13 12 12 11 9 9 12 15 17 16 13 12 11 12 13 14 16 18 19 16 16 14 14 13 16 17 17 21 18 23 18 18 14 13 17 19 26 21 20 16 14 27 26 46 30 28 17 12 13 12 14 14 14 13 9 8 8 10 13 14 14 13 11 10 10 11 14 15 15 15 17 17 17 15 15 14 19 25 21 20 16 17 19 20 22 43 59 124 164 150 107 32 15 17 17 16 13 13 12 14 8 8 8 10 11 9 7 6 7 9 10 10 12 14 13 13 11 11 11 9 7 7 6 8 9 9 9 9 10 14 15 14 15 16 14 13 9 11 10 13 9 9 8 12 11 13 8 8 8 9 11 11 11 11 11 12 12 11 11 9 9 9 8 9 9 10 10 9 11 13 16 15 14 13 12 12 9 7 6 7 9 11 12 14 17 26 40 55 70 84 100 110 111 95 57 0 
0 35 57 65 74 86 95 104 109 112 112 110 107 101 97 95 96 100 104 113 126 144 159 161 151 136 120 105 88 74 82 125 137 114 57 13 12 12 11 9 9 8 9 11 11 10 11 10 12 13 14 13 11 12 10 13 15 17 16 16 17 19 17 13 9 6 8 11 15 16 13 11 11 13 15 19 18 15 17 15 15 13 15 16 17 19 17 20 18 21 19 19 16 15 17 19 21 20 21 20 18 31 28 45 29 26 14 10 14 14 18 18 17 16 13 11 11 11 11 9 9 11 11 13 17 18 19 16 16 13 13 15 17 15 13 12 15 18 18 18 16 18 23 23 22 38 60 114 151 129 88 25 15 15 15 14 11 11 9 11 8 8 9 10 10 9 7 8 8 8 9 10 11 11 9 8 7 7 8 8 6 6 6 6 7 7 7 7 8 12 13 12 10 10 12 13 11 10 6 10 8 9 7 9 11 12 9 9 8 9 10 10 10 13 12 13 13 12 11 9 7 8 6 6 5 5 8 7 11 12 18 16 14 11 10 10 10 9 8 8 11 10 12 12 19 35 61 85 104 117 130 138 144 119 73 0 
0 65 108 112 111 107 105 105 102 100 103 110 119 127 135 139 139 138 132 138 155 165 157 131 105 86 72 60 49 40 61 115 139 118 57 12 9 8 8 8 7 9 8 8 8 8 8 9 9 10 11 14 13 15 17 25 24 21 15 15 17 20 19 15 13 9 9 12 16 15 15 12 12 13 14 13 15 16 15 14 13 13 15 15 16 17 20 25 28 31 30 24 20 21 16 19 15 17 18 21 21 30 29 39 32 24 15 8 10 11 12 13 14 15 15 14 12 12 12 12 11 9 10 13 16 17 16 13 11 9 9 11 14 14 13 14 18 20 19 17 18 18 21 22 20 34 60 101 123 98 61 16 10 10 11 11 9 9 8 10 9 9 10 8 6 5 5 7 8 7 8 10 13 14 11 9 6 6 6 7 7 6 5 5 7 7 6 6 9 12 12 10 8 8 13 12 13 10 9 9 8 9 8 8 9 10 9 10 10 9 9 8 9 12 12 13 13 11 10 8 9 8 9 7 7 5 6 6 9 11 14 15 15 12 14 12 10 8 6 7 10 9 12 15 33 62 89 104 110 112 122 130 150 122 83 0 
0 59 108 122 132 138 140 136 128 121 114 106 98 89 80 72 64 60 62 82 116 142 147 122 87 61 42 29 20 14 44 109 140 118 57 13 11 11 10 11 10 12 11 10 7 7 9 9 8 7 6 7 11 14 14 16 15 15 14 14 16 17 18 14 13 12 12 10 10 10 10 11 12 10 13 12 15 15 16 15 11 11 12 13 15 17 18 24 27 32 28 27 17 18 15 21 19 17 15 19 19 26 30 33 33 23 20 11 12 13 17 16 15 15 15 15 13 12 12 9 9 8 11 14 16 18 15 14 14 15 17 19 19 18 17 14 13 13 15 15 16 17 18 18 17 29 54 91 106 77 41 11 7 6 6 8 8 9 9 9 8 8 8 7 5 5 6 8 8 7 8 9 9 7 5 6 4 7 6 7 6 6 5 5 4 4 4 4 6 9 9 8 8 8 13 13 16 11 10 7 8 7 8 10 10 10 11 11 11 8 7 7 8 10 11 11 12 12 12 9 11 8 12 7 7 4 4 6 6 10 10 10 13 9 11 10 11 10 7 7 8 9 10 22 49 80 94 90 82 76 82 87 120 105 81 0 
0 70 106 108 106 97 86 73 62 57 58 64 71 76 79 82 82 80 79 91 119 140 144 126 97 63 32 12 8 8 43 107 138 116 54 10 5 6 6 8 11 11 10 8 7 6 7 7 6 5 6 6 7 10 14 18 17 15 11 8 10 10 10 11 11 10 10 12 14 17 16 12 11 9 10 9 11 11 13 10 7 6 7 7 7 9 16 29 35 46 35 33 19 22 21 22 19 18 19 19 19 27 28 33 31 23 19 13 15 15 15 12 13 14 15 16 14 14 16 16 16 15 15 14 14 13 10 9 10 12 15 18 20 20 19 17 18 14 11 10 14 15 16 17 17 25 48 74 86 66 35 10 7 7 7 8 9 9 9 9 9 10 10 10 9 9 9 9 9 7 7 6 8 6 5 6 6 8 6 7 7 8 8 6 8 9 10 11 12 12 11 9 9 9 13 10 14 9 11 7 7 7 9 8 8 8 11 11 11 9 8 8 8 9 11 11 12 11 10 8 11 8 10 6 6 5 5 8 8 10 10 10 15 12 14 10 9 6 4 5 7 7 9 31 63 85 85 68 54 45 44 50 87 87 69 0 
0 32 60 73 82 87 89 87 84 81 76 70 63 55 48 45 44 47 51 65 92 122 147 160 148 113 77 45 37 33 61 114 137 114 55 14 10 9 10 11 14 16 15 11 8 7 8 10 9 7 6 7 8 9 9 12 12 13 12 10 9 9 9 10 9 10 11 14 14 14 14 15 14 13 11 8 8 9 12 13 13 11 10 12 14 15 14 20 23 33 23 24 15 16 19 20 24 16 17 13 14 27 28 37 31 25 21 15 13 13 15 15 17 17 16 15 16 16 14 12 13 15 20 20 18 14 11 11 10 13 16 18 19 19 19 16 14 12 12 11 10 13 13 14 13 17 37 72 88 70 38 11 8 11 8 10 10 9 9 6 7 9 9 12 11 12 10 10 9 7 9 6 7 4 5 5 6 8 6 8 9 13 13 12 10 11 12 12 12 11 10 9 11 10 13 9 13 6 8 5 6 6 8 9 8 9 10 10 9 8 8 8 7 6 7 8 9 9 10 9 10 8 7 7 7 9 9 11 10 10 9 10 11 10 10 9 7 6 5 8 10 9 16 44 75 86 71 41 35 41 49 65 85 75 55 0 
0 44 69 67 63 58 52 49 48 50 52 53 51 47 41 38 38 40 43 47 63 91 120 158 177 174 159 133 123 114 122 146 141 107 49 12 9 8 8 8 10 12 13 11 9 8 9 12 12 9 7 5 6 7 9 10 11 10 10 11 10 10 11 12 12 11 9 11 14 18 17 17 15 13 13 11 8 7 8 8 10 10 11 10 11 13 17 23 26 32 24 23 18 19 21 15 17 13 18 17 16 27 26 39 29 23 17 14 15 13 13 13 15 16 19 21 21 20 20 18 18 18 19 18 16 15 13 13 12 12 13 14 16 14 14 14 17 15 16 18 19 21 17 17 12 14 29 66 85 71 39 11 8 10 8 8 8 7 9 6 8 10 9 13 11 14 10 9 10 10 14 10 13 8 8 8 10 9 9 10 12 15 14 14 12 14 16 16 14 11 11 9 10 11 14 11 13 9 13 12 11 11 10 9 9 11 11 13 12 10 8 7 6 5 6 6 8 8 8 9 7 8 6 5 7 9 12 14 14 13 11 10 12 13 13 12 10 9 8 9 10 10 23 55 83 82 62 38 46 57 61 69 77 60 42 0 
0 30 53 58 60 56 48 41 39 42 45 46 46 44 42 42 45 52 57 59 57 62 76 115 156 183 191 180 170 153 135 137 119 89 43 18 15 16 15 14 13 14 13 11 8 9 10 12 11 11 11 11 12 13 18 17 17 15 15 13 10 8 10 11 11 10 11 13 12 13 15 16 16 15 11 11 9 11 12 14 16 12 13 12 17 15 15 15 18 20 18 16 16 14 13 10 11 11 12 12 11 24 24 34 27 24 17 11 10 9 12 14 20 20 17 16 15 14 11 9 10 13 17 17 15 14 13 13 15 16 19 19 16 12 10 7 8 11 16 17 19 20 18 17 12 13 29 63 83 69 36 9 7 8 7 6 8 8 10 8 11 13 12 14 10 12 9 9 10 12 15 12 13 10 10 8 6 7 8 9 13 18 17 16 13 13 13 12 10 8 9 9 9 12 15 15 15 14 15 14 12 11 8 11 9 11 10 9 7 7 7 8 7 6 8 5 7 8 9 12 8 8 5 6 9 11 15 17 16 12 10 7 7 6 7 9 10 11 11 13 13 14 26 57 87 83 72 50 56 60 64 66 69 50 31 0 
0 28 46 50 49 46 43 44 47 53 59 61 59 54 49 45 44 43 44 47 51 56 63 84 115 144 162 166 170 173 161 151 104 71 28 12 11 14 12 11 8 9 7 8 7 10 12 14 14 11 10 11 10 12 14 14 14 11 11 10 11 11 14 16 17 17 13 12 11 13 16 19 13 12 8 12 11 12 10 9 10 8 9 8 12 12 17 19 24 25 22 16 18 14 13 11 11 13 12 15 13 23 24 35 25 23 14 15 15 14 13 11 12 11 12 13 13 13 13 15 17 17 16 13 11 11 13 14 15 16 17 17 15 13 13 16 18 18 21 23 27 25 21 18 16 17 31 63 81 68 36 8 6 7 6 6 7 7 8 10 11 11 9 8 8 8 6 6 8 11 14 15 14 11 9 8 7 8 9 11 13 14 13 12 9 11 11 11 11 9 8 6 6 9 13 15 16 18 19 21 16 14 10 11 12 12 11 10 9 8 7 7 9 6 7 4 7 9 10 12 7 7 5 7 8 9 11 12 12 10 9 7 9 8 10 11 12 14 12 13 12 16 25 52 83 85 91 64 60 50 46 47 51 46 31 0 
0 37 59 63 63 60 54 48 45 45 47 50 55 59 61 62 63 62 61 61 60 60 60 65 79 97 109 117 132 140 128 128 83 63 20 12 13 16 15 16 13 11 7 7 6 9 9 9 9 11 13 14 11 13 13 14 14 13 15 10 11 8 10 11 13 16 16 17 13 16 14 14 9 9 7 11 12 14 15 14 15 12 10 11 11 10 12 15 21 23 22 21 20 16 17 14 15 16 15 13 10 21 20 36 23 26 14 14 14 14 13 12 12 10 10 7 7 6 7 10 12 13 13 12 13 14 16 15 16 17 19 17 14 14 16 17 17 15 14 13 14 14 13 14 13 15 30 63 81 70 40 11 8 6 5 5 6 9 10 10 11 12 13 9 11 8 10 8 10 11 12 11 11 11 11 9 8 9 10 12 13 15 13 13 8 10 8 9 10 9 8 5 6 7 11 13 14 16 16 17 13 13 11 12 9 9 8 8 8 6 6 6 8 7 7 5 7 9 10 11 8 7 6 7 8 9 11 12 12 12 13 13 14 12 10 10 11 12 11 12 12 14 20 39 67 79 90 67 56 42 32 41 52 64 41 0 
0 25 48 54 59 63 66 68 71 73 74 73 70 66 62 59 56 51 47 47 51 56 60 60 58 55 53 61 90 112 130 139 92 65 14 7 8 9 9 9 8 9 7 8 6 10 10 11 10 12 10 9 8 7 8 10 13 12 16 12 16 13 15 16 17 18 15 15 13 15 18 18 15 11 10 10 11 11 11 11 10 10 8 10 11 13 13 16 22 26 23 21 19 18 20 20 25 19 17 9 10 24 22 43 23 25 11 11 12 12 9 7 7 7 8 9 11 12 13 16 16 16 12 11 12 14 15 14 14 13 13 10 9 10 16 20 19 16 13 14 15 16 14 15 14 15 26 59 79 69 39 11 10 8 7 7 6 6 8 9 11 10 9 8 10 7 9 7 9 9 9 10 9 8 8 7 9 9 11 12 11 10 8 10 7 9 7 9 10 9 9 5 7 5 8 8 11 12 13 14 14 13 10 13 9 13 10 10 8 7 6 7 7 7 7 5 7 8 8 9 7 6 6 6 8 10 11 11 9 9 11 12 11 10 9 11 12 11 11 12 15 18 19 27 49 65 73 61 45 35 36 58 60 69 40 0 
0 44 68 66 65 66 67 67 63 57 53 51 52 54 57 60 61 61 60 60 62 62 60 57 53 54 59 73 108 125 154 147 101 66 14 9 11 9 11 12 12 12 9 9 7 8 8 10 11 13 13 12 10 9 10 9 11 11 16 14 18 13 13 14 15 18 16 14 13 14 14 14 13 12 14 16 19 19 19 20 16 14 13 14 14 14 15 18 18 20 22 24 24 21 22 20 25 20 24 17 17 27 20 42 20 25 10 11 12 11 9 8 8 10 12 12 13 13 12 14 10 9 7 8 10 13 14 13 13 12 12 11 12 15 18 17 15 11 9 12 16 19 21 21 17 14 24 56 75 66 39 11 10 9 7 7 7 8 8 9 9 10 9 8 8 7 9 8 9 11 10 9 8 9 11 9 11 10 12 10 10 9 8 7 6 10 8 9 8 7 9 7 8 5 7 8 10 11 12 12 13 13 14 13 10 12 10 13 10 7 5 5 7 8 8 7 8 8 8 7 7 8 7 7 7 9 11 11 11 13 17 19 19 16 15 14 12 10 9 11 11 15 15 18 26 39 43 38 34 35 47 77 92 101 56 0 
0 33 55 57 59 62 64 67 68 66 63 59 56 54 51 51 52 55 59 64 71 78 84 88 90 92 98 114 148 168 189 160 103 56 12 12 13 13 13 13 12 12 11 9 8 9 9 10 11 12 11 11 11 11 11 10 12 11 15 12 15 16 19 21 20 19 16 13 11 11 13 14 15 14 13 12 13 16 19 17 14 12 10 11 14 14 15 13 13 13 18 18 24 19 24 22 24 23 22 18 16 25 18 36 17 22 8 11 12 11 8 6 6 8 11 12 14 14 14 18 18 18 15 12 10 9 8 8 10 9 11 11 11 13 14 14 11 9 8 9 13 16 19 18 17 16 27 56 72 63 36 13 11 10 10 11 8 8 7 8 7 10 6 6 6 6 8 7 8 8 8 7 6 6 7 8 9 9 8 9 6 5 4 4 7 8 8 7 8 8 9 8 7 7 5 6 8 10 12 11 10 10 10 11 11 13 12 10 7 6 5 6 6 7 7 7 6 6 7 8 9 9 8 8 8 10 12 11 9 9 10 9 8 7 9 11 15 14 13 15 14 16 12 14 14 20 23 31 34 37 49 74 88 96 58 0 
0 40 65 61 58 54 55 58 63 65 66 67 69 73 78 86 92 97 101 106 110 114 115 114 111 114 120 132 158 178 185 152 94 40 10 12 11 12 13 14 13 11 11 9 7 7 8 10 9 10 10 11 12 12 12 11 10 9 11 9 11 12 15 18 17 15 13 12 11 11 11 12 11 12 12 14 16 18 20 17 15 15 17 17 18 17 23 22 22 17 22 17 26 16 19 17 17 20 21 22 18 23 17 32 16 20 9 12 13 14 12 12 12 12 12 9 9 10 12 15 16 16 14 12 11 10 9 8 7 6 6 7 10 14 14 12 10 9 13 16 21 22 22 19 17 16 28 56 70 63 35 13 10 10 12 13 11 9 7 9 10 11 8 9 8 9 10 10 11 10 8 7 7 8 8 8 7 8 6 7 5 6 5 4 9 10 14 12 14 12 12 11 9 8 7 7 9 11 13 12 10 9 7 8 8 7 8 8 8 8 8 8 8 8 7 6 7 7 7 7 8 12 13 12 11 10 9 8 8 8 11 12 12 8 9 9 11 12 14 14 14 15 14 13 9 12 14 21 22 23 25 52 77 98 64 0 
0 52 84 86 88 88 92 95 99 100 100 99 99 101 103 106 110 114 118 121 124 127 129 128 126 124 123 127 143 164 177 147 88 33 10 10 11 11 15 14 14 11 9 9 8 9 10 11 9 7 7 9 11 12 11 13 12 11 9 6 6 10 14 18 18 18 14 12 10 10 10 10 7 8 6 7 7 11 13 12 14 16 17 17 16 16 20 20 23 17 22 18 26 16 19 18 19 20 17 15 11 19 17 32 18 22 12 14 13 15 13 14 14 12 11 9 7 7 9 15 19 20 18 13 11 10 8 8 9 11 11 12 11 13 11 11 10 12 14 14 14 13 11 9 10 11 27 56 69 63 36 15 11 12 12 13 11 10 7 9 10 10 11 9 8 12 13 14 9 8 4 4 6 7 10 9 10 10 8 8 6 7 8 9 13 12 13 11 11 11 14 12 12 9 7 6 8 11 14 11 7 5 5 7 9 9 9 8 7 7 8 8 11 11 12 9 7 6 8 10 11 11 11 12 10 10 9 9 8 6 6 6 6 4 4 5 11 12 15 13 14 12 11 11 10 12 14 20 22 22 16 29 52 83 57 0 
0 73 115 115 114 112 110 111 115 117 119 119 119 121 122 123 123 122 120 117 113 109 103 97 90 83 76 74 78 102 133 122 87 37 10 10 9 9 12 13 14 13 12 11 8 10 12 13 12 11 10 9 9 13 11 14 11 12 11 10 10 10 10 12 10 10 8 9 10 12 12 13 11 12 10 11 9 9 9 8 9 13 15 17 15 15 21 23 32 21 23 14 15 12 14 12 15 16 16 14 16 24 23 36 22 23 11 13 9 11 10 14 14 13 12 10 9 8 9 11 12 11 9 8 7 8 10 12 13 13 11 12 10 12 10 10 9 12 15 16 16 15 14 14 16 17 30 60 71 63 33 10 8 10 12 14 10 9 7 9 11 11 10 9 9 11 11 14 10 9 5 6 7 7 11 8 10 10 8 7 7 7 8 8 11 13 16 17 16 16 15 11 11 8 8 8 10 11 13 13 13 11 10 9 9 9 8 7 10 10 11 10 12 11 11 9 10 11 10 9 10 10 11 11 10 10 11 10 10 8 7 7 7 6 5 7 12 13 18 16 16 16 14 13 11 12 16 22 26 27 27 38 57 88 64 0 
0 68 116 117 117 117 116 115 112 108 104 100 97 94 89 83 77 72 67 61 55 48 42 37 33 30 26 25 27 62 111 124 98 45 14 13 12 10 13 13 14 14 12 10 12 12 16 14 13 9 8 9 9 11 11 12 9 10 8 8 8 9 10 12 10 10 9 7 8 8 10 9 10 12 11 11 10 10 11 11 12 14 14 14 13 12 17 18 22 17 19 21 24 18 14 12 15 15 15 14 17 28 29 40 25 25 13 13 10 11 10 11 12 10 9 9 10 10 12 12 12 10 7 7 9 11 10 10 11 12 12 12 10 11 9 9 9 10 12 12 12 10 10 11 13 14 29 61 73 63 30 7 6 8 10 12 9 9 7 9 9 10 10 9 9 11 12 12 9 6 4 3 6 5 8 7 10 10 12 10 8 7 10 10 10 10 10 10 10 14 16 18 19 16 12 10 10 14 16 14 11 10 10 11 12 12 12 9 8 6 6 7 11 13 15 14 13 13 12 12 12 8 7 6 8 8 12 13 13 9 6 6 6 7 6 7 12 12 14 12 11 12 13 14 13 15 20 26 31 34 36 51 65 81 51 0 
0 97 147 137 126 114 102 91 80 73 67 62 58 53 47 39 34 29 27 24 20 18 17 17 17 18 13 12 15 56 110 130 102 49 19 17 15 11 10 10 14 16 17 14 17 15 18 12 13 9 11 10 11 11 10 9 9 9 10 11 10 9 8 8 8 8 8 8 12 9 12 10 12 11 11 11 11 11 11 11 10 10 8 11 11 10 11 14 17 15 18 16 22 18 20 14 16 19 17 19 20 30 28 39 24 24 12 15 14 16 14 12 9 8 9 10 12 11 10 10 9 9 12 14 16 17 17 16 14 9 8 7 8 10 10 9 9 10 10 9 6 7 9 12 14 15 30 61 71 61 28 7 5 6 8 9 10 11 10 13 10 10 9 8 9 12 11 10 7 6 7 5 7 6 8 8 11 11 11 8 9 6 7 6 6 7 10 15 16 17 15 13 11 11 11 13 13 13 13 15 15 17 15 15 15 12 10 10 13 13 12 10 10 8 8 11 14 19 18 13 10 7 6 5 8 11 16 16 16 12 9 8 7 8 7 8 12 14 17 15 16 17 18 20 22 21 22 26 29 36 37 63 76 94 60 0 
0 111 174 166 156 146 135 126 118 110 102 96 92 86 78 69 62 56 50 43 36 31 27 25 23 22 20 20 19 57 109 129 101 45 15 13 11 10 10 10 14 16 16 14 15 14 16 9 8 5 7 8 9 10 10 8 9 7 7 6 6 7 8 8 7 7 9 9 12 12 14 12 15 14 12 9 8 9 11 12 12 12 12 15 14 15 15 18 21 21 24 21 34 22 23 17 15 19 17 22 16 25 23 32 20 20 9 13 12 15 14 14 13 13 14 14 15 16 17 14 13 12 16 20 23 24 21 16 11 6 4 4 4 6 8 12 13 15 14 14 11 10 8 8 8 8 26 58 69 58 25 8 6 4 6 9 10 12 11 11 10 12 10 12 10 12 11 11 7 5 5 4 7 7 10 8 10 10 12 9 10 10 11 8 6 5 6 10 13 16 15 15 15 14 14 11 12 12 12 13 12 12 12 14 16 15 16 14 12 9 7 7 8 9 10 13 15 14 13 10 10 9 8 8 10 11 15 14 13 10 8 8 8 9 9 9 12 14 16 13 14 17 23 24 21 20 18 24 23 35 27 57 61 75 42 0 
0 116 194 194 194 192 192 191 189 186 184 181 177 173 169 163 157 152 146 138 128 119 112 105 97 89 78 69 62 86 121 122 93 39 13 12 10 8 8 8 12 17 17 17 15 15 15 10 8 9 10 11 10 9 11 11 12 11 9 8 7 7 8 9 8 7 8 10 12 13 13 14 13 12 10 7 7 8 8 8 8 9 10 17 18 21 19 20 22 18 22 20 26 22 25 24 23 28 17 20 13 21 23 29 22 22 15 19 18 21 17 15 14 14 14 14 16 18 19 13 14 12 19 21 22 21 22 22 20 15 9 8 9 12 14 14 15 17 14 12 9 9 10 10 12 13 31 59 66 55 26 8 8 6 8 12 13 13 11 12 13 14 13 13 12 15 12 10 6 4 5 5 9 9 12 13 13 10 8 8 10 11 10 9 7 6 7 11 14 13 10 8 10 12 15 15 15 10 10 10 11 11 12 13 15 15 14 15 17 16 13 10 8 8 8 11 14 16 13 10 8 9 10 11 13 15 20 17 17 13 10 9 10 8 7 7 8 10 12 13 17 20 24 25 24 22 18 27 21 34 22 60 64 83 48 0 
0 97 157 163 169 175 181 187 191 194 197 198 200 201 202 203 204 206 207 207 205 201 198 194 189 184 178 172 164 165 163 125 78 27 7 7 8 10 12 12 14 16 15 14 15 13 14 9 8 9 9 9 8 7 8 11 12 12 9 9 8 10 8 7 6 7 6 7 8 10 11 12 14 14 15 13 11 10 10 10 8 9 11 16 18 19 22 24 33 26 22 17 15 20 20 25 20 26 21 24 20 22 25 28 24 21 17 18 15 13 12 14 16 18 20 18 18 19 22 18 21 16 19 19 18 19 18 17 17 16 15 13 12 12 16 20 23 22 19 18 15 11 8 9 11 14 31 60 65 54 26 11 11 8 10 12 13 12 10 10 11 13 14 13 11 11 10 8 6 5 7 8 11 10 12 11 12 13 12 11 12 15 12 9 6 5 6 8 11 11 11 12 13 14 16 14 12 9 9 9 12 11 11 12 12 16 15 16 11 9 8 11 11 14 14 15 12 11 7 7 8 10 9 10 11 12 15 14 13 11 10 9 9 10 12 10 11 10 11 11 13 15 18 18 16 14 16 26 26 38 31 67 68 75 38 0 
0 43 70 77 85 93 103 114 123 129 136 141 148 155 161 168 175 181 188 195 201 205 208 213 216 218 219 220 219 211 189 136 76 24 8 8 9 9 10 10 12 13 16 14 17 12 14 8 11 9 10 10 8 10 11 14 13 12 9 10 10 11 11 9 7 8 8 9 9 8 8 7 11 11 11 11 11 10 10 11 10 10 12 18 21 20 23 21 26 19 19 19 18 21 17 25 21 24 17 15 20 26 32 34 29 25 18 16 15 15 16 17 19 13 15 11 17 15 18 15 17 15 17 15 14 15 18 23 25 22 18 14 14 16 16 16 16 16 14 13 13 12 10 12 15 18 35 60 64 52 24 12 13 11 13 14 13 11 7 8 10 12 12 12 11 13 13 12 11 10 12 14 15 14 15 15 15 12 9 9 8 9 8 8 5 5 6 7 9 9 9 12 17 18 17 14 12 9 8 7 9 7 7 10 9 13 11 13 12 13 11 12 10 11 11 14 13 14 11 10 9 10 10 10 10 11 14 14 14 12 10 8 8 9 7 8 9 9 11 10 14 15 14 12 12 11 17 25 28 33 46 66 79 87 51 0 
0 5 10 10 11 14 18 23 28 33 40 46 53 60 68 77 86 96 105 116 126 136 144 153 162 170 179 186 192 191 174 129 73 28 11 11 11 11 10 9 10 9 11 12 15 11 12 7 10 7 9 10 11 11 12 15 15 13 9 10 11 11 10 9 10 9 8 7 8 8 10 8 8 9 12 14 14 14 13 13 13 14 15 16 17 15 17 18 21 22 19 17 17 20 19 23 17 19 19 23 24 29 31 36 25 21 12 13 12 12 15 16 19 17 19 12 12 9 12 12 16 14 15 14 13 14 12 12 14 15 16 18 17 17 16 17 16 14 14 14 13 12 10 10 11 14 35 58 64 49 25 13 15 13 13 14 15 15 10 10 10 13 13 13 12 13 12 11 10 12 14 14 12 10 9 10 11 12 10 9 9 10 8 8 6 8 8 9 10 11 13 16 17 18 18 16 13 12 11 11 11 10 9 11 11 12 9 9 7 8 10 12 13 14 13 16 14 13 10 9 9 9 9 9 11 14 19 19 17 14 11 8 8 8 10 10 9 8 10 10 13 13 14 14 12 12 16 23 26 28 53 66 89 81 44 0 
0 3 5 4 3 3 4 5 4 3 3 3 4 5 6 9 10 13 16 23 29 37 44 52 62 71 81 90 101 120 137 121 82 36 12 10 11 9 8 7 6 8 11 14 15 11 10 8 10 9 9 8 10 11 13 13 11 9 6 8 9 12 10 9 10 12 12 11 13 13 12 13 13 13 12 11 9 9 9 12 12 13 14 16 17 17 18 23 20 20 17 19 19 18 14 13 13 16 13 15 19 27 28 34 22 17 7 5 9 11 15 16 15 12 11 11 11 11 13 12 14 14 14 12 11 12 16 20 21 20 19 16 15 16 14 12 12 11 10 11 10 12 12 14 14 15 36 58 63 46 22 16 18 15 13 13 14 13 11 12 11 14 13 12 13 15 17 17 13 12 11 11 11 12 12 13 13 11 9 8 7 9 8 9 6 8 7 7 8 8 9 11 14 17 14 13 11 12 10 8 7 8 11 12 12 11 8 8 9 11 12 11 11 16 19 24 23 21 16 12 10 9 9 9 11 12 14 14 13 11 8 7 7 6 8 8 10 12 11 11 12 12 11 10 9 11 12 18 21 25 45 54 72 79 54 0 
0 2 3 3 3 4 4 5 5 5 4 4 3 2 3 3 2 2 1 3 3 6 6 7 9 10 14 15 19 48 91 105 84 38 12 11 11 10 10 9 9 8 8 11 15 11 12 11 13 12 11 11 12 10 12 12 13 11 11 12 11 11 10 13 12 10 8 8 11 16 17 20 17 17 13 11 10 9 9 10 10 12 13 14 16 18 17 18 17 18 15 14 15 18 21 24 20 17 15 17 20 25 30 30 21 13 8 10 14 14 14 12 9 11 11 12 12 13 15 15 15 13 12 11 13 12 11 11 12 14 17 18 17 14 11 11 10 11 11 11 9 11 11 12 11 14 38 61 63 46 20 15 15 14 13 15 19 21 17 16 15 18 15 12 11 11 11 12 11 12 10 10 8 7 7 7 8 8 7 7 6 7 7 10 11 13 13 14 15 15 16 16 14 17 15 17 14 13 10 8 7 9 14 18 19 16 13 14 18 19 16 13 13 15 22 25 26 21 14 10 7 7 7 10 11 16 21 19 16 12 10 10 11 10 11 9 11 15 23 29 28 25 21 17 13 12 12 15 14 20 35 48 60 89 56 0 
0 1 2 2 3 3 4 4 5 5 5 5 4 3 4 4 4 4 4 4 4 5 4 6 6 6 6 6 8 40 86 103 83 35 9 8 8 9 11 9 8 7 11 10 15 10 12 8 10 11 11 10 9 10 9 10 9 9 8 9 9 10 11 13 14 13 10 9 13 16 15 17 15 16 13 12 12 12 12 12 11 10 11 13 14 15 17 21 23 18 17 15 15 20 18 22 18 21 15 14 22 22 34 26 22 11 7 9 13 14 14 10 6 5 5 7 9 12 15 15 16 14 13 11 10 10 11 13 16 19 18 15 12 12 10 11 11 11 10 11 10 12 13 17 17 19 41 60 60 43 17 15 15 13 12 12 13 15 14 17 15 15 12 11 9 10 12 15 13 13 8 8 9 12 14 14 13 12 11 10 9 9 10 9 9 9 9 9 8 8 9 11 12 15 13 14 11 10 8 6 6 9 14 18 20 16 17 17 22 24 22 17 17 19 28 29 28 22 15 12 10 10 7 9 8 14 12 15 15 12 12 11 11 11 12 14 23 36 47 53 49 37 23 13 10 12 14 15 15 15 22 30 36 85 53 0 
0 1 2 3 4 4 4 3 4 5 6 5 4 3 3 3 4 4 5 4 5 4 4 6 6 6 7 5 8 42 84 100 78 31 9 6 6 8 13 14 17 13 13 9 14 10 13 9 10 10 9 11 10 13 9 12 8 11 10 10 8 9 13 16 15 11 9 11 14 18 20 21 18 15 12 11 12 14 15 14 11 9 9 13 16 19 20 15 18 14 17 14 14 20 23 33 25 22 13 13 27 26 43 27 26 13 12 15 17 16 14 11 9 7 6 9 12 12 15 12 14 11 13 14 16 17 15 13 12 12 12 12 9 9 7 7 8 10 10 10 9 10 11 13 11 14 38 57 57 39 15 10 10 9 11 13 16 17 15 14 13 12 10 7 6 5 6 11 12 14 11 10 10 11 12 13 12 10 9 8 8 6 8 7 11 10 11 11 11 12 12 12 13 14 16 14 11 9 7 7 7 10 13 17 20 15 20 21 31 30 23 15 13 13 18 18 20 17 14 10 8 8 6 10 10 16 15 21 19 19 18 17 19 17 17 22 38 58 74 83 80 66 45 23 12 9 9 9 11 13 18 24 32 91 58 0 
0 1 1 2 3 3 3 2 3 3 3 3 2 2 2 2 3 3 4 3 3 2 2 3 5 3 4 2 5 27 51 60 47 18 5 3 4 5 7 7 9 7 7 5 6 4 6 3 3 5 4 7 6 9 7 8 4 5 2 2 2 4 7 10 10 9 7 7 9 11 10 9 8 6 6 7 9 10 11 10 9 7 7 9 10 9 11 9 13 10 13 13 11 15 13 17 13 14 10 9 18 14 29 17 17 8 6 7 8 9 9 7 6 4 3 4 4 4 6 4 6 5 6 7 7 7 7 6 8 7 7 6 5 6 6 6 4 5 5 6 7 8 9 11 10 12 25 33 33 23 8 5 6 4 6 6 6 5 6 6 7 6 6 5 4 3 4 6 8 8 5 5 6 8 12 11 10 8 7 5 7 5 6 4 5 3 4 2 2 2 3 6 8 9 10 8 7 5 5 5 4 5 7 9 11 9 13 12 17 16 15 11 9 8 12 11 10 7 5 6 6 7 4 6 7 10 11 14 13 14 12 10 10 9 12 17 30 45 56 62 58 45 29 15 8 6 9 8 8 7 8 11 15 57 33 0 
0 0 0 0 0 0 0 0 0 0 0 0 0 0 0 0 0 0 0 0 0 0 0 0 0 0 0 0 0 0 0 0 0 0 0 0 0 0 0 0 0 0 0 0 0 0 0 0 0 0 0 0 0 0 0 0 0 0 0 0 0 0 0 0 0 0 0 0 0 0 0 0 0 0 0 0 0 0 0 0 0 0 0 0 0 0 0 0 0 0 0 0 0 0 0 0 0 0 0 0 0 0 0 0 0 0 0 0 0 0 0 0 0 0 0 0 0 0 0 0 0 0 0 0 0 0 0 0 0 0 0 0 0 0 0 0 0 0 0 0 0 0 0 0 0 0 0 0 0 0 0 0 0 0 0 0 0 0 0 0 0 0 0 0 0 0 0 0 0 0 0 0 0 0 0 0 0 0 0 0 0 0 0 0 0 0 0 0 0 0 0 0 0 0 0 0 0 0 0 0 0 0 0 0 0 0 0 0 0 0 0 0 0 0 0 0 0 0 0 0 0 0 0 0 0 0 0 0 0 0 0 0 0 0 0 0 0 0 0 0 0 0 0 0 0 0 0 0 0 0 0 0 0 0 0 0 
