P2
512 512 255
0 0 0 0 0 0 0 0 0 0 0 0 0 0 0 0 0 0 0 0 0 0 0 0 0 0 0 0 0 0 0 0 0 0 0 0 0 0 0 0 0 0 0 0 0 0 0 0 0 0 0 0 0 0 0 0 0 0 0 0 0 0 0 0 0 0 0 0 0 0 0 0 0 0 0 0 0 0 0 0 0 0 0 0 0 0 0 0 0 0 0 0 0 0 0 0 0 0 0 0 0 0 0 0 0 0 0 0 0 0 0 0 0 0 0 0 0 0 0 0 0 0 0 0 0 0 0 0 0 0 0 0 0 0 0 0 0 0 0 0 0 0 0 0 0 0 0 0 0 0 0 0 0 0 0 0 0 0 0 0 0 0 0 0 0 0 0 0 0 0 0 0 0 0 0 0 0 0 0 0 0 0 0 0 0 0 0 0 0 0 0 0 0 0 0 0 0 0 0 0 0 0 0 0 0 0 0 0 0 0 0 0 0 0 0 0 0 0 0 0 0 0 0 0 0 0 0 0 0 0 0 0 0 0 0 0 0 0 0 0 0 0 0 0 0 0 0 0 0 0 0 0 0 0 0 0 0 0 0 0 0 0 0 0 0 0 0 0 0 0 0 0 0 0 0 0 0 0 0 0 0 0 0 0 0 0 0 0 0 0 0 0 0 0 0 0 0 0 0 0 0 0 0 0 0 0 0 0 0 0 0 0 0 0 0 0 0 0 0 0 0 0 0 0 0 0 0 0 0 0 0 0 0 0 0 0 0 0 0 0 0 0 0 0 0 0 0 0 0 0 0 0 0 0 0 0 0 0 0 0 0 0 0 0 0 0 0 0 0 0 0 0 0 0 0 0 0 0 0 0 0 0 0 0 0 0 0 0 0 0 0 0 0 0 0 0 0 0 0 0 0 0 0 0 0 0 0 0 0 0 0 0 0 0 0 0 0 0 0 0 0 0 0 0 0 0 0 0 0 0 0 0 0 0 0 0 0 0 0 0 0 0 0 0 0 0 0 0 0 0 0 0 0 0 0 0 0 0 0 0 0 0 0 0 0 0 0 0 0 0 0 0 0 0 0 0 0 0 0 0 0 0 0 0 0 0 0 0 0 0 0 0 0 0 0 0 0 0 0 0 0 0 0 0 0 0 0 0 0 0 0 0 
0 0 0 0 0 0 0 0 0 0 0 0 0 0 0 0 0 0 0 0 0 0 0 0 0 0 1 1 1 1 1 1 1 1 1 0 1 2 3 4 3 5 4 5 4 6 4 5 3 4 6 6 7 5 4 4 4 5 6 6 5 5 5 7 7 8 3 4 2 3 2 2 3 3 3 4 3 3 4 3 4 3 3 3 4 4 3 3 3 3 3 3 2 2 2 1 1 0 0 0 0 0 1 1 1 1 1 1 1 1 1 1 1 1 1 1 1 1 1 0 0 0 0 0 0 1 2 2 1 0 0 0 1 1 1 1 2 2 2 2 1 2 1 3 2 2 3 3 3 4 3 4 3 4 3 3 2 3 2 2 3 2 5 3 4 3 5 4 4 4 4 4 4 4 5 4 4 4 3 3 3 3 5 4 5 4 3 5 5 4 5 2 2 3 3 4 5 6 6 8 6 6 4 5 6 8 6 5 4 3 3 3 3 3 2 2 3 3 6 7 9 6 6 3 4 4 6 5 6 3 4 3 3 4 4 4 3 5 4 4 4 4 4 4 3 3 2 2 2 3 2 4 3 4 4 3 4 3 2 2 2 2 3 3 4 4 4 2 3 3 3 3 5 4 5 4 4 3 3 3 3 2 3 4 4 4 4 4 5 4 5 4 6 7 5 4 2 2 2 1 1 1 1 2 3 3 2 2 2 3 3 5 6 7 6 3 2 3 3 4 3 4 3 5 4 4 4 5 4 4 3 3 3 3 3 3 3 4 3 3 2 3 3 2 2 1 2 1 2 1 1 2 2 4 3 4 4 4 4 2 2 1 2 2 2 3 3 3 2 2 2 2 3 2 2 1 2 1 1 1 1 1 1 1 1 1 1 1 0 0 1 1 2 1 1 1 1 2 2 2 2 3 3 3 2 2 2 2 1 1 1 2 2 3 4 4 4 2 3 1 2 1 2 1 2 2 2 2 2 3 3 3 4 3 3 3 2 3 2 2 1 3 3 3 2 2 2 1 1 1 0 1 0 0 0 0 0 0 0 0 0 0 1 1 1 1 0 0 0 0 0 0 0 0 0 0 0 0 0 0 1 0 1 0 0 0 0 0 0 0 0 0 0 0 0 0 0 0 0 0 0 0 0 0 0 0 0 0 1 1 0 0 
0 0 0 0 0 0 0 0 0 0 0 0 0 1 1 1 0 0 0 0 0 0 0 0 0 1 1 2 2 2 2 2 2 2 2 1 3 4 5 6 5 8 7 7 6 7 7 8 5 6 10 9 10 7 6 6 7 9 11 10 9 7 7 11 11 12 7 6 3 4 4 5 5 4 5 5 4 5 6 7 7 5 5 4 5 6 5 6 4 4 3 3 3 4 4 3 2 2 2 1 1 1 2 2 2 2 2 2 2 2 3 2 2 2 2 2 2 2 1 1 1 1 0 1 1 2 3 3 3 1 1 1 1 2 2 3 3 3 4 4 3 4 2 5 3 4 4 5 6 7 5 7 6 7 6 6 6 6 5 5 5 6 8 6 7 6 7 7 8 7 5 4 6 6 9 6 9 7 8 7 6 6 7 7 7 7 5 7 8 7 7 5 6 5 7 10 10 13 10 13 9 8 7 10 11 11 9 7 6 5 4 4 5 6 6 6 6 8 9 10 10 8 8 5 7 7 9 8 10 5 5 5 6 9 7 6 6 8 8 7 5 5 5 5 5 5 4 3 4 5 5 6 6 7 7 7 6 4 4 4 4 4 4 6 8 6 6 5 6 6 6 7 6 8 7 8 6 8 8 6 5 5 5 8 6 7 5 7 5 7 6 8 8 10 8 8 4 4 4 4 3 3 4 7 7 5 4 3 3 5 5 8 9 8 7 7 5 6 6 7 4 5 4 6 5 7 7 10 7 7 5 5 5 6 5 5 5 5 5 5 4 5 5 4 4 2 3 2 3 3 3 4 4 5 5 7 8 7 7 5 3 2 2 3 4 6 5 5 4 4 4 4 5 4 3 3 3 3 3 2 1 1 1 2 2 2 2 1 1 2 3 3 3 2 2 1 2 2 3 3 3 5 6 5 4 3 4 3 2 2 2 3 3 4 6 6 7 4 4 2 3 2 2 2 3 3 3 3 5 7 7 7 5 6 5 5 4 4 3 2 3 4 4 5 4 3 3 2 2 2 1 2 2 1 1 1 1 0 0 0 0 1 1 1 1 1 1 1 1 1 1 1 0 0 0 1 1 0 0 0 1 1 1 1 0 1 0 0 0 0 0 0 0 0 0 0 0 1 1 1 1 0 1 1 1 0 1 1 1 2 1 0 
0 0 0 0 0 0 0 0 0 0 0 0 0 1 1 1 0 0 0 0 0 0 0 0 0 1 2 2 2 2 3 3 3 3 3 2 3 4 5 7 6 6 7 5 5 5 5 5 5 5 9 7 9 5 4 5 7 8 10 10 11 9 10 12 13 12 8 5 3 4 5 5 6 6 9 9 7 5 5 5 5 4 5 5 6 7 5 7 5 6 5 4 4 3 3 3 3 3 2 2 1 1 1 1 2 2 3 3 3 3 3 2 1 1 1 1 1 1 1 2 1 1 0 1 1 2 3 3 2 1 1 1 1 2 2 3 3 4 6 5 5 4 3 3 2 3 4 5 5 5 4 5 6 6 5 6 6 7 6 7 6 9 8 8 6 5 7 9 8 7 7 5 5 5 8 6 10 7 8 6 4 5 5 6 5 7 4 7 6 6 8 5 4 6 7 12 11 14 10 12 9 10 7 9 11 10 9 6 5 6 6 6 6 5 4 5 5 8 7 10 9 9 9 6 8 7 8 7 7 5 5 5 5 8 6 6 5 6 7 6 5 6 5 5 5 6 5 5 4 4 4 4 4 5 7 8 9 8 7 4 3 3 2 4 6 6 7 5 6 6 5 7 8 10 8 9 8 6 6 5 6 6 7 7 6 9 6 8 6 8 7 10 10 14 10 10 6 6 5 4 4 5 6 10 9 9 6 4 4 6 7 8 9 10 9 7 5 6 6 6 5 5 4 4 3 3 4 5 5 5 4 4 4 4 4 5 5 6 6 4 3 2 3 3 3 2 3 2 2 2 2 4 4 6 5 6 6 6 7 5 4 3 1 2 2 3 4 5 4 4 3 4 4 3 3 3 2 2 2 3 3 3 3 3 3 2 2 1 1 2 2 3 3 2 2 1 1 2 3 3 3 4 5 5 4 2 4 3 3 3 3 3 4 4 6 6 7 4 5 2 3 2 2 2 3 4 4 4 5 6 6 7 5 7 6 6 5 3 3 2 2 3 4 4 4 3 3 2 1 1 1 2 2 2 1 1 0 0 0 0 0 0 0 1 1 1 1 1 1 1 1 1 0 0 0 1 1 0 0 0 1 1 1 1 0 1 0 0 0 0 0 0 0 0 0 0 0 0 1 1 0 0 1 1 0 0 0 1 1 2 1 0 
0 0 0 0 0 0 0 0 0 0 0 0 0 1 1 1 0 0 0 0 0 0 0 0 0 1 2 2 2 3 4 4 3 3 3 3 4 4 5 6 7 5 6 4 3 3 4 4 6 5 10 6 9 5 5 4 6 8 11 11 10 12 9 11 10 10 9 7 4 5 5 5 6 6 7 7 6 6 6 6 5 4 4 5 4 7 5 6 4 4 4 4 5 5 5 5 3 3 2 2 1 1 1 1 2 2 3 3 3 3 2 2 1 1 1 1 1 1 2 2 2 1 0 1 1 2 3 3 2 1 1 1 1 2 2 2 3 4 6 6 5 3 3 2 2 2 3 4 4 4 4 5 6 7 7 7 8 9 8 9 6 9 8 8 6 6 7 8 7 7 5 4 5 5 7 5 9 9 9 9 6 6 5 7 5 8 4 6 5 7 7 7 6 7 7 14 12 12 10 8 7 7 8 10 10 8 6 5 5 5 5 6 6 6 7 7 8 10 8 9 6 5 7 6 8 6 8 6 6 4 4 4 6 7 6 5 4 5 7 5 5 4 4 5 6 9 8 7 5 4 5 4 3 4 5 8 7 6 5 3 3 2 3 6 7 7 7 7 6 7 5 6 8 7 10 8 11 7 10 8 9 7 9 8 9 7 6 5 5 7 8 9 7 9 9 10 8 7 8 6 6 7 9 14 12 9 6 5 5 6 7 8 8 6 7 7 6 6 7 6 4 4 4 4 3 4 5 6 6 5 4 4 4 5 5 5 5 5 6 4 3 2 3 3 3 2 2 2 2 2 2 3 3 4 4 5 6 7 7 5 4 2 2 2 3 4 5 5 4 4 4 4 4 3 3 2 3 3 3 3 3 3 3 3 3 2 2 1 1 2 2 3 2 2 1 1 1 2 2 3 3 4 4 5 3 3 4 4 3 3 3 3 4 4 6 5 6 4 5 3 3 2 2 2 3 4 5 5 6 6 6 7 5 6 6 5 5 2 3 1 2 3 3 4 3 3 3 2 1 2 1 2 2 2 1 1 1 1 0 0 0 0 0 1 1 1 1 1 1 1 1 1 0 0 0 1 1 0 0 0 1 1 1 1 0 1 0 0 0 0 0 0 0 0 0 0 0 0 1 1 0 0 1 1 0 0 0 1 1 2 1 0 
0 0 0 0 0 0 0 0 1 1 1 0 0 0 0 0 0 0 0 0 0 0 0 0 1 1 2 2 3 4 4 4 4 2 3 3 4 5 6 6 6 5 5 5 5 4 3 3 7 6 11 7 10 7 7 4 6 7 9 13 11 16 8 12 9 11 8 8 4 6 7 9 8 8 10 11 8 6 5 5 4 4 5 8 7 8 5 5 5 5 6 5 5 5 4 4 3 3 2 1 1 1 1 1 2 2 2 2 2 2 3 2 2 1 1 1 1 1 2 3 2 2 0 1 1 2 3 3 3 1 1 1 1 2 2 2 2 4 6 8 7 5 4 2 2 3 4 5 4 3 3 3 4 4 5 6 7 7 6 7 5 7 6 6 6 8 9 10 8 7 6 5 5 5 8 6 9 9 9 10 8 9 8 9 7 10 6 8 5 8 7 9 5 7 6 9 9 9 7 6 6 6 6 7 7 7 5 5 5 7 6 7 7 7 6 6 6 9 8 9 8 7 8 7 10 8 7 5 4 4 5 6 7 5 6 4 5 6 7 6 6 5 6 9 9 13 11 9 6 4 5 4 4 5 5 7 7 8 7 5 4 4 5 6 8 8 8 9 6 8 6 7 8 7 10 7 11 8 9 9 9 10 10 8 8 6 6 5 5 7 7 7 7 8 8 7 8 7 7 6 5 7 8 11 11 10 8 7 6 8 7 7 8 7 6 5 5 6 7 10 10 9 6 6 5 4 5 4 4 3 3 3 3 3 4 4 6 5 5 4 3 4 3 4 3 2 2 2 2 2 2 3 4 4 3 4 4 5 5 5 4 3 2 2 2 3 5 6 5 5 4 4 5 4 3 2 2 2 2 2 3 3 4 4 4 3 2 1 1 2 2 3 3 2 2 1 1 2 3 4 4 5 5 5 4 4 4 5 5 5 4 4 4 4 4 3 5 3 5 3 3 2 1 3 3 4 5 5 5 6 5 6 5 5 6 4 5 2 3 2 2 3 3 3 3 2 2 2 2 2 2 2 2 3 2 2 1 1 1 0 0 0 0 1 1 0 1 1 1 1 1 1 0 0 0 1 1 0 0 0 1 1 1 1 0 1 0 0 0 0 0 0 0 0 0 0 0 1 1 1 1 0 1 1 1 0 1 1 1 2 1 0 
0 0 0 0 0 0 0 1 1 2 1 1 0 0 1 0 0 0 0 0 0 0 1 1 1 1 2 2 3 4 5 4 4 3 4 4 4 4 3 4 5 6 6 6 6 4 4 3 8 9 11 9 10 8 8 5 6 6 7 11 10 14 7 10 6 10 7 9 4 6 6 7 8 8 6 6 7 8 7 6 5 5 5 6 6 8 6 6 5 4 6 6 7 8 6 6 4 3 2 2 1 1 1 2 2 3 3 3 2 2 2 3 3 3 3 3 3 3 4 3 3 2 1 1 1 2 3 4 3 2 1 1 2 2 2 2 2 4 5 6 5 4 3 2 2 3 3 4 4 4 3 4 5 5 6 6 7 8 8 7 4 5 4 6 8 10 12 10 9 7 9 8 8 5 6 6 7 7 8 8 12 9 9 9 8 9 7 7 7 9 8 9 5 6 6 7 7 6 5 5 4 6 8 9 7 6 5 7 5 5 4 6 6 8 7 9 8 10 10 10 7 6 6 5 8 7 6 5 4 5 4 5 5 4 6 4 7 6 8 5 5 5 6 10 11 15 12 9 7 5 7 5 5 4 3 4 4 5 5 4 4 4 5 6 7 7 6 8 6 10 6 7 5 6 8 7 8 8 8 9 8 8 9 9 7 6 5 5 7 8 9 8 6 5 7 7 8 8 8 6 5 5 7 8 9 7 7 6 6 6 5 6 5 4 4 4 5 7 9 9 8 8 7 7 8 5 6 4 6 5 5 5 4 5 5 4 4 3 4 4 3 5 3 5 2 2 2 3 2 2 2 2 3 3 3 3 3 4 5 4 4 3 3 3 3 4 4 4 4 3 4 3 4 4 3 3 3 3 3 4 4 4 4 4 3 3 2 2 1 2 2 3 3 3 2 2 2 1 4 4 5 4 5 4 4 3 3 3 4 4 5 4 4 4 3 3 3 4 5 4 4 4 4 5 4 5 6 7 5 5 5 5 6 4 5 4 4 3 4 3 3 3 3 3 2 2 2 2 3 2 2 2 2 2 2 2 2 2 1 1 0 0 1 1 1 0 1 1 1 1 1 1 0 0 0 1 1 0 0 0 1 1 1 1 0 1 0 0 0 0 0 0 0 0 1 1 1 1 1 1 1 1 1 1 1 1 2 2 2 2 1 0 
0 0 0 0 0 0 0 1 2 2 1 1 0 0 0 0 0 0 0 0 0 0 1 1 2 2 1 2 3 3 3 3 4 4 4 4 4 4 3 3 4 6 8 8 7 5 6 5 8 9 9 9 9 8 8 5 5 6 7 10 10 11 8 9 7 9 7 7 4 6 7 9 9 8 8 10 8 7 6 5 5 5 5 7 7 9 8 6 7 6 6 6 5 6 4 4 3 3 3 2 2 2 2 3 3 3 2 2 2 3 3 3 3 3 3 3 4 4 4 4 3 3 2 1 1 2 4 4 3 2 1 1 1 2 2 2 3 4 5 7 6 5 4 2 2 3 5 5 4 4 4 4 4 3 5 7 8 9 7 6 4 3 3 5 8 10 15 10 11 8 10 10 8 8 7 9 8 8 8 7 11 10 13 11 10 9 10 7 7 8 7 10 5 7 4 5 4 5 4 5 5 8 9 8 6 5 5 7 6 7 5 5 5 7 7 7 6 7 8 7 7 5 5 5 6 6 5 5 4 6 6 7 5 4 5 3 8 7 12 7 6 6 6 11 11 13 11 9 7 5 8 6 8 7 5 5 5 7 6 5 5 5 6 6 6 7 6 10 8 10 7 8 5 6 5 6 5 7 7 9 10 11 9 8 6 6 7 6 8 9 9 8 7 6 6 6 6 7 8 7 7 5 5 5 6 6 9 8 7 6 4 5 5 4 3 5 6 8 11 12 14 11 10 7 8 5 6 4 5 5 5 7 6 9 8 6 4 3 2 4 3 6 3 6 2 3 3 3 3 3 3 3 4 4 4 4 3 4 4 4 6 4 5 3 3 3 4 4 6 4 4 3 4 4 4 3 2 3 3 3 3 3 4 4 4 4 4 3 2 2 4 4 5 4 3 2 2 2 4 4 6 5 6 5 5 3 3 2 3 4 4 4 3 3 2 3 3 4 4 4 4 4 4 4 4 3 5 6 6 5 6 6 7 4 6 4 5 3 2 3 4 4 4 2 2 2 3 3 3 3 3 2 3 3 3 2 2 2 1 1 1 0 1 1 1 0 0 0 1 1 1 1 1 0 0 1 1 1 0 0 1 1 1 1 1 1 0 1 0 0 0 0 0 1 1 1 1 1 0 0 1 1 1 1 2 2 2 2 2 2 1 0 
0 0 0 0 0 0 0 0 1 1 1 1 1 1 1 1 0 0 0 0 0 1 1 2 1 1 1 1 2 2 3 4 5 5 5 5 3 3 3 3 4 6 8 9 9 5 5 5 7 9 9 7 8 8 9 8 9 7 7 7 8 7 6 5 6 7 8 7 6 7 7 9 9 9 8 8 7 8 6 5 4 4 4 5 6 7 8 8 7 6 5 6 6 6 5 4 4 4 5 4 3 2 1 2 3 4 4 4 3 2 2 2 4 4 5 5 6 6 4 4 3 4 2 2 2 2 3 3 3 3 2 3 2 2 2 2 4 5 5 5 4 4 4 3 3 3 3 5 5 4 5 4 6 5 7 8 10 10 8 6 4 3 3 4 7 9 14 10 11 8 10 13 10 9 6 6 6 7 7 6 8 7 8 7 8 7 7 6 6 8 7 9 5 6 4 5 4 4 3 5 6 10 13 13 9 6 6 9 9 7 6 4 6 6 8 6 8 7 9 7 7 5 4 3 3 4 4 5 4 5 4 5 4 5 5 6 9 8 10 6 5 6 5 8 9 11 9 9 6 7 8 8 7 7 4 5 4 4 4 5 4 4 3 4 5 7 6 8 8 11 9 6 4 4 3 4 3 5 5 8 7 10 7 8 7 6 9 10 14 14 13 11 9 7 6 8 8 7 9 8 9 7 4 4 5 4 6 6 6 5 4 5 4 4 3 5 6 8 9 8 7 6 7 7 8 6 6 7 8 10 6 11 8 13 9 9 6 4 3 4 3 6 3 5 3 3 4 5 6 4 3 3 4 4 4 4 3 3 4 5 6 5 6 4 5 3 4 4 4 4 4 3 3 4 4 4 3 3 4 4 4 4 4 4 5 4 5 3 3 3 4 5 5 4 3 2 2 2 4 4 4 5 6 6 5 3 3 2 3 4 5 4 4 3 3 4 5 5 5 4 4 6 8 6 5 3 4 5 6 6 6 5 5 3 4 4 4 4 4 4 4 3 3 3 2 2 2 3 3 3 3 2 3 3 3 3 2 2 2 1 1 1 1 1 0 0 0 0 1 1 2 2 1 1 1 1 1 1 1 1 1 1 1 0 0 0 1 1 0 0 0 0 1 2 2 2 1 1 1 1 1 1 1 2 2 2 1 1 1 1 1 0 
0 0 0 0 0 0 0 0 0 0 0 0 1 1 1 1 0 0 0 0 1 1 1 1 1 1 1 1 1 2 2 3 4 5 4 3 3 5 5 6 6 7 7 7 6 5 6 7 9 8 8 6 8 7 9 9 9 8 8 11 12 11 9 9 10 10 9 10 8 12 10 12 8 8 8 9 8 7 6 6 5 4 2 3 4 7 8 8 7 5 4 5 5 5 3 2 3 3 3 3 2 2 1 2 2 2 3 3 3 4 4 3 2 2 3 4 4 4 3 4 3 5 4 3 2 2 3 3 3 2 2 3 2 2 2 2 4 5 7 6 5 5 4 4 3 4 3 4 4 4 5 4 6 4 7 8 9 10 8 6 5 3 4 3 4 6 8 7 8 7 11 12 11 9 7 7 10 9 9 7 7 8 10 9 8 7 6 5 6 7 7 8 5 5 5 5 6 4 5 7 9 13 14 12 9 6 7 8 9 7 7 4 6 6 9 6 9 6 9 6 6 5 4 4 4 4 4 4 4 5 5 6 6 6 7 6 8 9 8 8 6 5 4 6 7 9 9 10 6 9 6 10 8 11 7 6 4 3 4 4 3 4 3 5 6 7 8 11 10 9 6 5 5 3 3 3 2 4 5 11 10 13 8 8 7 8 10 10 12 13 12 11 8 8 6 7 7 6 9 8 8 7 5 6 6 6 8 9 8 7 6 7 5 5 4 6 7 11 8 8 7 6 6 6 6 5 6 8 7 10 7 13 10 18 12 11 5 5 3 4 3 5 3 4 3 4 4 4 5 5 6 5 6 5 5 3 4 3 4 4 4 5 5 4 5 4 5 5 6 6 4 3 3 4 5 5 4 4 4 4 4 4 4 4 4 4 5 3 4 3 4 4 5 4 3 2 2 3 3 4 3 5 5 7 6 4 3 2 2 3 4 3 4 4 4 5 6 5 4 3 4 5 6 5 4 3 3 4 5 6 6 6 6 6 6 6 5 5 3 3 3 3 3 2 2 3 2 4 3 3 3 3 4 4 3 2 1 1 1 1 1 1 0 0 0 0 0 0 1 1 1 2 1 1 1 1 1 1 1 1 1 0 0 0 0 0 0 1 1 0 0 0 1 2 2 2 1 0 0 0 0 0 1 1 1 1 1 1 1 1 1 0 
0 0 0 0 0 0 0 0 0 0 0 0 0 1 1 1 0 0 0 0 1 1 1 1 1 0 0 1 1 1 2 3 4 4 3 3 4 6 6 7 5 5 5 7 5 5 4 4 7 7 8 5 7 10 15 16 12 12 7 9 8 9 8 7 7 10 9 12 10 13 10 10 9 10 9 10 8 8 6 7 5 4 2 2 3 5 6 6 6 4 5 5 5 4 3 2 3 4 4 3 2 2 2 2 3 3 3 3 3 3 4 3 3 3 3 4 4 4 3 4 3 3 3 2 2 3 3 3 3 3 3 3 3 3 2 2 3 4 5 4 4 4 4 5 4 4 3 5 5 3 5 4 6 3 6 7 8 9 7 6 5 4 4 3 4 5 8 8 9 9 11 11 11 7 6 5 11 9 12 7 7 6 7 6 5 5 5 6 7 6 7 6 5 4 4 5 5 5 5 8 8 9 11 11 10 7 6 7 8 7 7 5 6 7 8 6 9 6 9 6 8 8 6 5 4 3 3 3 3 4 5 6 9 9 11 10 9 8 7 7 7 5 4 5 7 10 9 9 7 10 6 12 8 13 8 7 4 2 3 3 2 3 3 5 6 8 10 9 10 10 10 7 6 5 6 5 4 4 5 8 7 11 7 8 8 7 8 10 13 14 12 10 7 7 6 6 7 5 7 6 7 7 6 8 6 8 6 9 10 11 8 8 5 6 5 6 5 7 5 5 3 3 5 7 7 7 7 7 8 9 8 11 11 14 11 10 6 5 3 4 3 5 4 4 3 3 4 4 4 5 4 5 6 4 6 3 5 4 4 5 5 5 4 4 4 4 4 5 5 6 4 4 4 5 5 4 4 4 5 4 4 4 4 4 3 3 4 3 3 2 3 3 4 3 3 2 2 3 3 4 3 5 5 7 6 4 3 1 2 2 2 3 3 5 5 6 6 6 5 3 4 5 7 7 5 3 3 4 6 7 5 5 5 4 4 5 5 4 3 3 3 2 2 2 2 3 3 4 4 4 3 3 2 3 2 2 1 1 1 1 1 1 1 1 1 0 0 0 1 1 1 1 1 1 1 1 1 1 1 1 1 0 0 0 0 0 0 1 1 0 0 0 1 2 2 1 1 1 0 0 0 0 0 1 1 1 0 0 0 0 0 0 
0 0 0 0 0 0 0 0 0 0 0 0 0 0 0 0 0 0 0 0 0 1 1 1 0 0 0 1 2 2 3 3 3 3 3 3 4 6 7 8 6 6 5 4 3 4 5 7 9 8 9 6 8 10 13 14 12 11 8 11 12 13 10 9 8 9 8 10 9 10 9 9 7 7 7 8 7 8 8 9 6 5 2 1 2 4 5 5 5 4 6 5 6 4 3 2 3 4 4 3 2 3 3 3 3 3 3 3 3 4 4 4 3 2 2 2 2 3 3 3 4 5 4 3 3 3 3 3 3 2 2 2 2 3 3 4 4 5 5 4 4 3 3 4 3 5 5 6 6 5 5 4 6 3 5 5 7 8 6 7 5 5 5 5 5 4 6 5 9 9 13 11 9 5 6 4 10 8 11 7 8 7 6 7 6 6 8 8 8 8 6 5 4 4 4 6 5 7 7 9 9 9 9 8 7 7 8 10 9 7 6 7 5 7 6 6 7 5 7 6 7 6 6 6 6 5 4 3 3 5 7 7 11 10 13 11 10 7 8 7 10 7 7 6 6 7 7 8 8 10 7 12 8 14 10 8 4 2 2 2 2 3 4 6 7 9 9 10 13 10 8 6 7 6 7 7 6 5 6 8 8 10 7 7 8 7 8 7 8 8 8 7 6 6 6 6 6 5 5 5 5 7 5 11 6 10 6 11 10 11 10 8 8 5 5 5 6 7 6 5 3 3 4 6 6 6 5 5 6 6 9 8 13 12 12 7 4 4 3 5 4 5 5 5 5 4 3 4 3 5 5 6 6 4 6 4 6 5 4 5 5 5 5 4 5 4 4 6 5 6 4 4 4 4 5 4 4 3 3 3 3 3 3 3 3 2 2 2 2 2 2 2 3 2 3 2 2 3 3 4 3 5 4 6 5 4 3 1 1 2 2 4 3 6 5 7 6 6 5 4 4 5 5 5 5 4 4 4 5 6 7 5 5 5 6 7 7 7 5 4 3 3 3 3 3 4 3 3 3 3 4 3 3 3 2 1 1 1 1 1 1 1 1 1 1 1 1 0 0 1 1 1 1 1 1 1 1 1 1 1 1 0 0 0 0 0 0 0 1 0 0 0 1 1 1 1 0 0 0 0 0 0 0 0 0 1 1 0 0 0 0 0 
0 0 0 0 0 0 0 0 0 0 0 0 0 0 0 0 0 0 0 0 0 0 0 0 0 0 1 2 3 3 3 3 3 3 2 2 3 6 5 5 4 4 4 3 4 6 6 6 8 6 8 5 7 10 15 17 17 11 7 6 8 9 9 9 7 7 6 7 7 9 6 7 8 10 8 8 6 6 7 6 7 4 3 2 2 3 4 3 4 4 6 5 6 4 4 3 4 4 4 3 2 3 3 5 4 3 2 2 4 4 5 4 4 3 3 3 3 3 3 4 3 3 3 3 3 4 5 4 2 1 1 1 2 3 4 4 4 3 3 3 3 3 3 3 2 4 5 6 6 5 6 4 6 4 5 5 5 7 6 6 6 6 6 6 6 6 8 6 9 9 11 9 8 4 5 4 8 7 9 9 8 8 7 6 6 7 9 12 15 11 9 7 4 4 4 5 4 7 6 7 5 6 7 8 9 8 8 8 7 8 7 7 6 6 4 4 5 4 5 6 7 9 9 7 6 5 4 4 4 5 5 6 10 11 13 10 9 7 10 8 12 8 9 6 6 7 7 8 7 10 7 11 7 11 9 9 5 3 2 2 2 3 4 7 7 9 8 10 9 10 12 10 12 9 12 9 9 11 9 11 7 6 6 6 6 6 5 5 7 7 6 4 4 5 5 4 5 4 4 5 4 7 6 10 6 10 6 10 10 13 13 9 7 6 7 5 4 4 4 4 4 4 4 5 6 6 5 5 7 8 12 9 13 9 10 6 4 3 2 5 4 5 6 5 5 4 3 4 3 6 4 6 4 4 5 5 6 6 5 5 5 6 6 5 4 5 5 5 4 6 6 7 8 6 6 3 3 3 2 2 2 2 3 2 2 2 3 2 2 3 3 2 3 2 2 2 2 3 4 4 4 4 4 4 4 3 3 1 1 3 2 4 3 6 5 6 7 5 6 5 5 5 4 5 4 4 5 7 8 7 6 4 4 4 5 5 6 6 5 3 2 2 3 3 3 4 3 3 4 3 3 2 2 2 2 2 1 1 1 1 2 2 2 1 2 1 1 0 0 1 1 1 2 1 1 1 1 0 0 1 1 0 0 0 0 0 0 0 1 1 0 0 0 1 1 1 0 0 0 0 0 0 0 0 0 1 1 1 0 0 0 0 
0 0 0 0 0 0 0 0 1 1 1 0 0 0 0 0 0 0 0 0 0 0 0 0 0 1 2 3 4 4 3 3 3 3 3 2 4 7 7 7 6 6 5 5 5 6 7 6 9 7 9 6 6 7 10 12 12 9 9 7 8 9 8 8 7 8 6 6 5 6 7 7 7 7 6 6 6 6 8 6 9 7 6 4 3 4 4 4 4 4 6 5 5 4 4 4 4 5 5 4 4 5 5 6 4 4 3 3 3 3 4 4 5 5 6 5 5 5 4 4 4 3 3 2 2 3 3 3 2 1 1 1 2 3 4 4 6 6 5 4 3 3 3 2 2 4 6 8 8 6 6 5 8 6 6 6 7 6 5 6 7 10 11 10 8 7 7 7 9 9 11 11 10 5 5 4 6 7 9 10 9 7 5 6 7 10 11 12 13 11 10 7 6 6 5 5 5 7 6 8 6 8 8 9 7 7 9 11 8 8 7 8 8 9 6 5 3 4 3 5 5 7 6 7 6 6 4 5 5 7 6 7 8 10 11 10 8 6 9 8 12 9 9 7 6 4 4 5 6 8 7 10 8 10 10 8 6 3 1 1 2 3 4 6 6 7 8 8 9 10 9 8 11 9 11 9 9 11 9 10 6 5 5 5 7 7 7 5 5 3 4 4 5 5 6 5 5 4 5 5 4 7 7 9 8 7 5 7 8 10 9 8 7 5 4 3 3 4 4 5 4 4 6 8 8 8 6 6 7 9 11 10 10 10 8 7 3 3 2 4 3 5 6 6 6 5 5 6 5 7 4 6 4 5 4 6 5 6 4 6 5 6 6 7 5 6 5 6 5 7 8 9 9 7 6 3 3 2 2 2 2 2 2 3 3 3 4 3 4 4 4 4 4 3 3 2 2 3 4 5 5 4 3 3 4 3 3 1 2 3 4 4 3 4 4 4 6 6 8 7 5 5 4 4 4 5 5 5 5 6 7 7 5 4 5 6 7 7 6 4 2 2 2 2 2 3 3 3 3 3 3 3 3 3 2 2 1 1 0 1 1 2 2 1 1 1 1 1 0 0 1 1 2 1 1 1 1 0 0 1 1 0 0 0 0 0 0 0 0 1 1 0 0 1 1 1 1 1 1 1 1 1 1 1 0 0 1 1 1 1 0 0 
0 0 0 0 0 0 1 1 1 1 1 1 0 0 0 1 1 1 0 0 0 0 0 0 1 1 2 3 4 4 3 3 3 4 4 4 5 7 8 9 8 8 7 8 7 8 9 8 10 7 9 5 6 7 10 11 12 9 7 7 7 9 8 11 12 9 7 7 9 7 8 7 9 8 8 7 8 6 8 6 9 7 7 5 4 5 3 3 3 4 4 5 5 5 4 4 4 5 4 4 4 4 4 4 4 4 3 3 3 3 4 4 5 5 7 6 6 6 5 3 3 2 2 3 4 5 6 4 2 1 1 2 2 2 3 3 4 4 4 4 3 4 3 3 2 4 5 7 7 5 5 4 5 5 6 5 5 7 6 7 7 9 10 9 10 9 8 6 7 8 10 9 9 7 8 5 6 7 10 11 13 9 8 7 7 8 10 12 13 13 12 7 7 4 4 4 5 5 7 9 8 10 8 9 8 7 7 8 8 9 7 11 8 9 7 7 5 4 4 6 6 6 6 6 6 6 6 7 5 8 5 6 6 9 7 7 5 7 10 10 11 10 8 7 6 6 6 6 6 6 7 6 7 7 8 8 6 4 2 1 2 3 4 6 6 8 7 6 7 7 9 10 12 9 9 7 7 10 11 12 8 5 5 5 5 5 6 5 4 3 3 3 5 3 4 3 5 4 4 5 6 8 9 10 8 7 5 4 6 9 10 8 6 5 5 5 3 5 4 6 4 5 4 5 6 7 6 7 8 12 10 10 7 8 6 5 2 3 2 4 4 6 7 7 7 6 6 8 6 7 5 6 4 5 4 5 5 5 4 4 3 6 5 5 4 6 5 6 5 8 10 12 10 8 6 5 4 3 3 3 2 3 3 3 3 4 5 4 6 5 7 7 5 5 3 2 2 2 4 4 5 4 4 3 4 3 3 2 3 4 6 5 5 4 5 4 5 5 6 6 6 5 4 4 5 6 8 9 9 9 8 7 6 6 5 5 5 6 5 4 3 3 3 3 3 3 3 3 3 3 3 3 3 3 3 2 1 1 1 1 1 1 2 1 1 1 1 1 1 0 1 1 1 1 1 1 1 1 1 1 1 0 0 0 0 0 0 0 1 1 1 0 0 1 1 1 1 2 2 1 1 1 1 1 1 1 1 1 1 1 0 0 
0 0 1 1 1 1 1 1 1 1 1 1 1 1 1 1 1 1 0 0 0 0 1 1 1 2 3 4 5 5 5 3 5 4 5 4 6 9 10 11 9 11 10 10 8 10 7 7 8 8 9 9 8 8 7 8 7 7 8 8 9 7 7 7 9 11 10 7 7 8 9 9 8 6 7 6 9 9 12 10 14 11 11 6 5 4 3 3 2 4 4 6 6 6 4 4 4 4 4 5 6 6 6 5 4 4 4 3 4 4 5 5 7 7 9 7 8 6 5 4 3 2 2 2 3 4 4 5 5 3 2 1 1 2 2 2 3 4 4 3 3 3 3 3 3 3 4 5 5 4 3 3 4 5 6 7 8 6 5 6 8 11 14 14 13 10 9 8 7 7 8 9 8 7 7 6 8 8 11 10 14 10 10 7 10 10 10 10 11 10 9 7 7 7 6 6 5 7 9 11 10 10 7 7 6 6 8 8 7 10 7 9 9 10 9 8 7 7 5 6 4 6 7 7 7 7 6 7 6 6 6 8 7 8 6 7 6 8 8 9 8 8 7 7 6 6 6 7 7 6 6 6 8 7 7 8 6 5 3 2 2 3 4 5 7 7 7 7 6 5 6 7 9 9 9 7 7 9 9 8 6 6 7 7 8 8 7 8 6 4 6 5 7 4 5 4 5 6 6 6 6 8 10 12 9 7 5 5 6 6 7 7 6 5 4 3 3 5 4 7 4 6 7 9 10 9 7 8 6 9 7 9 6 7 5 5 3 3 3 5 4 6 6 7 7 7 6 7 5 6 4 6 6 7 6 5 4 5 4 4 3 4 5 5 4 5 7 7 6 8 9 12 9 7 4 4 4 4 4 3 3 4 3 4 4 4 5 4 6 6 8 9 7 7 4 3 2 2 3 5 5 4 3 2 3 3 3 2 4 5 8 6 6 4 4 3 4 4 6 6 5 5 5 5 7 6 6 5 5 6 9 10 9 7 6 6 5 5 5 5 4 4 4 4 3 3 2 3 2 2 3 3 4 4 3 2 1 1 1 1 1 1 1 1 1 1 1 1 1 1 1 1 1 1 1 1 1 2 2 2 1 1 1 1 1 1 1 0 0 0 0 1 1 1 1 1 2 2 2 2 2 1 2 2 2 1 1 1 1 1 0 0 
0 1 1 1 1 2 2 2 1 1 1 1 1 1 1 2 2 2 1 1 1 1 1 2 2 3 4 5 5 5 5 4 6 5 7 5 6 8 9 11 9 10 9 11 9 10 9 13 12 12 10 9 8 11 8 8 5 8 9 10 10 8 8 7 9 9 9 10 8 8 9 9 8 7 8 9 12 11 11 9 14 9 11 6 8 6 4 3 3 4 5 5 5 6 4 5 4 5 4 4 4 5 4 3 4 3 4 3 4 4 5 4 6 5 6 5 6 7 6 5 3 3 3 3 4 6 6 5 4 3 3 2 2 1 1 1 3 3 3 3 4 5 4 4 3 2 4 5 5 4 2 3 3 5 5 5 5 7 7 7 6 6 7 7 9 8 8 6 6 6 6 7 6 8 8 8 7 7 9 8 11 9 11 8 8 8 8 9 9 9 8 7 6 7 6 6 5 7 8 14 11 10 7 6 7 7 7 8 7 8 8 8 8 7 9 9 8 10 6 8 5 6 5 8 7 9 8 7 6 6 6 6 6 7 5 5 5 8 9 10 9 7 7 7 7 7 8 8 9 8 7 6 6 6 5 6 5 6 3 2 2 2 4 5 7 7 9 8 7 6 6 6 10 8 8 8 8 9 9 10 8 7 8 7 8 7 9 9 8 6 6 6 7 5 5 4 5 5 6 7 11 13 13 12 9 7 5 4 5 5 6 5 5 5 4 4 3 6 5 8 5 6 5 5 6 6 6 8 9 11 8 8 6 6 4 4 4 6 8 7 6 7 6 8 7 7 8 6 5 5 4 7 8 9 8 6 4 4 3 5 4 5 5 4 5 6 7 7 6 7 8 8 7 7 5 5 4 4 6 5 5 6 4 4 3 4 5 4 5 7 7 8 6 5 4 3 2 2 3 3 4 4 3 3 3 3 3 3 4 5 7 6 6 5 4 3 4 3 4 4 6 6 6 6 7 6 8 8 9 10 10 9 10 9 8 6 6 5 5 6 7 6 6 5 5 5 3 3 2 1 2 2 3 3 3 2 2 1 2 2 2 1 1 1 1 1 1 1 1 1 1 1 1 1 1 1 1 2 2 2 2 1 1 1 1 1 1 1 2 2 1 1 1 1 1 1 2 2 2 2 2 1 1 1 1 1 1 1 1 1 0 0 
0 1 1 1 1 2 2 2 1 1 0 1 1 1 1 1 1 1 1 1 1 1 2 3 3 4 4 5 6 8 7 6 6 5 5 5 5 7 8 7 6 7 7 8 7 8 9 9 9 10 10 11 9 9 7 8 6 9 9 12 9 8 7 7 11 11 12 9 7 7 7 7 8 7 9 11 11 11 11 10 12 9 11 8 8 7 7 4 4 3 4 5 6 6 5 5 4 4 4 5 5 5 5 4 5 4 4 3 4 5 6 4 5 5 5 6 5 6 6 5 6 5 5 5 5 4 4 5 6 5 3 2 1 1 1 1 2 3 4 4 4 5 4 3 3 2 2 2 3 2 3 4 5 6 6 7 6 6 6 7 7 9 11 10 11 9 9 7 6 5 4 4 5 6 7 10 8 8 7 6 9 9 11 11 11 11 9 9 8 11 7 7 6 7 6 5 4 6 7 11 9 9 5 7 7 8 8 7 8 9 8 6 7 6 8 8 7 10 6 10 4 7 7 10 8 11 9 8 7 4 6 6 7 6 6 5 7 7 9 7 6 7 8 7 7 5 7 8 9 8 7 7 7 6 5 6 6 7 6 4 3 2 4 5 7 6 8 8 8 5 6 6 9 10 11 12 11 14 11 9 8 9 12 12 13 9 9 9 8 7 7 8 7 6 4 4 5 7 9 12 11 12 12 10 9 7 8 8 9 7 5 5 4 6 6 7 6 6 5 8 8 9 9 7 7 7 8 8 7 8 9 10 9 8 5 5 5 6 7 6 6 6 6 7 10 7 8 4 4 3 5 7 10 12 10 7 5 4 4 6 5 5 4 5 6 7 8 8 7 5 6 6 6 6 4 4 4 3 5 5 5 6 5 4 3 3 3 5 5 8 7 7 7 6 5 4 3 3 4 6 7 7 6 5 4 3 2 2 3 4 6 6 6 4 4 4 4 3 4 4 4 5 6 5 7 6 7 5 5 7 9 10 11 8 9 6 6 4 5 6 6 7 7 5 5 5 3 3 1 1 1 1 2 3 3 2 2 1 2 2 2 2 2 2 1 0 0 0 0 0 1 1 1 1 1 1 1 1 2 2 2 1 0 0 1 1 1 2 2 1 1 1 1 1 1 1 2 1 3 2 2 2 1 1 1 1 1 1 1 1 0 0 
0 1 1 1 1 2 2 2 1 1 1 1 1 1 1 2 2 2 2 1 1 2 2 3 4 5 4 5 5 7 6 7 5 5 5 5 5 6 6 5 5 4 5 7 6 6 8 9 12 9 9 8 7 7 6 6 5 8 8 10 10 11 9 7 7 8 9 8 6 6 5 5 5 6 9 10 10 8 8 7 9 9 9 9 10 10 8 7 8 7 6 5 4 4 4 4 4 5 5 5 5 5 4 4 4 3 3 2 3 3 4 5 5 4 4 3 4 5 5 5 6 5 6 6 6 7 5 5 5 4 3 2 1 1 1 1 2 3 4 4 5 5 4 3 2 2 2 3 3 2 3 4 6 7 6 5 5 5 7 7 6 6 7 7 6 6 7 6 5 4 4 4 6 7 9 9 10 8 7 4 5 8 8 10 8 8 7 8 7 7 7 9 9 8 6 5 4 5 5 8 8 7 5 7 8 10 8 9 8 8 8 6 5 4 5 6 7 9 6 9 4 6 6 8 9 10 7 7 6 6 6 5 5 6 8 5 7 7 9 8 7 8 8 8 7 6 7 8 10 10 9 9 8 7 5 6 6 6 6 5 5 4 5 4 4 4 6 7 8 6 6 7 8 10 8 10 9 9 11 11 13 10 11 9 8 8 8 8 7 5 4 7 7 9 7 6 7 9 10 13 13 15 11 8 8 6 8 7 7 6 4 4 5 7 7 8 7 6 5 6 6 7 5 6 4 6 7 10 10 10 10 11 10 8 6 6 7 9 10 9 6 6 7 7 10 7 9 6 7 6 7 8 10 11 10 7 5 4 4 5 5 5 4 5 5 9 8 7 5 3 5 5 6 6 5 5 4 3 5 6 7 7 5 5 3 4 4 5 5 6 7 7 6 6 6 5 4 4 3 4 5 5 5 5 4 4 3 2 2 3 5 5 6 4 4 3 3 2 2 3 4 5 5 5 7 6 7 7 8 9 9 9 10 9 8 6 6 4 5 6 7 7 6 5 6 6 5 4 2 1 1 1 2 2 2 2 2 1 2 1 2 2 2 2 1 0 0 0 0 0 0 0 1 1 1 1 1 1 2 2 2 1 0 0 0 1 1 2 2 2 2 1 1 2 2 2 2 1 2 2 2 2 1 1 1 1 1 1 1 2 1 0 
0 1 1 1 1 2 2 2 1 1 1 1 2 2 2 2 1 1 1 1 1 1 2 3 4 4 3 5 5 8 8 9 7 7 7 7 6 6 6 5 4 3 4 6 6 5 7 5 9 5 7 5 5 3 4 5 6 6 7 9 8 9 9 11 9 9 9 10 8 7 4 4 5 7 9 10 10 8 8 6 9 8 9 10 9 9 8 7 7 6 6 5 5 6 4 4 3 4 3 4 4 3 3 4 4 4 3 2 2 3 5 5 6 4 4 2 3 3 4 4 5 5 7 7 6 5 4 5 6 6 4 2 2 2 2 2 1 2 3 5 5 5 5 4 3 2 2 2 2 2 3 4 5 6 6 5 4 5 7 6 8 9 9 10 8 8 7 7 5 6 5 4 6 5 9 9 11 9 7 5 3 7 8 12 7 7 6 6 7 8 7 8 7 6 4 3 2 3 4 6 6 5 6 8 10 9 7 7 7 9 8 6 5 5 5 6 7 7 6 7 5 5 6 6 9 9 8 10 7 8 6 6 7 7 10 6 9 7 8 7 5 8 8 9 6 5 6 7 7 8 8 9 9 10 9 8 7 7 9 7 6 4 4 4 4 3 5 6 7 7 6 6 6 9 7 7 8 9 12 10 13 12 14 13 10 8 7 6 5 4 4 6 6 6 6 7 11 11 14 14 11 10 7 7 8 6 8 9 10 8 6 4 6 7 9 12 10 8 6 8 10 13 11 9 6 7 7 9 8 8 10 11 11 10 8 7 7 6 6 5 5 6 7 9 9 8 9 7 8 6 7 8 8 9 9 7 5 4 5 6 5 5 4 5 5 7 7 6 6 4 6 6 6 5 4 5 5 4 5 4 5 5 4 5 4 5 5 5 6 5 5 5 6 7 7 5 4 3 4 6 8 8 7 5 4 3 3 2 3 3 5 5 5 4 4 3 3 3 2 3 4 4 3 4 5 6 6 6 6 7 9 9 7 6 5 5 5 6 6 6 6 5 5 4 4 4 4 3 2 1 2 1 1 2 2 2 2 1 2 1 2 2 2 2 0 0 0 0 0 0 0 0 1 1 0 0 0 1 1 2 1 1 0 1 1 1 1 1 2 2 2 1 1 2 3 3 3 2 2 2 2 2 1 1 1 1 1 1 2 2 1 0 
0 0 1 1 1 1 2 2 1 1 1 1 2 2 2 2 2 2 1 1 1 2 2 4 5 6 6 6 5 6 6 7 7 8 8 8 7 7 6 6 6 5 6 6 5 4 6 5 8 4 6 4 3 3 4 4 5 6 6 9 11 15 11 9 7 6 6 6 6 7 5 5 6 7 9 8 6 6 8 6 9 8 9 10 7 7 7 6 8 8 8 6 4 3 3 3 4 4 4 4 4 4 4 4 4 4 3 2 2 3 5 6 8 6 5 3 3 3 3 3 5 6 6 6 6 5 5 4 5 4 4 3 3 3 3 2 1 2 3 4 4 4 4 4 3 2 2 1 1 2 3 4 4 4 4 4 4 4 6 5 6 7 7 8 5 6 4 6 4 5 5 3 7 5 10 8 11 11 9 5 4 6 6 8 5 5 5 6 6 8 9 11 10 9 8 7 6 5 5 5 5 5 7 8 9 8 7 5 7 6 8 5 4 3 3 4 7 7 8 5 5 4 6 5 7 6 6 7 5 9 7 7 8 7 13 7 10 7 7 7 6 10 10 11 9 7 6 7 7 9 7 8 7 8 7 8 8 6 9 6 9 7 7 5 4 5 5 5 6 5 4 6 6 9 8 8 6 6 12 11 13 11 11 11 7 7 8 10 8 6 5 6 7 8 10 9 12 11 13 11 9 9 6 8 7 7 9 10 10 9 7 7 7 7 8 10 8 9 6 7 7 9 9 8 6 5 7 8 10 8 10 9 11 10 8 7 7 7 9 9 6 5 6 8 7 8 8 9 11 9 7 6 5 6 5 6 5 6 5 6 5 5 5 5 6 7 7 6 6 5 6 6 5 5 3 4 5 4 5 5 5 4 3 4 5 5 6 4 5 4 5 6 7 7 6 5 3 2 2 3 4 4 3 2 3 3 4 3 4 3 5 4 4 3 3 2 2 3 3 3 3 3 4 4 6 6 6 5 5 7 7 8 7 6 4 5 5 6 4 6 7 6 4 3 3 4 4 3 3 2 2 1 1 1 1 1 2 1 2 1 2 2 2 1 0 0 0 0 0 0 0 0 0 0 0 0 0 0 1 1 1 1 1 1 1 0 1 1 2 2 2 2 2 2 2 2 2 2 2 2 2 2 1 1 1 1 1 2 2 2 1 0 
0 0 0 0 1 1 2 2 2 1 1 2 2 3 3 2 2 1 1 2 3 4 5 5 5 4 4 5 6 7 6 7 6 8 8 8 7 6 6 6 6 6 6 7 6 6 6 6 7 4 4 3 3 3 4 5 6 7 8 12 12 12 11 9 8 7 8 9 9 9 6 7 7 7 8 6 7 6 7 6 8 8 9 7 7 5 5 4 5 5 5 5 4 3 3 4 4 4 4 3 3 4 4 5 4 4 3 3 3 3 6 6 7 6 5 5 4 4 4 5 4 4 4 4 4 4 4 5 7 7 7 6 5 5 4 4 2 2 3 3 4 5 5 5 3 2 2 2 2 3 3 4 4 5 5 5 5 5 6 5 6 8 6 7 6 6 6 6 6 5 6 4 8 5 10 8 12 11 9 7 4 5 6 7 6 4 3 5 6 11 11 10 8 7 7 7 5 5 5 6 6 6 8 11 11 8 5 3 6 6 8 5 5 4 4 6 9 10 8 5 6 5 6 4 7 7 8 10 8 10 6 7 8 8 12 8 9 6 7 5 6 8 9 9 8 6 5 5 6 7 7 8 7 8 8 7 9 7 10 6 8 5 6 4 6 5 8 9 10 9 6 5 6 8 8 8 8 6 10 9 10 9 9 9 7 8 8 10 9 8 7 6 7 7 9 12 13 13 12 13 9 10 6 7 6 6 6 8 9 8 6 6 5 7 7 9 9 10 7 9 9 9 11 8 6 4 6 8 10 9 10 8 10 10 9 7 7 7 7 6 6 6 6 7 6 7 6 8 8 7 8 7 6 6 6 6 6 8 7 8 7 5 6 5 7 6 7 5 6 5 6 5 5 5 3 5 5 5 5 4 3 3 3 5 7 6 8 6 7 5 4 4 5 6 5 4 2 2 3 4 5 5 4 3 3 3 4 4 5 4 5 4 4 3 2 2 2 3 4 4 4 4 4 3 6 5 6 5 5 7 6 7 5 4 4 6 5 7 7 8 6 5 3 3 2 3 3 2 3 2 2 2 1 1 1 1 2 1 2 1 1 2 1 1 0 0 0 0 0 0 0 0 0 0 0 0 0 0 0 1 1 1 1 0 0 0 1 1 2 2 2 2 2 2 2 3 2 2 2 2 1 2 1 2 1 2 2 2 2 2 1 0 
0 0 0 0 1 1 2 2 2 2 1 2 2 2 2 2 2 3 2 2 4 6 7 6 7 6 6 6 6 7 4 5 5 8 10 10 9 6 5 5 7 9 10 7 5 4 4 4 5 6 6 5 4 4 5 5 7 7 9 12 17 15 14 8 10 8 8 6 6 7 6 8 8 8 7 5 5 4 6 5 6 6 7 5 6 4 5 4 6 7 7 6 4 3 3 5 6 6 5 4 4 4 4 5 5 4 4 3 3 4 6 6 7 8 7 7 6 6 6 6 5 4 4 4 3 4 4 4 5 6 7 5 5 5 3 4 3 2 3 3 3 4 4 4 4 3 3 2 2 2 2 4 4 6 6 5 6 4 5 5 6 6 6 6 7 4 8 5 6 4 5 5 8 6 10 8 13 11 10 9 6 7 7 7 6 5 3 5 8 12 13 13 12 10 11 10 8 8 6 6 5 7 10 13 12 10 7 5 5 4 4 4 4 3 3 7 8 12 8 8 6 5 7 4 5 5 5 6 6 8 6 6 6 8 9 8 7 4 5 5 8 9 11 13 9 7 4 4 6 5 7 8 7 7 5 5 8 5 8 5 9 8 10 8 8 6 8 6 7 6 5 5 7 8 10 9 9 8 10 9 9 9 9 9 7 9 10 15 12 9 8 7 7 8 10 10 12 9 10 12 10 10 7 7 6 7 8 12 11 9 6 6 6 7 9 11 8 9 8 8 8 7 8 8 6 5 7 9 10 10 8 7 8 8 10 10 8 7 8 9 7 6 7 8 7 9 8 9 8 10 9 8 7 5 4 6 6 9 7 8 6 6 6 6 7 7 7 7 8 5 5 4 3 4 3 5 6 6 7 5 4 4 3 4 6 6 9 6 7 5 5 5 5 4 4 3 3 3 3 3 3 4 3 3 3 4 4 4 5 5 5 3 3 2 3 3 4 5 5 5 4 3 3 3 5 6 6 6 5 6 5 8 7 6 5 5 4 6 5 6 6 6 3 2 2 3 3 2 3 2 3 2 2 1 1 1 2 1 2 1 2 2 2 2 1 0 0 0 0 0 0 0 0 0 0 1 1 1 1 1 1 1 0 0 0 1 2 2 2 2 1 2 2 2 2 2 2 2 2 1 1 1 1 2 2 3 2 2 2 2 1 0 
0 0 0 1 1 1 2 2 2 2 2 2 2 2 2 2 3 3 3 5 7 8 9 6 8 6 7 7 7 8 6 7 7 8 8 8 8 8 8 7 10 10 12 9 10 7 7 6 6 6 6 6 7 8 8 7 6 7 9 10 12 9 11 7 11 7 9 6 7 6 6 6 6 6 7 5 5 5 6 5 6 4 5 4 4 3 4 5 8 8 8 6 4 4 4 6 8 7 6 5 3 4 4 4 4 3 3 3 4 4 4 6 5 7 7 10 8 7 7 5 5 2 2 2 3 4 4 6 8 7 6 5 4 4 4 4 3 3 2 2 2 3 4 4 4 4 3 3 2 2 2 5 6 7 7 5 5 4 6 6 7 6 7 5 8 4 10 5 7 4 5 6 6 7 8 9 10 10 9 10 7 9 7 10 9 8 4 5 8 14 14 12 9 9 8 8 6 7 6 6 5 6 12 13 14 10 7 4 4 4 3 4 5 6 6 7 8 12 9 8 6 5 6 5 7 8 8 8 7 6 5 5 6 8 9 9 7 6 7 6 7 8 8 10 7 7 3 4 5 4 7 7 6 7 5 6 7 5 8 5 7 6 7 6 7 6 8 9 11 9 8 6 7 8 9 8 8 8 8 8 7 7 7 7 5 7 8 13 13 12 8 7 7 7 10 9 10 8 10 9 10 9 8 6 5 5 5 7 7 8 6 6 7 7 7 7 7 8 10 9 9 7 8 8 8 7 10 11 12 9 6 5 7 9 9 9 8 9 8 7 7 6 5 6 8 9 8 7 7 8 8 10 7 6 4 6 5 10 8 10 7 7 7 8 7 8 8 8 6 5 4 4 5 6 7 7 7 5 5 4 5 5 5 6 7 8 10 8 8 7 6 5 5 5 5 4 4 4 5 6 5 5 4 4 3 4 6 7 7 6 5 4 4 2 4 4 6 6 6 6 4 4 3 4 4 7 6 8 5 6 4 6 5 6 4 4 4 6 7 8 7 5 4 3 4 4 4 4 3 2 3 2 2 2 1 1 2 1 2 2 2 2 2 2 1 0 0 0 0 0 0 0 0 1 1 1 1 1 1 1 1 0 0 0 1 1 2 3 2 2 1 2 2 2 2 2 2 2 2 2 1 1 1 2 3 3 2 2 2 2 1 0 
0 0 1 2 2 2 1 2 2 2 2 2 2 2 2 2 3 4 4 6 7 8 10 7 10 8 9 9 9 9 8 8 8 11 10 10 10 9 9 7 11 10 16 9 11 6 7 4 6 8 9 9 8 8 8 8 7 5 6 7 10 9 11 8 11 7 8 5 4 6 6 9 8 6 6 5 6 5 6 5 5 4 4 4 5 5 5 6 8 8 8 6 5 6 5 7 8 7 6 5 4 5 4 4 4 4 4 3 4 5 4 5 6 8 8 9 8 8 7 5 4 2 2 2 2 3 4 5 6 6 5 3 2 3 3 3 3 2 2 2 2 3 4 4 4 5 6 5 3 2 2 4 5 6 9 8 6 6 6 6 6 6 6 5 7 5 8 5 6 4 5 7 7 6 6 8 9 9 7 9 7 10 8 11 8 8 5 6 9 13 14 15 8 9 5 6 6 7 6 6 5 7 10 13 16 12 11 7 4 3 2 3 4 5 5 6 8 9 10 8 8 5 7 5 7 5 5 4 5 5 5 6 7 7 8 8 8 6 6 6 8 7 8 9 8 6 4 4 4 4 5 6 6 7 5 5 5 4 6 5 6 7 9 9 7 5 5 5 6 6 8 8 8 7 9 8 8 9 8 8 7 8 8 8 5 5 8 11 10 9 6 5 5 7 7 7 7 6 7 6 8 7 8 7 7 5 7 7 9 8 7 6 7 11 13 13 9 8 8 9 9 8 10 9 10 8 12 10 12 7 6 4 5 8 11 14 10 8 7 7 7 7 8 9 11 11 10 7 6 7 9 10 7 6 3 5 5 8 6 7 6 6 7 7 7 8 7 10 7 7 5 6 6 5 5 6 9 10 9 7 5 5 5 5 6 8 9 9 8 6 7 7 7 5 6 4 4 4 5 5 5 5 4 4 5 5 6 6 6 7 6 5 5 3 5 6 8 9 6 7 4 4 2 4 4 8 7 12 6 7 5 7 7 7 4 3 3 4 6 5 5 4 5 4 4 5 4 4 4 2 3 2 2 2 2 2 2 1 2 2 2 3 2 2 1 0 0 0 0 0 0 0 1 1 2 2 2 2 2 1 1 0 0 0 1 2 3 3 2 2 1 1 1 1 1 1 1 1 1 1 1 1 1 2 2 3 2 2 1 2 1 0 
0 0 1 2 2 2 1 1 2 2 3 2 2 2 2 2 3 5 4 6 7 7 7 7 10 10 12 8 9 8 10 9 11 10 10 10 10 12 11 8 11 9 15 9 12 7 9 5 6 7 7 9 8 13 10 9 6 5 5 3 5 5 8 8 9 6 6 4 4 7 6 10 7 7 8 7 8 8 7 5 5 4 4 4 4 4 4 6 7 9 8 6 4 4 4 7 7 7 7 5 5 4 4 5 6 7 8 7 6 5 4 5 5 7 10 12 10 8 6 6 5 4 3 3 2 2 3 4 6 5 4 3 2 3 3 3 3 2 2 2 2 2 3 4 5 6 6 6 4 3 3 4 7 7 7 7 7 7 9 10 9 7 6 6 5 7 7 7 6 5 6 7 8 6 7 5 6 6 6 7 6 8 8 10 9 8 5 6 10 16 13 14 6 8 5 6 5 7 5 5 3 6 8 10 10 9 8 5 4 3 3 3 5 6 5 5 6 8 8 7 8 6 10 8 11 7 7 4 5 5 7 7 7 8 10 9 12 9 10 6 6 5 7 6 7 6 5 4 3 3 3 4 4 5 5 5 7 6 6 5 4 4 5 6 6 6 5 6 7 9 10 9 9 8 8 9 10 9 8 7 6 7 7 7 5 5 6 12 12 11 7 5 5 7 6 6 5 5 7 6 7 7 7 6 5 4 5 5 8 6 8 7 8 8 8 8 7 7 7 7 7 7 8 8 10 10 13 11 10 6 5 4 6 8 8 8 9 8 8 6 6 5 6 7 10 10 9 8 6 6 6 6 5 4 2 4 4 7 6 7 6 6 8 6 6 7 6 9 6 7 6 8 8 7 7 7 7 6 6 6 6 6 5 5 6 8 8 9 7 7 8 7 10 7 8 6 5 5 5 8 6 6 6 5 7 6 8 7 6 5 4 4 4 3 5 7 7 9 6 7 4 4 2 4 4 9 7 11 7 8 5 6 5 5 4 2 2 3 4 5 6 5 6 5 5 5 5 5 4 2 2 1 2 2 2 2 2 2 2 2 2 2 2 1 0 0 0 0 0 0 0 0 1 1 2 2 2 2 2 1 1 0 0 0 1 2 3 2 2 2 1 1 1 1 1 1 1 2 2 2 2 2 2 2 3 2 2 2 2 2 1 0 
0 1 2 2 2 2 1 1 1 2 2 2 2 2 2 2 3 3 5 5 5 5 6 8 11 9 9 6 6 7 9 9 11 10 9 10 11 11 9 6 8 8 12 7 9 7 7 5 6 7 7 9 7 10 8 9 7 5 6 5 6 6 8 9 7 4 4 4 4 8 8 12 10 9 8 9 9 9 8 6 5 4 5 5 5 5 5 6 6 7 8 8 7 6 5 5 7 6 6 5 5 6 5 6 7 7 7 6 6 5 5 5 7 7 7 8 7 8 7 6 5 4 3 2 2 2 3 3 6 5 4 3 2 2 2 2 3 3 2 2 2 3 4 4 4 5 6 6 5 4 3 5 5 7 10 9 8 8 8 9 10 9 7 6 4 7 6 7 6 5 8 7 10 8 10 6 7 6 6 6 6 7 8 10 8 7 6 8 10 16 12 12 5 6 5 7 6 7 5 6 5 6 5 7 8 9 7 6 4 3 3 3 4 4 4 4 4 6 8 9 8 7 8 7 7 4 4 2 3 3 5 5 7 7 10 8 11 7 7 5 7 6 7 7 5 6 5 5 3 3 3 4 5 5 6 6 6 5 5 3 4 4 6 5 4 4 4 5 6 8 9 10 9 7 8 9 9 8 8 7 7 7 8 8 7 7 5 7 7 6 6 6 8 9 7 7 4 4 6 6 7 8 8 6 5 4 5 6 7 6 7 5 7 9 10 10 7 8 7 6 5 5 6 8 7 9 8 10 7 6 5 4 5 6 10 8 8 5 5 5 6 6 8 8 8 9 9 9 10 9 8 7 5 4 3 4 4 7 7 6 5 4 6 6 5 5 5 6 6 7 7 9 8 7 6 7 10 11 11 7 6 6 5 5 5 6 5 8 7 8 9 7 8 7 8 6 5 6 5 7 5 6 5 5 7 6 7 5 4 4 4 4 4 6 7 10 8 8 6 8 6 6 4 4 4 7 6 9 6 8 6 6 7 7 5 4 3 3 4 5 5 5 6 5 4 4 4 4 3 2 1 1 1 1 2 2 2 2 2 1 1 2 1 1 0 0 0 0 0 0 0 0 1 1 2 2 1 1 1 1 0 0 0 0 1 2 2 2 2 2 1 1 1 1 1 2 2 3 3 3 3 3 3 3 3 2 2 2 2 2 1 0 
0 1 2 2 2 2 1 1 1 2 2 2 2 2 3 3 5 5 6 4 4 3 5 7 10 10 8 5 5 7 9 11 12 16 16 14 11 9 7 6 6 7 7 6 6 6 6 6 5 6 7 8 8 9 6 7 7 7 7 6 8 9 8 7 5 4 3 3 3 6 7 10 9 8 8 8 10 10 10 8 9 9 9 9 9 8 8 9 9 9 8 7 6 5 5 7 7 7 8 6 5 5 3 5 8 10 12 11 8 6 6 4 6 6 10 9 9 7 6 6 7 5 4 3 2 1 2 3 4 4 4 3 3 3 5 5 5 3 3 2 1 1 2 3 4 5 5 6 5 5 4 6 7 7 7 7 8 8 10 13 12 9 7 6 5 8 7 8 7 5 9 9 14 11 12 8 7 6 6 7 5 7 6 8 6 6 6 7 10 12 11 9 6 8 8 10 9 7 6 5 5 4 4 4 4 5 4 5 3 4 4 4 4 4 4 4 3 5 6 7 7 8 9 8 7 5 3 3 4 4 5 5 8 8 12 10 11 8 8 6 6 7 7 6 5 7 5 6 3 2 3 3 3 5 6 10 9 8 5 3 3 3 4 4 5 5 6 7 9 11 12 11 8 6 6 9 11 10 7 7 8 10 9 8 6 7 7 8 8 6 8 8 9 10 8 8 4 4 6 7 9 7 6 4 4 5 5 6 6 6 6 6 8 7 5 5 6 7 7 6 5 5 5 9 7 12 8 10 5 5 3 4 5 4 5 4 5 5 4 6 5 5 6 8 9 9 9 10 10 10 10 9 6 4 3 3 4 6 7 7 7 6 8 7 7 6 5 5 5 7 8 9 9 8 8 7 8 7 8 8 7 5 5 6 6 7 5 7 6 8 8 8 10 7 6 7 6 9 6 9 6 8 5 6 8 6 7 4 3 2 2 3 3 6 7 9 7 8 7 9 7 7 4 4 3 4 4 6 5 8 7 8 6 6 6 4 4 3 3 4 6 6 5 4 4 5 5 5 4 3 1 1 1 1 2 2 2 2 2 1 1 2 1 1 0 0 0 0 0 0 0 0 1 1 2 1 1 1 1 1 0 0 0 0 1 2 2 2 2 2 1 1 1 1 2 2 3 4 4 5 5 4 4 3 2 2 2 2 2 2 1 0 
0 2 3 3 2 2 2 2 1 2 1 1 2 3 4 5 7 8 9 7 5 4 6 8 12 9 8 4 5 7 8 12 14 13 11 11 11 9 7 5 6 7 6 6 5 7 6 6 5 6 8 9 9 8 7 8 7 7 9 9 9 8 8 8 5 4 3 3 2 4 6 8 8 7 7 7 10 9 9 9 7 7 7 7 7 7 7 8 9 11 12 11 8 7 6 7 8 8 7 5 5 4 3 4 6 7 8 7 7 6 7 6 7 5 7 6 7 7 8 8 6 4 3 2 2 1 2 2 3 3 3 2 3 4 4 5 4 4 2 2 1 2 2 2 2 2 2 4 4 6 5 8 7 8 7 5 4 7 9 12 13 12 8 5 4 7 7 8 7 6 10 9 14 17 17 14 9 8 7 7 6 7 7 9 8 9 9 9 11 11 12 10 7 8 8 9 9 6 7 5 8 5 4 2 3 4 5 5 4 4 3 3 4 4 4 4 4 6 7 7 7 7 6 6 5 4 4 4 4 3 4 5 7 7 9 8 9 6 6 6 8 8 9 6 5 6 5 6 5 6 6 6 5 8 8 10 9 9 6 4 3 3 4 4 4 4 6 8 10 10 11 11 8 7 6 8 8 7 6 7 7 9 10 13 10 8 6 4 4 4 8 10 12 12 9 9 4 5 6 8 10 7 7 5 4 7 6 8 6 6 5 7 6 6 5 5 7 9 9 7 6 5 5 8 7 10 7 9 6 8 6 6 6 6 6 7 6 5 4 6 6 7 7 8 7 8 8 9 12 12 12 11 9 6 4 3 4 6 7 8 8 8 9 10 10 9 8 7 5 7 6 7 8 6 7 6 8 11 10 8 7 6 6 6 7 6 4 5 5 7 6 5 5 4 6 9 8 11 8 11 7 8 6 6 6 5 5 3 3 3 3 3 4 7 9 9 8 8 8 12 8 9 4 5 3 3 3 4 5 8 8 10 8 7 7 4 5 4 5 4 4 4 4 3 3 4 6 6 6 4 2 1 1 1 1 2 2 2 2 1 1 2 1 1 0 0 0 0 0 0 0 0 1 1 2 1 1 1 1 1 0 0 0 0 1 2 2 2 2 1 1 1 1 1 2 3 4 5 4 4 4 4 5 4 3 2 2 2 2 2 1 0 
0 3 4 3 2 2 2 2 2 2 1 1 2 4 5 6 8 8 7 6 6 6 7 8 11 9 10 8 8 8 9 11 12 14 14 11 8 6 8 7 8 7 5 5 4 7 7 7 6 6 8 11 11 9 6 5 7 7 8 10 11 11 8 7 5 4 3 4 3 3 4 6 7 7 7 6 7 8 8 10 10 10 9 9 10 11 10 12 10 9 8 7 6 6 7 8 9 8 7 5 4 3 3 5 6 10 10 8 6 5 7 7 7 7 8 8 7 8 7 9 8 7 4 3 3 2 2 2 2 2 3 3 3 4 6 8 5 4 2 2 2 2 3 3 3 3 4 6 6 8 5 7 5 5 4 5 4 6 8 13 11 9 6 5 5 8 8 9 8 7 10 10 17 17 18 14 10 6 5 6 6 5 5 5 6 6 8 9 9 9 10 10 10 9 8 7 7 5 6 6 7 6 7 4 4 4 5 5 5 5 4 3 3 4 4 6 4 5 5 6 5 6 7 6 6 5 5 5 6 6 6 6 7 8 8 7 8 7 8 8 9 9 9 8 6 6 7 6 6 6 6 6 5 7 7 9 8 7 5 4 3 4 5 5 5 5 8 10 12 12 10 10 7 7 5 6 7 8 7 7 8 10 10 11 9 7 6 5 7 6 7 8 9 10 9 8 5 5 6 6 7 6 5 4 5 7 7 9 7 7 6 6 6 6 5 5 6 7 8 7 7 7 7 8 8 10 9 9 6 5 5 5 6 6 6 6 5 4 4 6 6 7 7 9 9 8 7 8 8 10 12 15 11 8 5 4 4 5 7 8 9 9 9 11 10 12 8 11 7 10 6 7 6 6 8 8 8 8 9 9 7 6 7 7 9 8 6 5 5 6 5 5 5 5 6 7 7 10 7 9 7 7 6 6 7 6 5 4 4 5 6 7 8 8 8 8 6 9 9 12 9 10 5 5 3 3 3 4 5 8 11 11 10 8 8 6 7 5 5 5 5 4 3 3 3 6 8 9 8 5 3 2 1 1 1 2 2 2 2 1 1 2 1 1 0 0 0 0 0 0 0 0 1 1 2 2 1 1 1 1 0 0 0 0 1 2 2 1 1 1 1 1 1 1 1 2 3 4 4 4 4 4 4 3 2 1 1 1 2 2 1 0 
0 3 4 3 2 2 2 2 2 2 2 3 4 5 5 6 7 7 7 7 7 8 7 8 8 10 10 10 10 9 9 10 10 10 7 6 7 6 7 6 9 10 9 7 4 5 5 6 6 7 9 9 9 9 8 6 5 7 9 11 9 9 8 7 5 4 5 4 4 3 4 5 6 5 5 5 6 7 8 8 7 6 6 6 6 7 7 8 8 10 9 7 7 6 6 7 8 8 7 5 4 3 2 4 5 6 6 5 4 5 7 8 8 6 7 9 9 12 9 13 7 6 3 3 2 2 3 2 3 3 4 4 4 5 5 6 4 3 2 2 3 3 4 4 4 4 4 5 5 8 6 8 5 5 4 4 3 5 6 9 11 10 7 5 4 7 9 13 10 11 13 12 18 16 21 14 11 7 6 5 5 6 6 6 7 7 10 10 11 10 10 9 10 7 6 6 4 4 5 5 9 7 7 6 6 6 7 8 7 6 4 3 3 4 4 5 5 8 8 6 7 5 7 7 8 6 7 6 7 7 8 7 6 6 5 5 5 7 6 9 9 13 11 8 8 5 6 6 9 9 9 7 8 7 8 7 6 6 5 4 3 4 4 4 6 6 8 8 7 7 6 8 6 7 5 6 5 5 5 6 7 8 11 14 11 9 7 7 7 5 7 8 9 9 7 7 6 5 5 6 6 5 5 5 6 6 8 8 8 8 7 6 5 4 4 6 7 7 7 6 7 8 7 7 7 8 9 7 8 7 8 8 7 8 8 9 8 8 7 8 6 7 6 7 7 7 7 8 8 10 9 12 9 9 5 4 4 5 6 6 8 10 10 11 8 11 8 12 7 9 6 8 7 8 6 7 7 8 6 6 6 6 6 7 8 7 6 6 5 5 5 3 4 4 7 10 8 8 7 7 6 7 7 8 8 7 6 6 6 9 8 9 9 11 8 8 6 8 8 9 8 7 6 6 4 5 4 5 7 10 13 11 9 8 7 7 6 6 6 5 4 4 2 3 3 5 6 8 7 6 3 2 1 1 2 3 3 2 2 1 1 2 2 1 0 0 0 0 0 0 0 1 3 3 2 2 2 2 2 1 1 0 0 1 2 2 2 2 2 2 1 1 1 1 2 2 3 4 3 3 3 3 4 4 2 2 1 1 2 3 2 0 
0 3 4 4 3 3 3 3 5 6 6 6 5 5 6 5 6 5 4 5 5 7 6 8 7 9 11 11 9 8 7 7 8 9 9 7 6 5 5 7 8 10 8 8 6 7 8 8 8 9 9 10 10 10 8 7 6 8 8 10 8 8 7 6 7 5 7 6 6 5 4 4 5 6 6 6 5 6 7 9 10 8 10 9 9 9 8 11 9 8 7 5 6 5 6 7 6 6 6 7 6 6 6 6 7 7 7 5 5 5 7 8 7 7 7 8 9 11 10 12 8 9 5 5 4 3 3 3 4 4 5 4 4 4 4 4 4 3 3 3 4 5 6 6 6 6 6 7 6 8 6 7 4 4 4 4 4 5 6 8 8 7 7 6 7 9 9 11 8 12 11 14 15 13 16 10 11 5 6 4 5 4 4 3 3 5 8 11 11 10 9 9 8 8 6 6 4 4 6 5 8 8 11 10 9 10 8 8 8 8 7 3 3 4 4 6 5 5 7 7 8 6 7 6 6 6 6 6 8 10 8 8 6 5 5 5 6 8 7 10 7 11 11 8 9 5 8 7 9 8 10 7 7 6 6 5 4 4 3 5 4 6 7 10 12 13 15 14 13 12 10 11 9 11 10 13 17 22 24 25 26 27 30 32 32 33 28 26 22 19 16 15 13 11 9 8 8 8 6 5 4 4 5 5 5 6 8 7 8 8 7 7 5 5 4 4 5 5 4 5 7 9 10 10 10 7 8 5 7 6 7 8 8 11 8 9 6 5 5 5 6 8 8 9 7 7 6 7 7 8 9 10 7 7 4 4 4 5 7 8 9 9 9 9 7 8 7 9 7 9 8 9 8 10 9 10 8 7 7 6 5 6 9 9 8 7 7 5 5 4 4 3 3 4 5 6 7 7 6 5 5 5 7 8 9 9 7 8 7 9 9 12 10 11 7 7 6 7 8 6 7 6 7 5 4 5 4 6 7 9 11 12 10 11 9 9 8 8 7 6 4 4 3 2 3 5 6 7 6 5 3 2 2 2 3 3 3 2 2 1 1 2 2 1 1 0 0 0 0 0 1 2 3 3 3 2 2 2 2 2 1 1 1 2 2 2 2 2 3 3 2 1 1 2 2 3 3 4 4 4 4 4 3 3 2 2 2 2 3 3 2 0 
0 4 5 6 5 5 4 5 6 7 7 7 6 6 6 6 5 4 4 4 5 6 6 5 6 7 9 10 9 7 6 5 8 9 11 8 7 5 6 7 8 11 10 8 7 6 6 6 6 7 8 9 8 9 7 7 6 7 8 9 7 6 6 5 6 6 7 7 8 7 7 5 4 4 3 4 3 6 5 7 8 7 11 9 8 10 6 9 8 7 8 6 8 7 6 6 6 7 7 8 9 8 8 5 8 6 8 6 6 6 7 8 7 6 6 7 13 10 11 9 7 6 4 4 3 3 5 5 6 6 6 6 4 4 4 4 5 4 5 5 5 4 5 5 7 6 5 4 4 7 6 7 6 5 5 5 5 5 6 6 7 9 9 10 8 8 8 12 10 14 11 14 13 11 11 8 9 5 8 6 6 5 5 5 4 6 8 12 10 12 9 8 8 9 9 8 6 5 5 6 7 8 9 11 10 12 9 11 9 8 7 4 4 4 5 6 5 6 7 7 8 8 6 8 5 6 6 8 8 12 9 9 7 5 6 5 7 7 7 8 8 10 9 7 6 4 7 7 12 11 11 8 8 7 7 6 6 6 6 9 8 9 10 13 15 17 19 23 28 35 40 44 47 51 57 66 72 79 82 85 90 96 101 105 106 106 102 96 88 82 76 70 65 61 57 54 47 38 28 22 16 11 7 6 6 8 7 7 6 7 7 9 8 6 6 5 5 4 4 6 8 10 9 9 8 7 7 6 7 7 7 9 8 11 10 12 11 8 8 7 8 7 9 9 11 8 7 7 8 6 6 5 5 5 3 3 3 5 6 9 11 14 12 10 8 7 6 7 6 6 8 12 12 11 9 6 7 4 4 2 3 6 7 8 9 6 8 7 8 6 6 7 7 8 7 8 7 6 7 5 7 6 9 9 10 11 8 7 9 10 10 8 8 8 5 4 5 5 6 4 4 5 6 6 4 6 5 8 9 11 10 9 8 9 9 7 6 6 6 6 4 4 3 3 2 3 4 4 5 6 5 4 3 2 3 3 3 2 1 1 1 2 2 2 1 0 0 0 0 0 1 3 5 5 4 3 3 3 2 2 1 2 3 3 3 2 2 3 4 3 3 2 2 3 4 4 4 4 5 5 4 4 2 3 2 2 2 4 4 6 3 0 
0 3 6 6 6 6 6 6 9 11 12 9 6 7 7 10 8 6 5 4 4 4 5 5 5 6 7 6 6 6 5 6 9 9 12 10 8 6 6 8 9 9 8 8 7 10 9 8 7 7 8 9 9 10 8 7 7 8 7 6 5 4 5 4 6 8 9 10 9 7 6 5 4 3 3 4 4 5 5 6 8 8 11 9 7 7 5 8 7 8 8 7 7 6 7 6 5 6 8 10 12 10 11 8 9 5 7 6 7 7 6 8 6 7 6 6 10 7 10 7 8 8 5 4 3 3 3 4 5 6 6 5 4 3 3 4 5 5 7 6 6 6 5 5 5 5 5 4 3 5 5 6 7 5 7 6 8 7 7 7 6 9 8 10 8 9 8 9 7 9 9 11 11 10 9 7 8 7 8 6 5 5 4 5 5 6 7 10 9 10 8 9 8 7 7 7 7 8 8 8 6 8 8 12 10 12 9 9 8 9 7 5 4 5 7 6 7 5 5 7 7 8 7 6 4 5 4 6 7 11 8 10 7 6 6 5 9 8 11 7 7 6 7 6 4 4 5 8 10 13 15 11 9 7 8 8 9 10 12 15 17 18 24 28 37 45 57 71 85 97 105 112 118 124 130 136 143 149 152 157 164 169 171 172 173 173 170 164 158 154 151 146 142 139 135 130 121 108 94 79 67 57 46 37 28 21 14 10 6 6 7 8 10 8 7 5 4 4 5 6 8 9 9 10 9 7 5 7 8 8 7 9 10 12 14 11 11 8 6 5 7 7 11 8 10 10 9 6 6 5 5 5 5 4 3 2 2 4 5 9 9 13 10 10 6 7 5 6 5 7 7 11 10 9 9 5 7 4 5 3 5 8 11 10 8 5 7 5 7 5 5 5 5 6 5 6 6 6 7 5 9 6 9 10 10 10 8 7 10 7 10 8 9 7 6 4 3 4 4 4 5 6 6 5 4 6 6 9 8 9 9 8 8 7 7 7 6 7 6 5 3 3 2 2 2 3 4 4 5 5 5 4 4 3 4 5 3 2 1 1 1 2 2 2 1 0 0 0 0 0 1 2 3 3 3 3 3 3 3 3 2 3 3 4 3 2 2 4 5 5 4 3 3 4 4 4 4 3 4 4 3 3 2 2 2 3 3 6 5 8 3 0 
0 3 7 7 8 6 6 6 7 8 7 6 6 6 7 8 7 5 3 3 3 4 5 5 4 3 4 7 7 7 6 7 9 10 12 12 9 11 8 9 8 8 6 7 7 9 8 7 6 6 7 11 10 8 7 7 7 6 5 4 5 4 5 4 5 7 9 11 9 10 10 8 7 5 5 4 4 5 5 5 5 6 7 7 6 5 4 5 6 7 8 8 7 9 6 9 7 7 8 10 11 10 8 6 8 6 7 5 5 6 4 6 5 6 6 6 7 7 8 6 7 6 4 3 2 2 3 5 5 5 5 4 3 3 4 6 7 8 7 8 6 5 4 5 4 5 4 4 3 3 5 5 9 7 10 6 9 8 7 7 5 8 8 9 6 6 7 8 9 9 8 9 9 9 9 8 5 6 7 8 8 8 6 6 6 6 8 8 7 8 7 8 9 9 8 8 7 8 7 8 7 8 6 9 7 8 7 8 7 7 7 6 6 5 9 6 7 5 5 6 7 8 7 6 5 4 5 6 8 8 8 8 6 5 5 5 7 7 9 9 9 6 5 3 2 3 3 8 11 14 13 11 10 7 8 11 15 20 27 34 45 53 69 82 97 109 122 137 149 157 162 165 167 170 172 173 172 172 173 176 179 181 181 180 179 178 177 177 178 180 181 180 179 180 181 180 177 171 166 159 149 138 124 109 93 78 63 48 33 20 12 10 10 10 9 7 5 4 5 8 12 11 10 7 7 7 8 9 9 8 6 7 10 10 14 12 13 10 8 8 8 7 8 9 13 13 11 11 9 9 9 7 6 4 3 2 3 4 5 9 9 13 10 11 6 7 5 6 6 6 6 8 9 9 7 6 5 3 3 3 5 6 7 7 7 6 7 6 8 6 6 7 8 8 6 6 5 5 6 4 7 6 9 9 8 8 8 7 10 7 12 7 9 7 6 5 4 4 6 6 5 5 5 5 4 6 7 9 10 8 8 6 6 5 5 5 5 7 5 6 3 3 2 2 2 3 3 4 6 7 9 7 5 5 5 6 4 3 1 1 1 2 2 3 2 1 0 0 1 1 1 2 3 4 4 4 4 5 5 4 3 4 4 4 3 2 3 4 5 6 6 6 5 5 5 5 5 4 3 3 2 3 2 2 2 3 5 8 6 9 4 0 
0 3 5 6 6 5 5 6 9 10 10 8 6 6 7 7 7 5 3 3 2 5 6 7 7 6 6 9 8 10 8 8 9 10 10 12 11 10 8 9 9 8 5 5 5 8 9 7 6 5 6 10 10 9 9 7 8 7 6 5 6 6 6 5 5 7 10 11 9 9 8 8 9 7 7 5 5 4 5 6 6 6 6 5 3 2 2 4 6 8 7 9 6 8 6 8 5 7 8 10 9 8 8 8 6 4 3 3 3 4 4 5 6 7 6 7 5 6 5 5 6 6 5 3 2 2 2 3 3 3 3 4 3 3 4 6 7 8 8 8 9 7 5 4 3 3 4 4 4 4 5 5 9 7 9 7 7 8 7 7 5 5 5 5 5 8 10 11 10 8 6 7 10 12 9 9 7 6 5 6 5 6 8 9 9 7 7 6 7 5 6 8 8 7 5 6 6 10 10 10 7 6 5 6 5 6 5 5 6 6 8 5 8 5 9 6 6 5 4 5 6 6 8 6 6 4 6 5 8 6 7 6 6 5 5 5 6 9 10 9 6 4 4 5 4 4 4 8 9 12 13 12 9 11 16 31 46 63 78 94 110 124 139 149 156 161 165 167 166 162 158 156 156 155 150 144 137 131 129 129 129 127 125 124 122 121 122 125 131 137 144 149 153 156 159 162 167 175 182 186 187 185 181 173 163 150 134 115 94 73 54 40 28 21 13 10 6 5 7 9 11 13 11 10 8 7 8 9 11 9 8 8 9 10 13 11 11 11 7 9 5 7 6 7 10 13 13 12 8 9 8 6 6 3 3 2 3 4 5 8 6 10 6 9 4 6 5 6 7 5 7 8 9 8 7 7 5 4 4 4 6 7 6 5 4 4 5 5 5 5 5 5 5 5 4 4 3 3 4 3 5 5 6 7 8 8 6 6 9 7 11 8 10 9 8 6 6 5 6 7 7 7 5 5 4 5 6 6 7 7 7 7 5 4 3 4 6 7 5 5 2 2 1 2 2 2 3 3 5 5 6 5 5 5 5 7 4 3 1 2 2 2 2 3 2 2 0 1 1 1 1 1 1 2 2 2 3 4 5 6 4 5 4 4 3 2 3 4 6 7 6 5 4 5 4 2 2 2 2 2 2 3 4 5 5 6 7 8 6 8 4 0 
0 4 6 8 6 6 5 5 6 6 5 5 5 4 4 5 5 4 4 4 3 6 6 8 7 5 5 8 8 9 8 8 10 9 10 10 12 9 9 7 7 6 5 6 5 5 6 6 6 5 7 9 12 9 10 8 9 6 5 5 6 7 7 7 8 8 11 13 12 10 10 9 12 8 11 6 8 7 9 7 8 7 6 5 4 3 2 4 5 7 7 6 5 6 5 6 5 9 8 8 8 8 6 6 5 5 3 3 4 4 4 4 6 8 7 7 5 6 6 5 6 5 4 3 2 3 3 3 3 3 3 3 4 4 5 7 7 8 10 8 9 6 5 4 4 4 5 4 4 3 4 5 9 7 7 6 5 7 6 7 6 6 5 5 5 8 9 11 10 8 6 6 8 10 10 8 5 4 4 6 8 8 8 8 9 8 9 6 6 5 7 7 10 7 6 5 6 8 8 6 7 6 6 4 4 4 5 5 7 6 9 6 9 5 8 5 6 5 4 5 6 5 9 7 8 5 7 5 7 6 6 5 4 6 4 6 5 7 9 8 8 5 4 4 4 6 6 10 10 14 18 26 35 52 72 99 119 138 151 161 168 172 173 172 168 161 151 138 124 111 101 96 91 86 78 71 65 59 57 54 50 46 44 46 46 46 46 50 56 62 69 74 78 81 84 91 104 119 135 146 155 164 173 181 185 186 183 175 162 146 128 109 87 67 46 32 19 11 8 11 12 14 9 11 7 8 7 8 8 8 7 10 8 10 10 9 9 11 9 13 7 8 6 8 11 12 11 11 9 11 10 8 6 3 2 2 3 4 5 6 5 8 5 8 5 6 6 7 8 6 7 7 7 7 6 7 5 4 4 4 7 7 7 6 4 3 4 4 4 6 5 7 6 6 4 2 2 2 3 3 4 4 6 6 5 6 7 10 10 8 10 8 10 8 9 7 9 8 10 8 6 6 4 5 4 4 5 6 5 7 6 7 6 5 5 6 7 7 6 4 3 2 2 2 2 3 3 3 4 5 5 4 4 5 5 6 4 3 2 2 2 2 2 3 2 2 1 1 1 1 2 1 2 3 4 3 4 5 5 6 4 5 4 4 3 2 3 4 6 8 9 8 6 4 4 5 5 4 3 2 2 3 5 5 6 6 7 7 6 5 3 0 
0 5 7 10 7 7 6 5 6 6 6 5 5 4 4 3 5 5 5 5 5 9 7 8 6 7 7 9 9 10 9 8 8 8 10 9 11 9 8 7 8 8 6 5 5 6 6 5 4 3 6 7 11 9 10 9 9 10 9 9 7 7 8 7 8 8 10 8 8 8 9 7 10 7 10 7 8 8 9 9 9 8 8 6 4 3 3 5 7 7 7 7 7 6 6 8 7 9 9 10 7 8 8 8 6 4 3 3 3 3 4 6 7 8 7 7 7 6 7 5 5 6 6 6 4 6 3 5 3 3 3 4 5 5 5 5 7 9 9 9 10 9 6 4 4 4 4 4 4 5 6 6 6 6 6 6 4 6 6 8 6 7 5 6 7 10 11 12 9 8 5 7 9 12 9 9 6 5 4 5 5 6 8 9 11 8 8 6 6 6 8 7 10 6 7 4 6 7 8 7 8 8 8 7 6 6 5 6 8 8 8 7 8 5 6 4 4 4 4 4 5 6 9 8 8 6 6 5 6 6 5 6 4 9 6 8 5 6 7 6 5 4 6 7 8 9 11 18 26 44 63 86 109 131 149 167 176 179 178 173 166 156 143 131 117 102 87 70 54 43 36 34 30 28 24 23 22 19 17 14 12 11 12 14 15 16 16 17 18 19 22 24 24 24 26 31 40 50 62 71 80 89 102 118 135 151 163 173 180 185 183 175 158 135 109 84 61 40 23 15 10 10 9 10 7 8 5 6 7 11 8 12 8 11 8 9 8 8 8 10 9 8 7 7 8 9 8 8 6 7 7 6 5 2 2 2 3 4 4 6 5 6 4 6 5 5 7 6 7 7 8 9 9 9 7 7 5 5 4 4 6 6 5 5 5 5 6 6 5 7 7 10 8 7 5 2 2 2 3 4 4 4 4 5 5 6 7 8 9 10 8 8 8 7 9 8 10 8 8 7 6 6 4 5 4 4 4 5 5 8 5 7 5 5 5 6 6 7 6 4 4 3 3 3 4 4 3 3 3 3 3 2 2 2 3 4 4 3 2 2 2 2 2 2 2 1 1 1 1 1 2 2 3 2 3 2 3 3 3 4 3 4 4 4 3 3 4 4 6 6 5 5 4 4 3 3 3 3 3 3 3 5 6 6 7 8 9 6 6 4 3 0 
0 5 8 10 8 7 6 5 5 4 4 3 3 2 3 4 6 6 7 7 7 9 8 10 8 7 7 8 9 10 9 8 10 8 9 9 10 9 8 7 6 5 6 7 6 5 5 6 7 5 7 7 9 11 10 12 11 11 9 8 8 5 7 10 13 9 11 10 11 9 7 7 8 7 7 7 7 11 8 11 10 11 9 6 4 4 5 5 6 6 6 5 5 5 6 8 10 13 9 8 7 9 8 8 6 4 4 4 5 5 4 6 6 9 9 7 10 7 11 7 8 6 5 5 4 8 5 7 4 4 4 4 5 5 6 5 7 8 9 10 7 7 5 4 3 4 4 3 3 5 5 6 6 6 5 5 4 5 4 6 5 7 5 7 8 8 9 9 7 7 4 6 6 9 7 8 7 7 6 7 10 10 7 6 6 6 7 6 6 7 8 7 9 6 7 5 7 7 7 7 7 9 8 9 6 6 6 6 7 9 8 8 6 6 5 4 4 5 6 6 6 7 8 10 8 7 5 5 4 4 4 5 6 9 7 8 6 7 6 6 7 8 8 8 12 22 37 61 84 112 136 156 171 181 186 184 172 157 141 125 110 92 73 57 45 36 29 19 13 9 9 11 10 11 10 11 13 12 12 10 10 9 9 10 10 11 12 12 13 11 11 11 10 9 10 12 15 17 18 19 21 27 34 46 61 77 94 113 134 155 173 186 187 180 165 146 125 98 69 44 26 16 10 10 9 7 5 4 5 9 9 14 8 10 8 7 8 8 10 10 10 8 8 7 8 7 6 5 5 6 7 7 6 4 4 2 2 3 4 4 4 5 4 4 6 6 8 7 7 9 10 10 8 6 6 8 7 5 4 4 6 9 8 9 6 5 6 6 6 10 9 11 10 7 7 4 3 4 5 7 7 7 7 5 4 5 8 10 12 9 8 8 8 9 9 10 10 10 8 6 5 4 4 5 5 5 4 5 6 8 5 6 4 5 5 7 7 6 6 4 6 3 4 3 4 6 4 5 2 3 2 2 2 2 3 3 3 3 3 2 2 2 2 2 2 1 1 2 2 2 4 5 5 5 5 4 4 4 3 3 3 3 3 3 3 3 3 3 5 7 8 6 5 4 4 4 4 4 4 3 2 3 4 6 7 7 6 5 5 4 3 0 
0 4 8 8 9 7 8 5 6 4 4 4 4 4 4 5 5 6 6 6 8 8 8 8 7 7 8 9 8 10 8 6 7 8 9 8 10 7 8 5 7 7 8 7 10 11 10 7 7 6 7 9 10 10 9 11 9 12 12 10 9 7 7 7 10 8 9 6 8 7 6 6 7 6 6 6 6 9 8 10 9 9 8 6 4 4 5 5 6 5 7 8 8 7 8 10 12 10 10 7 6 8 7 8 6 4 5 4 4 5 5 8 8 9 8 8 13 11 15 9 9 7 6 5 4 7 6 8 5 4 4 4 6 6 5 5 6 8 9 7 7 6 5 3 3 4 4 5 5 6 7 7 5 5 6 6 5 5 5 6 5 7 5 6 7 6 7 5 5 5 4 4 5 6 6 6 7 6 8 7 8 7 6 6 5 6 4 6 5 7 7 7 8 5 6 5 6 6 7 8 8 12 8 8 5 6 4 6 8 8 6 7 6 5 5 4 4 5 5 7 7 9 8 8 7 6 5 5 5 5 4 5 6 9 9 8 6 5 4 6 7 8 15 27 48 74 102 130 154 172 181 181 174 162 148 128 107 86 67 50 36 24 17 12 10 11 11 9 9 8 11 12 12 12 12 12 13 12 12 10 10 9 8 7 6 7 8 9 10 8 7 7 8 9 9 9 10 11 12 15 12 11 9 12 17 24 34 47 64 83 104 128 149 163 171 173 170 157 136 108 78 51 27 16 10 9 8 5 7 11 10 13 8 9 7 6 7 5 7 8 9 8 9 6 7 8 6 6 5 7 6 8 6 6 4 4 3 4 5 5 5 5 5 4 5 5 7 6 6 7 9 9 10 8 9 7 6 5 4 4 4 6 5 8 7 9 9 9 7 10 10 11 11 9 8 5 5 5 6 8 9 8 7 6 5 5 8 7 10 8 9 7 8 9 9 10 9 9 7 5 4 5 4 5 6 6 5 5 5 7 7 7 6 5 5 5 5 5 5 4 5 3 5 4 6 7 5 4 3 3 3 2 2 2 2 2 3 4 4 3 3 3 3 3 1 1 1 2 3 4 5 6 6 5 5 4 4 4 3 3 3 3 3 3 3 3 2 3 5 4 5 4 4 4 4 3 3 4 4 4 4 5 5 6 6 7 6 6 5 6 4 0 
0 3 7 5 9 6 9 6 8 5 4 4 4 6 7 8 7 6 7 5 6 8 10 12 12 11 10 10 9 8 6 5 6 7 8 8 7 6 7 6 6 6 8 8 10 9 11 12 11 9 8 7 7 8 9 11 11 11 9 7 6 5 7 9 10 8 7 7 7 7 7 6 8 7 6 5 5 6 5 7 9 11 9 6 4 6 7 7 6 7 7 7 6 5 7 9 13 10 11 5 6 7 6 7 5 5 4 5 6 6 7 8 12 9 12 10 12 12 12 10 9 6 5 4 4 7 8 9 8 6 5 4 5 5 4 4 5 5 6 5 4 3 3 3 3 4 5 6 7 9 7 8 7 7 6 6 6 6 4 4 4 5 5 5 5 5 5 4 4 4 4 3 3 3 5 5 8 6 8 10 13 9 6 4 3 5 5 8 7 8 7 5 5 5 5 5 6 8 7 7 6 7 5 6 5 7 7 8 8 9 8 6 7 6 7 5 4 5 7 10 9 10 9 8 8 6 6 5 5 4 4 4 6 8 9 8 8 8 8 12 22 39 63 92 122 145 163 176 182 175 157 134 112 91 73 54 42 26 16 9 7 5 5 4 4 6 8 10 12 12 14 14 15 15 15 13 12 11 11 10 9 7 7 7 6 6 7 7 7 6 5 6 8 10 10 10 7 7 6 10 9 11 8 9 8 9 10 13 19 25 37 54 77 99 121 142 162 174 177 167 146 118 86 58 36 19 11 6 7 11 12 13 9 8 6 6 5 5 5 6 7 7 7 6 7 6 6 6 5 7 6 10 7 10 6 6 5 5 6 5 5 6 5 5 6 7 7 6 7 8 13 10 11 6 9 8 9 6 4 3 3 7 6 10 8 9 7 7 8 10 9 9 8 8 7 6 7 7 8 9 10 10 9 8 8 6 8 8 10 8 8 6 10 9 12 11 11 9 7 5 4 4 3 6 8 7 6 4 5 6 6 5 5 4 5 5 5 4 3 5 5 4 4 4 5 6 6 5 4 4 3 3 3 2 2 2 3 3 4 3 3 4 3 3 2 2 3 2 3 6 8 11 9 7 5 4 5 5 4 4 4 3 3 2 2 2 2 2 5 5 7 4 5 4 5 4 3 6 5 7 5 5 6 8 8 7 5 4 4 5 3 0 
0 4 7 4 7 6 9 7 7 6 4 4 6 7 9 7 7 6 6 4 6 6 6 8 7 7 8 8 8 6 5 5 5 7 6 6 5 6 6 6 7 9 8 9 11 13 13 10 8 8 10 12 10 8 9 9 11 11 10 10 9 8 8 7 7 6 5 6 6 6 4 6 8 9 7 6 5 7 8 10 9 10 8 7 6 8 7 8 6 6 8 8 8 6 5 6 9 9 10 7 8 5 5 5 5 5 5 5 4 6 10 9 15 9 11 10 10 14 11 10 8 6 5 4 4 7 8 10 7 7 5 5 6 5 5 3 4 4 4 4 2 3 3 3 5 5 7 7 6 9 6 8 5 5 5 7 7 7 6 4 4 4 6 4 4 3 3 3 3 4 3 2 2 2 5 5 6 6 8 9 9 7 5 3 3 5 6 8 7 6 6 5 5 4 5 6 6 7 7 6 6 6 6 5 5 6 6 8 8 7 7 5 5 4 6 5 5 5 5 9 8 12 8 9 7 6 6 5 6 5 4 4 6 8 12 16 19 24 34 54 81 112 142 166 179 178 171 159 141 118 89 61 38 22 17 12 11 9 10 9 10 9 10 9 10 11 12 14 15 16 16 15 15 14 12 11 9 8 9 7 6 4 5 6 6 5 5 6 7 6 7 7 9 11 9 9 7 7 7 11 8 11 8 11 8 8 7 6 6 6 9 13 26 39 57 78 106 134 159 176 181 175 156 126 94 62 38 21 12 13 11 12 9 7 7 6 6 5 5 5 6 5 5 4 4 4 4 5 4 8 6 8 7 8 6 6 5 5 6 6 7 7 8 7 6 7 8 8 7 7 9 8 11 6 10 7 7 6 5 5 4 7 5 9 6 8 8 7 8 9 9 8 7 8 8 9 8 8 8 10 10 10 9 7 7 8 8 8 8 8 6 5 8 8 12 10 10 10 8 6 6 5 5 6 7 6 6 5 6 6 8 9 8 5 5 5 4 4 3 4 4 3 4 4 5 5 4 4 4 5 4 3 2 2 2 2 2 3 4 3 3 3 3 3 2 2 2 3 5 6 6 6 5 5 4 4 4 5 6 5 6 4 4 4 3 3 2 4 5 6 6 4 5 4 6 4 4 6 6 7 6 7 7 8 7 6 5 4 4 5 3 0 
0 4 6 5 7 7 9 6 7 7 7 6 10 9 12 8 9 7 7 5 7 10 11 11 8 8 9 6 7 4 5 5 6 9 7 8 4 6 7 7 6 6 7 9 9 9 10 10 10 10 9 10 9 10 9 9 13 11 12 9 7 6 7 7 8 5 5 5 5 5 5 7 7 9 8 8 7 7 6 7 8 9 9 6 6 8 7 8 7 7 10 8 7 4 5 6 8 9 11 8 10 6 7 5 6 5 4 3 4 5 8 8 12 9 11 12 9 10 6 7 5 5 4 5 5 8 7 9 7 8 5 6 6 6 5 3 3 3 3 3 3 3 3 4 5 5 6 8 6 9 5 8 6 8 7 7 7 8 4 4 4 5 6 4 4 4 5 5 4 3 2 2 2 2 4 5 5 6 7 11 9 8 6 6 6 6 6 7 8 6 7 4 5 4 5 5 8 8 9 6 7 5 5 4 5 7 7 9 9 9 8 6 6 4 4 4 3 4 5 9 7 11 8 10 7 6 8 9 9 8 6 4 7 15 25 35 49 69 99 131 156 173 181 181 170 148 122 95 70 47 25 12 9 9 13 15 15 15 13 13 13 13 14 14 14 15 16 17 18 18 16 14 13 12 12 11 10 9 9 8 8 7 7 7 7 7 7 8 9 9 10 9 8 8 9 9 7 6 5 8 7 12 8 10 7 7 7 7 6 5 6 7 10 11 19 27 45 68 98 129 156 177 186 182 164 135 100 67 39 22 15 16 14 10 9 6 6 5 6 5 7 5 6 5 4 3 3 4 4 8 7 8 7 8 8 8 7 6 5 7 8 9 7 6 6 7 6 7 7 9 10 9 11 6 10 7 10 7 6 5 4 7 6 9 7 9 7 7 6 8 7 6 5 6 9 9 9 12 9 9 8 7 7 8 9 9 8 10 7 8 5 5 7 7 11 9 12 9 8 7 6 5 5 6 7 7 7 6 6 7 6 5 6 6 5 5 5 5 5 5 4 4 4 4 5 5 4 5 5 6 4 3 2 2 2 2 2 2 2 3 3 2 2 2 2 3 3 3 4 6 7 8 7 4 3 3 5 6 6 6 5 4 4 3 3 3 3 5 5 6 5 5 6 5 7 5 6 5 6 7 7 8 8 9 8 6 6 3 4 4 2 0 
0 5 6 6 8 9 10 8 9 8 10 7 11 9 11 7 7 8 7 8 8 10 10 10 6 5 7 6 9 6 7 7 6 7 6 7 4 8 7 7 7 7 8 9 10 11 10 8 7 10 12 16 14 12 11 11 11 11 14 11 12 10 10 7 6 5 5 5 6 5 5 6 6 9 8 10 10 10 10 9 8 8 8 8 8 9 9 8 6 6 8 7 8 5 5 4 7 7 9 8 9 8 8 9 10 9 7 5 6 7 9 10 10 10 9 10 9 9 6 6 6 7 5 6 5 7 7 7 6 7 6 7 7 6 6 4 3 3 2 3 3 3 4 4 6 7 6 7 5 8 6 9 7 7 6 7 6 7 4 4 3 4 4 3 3 3 4 5 5 4 2 2 3 3 3 4 5 7 7 9 8 8 8 8 9 7 7 5 7 6 8 5 6 5 6 6 8 8 9 9 7 7 7 5 4 5 4 7 7 8 6 5 4 3 2 3 3 4 5 7 6 10 7 9 7 7 8 7 8 7 7 11 22 38 58 84 113 140 163 178 181 174 158 136 107 78 52 33 21 13 9 7 7 7 10 12 13 14 15 16 17 18 17 17 17 17 18 19 19 17 15 13 12 12 11 11 10 9 9 10 10 9 9 8 8 8 8 8 9 10 11 12 11 10 9 9 9 9 8 12 11 13 9 8 5 5 4 4 5 6 6 6 7 7 8 8 13 22 38 62 89 120 151 176 188 187 168 139 103 69 44 28 18 11 8 8 8 6 6 5 7 5 7 5 3 3 2 4 4 7 7 7 5 7 8 9 8 7 8 11 9 9 7 5 5 5 8 9 9 9 11 9 11 8 11 6 10 6 8 7 5 7 5 7 6 9 7 8 7 8 8 8 5 6 8 9 12 11 9 10 7 8 7 10 11 14 10 10 7 9 6 6 8 8 11 8 10 7 8 7 6 7 6 5 6 7 8 8 8 6 7 7 7 6 6 6 6 7 6 6 5 4 4 4 4 4 3 4 4 5 4 3 2 1 1 1 2 2 2 2 2 2 2 1 2 2 3 4 4 4 4 3 3 3 4 3 4 5 6 8 6 5 4 3 3 3 4 5 5 5 4 5 4 4 5 5 8 7 8 6 5 6 6 7 7 5 5 3 4 3 2 0 
0 3 5 7 9 10 9 7 8 8 11 7 12 8 10 7 6 8 6 9 8 12 11 12 8 7 8 6 7 4 5 6 9 11 11 11 6 9 8 9 6 8 9 12 11 9 7 9 9 11 10 13 13 13 10 8 8 11 11 11 11 8 9 9 9 6 5 5 6 4 6 5 6 8 9 10 10 8 8 6 6 6 6 5 6 6 8 8 9 8 7 6 5 4 5 5 6 7 8 8 8 10 10 11 10 10 8 5 4 5 6 6 7 7 9 10 9 6 5 6 5 6 5 6 7 7 7 7 7 7 6 5 5 5 5 4 3 2 3 4 4 4 4 4 4 6 6 6 5 7 6 8 6 7 7 7 6 5 5 4 6 6 5 5 5 7 7 8 6 7 6 5 5 5 6 5 4 5 7 8 8 8 9 8 12 8 7 3 5 7 8 8 7 7 6 6 6 8 9 11 10 8 6 5 4 6 5 8 7 8 7 6 4 4 3 5 5 5 5 6 7 9 7 9 7 6 8 10 14 17 27 43 65 95 123 146 162 171 173 163 141 112 82 58 37 24 15 11 9 9 11 13 15 15 18 18 19 19 19 18 17 16 15 14 13 14 15 16 16 15 14 12 11 11 10 10 10 10 10 10 10 9 9 8 8 8 8 9 9 9 10 11 10 9 9 11 12 13 12 14 15 15 13 11 10 9 9 7 5 4 4 5 6 6 5 5 5 7 12 22 35 53 79 112 146 174 189 186 166 133 97 65 37 18 9 7 6 6 6 5 9 7 9 6 5 3 3 3 4 7 8 8 7 8 8 11 9 10 11 11 10 10 6 4 4 5 7 9 11 10 9 8 9 7 10 7 11 7 8 6 5 6 5 8 7 8 7 6 6 8 7 8 6 7 7 8 10 9 8 7 6 7 6 9 9 11 9 10 7 6 7 6 11 8 10 7 7 7 6 5 6 6 6 8 8 9 9 7 8 5 6 5 6 5 6 5 6 7 6 6 4 4 4 4 4 4 3 4 4 5 4 3 2 2 2 1 2 2 2 2 2 2 2 1 1 2 2 3 4 5 5 5 4 4 3 2 3 4 6 6 6 5 3 3 2 3 4 4 5 5 6 5 4 4 5 7 7 7 6 6 5 6 5 6 6 5 5 3 5 3 3 0 
0 5 7 8 8 10 9 9 12 11 13 9 11 7 8 6 7 10 10 10 8 11 9 10 7 6 6 6 6 6 6 6 8 9 9 9 7 10 8 9 8 10 9 14 10 13 11 13 11 13 12 12 10 9 7 6 4 7 8 10 10 9 10 9 8 8 6 5 5 5 6 7 7 7 7 8 8 7 8 7 6 6 6 6 9 8 10 8 8 7 6 4 3 5 6 9 8 8 7 6 6 7 10 14 15 13 10 9 7 6 5 6 6 6 8 8 8 8 6 7 6 8 8 7 8 6 6 5 5 6 6 6 6 5 4 4 4 4 4 4 5 4 3 4 4 6 6 5 5 7 8 9 9 10 8 8 7 7 6 5 5 5 4 5 5 6 5 7 7 6 6 5 5 5 6 7 8 7 7 6 8 7 10 11 15 10 8 3 4 7 7 10 8 8 6 5 5 6 8 8 7 6 5 6 5 6 6 7 7 7 6 5 3 4 4 6 6 5 6 5 5 7 6 8 6 7 7 13 29 50 77 106 135 158 167 168 161 145 121 92 62 37 23 16 14 11 8 9 11 13 15 16 17 17 18 18 21 21 19 17 14 13 10 10 9 10 11 13 13 13 12 11 9 8 8 8 9 9 9 9 9 7 7 6 6 6 6 6 5 6 8 9 10 10 10 12 14 14 13 13 14 13 12 10 10 10 11 10 9 7 5 4 5 7 8 7 5 4 6 9 12 14 24 44 74 108 142 170 184 178 156 125 87 53 28 15 9 6 5 4 8 8 10 6 5 3 4 3 4 7 8 8 6 7 7 10 13 13 13 13 12 10 7 6 6 6 8 9 9 10 9 7 8 8 10 10 11 7 8 5 6 4 4 5 6 7 7 7 6 9 6 9 6 7 7 8 9 9 8 7 6 8 9 13 13 13 10 8 7 6 8 6 11 9 11 8 6 4 4 3 5 5 6 8 8 10 10 7 8 6 6 7 7 6 5 5 6 6 7 6 5 4 4 4 5 4 3 3 4 5 4 3 2 1 1 2 2 2 2 3 3 3 3 2 1 2 2 2 3 4 4 4 3 3 3 3 3 4 5 6 5 4 3 2 2 3 4 4 5 4 5 5 4 5 5 8 9 10 8 7 5 6 5 7 5 6 5 4 4 5 3 0 
0 4 7 9 7 8 6 8 10 10 10 8 8 7 8 7 9 9 10 10 10 8 7 7 6 5 6 6 6 4 4 6 11 13 13 10 8 8 11 10 9 12 10 14 11 13 11 12 13 12 9 10 10 9 7 5 6 8 9 9 9 8 8 11 10 8 6 3 3 4 6 8 8 8 8 7 6 6 6 7 5 6 5 5 8 8 10 9 10 8 7 4 3 5 5 6 8 8 9 7 8 8 10 10 10 10 8 5 4 4 2 3 3 4 6 7 7 7 5 6 5 6 6 7 8 7 8 8 7 7 6 6 5 4 4 4 4 5 6 5 4 5 3 5 3 5 5 5 5 6 6 7 8 8 8 10 8 9 6 7 8 10 9 8 7 9 9 7 8 9 8 6 6 7 10 12 9 8 6 6 6 6 8 10 11 10 7 4 4 7 8 10 8 9 7 5 4 5 7 7 7 6 5 6 6 6 7 7 7 7 6 6 4 5 6 9 11 8 6 5 5 5 5 7 9 13 23 46 76 108 139 160 172 172 159 138 111 80 51 27 12 7 10 11 14 9 8 9 10 12 15 18 19 18 18 18 18 17 15 14 11 10 9 9 10 10 10 11 11 10 9 8 7 6 5 6 7 7 8 7 7 7 7 6 6 5 4 4 3 3 4 5 7 7 8 9 12 12 11 11 11 12 11 11 11 12 13 13 13 12 10 9 8 8 7 7 5 4 5 8 10 9 8 11 22 41 71 105 139 164 177 172 152 120 80 47 22 8 4 5 9 9 11 8 7 6 6 6 7 8 8 9 8 8 8 9 10 14 15 12 10 8 8 8 8 9 10 10 10 8 7 6 7 7 8 9 9 9 7 5 5 4 4 3 5 6 6 8 5 8 6 8 6 7 7 6 8 7 6 6 5 7 6 7 7 8 7 8 7 5 6 6 9 8 10 6 6 5 6 4 4 5 7 9 10 8 8 7 6 6 7 7 6 5 4 4 5 7 5 6 3 4 3 3 3 3 3 3 3 4 4 3 2 2 2 2 2 2 3 3 4 5 3 3 2 1 2 2 3 4 5 5 4 3 2 2 2 3 4 6 6 5 3 3 3 3 3 4 4 4 5 6 5 6 6 8 7 7 5 6 6 7 7 8 5 6 5 6 5 5 3 0 
0 5 8 9 7 6 5 7 10 13 10 9 9 7 7 6 9 10 13 9 9 8 7 5 5 4 6 5 6 6 6 7 10 9 9 8 9 9 11 10 10 9 9 10 10 10 11 11 10 10 9 8 8 7 6 5 6 6 8 8 9 8 8 7 8 7 6 3 3 5 6 9 8 7 6 6 6 7 5 8 7 9 8 7 10 9 11 10 10 7 5 3 4 5 7 7 9 8 10 7 7 6 9 11 13 10 7 5 6 6 6 6 5 5 5 7 8 10 9 10 7 7 6 7 7 7 7 5 4 6 7 8 7 5 5 2 4 5 7 6 4 4 3 5 5 6 5 5 4 4 6 6 9 8 12 11 9 9 6 8 6 7 6 6 7 7 7 9 7 6 5 4 3 5 8 9 9 8 5 5 4 5 7 9 13 10 7 5 4 6 7 9 9 8 5 4 3 3 3 2 3 4 4 5 6 5 5 6 7 7 5 5 4 4 6 6 7 7 8 6 4 4 6 11 25 44 71 105 139 162 171 164 152 131 101 71 43 23 11 6 5 5 9 9 13 9 10 12 12 12 13 13 15 14 14 14 14 12 11 10 9 9 9 11 12 12 11 11 10 9 9 8 8 7 5 5 6 6 7 6 8 7 8 7 6 6 6 5 3 4 5 6 6 5 6 7 8 7 6 7 7 9 8 9 8 9 11 13 16 17 16 14 12 12 11 10 8 8 9 11 12 12 9 7 8 12 20 41 70 105 142 171 184 177 149 110 70 36 15 7 6 7 8 7 5 7 7 8 8 10 11 10 7 5 6 9 11 14 14 13 12 8 8 10 11 14 11 11 8 10 9 7 7 8 10 11 10 9 8 7 5 4 5 5 6 9 9 9 7 8 8 9 8 6 7 6 8 8 8 8 7 8 10 10 9 9 7 7 7 7 6 5 6 7 7 5 6 5 6 5 6 4 7 6 10 7 8 6 8 7 7 6 7 4 4 4 4 6 5 5 2 3 4 5 5 4 3 3 4 5 5 4 3 3 3 3 2 2 3 4 4 5 4 4 2 2 2 2 3 4 3 3 3 3 3 3 3 4 5 5 5 4 4 4 4 4 4 5 5 4 5 6 6 8 6 7 6 7 6 7 8 10 9 9 5 7 5 6 5 6 3 0 
0 4 8 8 8 5 4 5 7 8 7 7 7 8 10 10 12 10 11 11 10 9 6 5 5 4 5 5 7 6 7 7 10 8 8 7 9 11 13 9 9 6 6 6 8 8 8 11 8 10 9 10 12 10 10 9 11 12 14 10 9 7 8 8 9 6 5 3 3 4 6 8 8 7 6 6 5 5 5 7 7 8 8 8 10 12 14 12 9 7 6 5 6 6 5 4 5 8 8 10 8 8 8 8 9 8 7 5 6 6 5 5 4 4 5 6 6 8 8 9 7 8 6 6 7 8 9 8 6 8 7 9 8 6 5 2 4 4 5 4 3 3 3 5 5 5 6 6 5 4 5 4 7 7 9 8 8 7 6 6 7 8 8 7 6 9 10 11 8 8 6 5 4 6 9 11 10 7 5 5 4 4 6 7 9 7 7 7 8 9 9 8 7 7 5 4 4 3 3 3 4 4 4 6 5 4 5 7 8 8 8 7 6 5 5 6 9 9 9 9 9 11 20 40 71 104 137 161 174 167 146 116 89 62 38 20 11 6 5 6 6 8 11 12 13 11 11 12 11 10 8 8 9 9 8 8 8 7 8 8 8 8 9 12 13 13 11 10 9 10 11 12 13 12 11 9 10 9 9 7 8 8 9 7 7 5 5 5 5 5 6 7 7 8 6 6 5 4 3 4 6 7 6 6 5 6 8 10 14 16 16 15 12 10 9 9 8 8 9 10 12 12 10 8 9 11 13 17 27 48 78 118 157 183 190 174 141 100 62 36 18 11 7 7 7 9 8 10 9 12 10 9 8 6 5 5 6 10 11 11 9 8 8 11 11 14 10 11 7 9 10 12 10 8 7 7 10 8 9 6 6 5 4 5 5 7 10 9 10 8 10 8 9 5 7 6 7 6 7 7 8 9 9 7 6 5 6 7 6 6 5 4 4 5 6 5 5 6 10 8 8 5 8 6 9 5 6 4 5 6 7 5 6 3 4 2 4 5 5 6 4 4 4 4 3 3 3 2 4 4 6 5 5 5 5 4 2 2 3 3 4 4 4 4 2 2 2 2 2 4 4 5 4 4 4 4 4 4 6 6 6 5 5 6 4 4 4 5 6 5 7 6 8 7 6 6 6 7 7 7 8 11 9 8 5 6 6 8 6 5 3 0 
0 4 8 7 8 5 5 6 7 7 6 6 6 7 7 9 9 8 8 7 7 7 5 6 4 6 5 6 6 6 7 7 9 7 8 9 10 12 12 9 8 4 4 3 5 6 7 9 7 10 9 12 11 10 10 8 10 8 8 8 9 8 8 6 6 4 3 2 3 4 6 5 8 6 8 6 6 5 6 7 9 12 11 11 10 11 10 11 11 8 6 5 5 7 8 7 7 9 7 10 6 7 9 11 12 10 6 7 7 10 9 7 6 4 5 6 7 8 8 9 8 7 5 5 7 8 10 10 7 9 8 11 10 8 6 3 3 4 5 4 3 3 3 5 5 6 6 5 5 3 4 3 5 6 8 9 8 8 9 8 7 4 4 4 5 7 8 13 8 8 4 5 4 6 7 7 6 5 5 5 5 4 4 6 9 9 7 7 8 9 8 8 6 6 5 4 4 4 3 3 3 5 6 6 6 7 7 9 12 11 10 8 8 5 4 4 6 9 13 13 19 36 65 103 138 161 172 167 149 120 84 52 30 16 9 5 5 5 7 8 9 12 13 13 12 10 10 11 9 7 6 7 8 7 6 6 5 7 9 9 9 9 10 11 12 11 9 9 10 11 13 15 17 17 17 14 15 14 13 10 8 6 7 6 6 5 6 5 5 5 6 6 6 6 6 7 5 5 4 5 7 8 7 6 5 4 6 6 9 11 12 12 11 9 8 8 8 9 10 11 13 11 10 8 7 9 11 11 13 17 28 52 89 131 167 188 187 169 132 92 55 29 13 6 5 7 9 8 8 11 10 10 6 5 4 4 5 9 9 10 10 8 9 10 9 12 9 9 9 11 10 8 6 8 9 9 10 7 9 7 7 5 8 10 11 12 12 10 11 8 11 8 9 6 6 6 7 9 8 8 9 10 9 8 6 4 4 6 7 6 4 2 3 5 5 5 5 5 10 8 8 4 7 5 8 4 4 4 4 5 5 4 5 3 4 3 3 4 4 5 4 3 3 3 3 3 3 3 5 4 5 5 6 6 6 4 3 2 3 3 3 4 4 4 2 2 1 1 2 2 3 4 5 6 5 5 4 5 5 5 5 5 5 6 6 6 6 7 8 6 6 5 7 6 7 7 6 9 7 10 9 11 9 7 6 6 6 7 7 5 3 0 
0 6 9 7 7 5 5 5 6 6 5 5 5 7 6 9 10 9 7 7 8 8 7 8 6 7 4 5 5 7 6 7 6 6 6 9 10 12 11 8 6 4 4 3 4 6 7 8 8 10 11 13 13 11 12 11 11 11 10 9 6 7 7 9 7 5 4 3 4 4 6 6 9 6 7 5 7 5 6 6 8 10 9 12 9 11 12 11 9 7 7 6 6 7 7 7 7 9 7 9 6 7 6 8 8 10 7 8 7 6 6 5 5 5 7 7 6 5 4 6 6 7 5 4 5 7 8 10 7 8 6 9 8 8 6 4 4 3 3 3 3 4 4 5 5 5 7 7 8 6 6 5 6 7 7 7 6 7 9 8 9 5 5 4 4 8 10 13 8 9 4 7 5 5 7 6 7 5 5 5 5 5 5 8 9 10 8 9 9 12 10 8 6 5 5 6 5 6 4 6 5 7 6 7 8 6 8 10 11 12 12 9 7 5 6 7 8 10 18 33 61 98 132 162 173 166 147 119 89 61 34 16 9 6 6 6 7 9 10 12 13 13 13 11 9 9 9 9 7 5 6 7 8 6 5 6 8 11 12 13 12 10 10 10 11 10 10 11 12 13 14 14 17 17 18 16 18 18 17 13 8 6 6 5 4 2 4 4 5 5 4 5 5 6 6 6 5 5 3 3 3 4 4 3 4 4 5 4 5 5 7 7 8 6 7 7 6 6 6 6 8 9 10 9 9 9 11 13 13 12 11 16 34 65 103 144 175 193 188 164 125 81 43 19 10 8 9 7 6 7 7 8 7 7 6 5 5 7 8 9 11 12 11 9 8 8 7 7 7 8 10 8 7 6 6 8 7 9 7 7 8 7 7 8 7 8 10 11 12 10 12 8 8 5 5 7 7 8 8 8 8 9 8 7 4 3 4 4 6 5 4 2 2 3 4 4 4 4 8 7 8 4 6 6 8 5 4 2 2 3 4 4 4 3 3 3 3 4 5 6 6 5 4 3 2 2 3 2 4 4 5 5 6 5 5 4 4 3 3 3 3 3 3 3 2 1 1 2 2 4 5 6 7 7 6 5 5 5 5 5 4 3 6 6 7 7 6 8 9 10 10 8 8 7 8 9 8 11 8 11 9 10 8 6 6 6 8 7 8 5 3 0 
0 5 8 6 5 4 5 7 7 6 5 4 4 5 6 9 8 8 8 8 7 6 6 7 6 6 4 4 4 6 5 7 5 8 6 9 9 10 9 9 8 6 4 4 4 5 6 6 6 7 8 10 11 10 8 6 6 6 7 8 7 6 6 6 5 4 2 3 3 4 5 7 7 7 8 5 5 4 5 6 9 12 10 10 8 8 8 9 9 8 7 6 6 6 8 11 10 9 7 6 5 7 8 12 8 9 7 7 9 9 8 4 4 5 6 6 5 4 3 5 5 7 6 5 6 7 7 9 6 6 6 9 10 9 6 4 5 4 5 4 3 4 4 4 6 5 7 6 7 6 6 6 7 6 6 7 9 12 13 11 10 6 4 3 3 6 7 9 9 8 5 7 5 7 7 5 6 5 6 6 5 7 7 8 9 11 8 9 9 11 11 8 6 5 5 6 6 7 7 7 8 8 9 8 11 10 11 11 12 13 10 7 7 5 6 8 11 23 49 87 124 156 171 173 152 120 87 58 36 22 10 4 5 5 7 9 9 12 14 16 15 12 10 8 6 6 7 7 6 4 6 7 8 8 7 8 10 12 14 14 13 10 9 8 8 8 9 11 11 10 10 9 11 11 14 13 16 18 19 16 10 6 5 5 5 3 3 4 5 4 3 3 5 6 6 7 4 6 4 5 5 7 7 7 5 4 4 3 3 4 5 6 6 5 5 5 5 6 7 8 7 10 11 11 10 9 9 10 11 12 11 11 12 20 39 71 109 149 179 191 179 146 103 60 29 12 7 6 5 5 7 7 7 7 7 7 6 6 6 8 8 10 10 8 7 5 6 7 9 8 6 3 2 4 5 8 6 10 8 10 9 9 10 11 12 11 11 9 9 9 11 9 8 7 8 10 12 11 8 6 5 6 6 5 3 3 3 4 5 4 3 2 2 2 3 4 4 4 6 5 7 5 7 7 9 6 5 3 2 2 2 2 3 2 2 2 2 4 4 5 4 4 3 2 1 2 3 3 3 3 3 4 4 4 5 4 4 4 3 3 2 2 3 3 2 2 2 2 3 4 5 8 9 9 7 4 3 3 4 4 5 4 4 5 6 7 7 9 8 7 7 7 9 8 8 9 8 9 8 9 8 8 6 6 7 6 8 6 7 5 3 0 
0 6 9 6 4 3 6 7 10 8 7 6 6 6 5 8 9 9 8 8 6 7 6 8 8 7 4 5 5 6 6 8 7 10 9 11 10 9 9 9 8 7 7 6 6 5 4 4 3 4 7 11 10 10 8 6 6 6 8 8 8 8 7 6 5 4 3 4 2 5 4 9 7 9 6 5 5 4 4 5 6 9 8 8 7 9 8 10 7 6 7 6 7 7 7 8 9 8 8 6 6 7 6 7 7 9 8 9 9 8 7 6 5 6 7 8 8 6 5 7 9 10 10 7 6 5 7 7 6 5 4 5 6 6 6 4 5 4 4 4 4 4 5 4 6 4 7 7 9 8 8 6 9 8 8 7 6 7 8 10 10 7 5 4 3 6 7 9 7 6 6 7 7 6 6 5 6 5 5 5 6 7 9 11 12 11 9 8 10 12 12 9 6 6 6 8 8 7 8 7 11 9 11 9 11 10 10 9 8 8 9 9 7 7 11 19 36 67 109 147 170 173 154 125 88 54 31 20 16 13 10 6 7 8 10 11 11 13 14 15 13 9 6 4 4 5 5 4 5 4 8 9 10 9 8 8 9 11 13 12 10 8 8 7 7 7 9 10 9 8 7 5 6 6 7 8 11 16 19 17 12 7 5 5 5 4 4 4 5 5 5 4 5 7 6 8 5 6 4 4 4 4 5 5 5 4 3 2 2 4 5 5 5 5 5 5 5 6 7 9 8 10 10 11 11 11 10 10 9 12 13 12 10 7 10 21 44 79 119 157 183 186 166 124 79 41 16 8 5 7 7 7 8 10 11 8 6 5 7 10 12 12 13 8 9 7 8 6 7 6 5 4 4 5 4 8 7 10 10 10 11 11 13 10 11 8 9 8 10 11 12 10 8 7 10 12 13 11 9 7 5 5 5 5 3 2 3 4 5 6 6 4 4 4 5 5 3 4 4 5 7 7 7 7 7 6 4 3 2 2 3 2 2 2 3 2 3 4 4 5 4 4 4 3 2 2 2 3 3 3 3 3 4 4 4 5 6 5 3 2 1 2 2 3 3 3 3 3 3 4 5 7 8 8 6 5 3 3 4 5 4 4 4 6 5 8 6 7 8 7 9 8 11 8 10 8 7 6 7 6 6 6 5 6 9 7 11 7 7 4 3 0 
0 4 7 5 5 4 5 6 7 7 7 6 6 6 7 8 10 13 13 12 7 5 5 7 7 6 4 5 7 10 8 10 8 11 8 9 8 9 8 10 10 8 7 7 7 6 4 3 3 5 5 8 9 9 7 5 5 6 8 10 9 8 7 4 3 3 3 4 3 7 5 9 6 7 4 4 3 3 3 6 7 8 7 6 5 7 8 10 10 8 7 6 6 7 9 9 9 6 5 5 6 7 8 7 8 8 9 11 10 13 9 8 5 5 5 5 5 5 6 7 8 9 11 9 9 5 6 6 6 5 4 6 8 7 7 5 6 6 6 4 4 4 6 7 9 7 8 6 6 5 6 5 7 6 5 6 7 10 9 9 8 7 4 4 4 6 5 7 7 7 8 7 8 6 6 6 7 7 6 4 6 7 10 10 10 10 9 9 9 13 11 11 6 6 6 6 8 7 9 8 10 9 10 10 11 12 10 10 10 9 8 7 9 15 30 55 92 131 162 174 162 131 94 59 32 16 12 13 16 14 10 8 9 10 11 11 10 11 14 14 13 8 5 5 6 5 5 3 4 5 8 11 12 11 9 7 6 8 9 9 8 6 7 7 7 7 7 7 6 4 4 3 4 3 4 4 8 14 18 18 13 7 6 5 6 5 4 4 7 6 7 5 5 8 7 8 6 6 6 5 5 5 7 6 6 5 4 3 3 5 5 6 5 7 8 7 7 9 10 12 12 10 11 8 9 11 11 11 9 11 12 11 11 7 6 5 10 21 49 88 134 171 190 179 147 101 57 26 12 10 8 10 9 9 8 6 5 5 6 6 8 8 10 8 10 7 6 6 5 5 5 4 4 5 5 8 8 13 12 10 11 10 10 9 11 10 10 6 7 8 10 9 8 11 13 17 16 12 9 5 4 5 5 6 4 3 3 5 6 6 6 7 6 6 5 6 5 5 4 6 7 9 8 9 8 8 7 6 4 3 2 3 3 2 3 3 3 4 5 6 6 5 4 3 2 3 4 4 3 3 4 4 5 5 6 6 7 6 4 3 1 2 3 4 4 4 3 3 3 3 5 7 10 10 6 4 4 5 5 6 6 5 3 5 4 6 6 7 6 3 6 7 12 7 8 4 6 4 5 5 4 4 6 7 10 10 12 10 8 6 4 0 
0 5 7 5 4 5 6 10 10 10 9 9 10 7 7 7 9 10 11 9 7 4 4 5 6 6 6 6 6 7 7 11 11 15 14 14 9 10 8 10 9 8 7 7 6 5 5 5 6 7 7 9 8 8 7 6 5 6 5 8 11 12 10 7 5 3 3 5 3 6 5 10 7 7 5 5 4 4 4 6 7 8 8 6 7 7 11 9 8 7 7 7 7 6 7 7 7 6 4 5 6 5 7 6 8 10 9 10 9 9 7 7 4 5 5 7 7 7 7 9 12 13 13 9 9 6 8 10 8 6 4 5 5 7 7 8 8 6 6 5 6 7 7 7 7 7 7 6 7 5 5 5 6 5 5 6 6 8 6 9 8 9 7 7 5 7 6 7 6 5 8 7 9 7 7 7 6 5 4 5 6 6 8 10 10 9 7 7 9 12 10 9 5 4 5 7 8 9 9 9 10 9 10 10 9 9 8 7 6 8 9 12 19 38 70 110 146 167 166 143 104 65 36 17 11 7 8 11 12 12 9 9 10 11 11 9 8 8 10 11 10 7 6 5 6 6 5 4 5 7 10 11 11 9 7 5 3 5 7 8 8 7 7 8 7 6 5 4 3 3 3 4 3 3 4 7 10 16 18 17 12 6 5 4 6 5 5 4 7 7 7 6 4 5 6 7 8 8 6 4 4 4 4 4 6 5 6 4 3 5 5 8 7 8 7 6 7 10 11 14 14 10 9 4 5 7 8 9 8 9 10 11 10 10 9 7 5 4 11 31 68 112 157 184 188 164 122 78 43 25 12 9 7 10 8 6 4 5 6 7 9 8 11 10 11 11 10 9 6 6 6 6 6 6 6 6 8 9 10 10 9 11 11 10 10 9 9 7 9 8 9 8 7 10 11 15 16 13 12 7 5 6 5 6 4 4 4 5 6 9 9 10 9 10 7 8 5 5 3 5 6 9 7 7 5 5 5 4 4 4 5 4 4 3 3 4 4 5 4 4 5 5 5 4 3 3 4 3 4 3 4 4 5 5 6 6 6 5 3 3 2 3 4 4 4 3 3 3 2 2 3 4 5 5 5 6 6 5 5 7 6 5 4 5 5 5 6 6 8 5 7 6 9 7 9 7 6 5 4 4 3 5 6 8 9 14 11 13 10 9 6 0 
0 3 6 6 6 6 6 6 7 7 8 7 8 6 8 6 10 12 15 10 8 6 7 9 9 6 6 5 8 8 8 9 9 9 8 8 7 9 7 10 9 8 7 7 7 7 6 6 8 9 9 10 9 9 8 9 8 7 7 7 9 8 9 7 5 5 4 5 4 6 6 8 7 7 6 5 5 4 4 5 7 9 9 7 8 7 9 11 10 11 8 7 7 6 6 6 6 6 4 4 4 5 7 6 8 8 8 9 10 10 9 8 6 6 5 4 5 5 5 7 7 9 12 11 9 6 6 8 8 7 5 6 7 9 8 10 9 10 8 6 6 7 9 12 12 11 8 6 6 4 4 3 4 3 3 5 5 9 5 9 7 9 8 8 7 7 5 7 8 7 9 7 9 8 7 6 6 6 5 5 4 5 7 7 8 6 6 5 8 8 10 7 8 5 5 6 7 9 10 8 9 7 8 9 10 9 7 7 9 13 17 31 54 89 126 155 164 152 121 78 42 20 12 9 10 7 7 9 11 10 10 9 9 9 7 5 6 6 9 13 13 10 6 5 6 7 6 4 5 8 10 10 9 7 6 4 2 4 7 9 9 7 7 8 7 5 4 3 3 4 5 7 8 9 10 12 14 17 17 15 10 5 5 3 6 4 5 4 4 6 6 5 4 3 5 6 7 6 5 4 3 3 5 4 6 6 7 6 5 6 6 8 8 10 11 7 7 11 13 16 16 11 8 4 4 6 7 7 9 10 10 9 10 12 10 9 5 3 4 9 24 52 91 136 175 192 179 142 96 55 26 12 8 7 6 6 6 7 7 6 6 7 9 10 11 11 11 9 9 8 7 8 6 7 8 8 12 13 12 10 7 8 7 7 8 9 11 9 10 7 9 7 8 11 13 15 16 14 13 9 6 7 5 7 5 5 6 7 7 9 10 10 8 7 5 6 5 5 4 5 6 7 7 7 7 8 8 7 5 5 5 5 5 5 4 5 4 4 4 5 5 5 5 4 4 5 6 5 4 4 5 7 6 6 5 5 5 4 3 2 3 5 5 5 4 3 2 3 3 3 3 4 7 7 5 4 5 8 10 10 7 6 3 5 5 6 7 7 7 4 5 5 7 7 6 7 6 6 5 5 4 5 6 10 8 13 11 14 13 11 8 0 
0 3 5 5 4 5 8 9 10 8 9 9 9 7 7 6 7 6 7 6 6 5 6 6 6 7 8 5 5 3 5 6 9 10 12 12 10 9 8 9 7 6 7 6 6 6 7 11 12 12 11 8 7 7 9 7 7 5 5 4 6 6 9 8 8 6 6 5 5 5 8 10 9 7 7 7 7 7 7 7 7 7 7 7 8 9 10 10 8 8 7 8 9 6 7 6 5 5 4 4 4 4 4 5 6 7 7 8 9 8 8 7 7 5 5 5 5 5 5 8 10 11 11 8 7 7 8 9 7 5 4 5 7 7 9 11 10 10 7 5 7 7 10 9 9 8 8 7 6 5 4 3 4 2 5 5 7 9 6 9 8 10 10 9 8 8 7 8 7 6 7 6 7 7 7 7 6 6 5 5 4 4 5 5 5 3 3 4 6 7 10 8 8 5 6 7 9 11 12 11 10 7 7 7 9 8 8 6 11 25 46 77 110 142 159 156 134 97 58 26 11 7 8 8 8 6 7 6 10 9 9 8 8 8 9 7 8 7 10 13 13 10 6 5 5 7 6 7 6 8 8 7 5 4 5 5 4 6 8 10 9 7 5 5 4 4 4 4 4 5 7 10 12 15 16 17 16 15 15 12 8 4 5 3 6 5 5 4 3 5 6 4 3 3 4 5 7 7 6 5 6 6 5 4 5 5 6 6 7 7 8 8 9 7 7 6 7 10 14 14 13 9 7 3 4 4 4 6 9 9 9 7 8 11 10 10 8 7 7 7 9 18 36 70 118 161 188 186 160 117 70 33 15 9 6 5 5 5 6 6 6 6 8 9 12 11 14 14 12 12 11 8 6 6 7 6 8 7 8 8 7 8 8 7 7 7 8 7 10 9 11 8 10 9 11 13 14 16 13 12 6 7 4 6 6 7 8 7 9 10 11 9 9 6 6 7 6 5 2 3 4 5 5 4 3 3 3 4 4 5 5 7 6 6 4 7 5 6 4 3 4 5 6 5 5 4 4 4 4 5 5 6 5 5 4 3 3 2 2 2 3 4 5 5 3 2 4 5 5 4 3 4 4 4 3 3 4 6 7 8 7 6 5 8 6 8 7 8 8 5 4 3 4 7 8 12 10 8 6 4 5 5 6 6 7 9 11 10 12 10 7 0 
0 3 5 6 6 6 6 5 7 8 7 6 5 5 6 6 8 7 6 5 5 6 8 8 8 7 6 5 4 3 3 5 5 7 8 9 10 11 9 8 9 6 8 6 8 7 6 11 13 15 11 11 11 8 11 9 9 5 4 4 4 5 6 6 8 7 9 7 8 7 10 9 10 7 7 7 7 6 4 5 6 6 5 6 7 9 10 9 11 11 10 9 11 8 10 6 7 6 5 5 6 6 6 6 6 6 6 8 8 10 10 8 6 4 4 4 4 4 5 6 7 8 9 9 8 7 5 6 6 7 7 5 8 6 10 8 11 9 8 6 7 6 8 9 11 9 7 5 5 4 4 3 4 3 6 6 7 8 5 6 6 7 8 10 7 8 7 8 9 7 6 6 7 7 7 6 6 6 5 5 4 3 4 4 4 3 3 4 5 7 9 9 10 7 7 6 7 7 8 8 8 6 7 6 9 9 12 15 32 62 100 134 156 160 144 114 77 41 19 7 6 4 5 5 7 6 7 5 8 10 9 8 7 6 7 6 7 10 14 16 15 11 5 4 5 7 7 7 8 8 8 7 6 6 7 8 8 9 10 11 9 6 3 2 3 3 5 6 6 8 11 13 15 17 18 18 16 13 12 10 7 4 3 3 4 5 4 4 3 5 5 4 4 4 4 5 4 4 5 5 5 5 6 5 5 5 6 6 6 6 8 8 9 8 7 5 5 7 10 11 11 7 5 3 4 4 4 6 7 7 7 5 6 9 9 11 10 9 8 7 5 5 10 24 56 95 140 173 187 172 134 84 43 20 10 8 7 6 7 6 6 6 8 9 11 12 13 12 14 13 10 8 7 6 9 11 12 12 10 8 5 5 6 6 8 7 11 9 12 10 9 8 9 9 11 12 11 16 12 11 6 6 5 6 7 7 10 9 12 11 14 9 8 5 6 7 7 6 4 3 4 5 4 3 3 4 5 5 4 4 4 7 6 8 5 7 5 8 7 5 5 4 5 5 6 5 5 3 4 5 6 7 7 5 4 2 2 1 1 2 5 6 6 5 4 3 4 5 5 4 3 3 4 4 3 4 6 9 10 9 7 6 6 8 6 10 8 8 7 4 4 4 5 6 7 10 8 8 7 7 8 8 8 6 7 7 8 9 10 8 5 0 
0 2 4 4 6 7 7 6 6 7 9 10 7 6 7 6 6 5 4 3 3 5 6 6 7 6 6 5 2 2 2 3 5 8 9 13 11 11 10 8 8 4 8 6 7 6 8 13 14 14 10 7 7 8 10 8 7 6 3 3 3 4 4 5 6 8 8 8 9 9 12 10 9 7 7 7 7 7 6 6 6 5 4 4 7 8 9 7 8 7 8 7 9 9 11 6 7 5 5 6 6 6 6 6 6 6 7 6 7 8 7 7 5 3 4 4 5 5 6 6 8 8 7 6 5 6 7 9 8 9 9 7 9 5 9 9 10 10 8 7 7 7 7 6 6 6 8 9 8 6 5 5 5 5 6 7 8 8 5 5 6 9 9 11 8 8 6 5 6 5 6 5 5 4 5 5 6 6 5 4 4 3 3 3 4 4 5 5 5 7 9 10 9 7 7 7 7 8 8 9 7 7 6 6 9 16 25 44 76 115 149 163 155 130 95 61 32 17 10 5 5 4 4 5 7 6 7 7 10 14 12 11 8 7 8 8 9 13 17 17 15 9 6 6 8 10 12 11 10 10 10 10 10 10 10 11 10 10 10 10 8 5 3 2 3 7 9 11 9 11 12 14 15 16 16 15 11 10 9 9 6 3 2 3 3 4 4 4 5 6 6 5 4 4 4 4 5 5 5 6 7 8 6 5 3 4 4 6 7 7 9 8 7 6 4 4 5 7 10 9 8 4 4 2 2 2 4 6 7 6 5 5 7 9 9 10 9 10 9 8 6 4 5 7 20 42 76 119 162 188 184 148 98 55 26 12 8 5 6 6 5 4 5 6 8 11 12 15 13 13 13 8 6 5 7 7 7 6 5 5 5 6 8 7 10 7 11 10 12 12 11 10 8 8 7 10 9 12 9 9 6 5 4 6 7 8 12 10 14 11 14 8 9 6 7 9 8 7 4 4 3 3 3 4 2 2 2 3 3 4 4 7 6 9 6 8 7 8 7 6 5 5 4 6 5 4 4 3 3 5 5 7 6 5 6 3 3 2 2 3 4 5 6 5 5 5 7 8 7 6 4 3 3 2 3 4 5 6 6 6 5 6 6 9 7 10 7 8 7 5 5 5 5 7 7 9 8 7 6 8 8 9 7 8 5 7 6 8 8 6 4 0 
0 4 7 6 7 6 5 4 5 6 8 8 7 6 6 7 8 6 4 4 3 5 5 5 6 6 5 4 3 2 3 4 5 7 7 9 9 10 9 7 6 4 5 6 7 8 9 10 14 11 10 8 8 8 8 9 7 7 4 4 4 4 4 5 5 7 7 8 9 11 10 9 7 6 7 6 5 4 3 5 6 6 5 4 7 7 8 7 10 9 7 7 8 10 10 7 8 6 8 9 8 9 7 8 8 6 7 5 7 6 5 5 3 2 4 5 5 5 6 6 6 6 6 6 6 6 6 8 7 10 10 8 7 4 7 9 11 11 9 9 10 7 6 4 5 7 7 7 7 7 5 4 5 6 6 7 7 7 5 5 5 6 9 9 8 7 6 5 6 6 7 7 6 5 6 6 6 5 5 5 4 3 3 2 4 4 6 5 5 8 7 8 7 6 7 6 5 6 4 6 6 8 6 9 18 39 65 98 131 155 161 142 107 71 41 23 12 9 5 6 6 6 6 6 8 7 8 10 13 16 15 12 9 8 6 7 11 13 16 14 13 8 8 9 13 16 16 15 14 13 13 14 14 13 11 10 9 9 8 7 6 4 2 2 3 8 10 13 10 13 12 13 10 12 12 13 10 10 9 8 5 2 2 2 2 2 3 3 6 6 5 5 4 5 6 5 5 6 7 6 7 6 6 6 5 4 4 4 5 5 6 7 6 5 4 4 4 5 7 7 6 4 2 2 2 2 3 5 6 5 4 5 6 8 8 9 8 8 8 8 6 4 5 7 9 16 29 60 105 153 185 186 158 113 69 32 14 7 7 5 5 4 5 6 8 11 9 12 10 10 7 5 5 6 9 11 11 8 7 6 7 7 9 6 9 7 10 9 11 11 10 8 7 8 9 9 9 10 10 8 6 6 5 6 7 7 12 9 14 10 12 8 8 8 8 10 9 8 5 5 3 5 4 5 4 4 3 3 3 3 3 7 7 9 6 6 5 8 9 8 5 4 3 4 5 5 4 3 3 5 5 6 5 5 5 3 3 2 4 5 6 6 5 5 5 6 7 7 6 5 4 3 3 3 4 5 7 8 7 6 4 5 5 7 5 6 5 6 6 7 7 6 5 5 6 6 5 4 6 8 11 13 8 11 5 8 5 6 6 6 3 0 
0 3 7 6 7 7 7 5 5 6 9 10 9 9 9 8 7 7 6 4 3 4 5 6 5 5 4 4 3 3 3 4 5 5 7 7 7 7 6 6 5 4 4 6 6 9 9 10 12 7 8 7 9 8 7 6 6 7 4 5 4 6 3 4 6 7 8 8 11 11 9 7 5 5 5 5 5 5 5 6 8 6 6 4 8 6 8 5 7 5 4 6 8 10 10 8 9 7 10 8 8 7 7 8 9 8 8 5 5 5 4 3 3 4 5 6 6 6 5 6 6 6 5 4 3 3 5 7 8 11 10 9 8 6 8 9 12 11 11 10 10 8 6 4 5 6 10 13 12 9 7 7 8 6 5 6 5 6 6 5 7 8 11 9 10 9 7 6 6 6 7 6 5 5 4 5 5 4 4 4 4 4 3 3 6 5 8 6 4 6 5 7 5 5 7 6 5 5 5 7 6 7 11 27 53 87 121 146 158 152 125 88 52 28 13 8 7 6 6 8 7 7 5 5 5 6 8 11 14 14 13 10 8 7 8 9 12 12 13 9 10 8 13 16 20 22 21 18 16 15 15 15 14 12 10 8 6 5 5 5 4 4 3 3 4 9 10 12 9 11 10 12 7 10 10 12 9 9 9 7 5 3 2 2 2 2 3 4 7 6 5 4 3 4 4 5 7 7 8 7 8 6 7 5 4 4 4 4 4 4 5 5 5 4 3 3 5 7 9 8 4 3 2 2 2 2 4 5 5 4 5 5 6 7 7 7 6 6 6 7 8 7 6 9 11 16 16 23 47 91 139 176 188 169 125 75 36 14 10 6 5 4 4 5 5 8 8 10 9 11 9 7 6 6 9 8 9 7 7 6 7 7 8 6 7 6 7 7 9 9 9 9 8 7 8 7 9 9 8 9 7 6 5 5 8 7 11 9 12 8 8 6 5 5 5 6 6 8 6 7 4 6 5 7 4 3 2 3 3 4 4 6 8 8 6 5 4 6 5 5 5 4 4 4 4 5 4 4 3 4 4 6 6 7 7 6 6 5 5 5 4 4 4 5 5 6 6 6 7 7 7 6 5 4 5 4 5 6 8 8 6 5 6 6 5 6 5 5 5 6 6 6 6 6 5 4 3 3 5 6 7 10 8 12 6 7 3 4 4 6 3 0 
0 5 7 7 7 8 7 6 5 6 9 11 11 10 10 10 8 7 7 6 5 4 3 3 3 3 4 4 3 3 3 4 5 6 6 5 5 5 4 6 5 5 5 7 7 9 8 8 9 7 9 9 9 8 5 5 5 6 4 6 4 8 4 6 8 8 10 8 11 10 10 6 4 4 4 5 5 6 6 6 8 6 8 7 9 7 9 7 10 8 7 8 9 11 9 7 8 8 10 8 9 6 6 6 8 8 8 8 6 5 5 4 5 5 7 7 6 7 6 7 5 4 3 2 3 3 4 5 6 8 9 9 10 7 9 9 11 10 10 9 10 9 7 6 6 7 7 7 7 7 6 5 6 5 5 4 5 6 6 5 7 7 8 8 8 9 9 8 8 5 8 7 6 7 5 6 5 4 5 5 5 5 4 4 5 4 5 4 5 7 5 6 3 3 5 5 5 4 4 6 9 16 35 66 105 138 155 153 136 105 67 37 16 10 9 8 8 5 6 7 7 7 6 7 7 7 9 13 16 16 14 11 10 7 9 11 14 12 11 8 10 12 18 22 24 23 20 16 15 13 13 11 10 8 7 6 5 4 4 3 4 5 5 6 8 11 11 12 10 11 10 11 9 12 11 11 9 7 9 7 6 4 4 3 3 3 4 5 6 6 4 4 3 4 5 5 7 8 9 8 8 7 7 6 6 4 3 3 3 3 3 4 4 4 4 3 5 7 8 9 5 4 2 2 2 3 4 5 6 4 5 5 5 6 6 6 5 5 4 6 8 10 11 11 10 12 14 16 20 40 77 124 166 188 175 134 83 42 19 7 4 5 6 6 6 5 7 9 8 8 7 7 7 6 10 9 10 8 9 8 9 8 8 6 6 6 5 4 6 9 11 8 7 6 10 9 10 9 9 10 6 6 5 5 7 6 9 9 10 7 6 7 8 8 7 8 8 8 8 7 5 7 6 8 5 4 3 3 3 3 4 6 8 7 7 6 4 5 4 5 4 4 3 5 4 7 4 4 2 4 4 6 5 7 7 6 5 5 5 4 4 3 4 5 5 4 4 4 4 4 5 6 7 7 6 5 5 7 8 7 8 7 9 7 6 6 4 6 5 6 7 6 6 7 7 7 4 3 4 7 10 13 11 11 8 7 5 5 5 6 3 0 
0 3 4 7 7 9 8 8 7 9 10 10 10 13 11 11 7 7 7 6 4 4 3 3 3 4 3 3 3 3 4 5 6 6 8 8 7 8 7 7 7 6 7 6 7 6 6 6 7 7 8 10 10 8 5 5 6 7 6 8 6 11 7 9 7 8 10 9 11 9 9 6 4 3 4 5 5 7 7 6 6 7 8 7 8 7 8 8 9 9 8 10 11 11 10 8 8 8 9 7 5 5 5 7 9 12 12 10 9 6 6 4 6 6 10 9 7 7 6 7 6 5 3 4 3 3 4 4 6 6 8 7 10 8 11 8 9 8 8 9 12 11 11 8 6 6 7 9 10 8 7 9 9 8 6 6 6 5 6 5 6 7 6 8 8 9 10 7 9 6 7 5 6 7 6 6 5 4 5 4 5 6 6 6 5 4 4 4 4 5 5 5 5 5 5 5 4 3 6 12 22 43 78 119 151 158 145 115 82 48 23 12 7 8 7 6 7 6 6 7 7 6 4 4 4 4 7 10 12 10 8 7 7 7 11 14 15 12 11 12 15 19 22 24 22 18 14 12 12 10 8 6 5 4 5 6 7 7 6 6 6 8 9 10 10 12 12 12 11 12 13 13 11 12 11 9 9 8 9 8 7 4 4 3 4 5 6 7 7 6 4 2 2 2 3 6 7 9 8 7 7 6 6 6 5 4 5 4 4 3 3 4 5 5 5 3 5 7 7 7 4 3 2 2 2 4 4 4 4 4 5 5 5 5 5 6 5 5 4 6 9 13 13 13 14 14 13 11 11 16 32 64 110 156 183 176 138 88 45 18 7 6 6 5 4 5 5 9 9 12 10 9 9 8 11 9 12 10 11 8 9 6 6 4 6 6 6 5 5 5 6 6 7 5 8 7 9 7 7 8 5 6 4 5 7 6 9 9 9 9 7 8 7 7 6 6 8 9 12 10 9 9 8 8 5 3 3 3 3 3 4 5 6 6 5 6 4 4 3 4 3 5 3 5 4 6 5 5 3 5 5 7 6 8 9 9 8 6 5 4 3 2 4 5 6 4 3 2 3 4 7 8 9 8 6 5 5 8 9 10 9 8 10 6 6 6 5 6 4 6 7 8 9 8 7 6 3 3 3 5 7 10 11 12 11 9 7 4 4 5 3 0 
0 3 3 6 7 11 10 9 9 10 10 11 10 13 10 10 8 9 8 9 7 7 5 4 4 4 4 4 3 4 5 5 7 7 8 8 8 7 6 6 8 6 10 7 10 8 7 6 6 7 9 8 8 8 7 7 9 8 7 8 6 10 7 8 7 7 7 7 8 9 10 7 6 4 4 6 8 10 8 7 6 8 10 9 8 7 6 11 9 12 10 10 9 7 6 5 7 6 6 7 5 5 3 5 7 11 13 11 10 6 8 5 7 8 9 7 7 7 8 7 6 4 4 5 6 8 8 7 6 6 7 7 10 8 10 8 8 9 8 9 12 14 13 10 9 9 7 6 6 6 7 6 8 8 8 8 7 7 7 5 6 6 5 7 7 9 8 7 7 5 5 5 6 6 6 5 4 4 4 4 4 6 6 6 5 5 5 6 7 9 8 6 6 6 7 7 8 11 21 37 60 95 133 159 160 134 96 57 31 13 7 7 8 10 8 10 9 8 7 6 6 6 7 7 7 6 7 9 11 11 12 11 11 11 13 15 15 12 12 14 17 19 20 19 16 11 9 9 9 8 6 4 2 3 4 6 7 7 6 7 9 11 11 12 13 14 13 13 13 14 14 12 12 10 9 6 6 5 7 7 6 4 4 4 6 7 8 8 8 5 5 3 3 3 3 5 5 7 6 5 6 5 6 5 6 6 7 8 7 6 4 5 5 6 7 5 6 7 7 7 4 4 4 4 4 5 5 4 3 3 4 4 4 5 4 5 4 4 5 6 9 13 14 12 9 7 9 10 9 9 11 22 51 96 147 181 179 144 92 46 18 8 6 5 3 6 6 12 8 11 8 10 8 9 9 9 9 8 9 8 9 7 8 6 9 8 6 4 4 7 9 7 5 5 7 7 8 6 6 6 5 7 6 6 7 8 10 10 10 11 9 10 10 10 10 9 9 10 10 8 7 6 7 7 6 5 4 4 5 6 8 6 4 5 5 7 5 6 5 5 3 4 3 4 6 5 5 3 4 5 6 6 6 8 8 9 8 7 6 6 7 6 6 6 8 6 5 2 3 4 6 7 7 6 6 7 9 13 11 11 10 9 11 7 7 5 6 5 4 5 6 7 7 8 8 8 4 4 3 6 9 12 12 12 12 10 10 8 8 7 3 0 
0 1 2 3 5 7 7 8 7 9 9 10 11 12 14 13 7 8 6 11 7 7 5 5 5 5 4 4 3 4 6 7 6 8 8 10 9 10 7 6 6 6 9 8 9 8 7 7 8 10 9 9 7 6 6 8 11 11 10 9 7 10 8 7 5 4 4 5 5 6 8 6 7 6 6 9 8 9 7 7 5 7 8 7 7 6 7 9 7 9 7 8 6 6 5 5 6 6 6 5 4 4 6 7 10 12 14 14 13 8 10 6 9 7 9 8 8 7 8 8 6 4 5 5 6 8 8 10 9 9 7 6 8 7 9 8 8 8 7 10 10 14 11 11 8 7 7 9 9 7 7 8 12 11 12 11 11 10 8 6 5 3 3 6 5 7 5 6 7 7 7 4 4 5 6 5 4 3 3 3 3 5 6 6 6 6 8 8 8 8 8 7 7 6 8 8 13 26 48 76 110 142 162 158 126 84 45 20 8 4 5 6 6 7 7 10 11 9 7 5 7 7 7 5 5 5 6 8 10 10 11 11 11 12 14 15 14 12 13 15 17 18 16 13 9 6 5 6 6 6 4 2 2 3 4 6 7 9 11 12 13 12 10 10 10 11 11 11 11 13 12 11 11 8 6 5 4 6 6 6 5 5 7 6 6 7 8 9 9 6 5 4 4 3 4 5 5 6 7 5 5 4 4 4 6 6 10 11 9 7 4 7 8 8 8 8 9 7 6 6 6 6 5 5 5 6 6 5 5 5 5 4 4 5 4 5 4 4 5 5 8 11 13 14 13 11 8 9 7 8 8 7 17 43 88 140 176 179 148 96 49 21 9 5 4 7 6 13 7 12 6 8 6 8 8 10 9 8 8 7 9 8 7 5 7 5 5 4 5 5 6 5 4 4 4 7 8 9 9 7 8 7 7 9 9 10 8 9 7 8 9 9 8 9 9 9 11 11 12 10 9 7 8 7 5 6 4 6 6 7 8 6 5 5 4 6 5 5 4 5 3 3 4 3 6 4 6 5 6 5 8 7 7 9 8 12 9 8 8 8 8 7 8 7 9 6 7 5 6 6 6 7 6 5 7 9 11 13 11 11 9 7 7 5 6 5 6 5 5 6 8 10 8 7 5 5 3 3 3 5 7 10 12 13 13 10 11 6 7 5 2 0 
0 2 3 2 4 7 7 8 6 7 8 8 10 14 13 11 9 11 8 12 8 8 6 6 6 8 7 7 6 6 6 6 6 8 7 9 6 6 4 4 6 7 9 8 9 10 8 7 5 6 6 6 5 5 6 9 10 12 9 8 5 7 8 8 6 4 4 3 5 6 9 7 7 7 6 10 8 11 7 6 5 6 8 6 6 4 5 6 6 5 4 5 4 4 6 8 9 8 8 6 7 6 6 6 8 12 13 11 10 7 10 7 11 7 9 5 6 8 9 9 7 6 5 5 8 11 11 13 9 9 7 5 5 5 6 7 10 12 9 10 7 11 8 11 8 11 10 9 9 10 9 10 9 10 12 12 12 11 9 7 6 4 4 6 5 6 4 4 5 5 5 4 4 6 7 7 7 5 4 3 3 4 5 6 8 11 13 12 13 9 9 6 8 13 18 25 38 61 90 121 146 154 145 113 73 41 17 10 6 6 7 7 8 8 9 11 12 8 7 5 8 8 9 8 8 8 9 10 11 12 12 12 12 13 14 14 13 12 14 15 15 13 10 8 5 3 4 5 6 5 4 3 3 3 3 5 6 8 10 13 14 12 9 8 9 10 8 7 8 9 9 8 8 5 4 3 3 5 5 6 7 7 7 6 6 7 9 9 8 7 6 5 6 6 6 4 5 6 7 6 5 3 3 3 5 7 11 12 10 8 6 7 8 9 10 7 7 6 6 4 5 5 5 5 6 6 7 7 7 5 5 5 4 4 4 5 4 4 5 5 7 7 9 11 12 11 9 8 7 7 6 6 6 13 38 80 133 172 181 151 100 52 22 9 6 10 7 13 7 11 5 6 6 6 8 8 8 6 7 7 7 6 6 5 7 6 6 4 5 6 6 6 5 5 6 8 8 9 9 9 9 7 9 8 10 13 11 10 8 9 8 8 9 11 13 10 12 9 10 7 7 6 7 7 6 7 5 9 9 13 12 10 6 5 5 4 4 5 5 4 4 3 4 4 7 5 6 4 5 5 7 6 7 8 7 10 9 11 12 11 12 9 7 7 9 7 7 6 6 7 5 5 3 4 9 11 14 14 13 13 9 7 7 5 5 5 5 5 5 6 6 7 6 5 4 4 3 3 3 5 6 8 8 9 10 8 11 7 8 5 3 0 
0 2 4 2 3 5 6 7 6 6 9 9 14 13 14 14 9 8 8 11 9 7 5 4 7 9 10 9 8 8 8 8 5 8 7 8 6 6 7 7 8 8 8 8 8 8 6 7 8 10 10 7 7 7 7 9 9 12 8 7 4 7 7 8 6 6 4 3 5 6 8 7 7 8 8 10 7 8 5 5 5 4 6 5 6 6 7 8 7 6 6 7 8 8 8 7 10 10 10 6 6 6 8 10 11 11 11 10 10 8 10 8 10 6 6 6 7 9 8 10 6 5 6 7 8 8 8 10 9 8 8 6 5 4 6 8 9 9 8 7 6 8 7 8 6 7 7 8 9 8 8 9 8 9 9 10 12 12 9 7 6 4 5 6 5 4 2 3 5 5 5 4 4 5 6 7 7 6 5 3 3 4 4 6 7 9 13 11 13 7 8 6 12 22 35 53 73 104 129 146 146 124 98 62 36 20 11 8 4 4 4 4 4 5 6 7 8 6 5 5 8 9 9 7 7 9 11 13 13 13 11 10 10 12 14 15 15 15 16 16 14 12 10 7 4 3 3 3 3 3 4 4 4 4 3 5 8 11 15 15 13 9 5 6 9 10 9 7 8 8 8 8 8 6 4 2 2 4 4 5 6 8 10 9 7 6 9 11 10 8 6 7 9 9 10 7 5 5 7 6 5 4 4 4 5 7 8 9 9 8 7 9 12 10 9 8 9 7 5 5 7 7 6 5 5 5 8 8 10 8 6 5 4 5 5 6 5 5 5 4 4 5 6 9 11 12 11 9 9 8 6 6 4 6 15 37 78 130 170 180 153 104 57 24 9 9 8 11 7 7 5 4 4 5 8 8 9 6 7 7 9 8 5 4 5 4 4 4 4 5 5 5 4 4 5 7 8 11 10 9 8 9 10 10 11 10 8 7 5 6 7 9 9 9 11 8 10 7 8 6 6 6 7 7 5 6 5 10 9 12 8 8 6 4 4 4 3 3 3 3 3 3 5 5 7 6 7 5 4 4 5 5 5 6 6 9 11 10 13 10 11 8 8 8 7 7 7 6 8 7 5 4 4 6 11 10 14 10 11 10 9 7 6 5 5 5 8 9 8 7 8 8 8 6 5 4 3 3 4 5 5 6 8 8 9 6 9 5 6 3 1 0 
0 3 5 4 6 7 8 9 7 6 10 9 17 12 15 11 9 8 8 8 7 5 3 3 6 9 13 13 11 10 9 10 6 9 6 7 4 6 7 9 9 10 8 6 6 8 7 8 7 8 7 7 7 8 8 9 7 7 5 5 4 6 7 10 7 7 4 4 5 6 7 6 7 7 7 7 5 6 7 5 4 3 4 4 4 4 5 6 7 8 9 8 8 8 9 10 11 10 8 8 7 8 12 10 11 10 10 8 8 6 7 7 8 7 6 6 8 10 9 10 7 8 8 7 8 9 10 8 9 7 8 6 5 5 5 6 8 8 8 6 7 6 7 7 6 7 7 8 10 11 10 9 6 6 8 9 9 9 7 6 6 5 6 6 5 4 3 4 5 4 4 3 5 8 10 10 10 8 7 5 3 3 3 4 6 7 12 10 11 7 9 9 23 40 65 91 113 139 145 136 110 74 47 21 15 12 11 10 7 7 6 5 5 6 7 8 6 5 4 5 7 9 9 7 8 10 12 12 12 11 9 8 11 14 17 18 18 18 18 17 14 12 9 7 4 3 2 3 3 3 3 4 4 5 5 8 12 14 14 12 9 6 5 9 12 12 9 5 7 8 9 9 8 7 6 3 3 4 4 5 7 9 10 9 8 8 10 12 12 9 7 8 10 10 9 7 6 6 7 7 6 5 6 6 6 7 6 7 6 7 8 9 10 9 9 6 6 6 5 5 5 5 4 3 3 3 6 7 10 8 6 4 4 5 5 6 6 7 6 5 4 3 3 6 9 9 10 9 9 8 6 6 6 9 10 16 34 74 123 167 180 157 111 61 26 12 10 9 11 6 6 4 5 6 9 7 11 7 8 7 6 5 4 4 4 4 4 3 3 4 4 4 4 5 5 6 6 6 5 7 8 8 8 7 9 9 10 8 6 7 7 9 11 11 11 8 8 5 5 4 3 5 5 7 5 6 6 10 11 14 10 10 7 5 4 2 2 3 4 4 3 3 5 5 7 6 7 5 4 3 3 3 3 3 5 6 11 11 14 10 11 8 7 10 7 8 6 5 5 4 4 5 5 5 11 9 11 6 8 10 10 9 9 6 7 6 8 8 8 7 6 6 6 5 5 4 5 4 4 4 4 4 5 4 7 4 7 5 6 4 2 0 
0 3 6 5 6 7 7 7 7 7 9 8 13 10 15 11 10 8 8 8 8 6 5 4 5 10 12 13 12 16 12 12 8 11 8 6 3 6 7 13 9 9 9 10 10 9 7 8 9 10 10 9 8 10 8 8 7 7 6 5 6 8 9 10 7 7 5 5 5 6 6 6 7 9 9 7 4 5 5 6 5 5 4 5 5 5 7 10 12 13 12 15 15 11 9 6 7 7 7 7 8 9 12 12 12 8 7 5 6 5 7 8 7 6 6 7 9 10 8 10 6 7 7 7 8 7 7 6 8 6 8 8 6 7 5 7 6 6 6 7 8 9 9 6 6 7 9 8 9 10 9 8 6 6 6 7 8 8 8 7 7 6 7 6 5 4 4 4 5 4 4 4 4 5 5 7 8 8 6 4 3 4 3 5 7 9 11 10 8 9 15 25 50 71 99 123 135 142 124 99 67 39 21 13 12 12 11 9 7 5 4 4 4 4 5 5 5 5 5 5 6 8 8 8 8 9 11 10 9 8 9 12 16 20 22 21 20 18 16 14 11 9 7 5 4 3 3 3 3 4 7 11 12 12 12 12 14 14 13 10 6 5 7 10 12 12 10 6 7 6 7 7 7 7 6 5 4 4 3 5 6 8 9 9 8 10 11 13 11 9 8 9 11 14 12 9 6 4 4 4 4 5 6 8 7 7 5 4 5 7 10 14 17 17 13 9 7 7 6 6 6 5 5 4 3 3 4 6 7 6 5 4 4 5 6 6 6 6 6 5 3 2 2 4 6 7 7 7 10 9 9 7 6 10 12 14 14 32 66 118 164 181 163 115 61 24 12 7 10 4 6 4 6 5 9 7 9 8 8 8 8 6 3 3 3 3 3 3 4 6 6 6 5 4 3 4 5 6 6 7 7 9 10 9 10 8 9 7 8 7 8 9 9 8 7 7 5 4 2 2 2 3 3 5 4 4 5 8 9 12 8 7 5 4 4 3 2 3 4 4 4 4 5 5 6 5 7 5 5 3 3 2 2 2 4 6 11 12 13 9 9 9 8 10 6 7 5 5 5 5 6 5 6 5 10 7 9 5 7 9 10 10 8 7 7 7 10 12 15 11 9 8 9 9 9 8 8 8 8 6 4 3 5 4 7 4 6 5 6 5 3 0 
0 4 6 6 5 6 6 6 5 4 6 7 11 11 12 10 9 9 7 7 8 7 6 4 6 9 11 13 11 11 10 12 8 9 7 7 7 9 7 10 9 11 9 10 9 12 10 10 9 8 10 7 8 8 7 8 7 7 6 6 6 6 6 6 6 6 5 6 5 5 5 5 6 7 7 7 6 7 5 6 5 6 7 7 7 7 8 9 9 11 12 12 11 9 8 6 5 5 6 8 8 11 11 12 8 7 6 5 5 4 4 6 6 7 7 9 9 11 7 10 7 6 8 7 7 6 6 6 9 11 12 11 6 7 5 6 6 7 7 9 10 10 9 7 6 6 8 9 9 8 9 8 7 6 8 10 10 10 8 7 8 6 7 7 5 4 5 5 6 4 4 3 3 5 6 8 7 7 5 4 3 3 3 7 9 11 11 12 9 15 32 57 88 110 126 135 127 112 81 55 30 18 12 10 7 8 12 11 10 7 6 6 6 5 5 5 5 6 6 6 6 7 8 9 9 9 10 9 9 10 13 18 23 25 25 22 18 15 12 9 7 5 4 3 3 3 3 3 4 6 9 13 16 16 15 14 14 14 12 11 9 11 11 13 13 10 8 4 5 5 7 7 7 7 7 8 7 7 5 5 6 7 9 10 8 9 10 12 11 9 9 10 9 9 8 8 7 5 4 4 4 4 5 7 7 8 6 5 5 7 9 11 12 12 11 9 5 6 6 6 5 4 3 3 3 4 5 7 7 6 4 3 4 5 6 7 7 7 7 5 4 3 3 4 7 7 6 5 9 11 11 9 7 10 12 15 11 13 27 63 114 161 184 165 115 60 25 10 11 6 6 4 6 5 8 6 8 8 8 7 5 4 3 3 4 3 3 3 4 6 6 5 4 5 5 5 4 4 5 7 8 11 9 8 8 8 10 8 11 8 9 9 9 10 8 8 6 6 4 3 3 3 4 6 6 5 5 7 8 9 7 8 7 5 5 4 4 4 4 6 5 5 5 4 5 5 7 5 5 3 2 1 1 2 3 5 8 9 11 9 10 10 9 9 8 8 5 4 4 5 5 5 6 5 9 8 8 5 5 7 9 10 9 8 8 9 11 12 11 9 10 8 9 8 7 8 10 8 7 5 4 3 6 5 8 4 6 5 5 6 3 0 
0 4 6 5 4 3 3 4 6 7 7 5 7 8 10 11 9 9 8 8 10 8 9 5 7 10 12 10 11 13 12 10 9 8 7 8 7 8 8 8 8 10 10 12 10 11 8 8 9 6 10 6 8 6 6 7 8 9 8 8 7 8 6 6 6 6 6 6 6 6 6 5 6 7 8 8 8 7 7 5 6 6 9 7 7 6 6 8 10 11 11 12 13 11 10 7 6 7 7 11 8 12 8 9 6 6 4 3 3 2 5 7 7 7 7 9 7 10 7 8 7 6 7 6 8 5 5 6 7 8 8 9 7 5 5 6 6 7 8 9 11 12 11 8 8 10 11 9 7 6 8 6 9 8 7 9 8 11 11 11 8 7 7 6 5 4 6 6 8 5 5 4 3 3 3 6 7 9 6 4 4 5 6 9 12 17 15 15 17 31 57 89 118 133 134 123 97 69 40 23 15 15 12 9 7 7 11 10 9 7 7 8 7 5 4 5 7 9 8 8 6 8 10 11 11 9 9 9 10 13 18 22 25 24 20 16 12 8 6 4 3 3 3 4 4 4 3 3 5 10 15 18 19 18 16 13 12 12 12 12 12 15 16 17 14 11 9 5 5 4 5 6 6 7 8 10 10 11 8 6 7 6 6 5 5 7 9 10 11 12 12 13 13 12 12 9 7 5 4 3 4 5 5 5 6 7 6 5 5 8 12 15 19 19 15 12 6 7 6 8 7 4 2 2 3 5 5 5 4 4 4 3 3 4 5 6 6 5 5 4 4 3 3 5 8 8 7 6 7 11 11 10 7 8 9 10 8 6 10 24 58 109 162 184 162 110 56 22 10 7 6 5 6 6 7 7 8 7 7 7 6 4 2 2 4 3 5 4 6 7 6 6 5 6 6 6 8 7 9 9 9 9 8 10 10 8 11 9 12 10 11 9 8 10 8 9 6 6 5 5 4 5 5 5 6 5 6 5 6 5 5 6 5 5 6 5 4 5 5 6 5 7 5 4 5 4 7 5 5 4 4 3 4 4 4 5 7 9 11 11 10 9 9 7 6 6 6 5 4 6 6 7 6 5 7 6 6 4 4 6 8 7 6 8 8 10 9 11 12 12 9 9 10 10 10 9 12 12 9 6 6 6 8 7 9 6 9 8 8 7 3 0 
0 3 5 3 3 3 4 5 5 5 5 3 6 7 9 8 7 7 6 6 9 8 7 5 6 7 8 7 7 7 9 8 9 7 8 9 11 9 8 7 8 9 10 8 8 8 8 7 9 7 8 7 8 9 9 9 8 8 7 7 5 4 4 4 5 6 6 7 8 8 6 5 4 4 8 7 10 8 6 3 7 6 11 8 9 8 7 8 6 8 9 11 11 9 7 7 7 8 8 9 7 8 6 6 5 4 4 4 5 4 6 6 9 8 8 8 7 9 8 9 8 8 8 7 8 8 10 9 10 12 11 8 6 5 5 6 7 7 8 9 10 12 10 9 8 7 7 7 5 4 5 5 6 7 8 13 11 12 8 7 8 7 9 8 8 6 9 7 10 5 8 6 7 7 6 7 7 7 6 5 4 5 6 10 11 12 14 21 35 56 90 118 134 133 113 88 59 35 18 13 13 12 12 7 9 8 13 11 10 9 8 8 7 6 4 5 8 9 10 9 6 9 11 15 15 14 13 11 12 14 20 24 25 21 14 9 6 3 3 2 3 4 3 3 3 2 2 4 10 16 20 20 18 15 13 10 11 12 13 15 15 18 19 19 15 12 10 7 6 6 7 9 7 9 7 10 10 12 10 8 7 6 7 6 5 5 7 9 9 10 11 10 9 7 7 8 9 6 5 4 4 5 4 5 5 5 5 6 6 7 9 9 9 10 9 9 6 7 6 7 6 5 5 5 6 7 7 8 5 4 3 2 3 3 5 6 6 5 5 5 4 4 5 5 8 8 8 7 5 10 10 10 8 7 8 9 6 6 5 8 23 57 112 163 182 157 103 51 20 9 6 7 6 6 5 5 6 8 8 6 5 4 4 3 5 3 5 3 5 5 5 5 4 5 7 6 7 5 7 7 10 9 9 8 7 7 8 6 10 8 8 9 8 10 8 9 9 10 8 8 6 7 6 9 10 10 11 7 6 4 4 5 5 5 5 6 6 5 4 5 5 6 5 4 5 5 6 5 5 4 5 6 7 7 6 5 5 7 8 9 10 9 8 8 8 8 7 8 8 9 6 6 5 6 8 7 7 5 5 6 7 8 9 11 9 13 11 11 9 8 7 8 7 7 6 7 8 8 8 7 6 7 8 9 10 7 8 9 9 8 4 0 
0 3 6 4 4 3 5 6 8 7 6 4 5 5 7 10 11 10 7 5 6 6 5 5 5 7 8 6 6 7 9 9 7 6 7 8 8 6 6 7 9 9 9 11 10 8 6 6 7 8 7 9 9 12 11 10 7 6 6 5 6 5 6 7 7 8 6 7 7 8 7 6 5 3 6 6 8 6 6 4 7 6 9 5 5 4 3 5 5 8 7 9 8 9 9 10 10 10 10 7 7 7 7 6 4 4 5 5 7 6 9 7 11 7 10 7 9 7 8 9 7 9 6 8 8 8 9 8 8 7 6 6 5 4 5 5 5 5 6 8 11 11 9 10 7 9 8 6 5 4 4 6 5 7 7 10 9 10 9 8 8 5 7 7 7 5 10 8 12 6 9 7 8 6 7 6 9 9 9 7 6 7 8 9 10 12 14 25 50 80 114 130 128 110 78 52 29 16 12 15 17 14 15 8 10 8 9 9 8 8 9 11 9 7 6 5 7 9 10 10 7 11 14 19 19 16 13 10 11 13 19 22 22 18 9 5 3 3 3 3 3 3 4 4 4 4 6 8 15 20 20 16 12 11 13 14 16 16 14 14 14 17 18 17 15 13 13 9 9 6 6 9 8 9 6 8 9 10 9 6 6 6 6 5 4 4 7 10 12 12 11 10 11 10 9 9 8 7 6 5 5 7 6 7 6 6 6 4 4 5 8 9 10 11 11 12 9 7 6 6 6 5 5 5 6 6 5 6 4 5 4 3 3 2 2 4 4 4 5 5 5 5 6 6 9 9 8 8 7 10 10 10 10 10 9 10 7 9 8 7 10 24 62 117 166 181 152 100 50 20 11 9 8 8 6 7 6 6 7 6 6 5 4 4 5 4 6 4 6 6 6 4 5 5 7 7 8 7 7 7 8 9 9 8 8 7 7 5 6 7 7 9 7 10 10 10 7 9 8 9 6 7 6 9 9 11 11 8 7 5 5 5 4 5 6 6 6 5 4 5 6 7 7 5 4 5 5 4 6 6 10 9 10 10 7 8 5 7 9 9 9 8 9 8 7 10 9 9 8 8 9 9 7 7 8 8 7 4 5 6 9 10 10 10 10 9 7 10 8 9 7 6 7 6 6 7 9 9 8 8 8 11 12 13 11 11 10 10 10 7 5 0 
0 3 5 4 6 5 9 7 10 7 7 4 6 7 8 8 9 8 6 4 3 4 4 4 4 3 3 3 4 5 6 8 10 11 10 9 7 7 5 7 6 8 8 9 9 8 8 7 7 7 7 8 10 12 13 11 7 5 5 5 6 7 6 7 8 9 7 8 8 8 9 6 6 5 6 7 7 5 4 3 6 6 7 6 6 5 4 4 3 5 7 9 9 8 7 9 10 10 9 8 6 6 6 8 7 7 7 7 10 9 11 8 11 7 11 7 10 8 9 8 6 9 5 7 7 9 11 11 10 9 7 5 5 6 6 6 7 7 7 8 9 10 8 9 7 8 6 5 6 6 6 6 4 5 8 12 11 10 7 7 7 6 10 9 9 6 9 8 10 8 10 8 12 9 10 7 8 8 9 7 7 9 10 10 8 7 14 37 73 109 133 131 109 75 45 24 12 12 14 17 18 14 14 9 9 8 8 8 7 8 7 7 7 7 7 6 6 9 10 10 10 11 15 20 22 20 15 10 12 11 17 20 21 20 10 6 3 4 4 4 4 3 4 4 6 7 7 11 17 21 19 14 10 11 15 17 18 17 13 11 11 12 13 14 14 12 13 10 10 8 7 9 10 9 7 7 7 7 7 6 8 8 7 5 4 4 5 8 8 8 8 7 7 7 5 7 6 7 5 5 6 7 5 6 6 7 6 4 4 4 4 4 4 5 6 8 9 7 6 5 5 7 8 9 9 8 6 6 5 6 6 4 4 2 3 3 4 4 5 5 5 5 5 6 7 6 6 7 6 8 9 11 13 15 16 16 12 11 11 8 7 10 28 67 122 170 181 151 100 51 27 11 12 9 8 6 6 6 6 6 6 8 6 5 4 5 6 6 7 7 8 7 6 5 7 8 9 7 7 8 8 8 7 6 5 3 3 3 3 5 6 7 6 7 8 9 13 14 12 10 7 8 7 9 9 11 10 8 6 5 6 4 5 4 7 7 8 5 5 5 6 6 5 5 5 5 4 4 6 7 9 10 9 10 7 7 5 8 8 8 8 6 7 10 9 10 11 12 15 11 8 7 7 9 11 11 11 6 6 7 10 12 14 10 10 8 9 10 8 9 6 5 5 4 6 5 6 6 9 7 7 8 10 13 12 9 9 9 10 6 4 0 
0 3 5 6 8 6 11 10 13 8 8 6 5 5 6 8 12 9 8 4 4 4 4 3 4 4 5 5 4 5 7 8 8 7 7 6 5 6 4 7 6 7 9 11 13 9 7 6 8 10 12 9 14 13 14 9 7 5 5 5 6 7 8 8 7 8 8 8 8 7 8 6 8 7 8 8 8 6 5 3 5 6 7 5 4 3 3 3 5 7 7 7 6 8 8 10 10 12 9 8 6 7 6 8 8 7 9 9 10 9 10 8 9 6 9 8 9 8 8 7 6 7 6 5 6 6 7 7 7 8 6 5 4 7 5 9 7 10 9 11 8 9 5 5 5 6 6 6 5 6 8 8 8 6 7 9 9 10 8 7 7 7 10 8 10 7 8 9 9 8 10 9 12 8 10 8 10 11 11 10 7 10 12 13 10 13 31 63 103 135 140 120 83 48 28 14 11 13 15 17 16 14 14 11 9 6 4 4 5 5 6 7 8 7 6 6 6 8 10 10 12 13 16 20 20 21 21 18 20 16 17 18 20 21 14 10 5 7 7 5 5 3 4 7 10 13 12 15 17 19 16 11 10 12 17 20 19 13 11 9 9 9 10 12 11 11 12 13 11 10 8 8 9 8 6 6 6 6 6 5 5 6 6 4 4 4 5 6 8 7 8 6 7 8 5 8 5 6 5 4 5 6 6 8 7 8 7 5 4 4 4 4 4 4 6 7 7 6 6 6 6 6 8 9 8 7 6 6 5 6 7 5 5 3 2 3 4 4 5 5 5 6 6 6 5 5 4 6 7 9 9 10 11 14 16 18 16 12 10 8 6 6 12 32 72 127 169 180 152 100 57 23 15 11 12 8 7 7 6 8 8 9 7 6 5 5 6 8 7 9 9 9 7 7 5 9 8 10 8 9 8 8 7 5 4 4 5 5 6 6 7 6 6 6 7 8 10 12 12 12 8 7 6 7 8 9 10 9 10 8 9 4 5 4 8 8 9 9 7 7 7 8 7 6 5 5 5 5 6 8 9 11 9 9 7 7 7 9 12 11 9 8 9 11 12 10 13 10 11 10 9 10 8 10 11 10 10 6 6 7 10 13 13 10 9 6 7 9 8 8 6 5 5 6 7 7 8 8 8 8 8 9 13 14 14 11 11 8 9 6 4 0 
0 3 6 6 9 8 12 11 12 8 7 6 7 8 7 6 8 6 8 4 5 4 4 4 5 5 4 4 5 5 5 7 9 8 8 6 5 6 4 5 5 6 8 9 11 11 11 10 9 8 10 8 12 9 12 7 7 5 5 5 6 6 6 6 6 8 8 9 8 8 8 6 7 9 11 10 11 6 6 3 5 5 7 4 5 3 4 3 6 8 9 9 8 9 9 11 7 9 9 11 9 6 6 7 7 8 8 8 8 8 9 7 6 5 6 7 8 8 6 6 5 5 6 4 5 6 8 9 9 8 8 7 6 8 6 11 11 15 12 14 9 8 5 5 5 6 7 6 6 7 9 7 8 7 8 9 10 10 9 9 9 7 11 8 9 7 8 8 8 8 11 10 15 12 15 11 11 11 9 9 9 12 12 12 15 29 60 97 130 144 125 89 51 26 16 14 14 14 15 14 12 8 9 8 8 6 5 5 4 4 4 5 6 6 5 5 6 7 11 12 13 13 14 17 18 20 21 23 26 24 20 17 20 23 18 13 7 7 7 6 6 5 7 14 18 22 18 20 20 19 17 11 11 13 17 18 20 12 10 7 7 6 6 9 11 15 12 15 11 10 6 6 7 7 7 7 7 7 6 7 8 8 7 5 4 3 3 3 5 5 7 6 5 5 4 7 6 6 5 5 6 6 5 5 7 8 8 7 5 4 4 5 5 4 4 4 5 6 6 6 7 8 9 10 10 9 6 6 8 7 9 6 6 4 4 4 4 4 4 4 4 5 4 5 4 4 4 5 5 6 8 9 11 14 15 16 14 12 10 7 5 7 9 16 33 75 125 167 178 148 99 50 21 11 11 9 8 7 7 8 8 8 7 6 5 5 7 8 7 9 8 11 9 9 6 9 8 11 10 12 9 7 4 4 3 3 4 5 9 8 10 6 5 4 5 9 12 16 13 12 7 6 6 5 6 6 8 7 8 6 7 4 6 5 9 10 10 11 7 8 6 7 7 7 6 6 6 6 6 8 9 9 10 8 7 5 9 11 13 10 7 6 7 9 10 8 10 11 13 10 6 7 8 9 10 11 10 8 5 7 9 12 14 13 10 7 6 6 7 6 6 4 6 6 7 7 6 7 6 7 6 7 10 10 11 9 8 8 9 7 4 0 
0 4 7 7 7 8 10 9 9 7 6 6 6 6 6 6 7 5 7 5 8 7 7 6 7 6 7 6 5 6 5 7 7 7 7 6 4 5 4 4 5 6 7 8 9 9 7 7 8 10 10 9 12 10 11 7 6 5 4 3 4 5 6 5 6 6 8 10 10 9 8 7 7 10 12 11 12 7 6 2 5 5 8 4 5 2 3 4 6 10 10 9 9 10 10 9 7 8 7 7 7 6 5 4 4 6 8 9 9 7 9 8 7 4 4 5 5 6 5 6 6 6 6 4 4 5 6 7 10 8 9 6 7 6 6 8 11 12 12 11 10 10 7 5 5 5 5 5 5 5 7 10 11 8 7 7 8 10 10 8 8 8 9 9 10 9 9 9 11 10 13 10 16 12 16 14 12 14 13 12 10 11 15 22 39 65 100 131 145 135 98 59 26 15 14 14 13 13 12 10 7 6 7 7 6 5 5 4 4 3 4 5 6 6 5 5 4 7 10 11 12 12 14 18 19 21 21 26 28 25 21 19 21 23 20 17 12 10 10 10 10 10 13 20 22 25 20 22 20 18 17 13 14 12 18 16 14 8 8 6 6 5 6 8 10 14 12 17 11 11 6 5 5 4 5 5 7 8 8 8 8 7 6 5 4 3 2 3 3 4 5 5 6 6 6 7 7 6 6 5 5 6 6 6 6 7 8 8 6 5 4 5 5 5 3 3 4 5 7 8 9 8 9 9 8 8 7 7 7 6 7 5 5 4 5 4 5 3 3 3 3 3 3 4 4 4 4 4 5 4 7 6 8 8 11 12 11 9 6 6 5 8 9 11 11 33 71 122 165 174 143 89 40 15 8 7 7 7 8 8 7 8 6 6 6 7 9 8 8 6 8 9 8 7 7 8 8 10 10 9 10 8 7 5 4 4 6 9 12 9 11 7 7 6 5 8 8 14 12 16 13 11 9 6 8 6 9 8 11 9 9 6 5 5 7 11 9 13 6 8 6 7 9 8 8 7 7 6 7 6 8 9 10 8 6 6 8 11 12 11 8 7 6 8 7 8 10 12 14 12 9 8 8 8 9 8 7 6 4 5 8 9 11 10 10 10 9 9 9 6 6 5 5 7 8 7 6 9 8 9 8 9 9 9 7 7 8 10 10 9 5 0 
0 6 8 10 6 8 7 8 7 5 4 6 5 7 5 5 5 4 5 4 6 5 6 6 8 7 7 6 4 5 4 6 6 6 5 5 4 3 3 4 5 5 7 8 10 11 11 10 7 7 6 7 7 8 7 5 4 4 4 3 4 4 5 5 7 7 8 7 9 9 8 8 7 8 10 12 13 9 7 3 5 5 6 5 5 4 4 5 7 11 11 9 8 9 10 9 8 6 7 8 9 8 6 6 5 6 6 7 9 9 11 7 6 5 5 6 7 6 5 5 5 8 6 7 6 6 8 8 8 6 8 6 8 6 8 8 10 10 10 12 9 10 8 7 6 5 6 5 5 6 7 8 8 10 7 9 8 8 8 9 8 8 6 7 7 8 9 9 10 8 13 9 15 12 15 12 11 11 10 10 9 10 16 38 76 112 137 144 132 101 61 32 16 16 15 12 10 10 10 8 5 4 4 5 5 6 7 6 5 3 4 5 7 7 6 7 5 9 10 11 12 11 15 18 18 17 16 19 21 23 24 23 22 22 22 22 21 19 17 15 13 12 15 20 23 26 21 21 19 21 18 13 13 11 14 13 13 10 8 7 7 6 6 6 7 11 12 16 10 9 5 4 4 4 4 5 6 7 6 6 6 7 7 6 4 3 2 3 3 4 5 6 6 6 6 6 6 6 6 6 8 8 7 6 6 7 9 8 7 4 4 5 6 4 3 3 5 6 6 7 10 10 11 9 9 10 7 8 10 8 6 5 4 6 8 7 6 3 3 2 2 3 3 3 3 4 5 5 7 6 8 7 8 7 7 6 7 8 8 9 7 10 10 13 8 14 31 71 125 167 174 137 79 32 9 4 6 6 5 6 5 6 7 8 8 8 10 7 7 5 6 7 10 8 9 8 8 8 8 8 10 7 6 5 5 7 6 8 12 10 12 8 9 8 6 10 9 14 10 13 10 10 8 7 6 7 9 7 10 8 8 6 5 6 6 10 8 11 4 6 5 8 11 9 9 7 7 5 6 6 8 8 8 7 6 7 9 12 10 8 6 7 6 7 6 7 7 8 9 8 8 7 10 7 10 8 9 6 6 7 7 9 10 11 10 9 8 8 7 5 5 6 7 9 5 5 6 7 8 10 10 12 10 9 6 8 6 8 7 8 4 0 
0 6 7 9 5 6 5 7 7 6 5 5 5 5 5 5 5 5 5 5 6 6 6 7 6 7 6 5 4 4 4 5 5 6 8 6 4 4 4 5 6 7 9 7 9 8 8 7 6 7 7 9 8 9 7 6 4 3 4 4 5 5 6 7 7 6 7 7 9 10 8 10 7 9 9 10 10 8 6 4 4 5 7 5 5 4 5 6 7 8 8 7 6 6 7 7 7 6 7 6 7 7 6 5 4 5 8 8 8 7 8 7 8 6 7 7 6 5 4 5 5 7 7 9 8 8 9 8 7 6 6 5 6 6 5 7 7 10 7 11 8 10 7 7 7 5 5 4 4 6 6 9 9 9 9 8 7 8 7 6 5 6 5 9 7 8 8 9 13 11 12 9 12 10 11 10 9 9 11 10 13 13 32 73 117 142 142 127 99 68 38 21 15 15 11 9 8 8 8 7 4 5 6 7 5 5 6 7 8 5 5 5 6 7 7 7 6 8 10 12 13 11 15 18 18 15 11 11 16 19 25 29 29 29 24 23 21 21 19 20 18 17 16 17 16 14 13 14 12 15 16 16 12 9 9 9 7 7 6 7 6 6 6 6 7 8 11 12 10 8 5 4 5 4 6 6 6 7 7 7 6 7 7 6 5 4 2 4 4 5 6 8 9 9 7 6 6 6 8 10 11 11 9 7 5 4 8 8 9 6 5 5 6 4 4 6 8 10 10 10 12 11 12 10 8 8 8 10 10 9 7 5 4 7 8 8 6 4 3 2 3 4 4 5 5 5 5 7 6 7 6 7 7 8 7 7 5 6 8 9 8 10 10 11 9 9 12 32 75 131 174 172 129 70 27 7 4 5 6 6 6 8 8 9 10 9 9 6 6 5 5 5 7 6 9 8 8 6 6 6 8 6 6 5 5 6 6 8 9 9 11 8 10 9 7 10 8 13 11 16 13 15 10 10 9 9 11 11 12 12 9 8 6 6 7 10 8 9 4 5 4 8 9 9 9 6 6 5 6 6 7 6 7 7 5 6 6 7 7 9 7 9 6 8 6 7 7 11 12 11 10 6 8 6 8 6 7 5 4 6 7 9 7 7 8 10 10 10 11 9 7 6 5 8 6 7 7 8 11 10 11 12 10 9 7 8 7 10 8 8 3 0 
0 4 7 8 6 6 6 6 6 7 6 5 5 4 3 4 5 5 5 4 4 4 4 6 6 7 6 6 5 4 4 4 4 4 4 4 4 4 6 6 7 7 10 8 13 9 10 7 6 6 7 7 7 7 6 6 5 5 6 7 8 7 8 8 9 10 7 5 5 6 6 9 7 9 9 9 11 9 8 5 6 5 5 7 9 10 9 8 7 9 7 7 5 5 6 7 8 7 8 8 8 7 7 6 8 7 6 5 7 7 8 5 7 6 9 7 9 6 5 4 5 7 7 8 8 8 8 7 6 5 5 6 6 6 6 8 6 10 8 12 9 9 8 8 8 7 7 5 5 7 7 7 9 8 10 11 9 8 6 7 7 6 5 7 7 7 7 7 9 8 9 7 8 9 9 7 8 8 10 8 12 18 56 105 141 147 119 91 65 47 25 19 15 13 9 7 7 7 7 6 5 6 6 7 6 6 6 7 8 7 7 6 6 6 6 6 7 7 10 11 11 10 13 15 16 13 9 7 9 14 22 29 30 27 24 25 23 23 18 19 17 17 16 16 17 17 16 16 16 23 20 16 10 7 5 5 4 6 5 6 5 7 8 6 6 8 10 10 11 8 8 6 6 4 5 6 7 8 7 7 6 6 7 7 6 4 4 3 4 5 8 9 9 9 6 6 6 8 11 13 14 15 13 12 11 10 11 11 10 8 6 6 7 6 7 9 13 14 15 13 14 14 14 13 10 9 7 8 9 8 6 5 6 9 10 10 7 5 4 3 4 6 5 5 4 5 5 7 7 11 7 7 7 8 7 6 4 5 7 8 10 10 11 10 8 7 6 12 36 84 142 177 167 118 61 25 8 7 6 6 6 9 8 12 9 9 6 5 5 5 5 5 7 7 9 7 9 8 7 6 7 6 6 5 7 8 7 8 10 12 12 9 8 7 6 8 7 10 8 10 8 11 8 8 10 10 14 13 12 13 8 9 7 7 7 7 8 7 4 4 5 9 9 9 9 9 9 8 7 7 7 7 8 7 6 7 8 9 6 7 6 10 6 9 6 7 7 7 7 5 5 5 6 6 6 5 5 6 5 8 6 9 7 8 7 7 7 8 7 7 6 7 7 9 6 7 7 8 9 10 11 10 9 10 8 10 8 8 7 6 3 0 
0 4 8 9 11 7 6 6 7 9 8 6 5 5 4 5 5 6 6 5 4 4 4 4 6 6 6 5 5 4 4 4 3 4 5 5 5 7 6 8 10 8 13 7 13 7 9 5 5 5 8 8 7 7 6 7 6 7 8 10 12 9 10 10 11 10 8 7 5 5 5 6 6 7 9 8 8 8 7 6 5 6 5 9 7 11 10 11 8 7 6 7 5 5 6 7 8 8 7 6 7 6 7 7 7 8 8 6 5 5 6 5 8 7 9 7 7 5 6 5 5 5 5 6 7 7 9 7 7 5 5 6 5 6 5 7 6 10 8 11 9 9 7 7 9 8 6 5 5 5 6 7 9 8 9 10 9 10 6 7 6 6 7 8 8 7 7 8 10 10 8 8 8 7 8 9 10 9 10 12 26 49 94 135 147 124 81 52 37 31 22 20 14 8 6 6 7 7 6 5 5 6 8 8 8 5 5 6 9 8 9 9 7 5 5 4 5 5 8 10 11 10 11 12 14 13 11 10 10 13 19 26 28 24 19 18 16 17 13 16 16 18 18 18 18 17 16 16 17 19 18 16 9 5 3 3 3 4 3 5 4 5 7 7 8 8 9 9 9 7 7 4 6 6 8 9 10 11 9 9 8 7 8 6 7 5 6 4 4 5 8 10 9 9 6 6 6 8 11 14 14 14 14 14 13 12 12 12 13 13 10 10 11 10 12 11 15 15 17 17 18 17 17 16 15 13 12 11 10 10 8 6 5 8 9 9 9 5 5 5 6 9 10 10 9 7 5 7 6 8 7 8 9 8 8 7 5 6 5 7 9 11 13 11 7 6 3 4 11 40 93 149 177 160 108 57 20 8 7 8 9 10 10 12 8 8 4 5 5 4 6 4 7 6 7 7 6 5 6 6 5 7 6 7 6 7 7 7 8 8 8 7 5 6 5 7 6 8 11 13 10 10 10 11 11 9 11 10 11 11 8 9 6 7 8 10 9 7 4 5 6 9 8 8 7 8 7 7 7 7 7 7 10 9 10 6 6 4 4 8 6 11 7 11 8 9 8 9 10 7 5 3 3 4 5 4 4 4 3 7 6 11 7 8 7 7 7 9 9 11 8 6 6 7 6 7 7 8 7 9 7 9 6 8 7 9 9 7 6 5 3 0 
0 6 11 12 10 8 5 4 6 7 7 8 6 6 5 4 4 5 5 5 4 4 5 4 8 7 9 6 6 5 5 4 3 4 5 6 5 8 6 9 9 8 12 8 12 7 8 6 8 7 8 7 6 5 6 6 6 8 10 10 14 10 12 10 10 13 8 7 3 2 3 3 5 7 8 11 10 10 8 8 5 7 4 9 8 15 11 11 8 9 8 8 7 7 6 9 9 9 9 7 7 6 7 8 9 7 6 6 6 7 5 5 6 5 7 6 7 5 4 4 5 5 4 3 4 4 7 6 6 4 5 6 7 6 5 6 5 8 7 9 8 9 8 10 8 8 7 4 4 5 6 8 7 8 9 12 10 11 9 12 10 9 7 8 8 8 7 8 7 8 6 7 6 6 8 8 12 12 12 20 46 87 130 150 133 90 48 24 22 24 21 16 11 6 8 7 8 8 6 7 5 5 6 6 7 8 8 6 6 6 8 9 9 6 5 3 5 4 6 9 8 7 8 11 16 15 15 12 10 10 15 22 25 22 17 14 14 16 15 18 18 20 22 23 23 23 21 19 20 18 17 12 7 7 6 5 4 4 4 5 4 4 6 5 7 8 9 10 10 9 9 6 6 6 9 11 11 11 11 10 10 7 7 5 7 5 7 4 6 6 8 9 8 7 5 6 7 9 11 14 15 15 16 17 17 16 14 14 13 16 18 18 18 16 18 14 15 13 15 14 14 13 14 14 15 16 17 18 18 18 16 12 8 9 10 10 9 6 6 5 7 10 11 10 9 7 7 5 6 7 8 8 10 9 8 6 4 5 4 5 7 9 11 10 7 6 3 4 4 15 49 101 153 175 151 101 50 19 11 11 12 9 11 9 8 6 3 4 5 4 6 4 6 5 6 6 7 7 6 7 8 10 7 9 7 9 8 8 8 8 8 8 5 5 4 4 4 6 7 7 7 10 11 12 11 8 9 9 10 9 9 10 10 10 10 8 8 7 6 7 8 9 8 6 7 9 9 8 7 7 9 10 14 9 11 6 7 5 3 7 5 10 6 8 6 8 9 9 8 5 4 2 3 4 5 5 5 5 4 7 7 9 8 7 6 6 5 7 6 7 7 7 7 6 7 7 9 7 7 8 8 9 7 8 7 7 8 8 9 8 4 0 
0 9 12 17 13 10 5 4 8 8 10 7 8 8 9 8 7 5 5 5 5 4 5 4 6 6 6 5 4 4 4 4 4 4 4 5 4 6 5 7 7 8 10 10 10 8 8 6 7 6 6 5 5 4 5 5 6 6 10 11 13 10 12 12 11 14 8 8 4 3 3 3 4 8 9 12 9 9 6 7 6 8 5 9 6 11 9 12 11 11 10 11 9 8 5 7 8 11 8 7 6 5 8 8 9 10 11 9 9 10 8 7 6 5 5 4 4 3 4 4 4 3 3 4 4 4 6 5 6 5 6 6 8 6 6 5 5 6 7 8 8 9 7 9 7 7 5 3 3 6 7 10 7 7 6 8 8 10 9 8 8 8 6 8 7 9 7 12 8 10 7 8 8 8 9 9 11 12 13 35 80 126 148 137 102 61 30 13 17 18 19 12 10 6 10 8 9 11 7 10 8 7 6 6 7 8 7 8 7 6 7 10 10 8 8 5 7 6 9 9 9 8 9 11 16 18 20 18 14 11 13 18 21 19 17 16 19 21 19 19 18 19 20 20 20 20 20 18 16 13 12 11 12 10 9 9 7 6 5 4 5 3 6 8 10 11 9 10 10 11 11 10 11 12 13 13 12 11 10 9 10 9 8 5 7 5 8 5 6 4 6 8 8 7 6 6 5 6 7 10 12 14 16 19 18 18 17 16 18 18 18 17 17 17 19 17 15 11 10 11 14 15 17 18 20 20 18 19 22 26 27 23 19 16 16 16 13 10 9 8 8 9 10 10 11 8 7 4 5 6 7 8 10 10 11 10 6 6 4 5 6 7 9 9 7 7 5 4 4 7 21 54 107 157 171 143 89 43 19 13 14 11 11 8 9 5 4 4 4 3 5 4 5 5 6 6 5 4 5 5 6 7 7 8 9 9 9 9 8 9 7 6 5 5 5 5 6 7 8 8 8 9 11 12 10 6 6 8 9 10 9 9 11 9 11 8 10 6 6 6 7 7 6 5 5 6 6 7 6 7 10 9 12 9 9 7 6 4 3 7 5 9 5 8 7 8 8 8 7 6 6 5 4 4 4 5 4 4 5 7 9 8 9 6 6 4 5 6 10 10 10 8 8 8 9 8 8 7 7 8 8 9 8 7 7 7 6 7 7 6 4 0 
0 10 12 14 9 8 4 5 7 8 11 7 11 9 11 9 9 7 7 5 5 4 4 4 6 7 6 5 3 6 4 6 4 5 5 4 3 4 3 5 5 6 8 8 10 7 7 6 8 8 7 6 4 4 4 4 4 5 8 11 12 11 9 9 8 10 7 7 3 4 3 4 4 9 9 13 8 9 5 6 5 7 5 7 6 8 7 8 11 11 10 10 9 8 6 7 8 9 8 7 6 5 7 8 10 8 9 10 11 11 9 7 5 5 4 3 3 3 3 3 3 3 4 3 4 4 5 5 5 5 5 6 6 6 6 4 4 6 7 9 9 9 10 7 8 6 5 3 2 5 6 8 6 6 7 10 11 9 9 10 11 8 5 7 5 9 8 11 8 9 6 8 8 8 8 9 9 11 24 65 117 146 141 105 64 36 17 9 14 15 15 8 6 6 10 8 8 9 7 11 9 9 7 6 7 9 8 10 6 6 5 7 9 9 10 8 11 10 12 10 10 7 8 10 14 20 21 20 15 10 11 17 21 21 20 19 23 23 22 21 19 18 17 15 13 12 13 12 11 10 11 12 12 11 10 9 8 6 6 4 5 4 6 7 9 10 9 11 11 13 12 12 12 14 17 17 15 10 8 12 12 12 9 6 6 5 7 5 7 6 7 7 7 6 5 5 5 7 8 10 10 11 11 12 13 14 13 12 14 19 25 27 25 21 18 15 13 12 12 11 11 12 12 13 15 21 25 27 28 28 28 28 29 29 27 22 18 14 12 10 10 9 9 8 9 8 8 6 4 6 7 7 9 9 9 8 7 6 6 6 6 6 7 7 7 7 6 5 6 8 13 26 63 117 161 169 132 82 41 24 16 11 9 7 7 6 4 3 3 2 3 3 5 5 5 6 7 6 6 8 9 8 8 7 9 9 9 10 8 10 9 9 8 5 5 5 6 6 8 5 7 7 11 9 8 6 6 9 9 8 9 8 11 10 12 8 8 6 7 8 7 7 6 4 5 6 5 7 7 9 14 13 13 10 8 8 8 7 6 8 6 9 5 6 6 8 9 8 8 7 6 8 5 6 5 6 6 6 5 6 9 8 10 6 6 4 5 5 9 9 12 10 10 10 9 9 10 9 8 8 9 10 11 9 8 6 7 7 7 6 4 0 
0 8 11 12 8 7 5 6 8 9 11 7 10 10 15 13 12 9 10 6 5 3 4 4 5 5 4 6 4 6 5 8 6 6 4 3 4 3 4 3 4 4 8 6 10 7 10 6 6 4 4 4 5 6 6 6 6 7 10 11 10 11 9 9 10 9 7 7 3 6 3 5 5 10 9 13 7 8 4 5 6 7 5 5 4 5 6 6 9 9 10 10 9 8 6 5 7 8 8 7 6 6 7 8 10 10 10 11 11 11 9 8 6 5 4 3 2 3 3 3 4 4 5 6 6 5 4 5 4 7 5 6 4 5 5 5 4 6 6 9 10 9 9 7 7 5 5 3 4 7 8 9 7 5 6 7 7 7 7 6 5 5 5 6 6 8 8 8 7 7 6 9 10 10 9 9 11 20 56 107 145 145 112 66 35 18 9 10 13 13 11 7 7 9 10 8 9 8 8 10 10 10 10 8 7 9 8 11 8 7 6 6 7 7 8 9 14 14 14 10 10 8 9 9 10 18 18 19 13 9 10 15 19 23 24 23 25 24 20 15 11 10 10 10 11 14 17 16 12 10 10 13 14 14 12 12 10 6 6 4 6 8 11 13 16 13 10 11 11 13 11 11 14 15 16 16 14 12 8 11 11 15 10 10 9 8 9 8 6 5 5 6 6 5 4 4 4 5 7 9 10 12 12 14 15 17 18 19 17 17 17 17 18 21 21 19 16 13 12 14 17 21 23 25 24 20 18 19 23 29 34 32 30 30 30 27 22 18 15 13 10 7 6 6 8 8 8 6 5 6 7 7 7 9 10 9 7 6 6 7 7 6 6 5 6 7 6 5 6 7 8 11 28 70 124 164 162 125 73 35 16 10 6 7 7 8 5 3 3 2 3 4 5 6 7 7 5 6 6 9 8 8 6 6 9 9 9 11 13 15 11 8 7 5 6 5 8 7 8 6 9 6 8 6 6 6 7 10 11 9 8 6 9 8 10 10 9 9 8 11 10 11 9 7 7 6 5 7 7 10 14 13 11 8 7 8 10 9 8 8 6 9 6 7 6 7 8 7 6 7 7 10 6 7 5 6 7 7 7 8 9 8 8 4 4 3 5 6 10 10 12 10 9 11 9 8 7 7 9 8 8 7 8 6 7 5 5 5 5 4 3 0 
0 6 11 8 10 6 7 5 7 7 9 7 9 11 15 14 12 10 10 7 7 4 5 5 6 6 7 6 6 7 7 7 6 5 4 3 4 3 4 3 5 4 7 6 11 8 10 6 5 5 5 4 4 4 5 8 7 10 9 13 10 10 8 7 8 8 7 7 4 6 4 6 6 10 11 13 8 8 4 5 6 5 5 4 4 3 5 6 8 7 7 8 10 8 8 5 6 6 6 6 6 6 7 7 8 8 9 8 8 9 7 5 7 5 5 3 3 3 5 6 7 6 5 5 6 6 6 7 4 8 4 5 3 5 5 6 3 3 5 9 11 12 10 9 8 6 6 4 3 4 5 7 5 5 7 8 10 7 8 8 9 6 6 5 6 8 9 9 7 6 7 9 8 8 8 8 18 47 101 143 151 122 76 40 22 10 8 11 13 12 9 7 8 9 10 9 8 6 6 6 9 10 10 8 6 6 6 8 9 7 6 4 7 8 8 12 15 16 15 11 10 8 8 8 10 16 15 14 10 8 9 14 17 18 17 17 21 23 22 22 22 20 17 14 13 13 15 15 13 11 10 12 11 10 9 7 8 6 7 7 7 7 11 14 16 13 9 9 9 10 8 7 10 13 16 18 16 12 9 11 11 17 11 12 8 7 7 7 7 6 5 6 6 6 4 4 4 6 7 7 6 5 5 7 7 10 10 11 12 16 22 25 24 20 17 16 17 18 17 15 14 16 18 20 22 23 22 20 19 18 21 28 35 33 30 26 22 19 17 15 12 9 7 7 7 9 9 8 7 5 6 6 6 7 8 7 6 6 6 6 7 8 8 7 6 6 7 5 6 8 9 8 13 35 80 134 166 156 112 64 31 12 5 5 6 7 5 4 3 2 3 3 4 6 6 10 9 10 8 11 10 10 9 10 10 9 9 10 11 10 10 7 6 4 5 5 7 5 7 5 9 7 9 6 5 6 8 9 8 7 6 5 8 9 10 10 8 10 9 12 10 10 8 7 6 5 4 5 5 11 11 14 12 9 9 8 11 9 8 9 7 8 6 7 7 7 8 7 7 7 7 9 7 8 8 8 8 7 8 9 10 10 8 5 6 6 7 8 8 8 9 9 8 9 7 6 6 5 7 6 7 8 8 7 7 8 8 7 6 7 4 0 
0 6 13 8 11 6 7 4 7 7 7 6 7 10 11 10 9 8 8 7 7 5 7 6 7 6 8 7 9 7 9 9 9 7 6 4 5 4 5 5 6 7 7 7 9 8 8 7 4 3 3 3 5 6 7 10 9 15 9 13 8 9 9 8 9 8 7 7 4 4 5 6 10 10 11 9 8 7 7 7 7 6 5 4 4 5 6 7 8 8 9 10 11 10 9 5 6 5 6 8 6 6 6 6 8 6 9 7 8 5 4 4 5 4 4 2 3 5 5 7 6 7 7 6 6 6 5 6 5 6 4 5 3 4 5 5 4 3 4 6 8 9 11 8 8 8 8 6 6 7 7 8 6 4 7 6 10 8 9 7 6 4 6 7 6 7 7 7 6 6 8 10 10 8 6 8 32 81 137 155 129 81 44 26 17 8 10 11 11 10 8 9 10 9 11 10 8 7 5 5 6 8 8 7 6 5 7 7 8 6 7 6 7 6 6 11 13 15 13 11 11 9 7 8 9 11 12 12 10 9 11 18 28 34 34 31 30 33 32 28 21 15 13 13 14 17 20 19 15 11 9 10 12 14 15 12 10 8 8 8 8 9 11 13 15 13 10 9 10 11 7 6 8 10 11 12 14 11 8 9 8 13 10 12 9 9 9 8 7 6 5 5 5 5 4 4 3 6 7 7 8 7 8 9 10 13 12 14 14 13 13 14 19 19 20 17 15 13 12 15 17 21 23 22 20 18 18 19 22 24 24 23 22 24 22 18 17 17 18 17 15 11 8 7 6 8 8 8 7 5 6 5 5 6 6 6 6 6 7 7 8 7 8 8 7 6 6 6 5 6 8 8 8 13 42 91 143 164 146 100 52 22 8 4 5 5 5 5 5 5 4 4 4 6 7 8 8 8 9 8 9 10 8 9 9 7 8 7 11 10 8 5 6 5 6 5 6 5 6 5 8 8 8 6 6 7 8 9 8 6 6 8 9 9 10 9 10 10 10 13 14 14 11 8 8 6 5 4 4 10 9 14 9 7 7 6 8 8 9 9 7 8 5 6 6 6 5 5 6 7 8 8 9 8 9 7 10 8 10 9 10 8 6 5 5 7 8 9 7 8 6 8 7 7 4 4 5 6 6 7 6 8 7 8 8 8 9 8 7 9 5 0 
0 6 11 8 8 5 6 3 4 4 5 5 6 8 11 10 8 7 8 7 7 6 7 7 8 7 9 7 9 8 11 9 8 8 8 7 5 5 5 8 7 8 6 8 7 9 7 6 5 5 4 4 4 4 7 11 12 15 10 11 8 7 10 8 9 8 7 6 5 3 5 6 11 10 13 10 10 8 7 7 7 6 4 4 3 5 6 7 10 8 10 10 12 11 8 6 5 6 5 7 5 5 5 5 6 6 8 6 7 7 6 6 4 5 2 2 2 6 7 12 10 7 5 4 5 6 8 7 6 6 6 5 4 4 6 5 5 3 4 6 10 9 10 8 12 9 8 7 4 7 5 6 4 4 6 6 9 9 9 7 6 6 6 6 5 5 8 8 7 6 8 10 9 8 6 15 54 114 153 144 93 42 23 18 14 8 10 10 9 9 8 9 9 8 10 11 10 8 5 5 4 6 8 8 6 4 5 6 7 6 5 4 6 7 9 11 11 13 12 13 12 10 8 11 14 16 12 10 9 15 22 32 41 44 39 31 26 31 37 42 40 35 30 27 24 23 24 24 21 17 14 13 13 12 12 10 8 7 9 10 8 7 9 10 15 12 11 11 13 13 9 8 9 11 13 13 14 11 8 7 8 11 10 10 7 8 5 7 7 7 6 6 8 9 9 9 7 8 7 7 8 7 9 8 8 9 9 11 10 10 13 13 15 14 16 18 19 18 14 11 9 10 11 12 15 14 14 14 15 18 22 27 24 22 20 21 19 17 17 19 19 16 12 9 7 7 7 8 7 5 4 4 5 7 6 5 5 6 7 7 7 7 8 8 8 7 5 7 6 7 8 9 9 8 20 51 102 146 160 139 90 46 16 4 3 3 5 5 5 5 3 3 2 3 7 10 12 9 8 6 6 8 8 11 10 7 8 5 8 7 7 5 5 5 6 7 7 5 5 5 7 9 10 7 7 7 9 8 7 6 7 7 9 9 9 7 8 8 8 10 9 10 8 6 6 5 6 4 3 6 5 8 6 7 5 5 6 8 7 9 8 8 5 6 6 6 5 6 8 8 9 8 10 8 12 8 10 7 10 10 13 11 10 7 7 10 11 10 8 6 7 7 7 6 4 5 6 8 7 8 7 11 8 8 9 10 10 8 7 9 6 0 
0 6 8 7 6 6 5 5 5 6 5 5 5 5 5 5 4 4 5 5 6 6 6 6 7 7 10 7 9 9 10 11 13 10 9 8 6 5 5 9 10 12 6 7 5 6 5 5 5 6 5 6 5 7 7 10 10 11 10 9 9 9 9 7 7 6 6 5 5 4 5 6 11 9 10 6 6 6 6 7 6 6 4 5 4 7 8 9 11 8 12 10 12 12 8 6 4 5 5 6 4 3 3 4 7 8 8 7 7 6 6 7 4 3 2 2 2 5 7 9 7 7 5 4 5 5 5 5 6 5 5 5 4 4 5 7 8 6 5 4 7 8 10 7 11 8 10 8 6 8 5 7 4 5 5 7 10 11 10 7 5 5 7 5 5 4 4 5 6 7 9 12 11 9 11 36 85 137 148 113 58 21 12 10 10 9 10 10 10 10 10 10 7 7 10 11 12 10 7 6 4 6 7 8 7 6 7 8 6 7 8 9 8 7 9 10 10 11 11 13 10 9 9 12 13 12 9 9 12 18 21 34 48 61 61 50 43 45 45 42 32 23 18 17 16 17 17 17 16 14 12 12 12 13 15 11 10 6 9 8 8 7 7 7 11 10 13 13 13 13 10 9 10 10 11 11 13 12 9 6 7 9 8 9 7 9 6 9 9 7 7 7 9 11 10 10 9 8 8 9 9 10 11 9 10 9 9 11 12 12 12 12 14 14 14 12 10 9 9 11 14 17 14 9 7 8 11 13 15 17 19 20 20 20 17 17 20 22 21 20 20 19 17 14 10 7 5 6 6 6 4 5 4 5 4 3 5 8 9 11 7 6 6 6 7 6 4 5 5 6 7 9 10 9 11 24 60 110 149 161 132 81 36 9 3 2 4 6 7 6 4 4 5 6 7 7 7 7 7 6 6 7 7 7 7 6 5 3 5 5 6 7 7 9 7 8 6 6 4 5 6 7 8 6 7 5 9 9 9 7 7 10 10 9 6 6 5 7 6 10 10 11 8 6 6 7 5 5 4 6 4 5 4 3 3 4 5 7 8 12 8 7 4 5 6 6 6 7 8 11 11 10 13 8 11 10 12 11 9 7 10 7 9 6 6 6 7 7 7 5 7 7 9 6 5 6 8 9 7 8 8 10 9 9 7 7 7 7 7 7 4 0 
0 4 7 6 5 6 5 6 6 5 5 4 5 7 8 8 7 6 6 5 5 5 7 7 8 7 9 7 7 9 11 11 12 10 13 10 8 7 6 9 9 9 7 8 6 6 6 6 6 7 7 8 6 6 7 11 11 10 9 8 9 10 10 11 10 9 7 7 6 6 6 8 9 10 9 7 7 7 6 6 5 5 3 5 4 6 6 8 9 8 10 8 11 10 9 6 4 4 4 5 5 5 5 6 8 8 9 7 8 9 10 8 6 4 3 3 4 5 7 8 8 6 5 5 5 5 6 6 5 5 7 6 4 3 5 7 9 7 6 6 8 7 9 9 12 9 8 5 5 8 6 6 4 5 4 4 5 7 6 6 5 5 6 6 5 4 5 5 5 5 8 10 8 10 27 68 116 143 128 85 39 17 9 8 8 8 9 11 12 12 10 8 7 7 9 11 12 9 8 7 7 9 9 10 8 7 6 6 6 7 7 7 6 8 8 11 10 9 9 12 9 10 9 14 17 16 13 8 13 24 36 49 57 65 62 50 37 30 31 31 29 24 21 21 19 18 19 19 17 15 13 12 10 11 12 9 9 4 6 7 7 6 7 7 12 11 14 13 13 15 11 11 11 10 12 14 16 13 9 6 7 9 8 9 7 9 8 10 9 8 8 11 14 16 12 11 9 8 7 10 12 13 13 11 11 9 11 13 13 11 8 8 9 10 10 10 10 8 8 7 8 8 7 7 6 6 6 6 8 11 16 17 17 18 21 23 22 20 20 21 19 16 15 14 12 9 6 7 6 6 4 5 4 5 4 3 4 7 8 10 8 7 5 5 6 6 5 4 4 5 6 9 11 10 10 12 28 69 118 159 161 119 67 23 7 4 3 6 5 7 4 5 5 5 6 7 7 7 5 5 5 5 6 7 7 5 5 3 4 6 6 8 6 8 6 7 5 6 4 6 6 8 8 7 7 6 9 8 8 9 8 8 8 8 6 4 4 6 7 9 10 10 9 6 5 5 5 6 4 4 3 2 2 2 2 3 5 7 7 9 9 10 8 7 7 6 6 10 9 13 10 11 10 9 10 10 9 9 7 7 10 8 11 7 7 7 8 8 6 5 6 5 6 5 5 6 8 10 11 9 10 11 9 6 4 5 4 4 4 5 4 0 
0 4 7 8 7 10 9 11 8 5 5 6 6 7 7 7 6 5 4 4 5 4 5 6 8 8 9 7 5 7 7 10 12 10 12 10 9 6 6 8 10 11 8 7 5 6 5 5 6 6 7 7 6 5 6 7 7 6 7 8 8 8 7 8 8 8 7 9 7 9 6 7 7 7 6 5 4 4 5 5 5 5 4 5 5 8 8 9 10 9 9 9 10 11 9 7 4 4 5 6 6 6 7 7 10 11 10 8 8 8 10 8 7 4 5 5 5 6 7 8 7 6 6 6 6 6 4 4 5 4 4 4 3 3 5 7 13 10 11 8 9 10 10 10 12 9 8 6 6 7 5 5 4 5 5 5 5 6 5 5 5 6 5 5 4 4 5 6 7 6 6 8 8 17 50 101 139 138 103 61 29 18 7 6 5 6 9 13 14 13 10 7 7 8 10 11 11 11 11 10 11 11 10 10 7 8 8 7 6 7 10 11 9 9 9 11 9 9 8 7 6 9 9 14 14 14 10 7 12 17 21 29 38 45 47 40 36 26 28 20 17 12 8 7 9 9 8 6 7 10 10 10 9 10 12 11 9 6 7 8 8 7 8 6 12 10 14 13 13 14 13 12 11 10 11 14 14 13 12 11 10 9 8 9 8 7 9 9 11 8 8 13 16 18 15 12 9 7 5 9 11 12 13 12 12 8 8 9 10 10 10 9 8 7 7 5 4 3 4 5 7 9 8 7 6 5 6 5 5 5 9 12 14 15 17 21 26 26 20 16 14 15 16 15 13 11 9 9 8 6 4 3 3 4 3 3 4 5 7 9 8 7 5 4 4 6 5 4 3 4 4 7 10 11 11 10 13 35 78 134 169 154 104 50 20 11 8 8 6 7 7 7 8 9 8 6 5 6 7 6 5 6 5 6 7 5 4 2 4 6 7 8 7 7 7 6 6 6 4 6 5 6 6 6 5 8 7 11 10 9 9 10 10 8 6 5 6 6 8 6 7 6 6 5 5 4 4 5 5 5 3 1 1 1 3 5 7 8 8 10 9 7 7 7 9 9 8 11 10 12 10 11 10 8 8 9 9 9 6 5 6 5 6 4 4 3 4 5 5 4 5 5 6 6 6 7 9 9 9 9 10 9 8 7 5 5 5 5 4 4 2 0 
0 7 11 10 9 11 10 10 8 6 6 7 7 8 9 9 10 8 6 5 5 6 7 7 8 8 8 7 6 8 9 12 11 10 11 10 9 7 6 6 8 8 8 8 7 6 6 7 7 6 8 7 5 4 5 7 8 7 6 8 9 10 9 11 11 12 9 10 7 10 6 8 7 6 4 3 4 5 5 6 5 4 3 4 5 6 6 7 8 8 8 8 9 12 9 7 4 3 4 5 6 6 7 8 10 12 10 10 9 9 9 7 7 6 7 8 7 6 5 6 6 6 6 7 6 5 5 4 5 5 6 4 2 2 3 6 10 11 13 12 12 10 11 10 12 10 7 5 5 6 6 5 5 4 3 2 1 2 4 5 6 7 6 6 3 5 6 9 8 7 7 7 7 32 77 125 146 119 77 40 22 16 8 6 4 5 9 14 14 13 8 7 8 8 10 10 11 10 11 12 12 13 10 11 7 8 8 7 5 5 7 7 9 9 10 9 9 7 7 9 9 9 8 12 13 15 14 13 11 15 20 25 28 33 36 30 29 16 14 8 9 7 6 7 8 8 8 7 8 8 8 9 10 12 14 12 10 8 7 9 9 8 7 5 10 9 13 12 14 14 15 12 11 10 11 14 16 17 15 17 16 17 12 9 9 7 7 8 9 6 8 11 15 15 12 9 8 5 5 8 10 11 14 11 12 8 8 8 7 6 5 5 5 4 4 4 5 4 4 3 2 2 3 4 4 5 5 4 3 3 4 5 9 12 15 17 19 21 22 22 15 10 8 9 9 10 11 11 9 7 4 3 3 4 4 4 4 4 6 6 9 8 6 5 4 6 6 6 3 4 5 6 9 11 12 10 8 15 46 99 152 170 137 82 38 17 10 6 7 8 9 10 10 8 6 7 6 5 5 6 5 5 5 5 5 4 3 2 4 6 8 6 6 5 5 5 6 7 6 7 6 8 8 8 6 8 7 11 9 9 8 7 6 7 6 5 7 6 7 5 6 7 8 7 5 4 3 4 4 4 3 2 1 2 3 5 6 7 7 9 10 12 12 9 9 8 11 12 11 10 7 7 8 7 7 7 7 7 5 5 5 6 7 6 6 6 6 6 6 5 4 3 4 5 6 6 7 10 11 10 10 11 10 7 4 4 4 4 4 5 2 0 
0 5 10 9 9 10 11 10 7 5 5 6 7 8 9 8 9 7 6 5 4 5 7 8 10 8 7 7 6 6 6 9 10 10 10 8 7 7 7 8 8 8 9 8 6 7 7 7 7 6 5 5 5 5 5 5 5 6 6 7 7 7 8 10 8 9 7 10 8 10 5 7 6 6 5 4 4 5 6 6 6 4 3 3 5 5 7 7 10 7 7 7 8 10 9 6 4 4 5 6 7 7 6 8 7 10 8 9 7 8 7 6 6 5 8 9 7 6 6 7 7 7 7 8 8 6 6 5 7 6 5 3 2 3 3 7 10 14 15 15 14 10 11 8 12 11 9 9 6 6 5 4 4 5 4 3 3 3 4 6 8 9 7 7 4 7 7 9 9 6 7 8 18 57 103 140 138 95 54 26 18 12 8 4 4 6 11 14 13 12 7 7 10 9 13 11 11 11 13 13 13 14 11 11 7 8 8 7 5 4 7 8 10 8 11 9 9 7 8 8 8 9 9 10 13 13 11 9 8 8 8 11 13 13 16 17 19 14 12 8 10 8 7 7 7 7 6 5 5 6 8 8 10 9 12 9 10 8 8 13 11 9 7 5 9 8 11 11 14 12 13 10 10 11 12 16 16 16 16 20 20 20 17 13 10 8 8 9 9 9 9 9 11 14 13 12 11 9 10 11 13 13 16 14 16 12 10 8 6 4 4 5 5 4 6 5 5 5 4 3 2 2 2 2 2 3 3 3 3 3 3 3 5 7 10 14 17 17 15 16 18 19 14 10 8 9 10 10 9 7 5 4 4 5 5 5 5 4 6 6 8 7 6 5 4 6 6 6 4 4 5 6 8 11 12 12 9 9 23 63 119 162 158 119 69 35 18 9 8 8 10 11 10 10 9 6 6 7 6 6 4 5 6 6 6 5 3 2 4 6 8 6 6 5 5 7 7 8 6 6 6 7 7 7 7 7 9 9 10 9 7 7 8 7 6 5 7 6 6 3 3 6 7 7 6 4 3 4 4 4 4 3 2 2 4 6 8 10 11 10 9 7 7 7 9 8 12 11 12 8 8 7 8 8 7 7 7 7 6 5 5 5 6 6 5 4 4 5 5 5 4 3 3 3 5 6 7 9 9 9 10 9 8 6 7 7 7 6 5 6 4 0 
0 6 11 7 8 7 8 7 6 5 6 6 6 5 6 6 7 6 6 4 4 6 7 7 7 7 7 7 7 8 7 7 8 7 7 7 7 7 7 7 7 8 8 8 9 8 7 7 6 6 5 5 4 4 5 6 7 6 7 7 8 10 8 9 7 7 6 9 7 9 5 7 6 6 4 3 3 4 5 5 6 4 4 3 4 3 5 5 7 6 6 5 7 8 9 6 4 4 5 5 6 6 4 7 5 10 6 9 6 7 6 6 7 6 7 8 6 5 4 5 7 7 8 7 7 7 7 7 7 7 6 4 3 4 5 6 8 12 14 13 11 9 10 7 12 12 11 9 6 6 7 7 7 7 5 4 4 5 6 7 8 8 8 8 5 7 6 8 9 7 9 13 38 83 126 143 119 73 42 20 14 9 7 4 6 8 12 13 11 10 7 8 10 9 12 11 11 11 12 12 10 12 10 12 10 11 11 8 5 4 6 6 10 8 13 7 10 7 9 10 11 11 10 11 10 10 13 13 13 11 10 12 13 12 14 15 16 14 15 10 9 5 6 9 10 10 7 6 5 5 6 7 12 9 12 8 9 10 12 15 13 11 9 9 11 10 10 10 13 11 11 8 9 9 10 11 13 13 14 16 18 20 18 15 11 10 10 12 12 12 11 12 12 13 14 15 15 14 16 17 19 20 23 23 24 20 19 17 14 12 11 11 10 7 5 4 5 5 4 3 3 3 2 1 1 2 2 3 3 3 3 3 3 4 5 7 10 13 16 17 19 19 16 12 7 9 10 11 10 8 7 7 7 7 6 5 6 6 7 6 6 5 5 4 4 5 5 5 5 5 6 7 7 11 11 11 8 8 12 36 80 135 159 145 102 59 30 13 9 9 11 10 9 7 6 6 6 7 7 7 6 6 5 5 5 4 3 3 4 5 7 6 6 6 6 7 6 7 6 6 6 8 9 7 7 5 9 8 11 7 7 6 6 6 6 6 8 6 6 5 7 8 7 7 6 5 4 3 4 4 5 5 4 4 5 6 7 8 9 9 9 8 8 8 9 11 13 11 11 7 6 6 7 7 7 9 8 9 8 5 5 5 7 7 7 7 5 6 6 5 4 3 4 5 5 5 7 7 7 8 9 10 11 9 6 5 4 4 5 7 5 0 
0 5 7 6 5 5 7 6 5 4 5 6 6 6 6 5 5 5 5 3 4 5 8 11 9 8 7 7 7 5 3 4 7 9 9 8 7 8 8 8 7 6 7 9 8 8 7 8 6 5 4 4 4 5 5 5 7 5 8 5 6 8 6 7 6 4 4 7 7 7 5 6 5 6 4 3 4 4 5 6 6 4 5 3 5 4 6 7 6 7 5 6 6 8 7 6 5 5 6 6 6 7 5 7 5 9 6 8 5 7 5 6 6 6 7 5 5 4 5 6 9 8 8 6 6 7 5 8 7 8 8 7 7 8 9 9 11 10 11 11 9 9 9 6 12 12 13 11 6 6 4 6 5 6 5 6 7 7 7 8 8 7 7 8 7 8 6 7 6 7 10 26 65 111 138 128 91 50 24 12 8 7 5 4 7 10 12 11 8 8 6 8 7 8 9 8 9 11 11 11 9 10 8 9 7 8 7 5 4 4 6 7 10 8 12 8 12 7 10 9 9 9 10 11 10 8 10 10 10 10 11 14 14 13 14 13 17 13 14 12 11 6 5 7 8 9 9 8 6 6 9 9 12 9 11 9 10 10 11 12 11 11 10 11 13 11 11 7 7 8 8 8 7 10 11 14 14 13 11 11 16 19 19 15 12 11 11 11 10 11 10 9 9 10 12 12 14 16 17 18 18 20 23 24 25 23 23 23 22 22 21 19 17 14 11 11 11 10 8 6 4 3 2 2 2 2 2 4 4 4 3 2 3 4 5 5 6 7 9 12 19 24 23 20 13 9 8 8 8 7 7 8 9 8 6 6 7 8 9 9 6 6 5 5 4 3 4 5 6 5 5 7 6 11 10 10 7 7 7 18 48 98 142 156 133 92 53 24 12 9 11 8 7 6 6 4 5 6 6 7 6 6 6 6 5 5 5 5 5 5 5 5 6 6 5 5 5 6 6 7 7 8 8 7 7 5 9 8 8 6 4 5 5 6 6 7 8 7 8 8 9 10 10 8 8 7 6 5 4 5 6 6 6 6 6 7 8 10 11 11 9 8 7 8 7 10 10 10 8 6 6 7 8 9 8 8 8 9 8 7 7 8 9 10 7 8 6 6 7 5 6 4 3 5 4 7 8 9 9 8 9 9 8 8 6 7 5 5 5 7 5 0 
0 6 9 8 6 5 6 5 6 6 7 9 8 8 5 4 4 5 4 3 4 5 7 8 7 7 7 8 9 7 4 4 5 8 9 9 8 7 8 7 6 5 7 7 9 9 7 5 5 5 4 4 4 5 5 4 7 5 8 6 7 7 7 5 4 4 4 7 8 8 5 5 5 5 4 3 4 5 5 6 6 5 5 4 5 4 6 6 7 8 6 6 7 9 8 7 6 7 7 8 6 7 6 6 7 9 9 8 7 7 6 7 7 8 8 7 6 4 4 4 8 7 7 5 4 6 5 7 7 8 7 7 6 8 9 9 9 8 8 7 6 6 8 5 11 10 13 9 7 7 6 10 9 9 8 7 5 8 6 7 5 5 6 6 6 7 6 7 5 6 17 50 96 133 137 105 64 33 16 12 7 7 4 4 8 10 12 9 6 7 5 8 6 9 10 11 10 9 9 9 7 7 6 9 10 12 12 10 7 7 7 7 9 8 10 7 9 6 10 7 10 8 9 10 12 11 12 12 13 12 10 12 10 12 13 12 13 12 16 14 12 6 5 8 11 13 14 11 7 7 8 9 12 11 13 12 12 13 15 18 15 15 12 16 17 14 11 9 8 8 6 7 7 10 9 8 7 7 6 7 12 17 19 16 14 14 14 15 15 17 16 17 15 17 20 21 21 20 22 25 26 26 30 30 30 25 22 21 22 21 21 20 18 13 11 10 12 13 12 9 7 5 5 5 4 4 4 5 5 4 5 6 5 4 4 5 6 6 6 7 12 19 25 23 18 14 13 11 9 8 9 11 10 10 6 5 7 11 11 12 6 6 5 5 5 3 4 5 6 6 6 7 7 8 8 8 6 5 5 9 26 63 110 146 150 126 82 41 17 8 9 6 4 3 3 4 5 6 7 7 7 8 9 7 7 7 6 7 5 4 4 4 5 5 6 5 4 5 6 9 9 10 10 8 7 6 9 9 9 7 5 5 5 4 5 5 7 6 9 9 13 10 10 7 9 8 8 8 6 7 7 7 8 10 8 12 8 10 9 12 9 8 5 7 9 13 9 9 5 5 5 7 8 8 8 7 8 9 11 8 6 6 7 8 7 7 6 7 8 7 7 5 5 5 5 8 9 9 9 9 8 9 10 10 8 7 6 5 6 8 5 0 
0 6 10 7 8 6 7 6 6 8 8 11 10 9 7 6 5 5 5 5 5 7 8 9 8 7 10 9 8 6 5 5 6 8 9 8 8 7 6 6 6 6 7 6 10 7 8 6 5 6 4 6 5 6 5 4 6 5 7 6 7 10 8 8 6 4 5 7 7 6 4 5 6 5 5 4 4 6 5 7 6 7 5 4 5 5 7 7 10 8 10 8 9 8 8 8 6 6 6 7 7 7 7 7 10 8 12 8 9 7 7 8 8 10 8 7 5 6 6 7 10 9 8 6 5 6 6 7 8 9 9 9 8 9 9 9 8 7 6 7 8 7 7 5 9 8 12 8 7 7 6 7 7 8 7 7 5 8 7 9 9 8 7 6 7 7 7 7 7 12 36 81 124 142 121 78 42 20 10 10 7 6 4 5 9 12 12 8 5 5 4 6 6 8 8 9 10 10 9 8 7 8 6 7 6 7 8 9 10 10 9 8 7 8 7 8 8 7 9 7 8 6 10 12 14 13 13 11 10 8 7 9 9 13 13 14 11 10 12 13 12 8 7 6 11 14 15 14 11 12 15 18 18 13 14 14 15 13 14 13 14 15 14 14 14 16 13 11 7 7 6 6 6 9 10 13 11 8 7 11 14 17 15 12 11 12 11 10 10 13 14 13 13 15 16 16 17 18 20 18 19 21 26 28 27 23 22 21 24 27 29 26 24 19 18 17 18 18 15 12 7 5 4 5 6 7 8 10 10 9 7 6 5 5 4 4 4 5 5 6 9 15 22 22 18 14 11 10 8 8 8 13 10 11 7 5 7 12 13 15 9 7 8 6 6 3 4 6 7 6 5 6 7 8 7 7 5 6 6 8 16 37 74 119 149 149 112 64 27 11 8 6 4 3 4 4 5 7 6 8 8 7 10 8 10 8 9 10 10 7 5 4 5 5 7 5 6 6 7 9 9 10 10 8 9 8 9 9 8 5 4 4 5 5 5 5 7 6 8 8 9 8 9 8 10 9 10 11 9 9 8 10 8 11 7 12 8 12 10 13 10 11 8 8 8 8 7 5 4 3 4 4 6 6 6 5 7 9 9 8 7 8 8 7 7 6 6 8 7 8 7 6 6 4 5 7 11 12 9 7 7 9 9 8 7 7 8 8 7 7 4 0 
0 6 11 9 9 7 7 7 6 8 8 10 10 12 9 9 7 7 6 4 4 5 6 6 6 7 8 9 10 9 7 6 7 8 9 7 8 9 10 9 7 5 6 5 9 7 10 6 4 7 5 8 5 6 4 3 4 5 7 8 6 11 8 11 7 6 6 6 8 8 7 7 7 6 5 4 4 6 5 8 6 7 6 5 5 5 8 7 11 9 11 9 11 10 10 8 9 9 9 8 8 9 9 8 11 11 14 11 11 10 10 9 7 9 7 11 8 8 7 6 7 7 8 7 6 6 8 7 10 8 9 8 6 6 5 6 6 6 5 6 6 6 6 5 6 6 7 6 7 9 10 10 10 9 8 6 5 6 7 8 8 8 8 6 6 5 6 6 10 26 61 110 139 133 94 51 25 12 9 10 9 7 4 5 10 13 12 9 5 6 5 7 7 8 10 11 12 10 8 7 7 8 8 8 7 8 10 10 13 11 11 10 8 9 6 5 3 5 6 6 6 5 10 13 17 16 15 13 9 7 6 7 8 14 10 15 8 12 11 12 11 7 9 8 14 17 19 17 11 12 13 15 14 14 17 20 24 19 21 19 22 17 13 12 14 16 15 16 11 11 6 6 6 9 10 10 9 7 6 11 13 17 16 14 13 14 12 12 14 15 19 15 17 16 19 19 18 17 19 19 21 22 24 24 23 19 18 20 22 21 19 16 15 12 13 14 16 18 18 15 11 7 7 7 8 9 9 9 10 11 12 11 9 7 5 5 3 3 3 4 7 13 19 20 17 15 13 12 11 11 9 14 11 11 8 6 7 11 13 13 10 7 8 6 5 3 5 6 6 4 4 7 6 7 5 6 5 6 8 9 12 22 42 86 133 158 144 98 50 21 9 5 3 3 3 5 5 6 5 7 8 8 13 10 11 8 11 10 12 6 6 4 4 5 7 5 7 6 7 7 9 9 10 10 8 9 10 10 8 6 5 6 7 5 5 4 4 5 6 7 6 6 5 5 6 9 11 11 10 9 7 8 7 11 8 12 8 11 8 11 7 8 6 8 7 8 6 3 3 2 3 5 6 7 6 5 6 9 10 8 6 5 5 6 5 6 5 6 7 9 9 7 6 4 5 6 8 8 7 7 5 7 9 10 10 9 9 8 8 8 5 0 
0 5 8 9 9 8 7 7 9 8 8 10 10 12 8 7 8 7 9 8 9 9 9 8 7 6 8 9 7 8 6 8 7 7 6 7 7 7 7 6 6 6 7 5 8 8 9 7 5 7 6 9 5 6 4 3 4 5 6 7 6 10 9 12 8 9 8 8 8 6 6 7 7 8 7 6 5 6 7 8 9 7 6 5 5 6 8 7 12 9 11 9 10 7 9 7 7 6 7 8 8 7 7 7 8 9 11 11 10 10 10 9 8 11 8 10 7 10 8 9 9 9 9 9 8 7 9 8 10 8 8 7 6 6 5 6 6 6 5 7 7 6 6 4 6 6 6 7 8 9 8 8 10 11 10 6 6 6 8 10 11 12 9 7 8 8 9 11 23 48 87 129 136 113 67 32 18 10 9 10 10 7 5 6 12 13 12 8 5 5 4 6 6 5 6 8 12 13 11 8 8 8 7 6 6 5 7 9 13 11 11 10 9 10 7 6 4 4 5 6 5 6 11 14 19 18 15 14 8 7 5 7 8 15 9 14 5 10 7 9 9 6 8 7 13 19 21 15 12 11 13 17 18 15 15 18 20 15 15 14 18 15 11 9 11 15 15 16 12 12 7 7 6 7 11 12 11 9 6 10 11 13 10 11 9 11 9 8 11 12 18 12 15 12 16 12 11 12 13 13 11 15 17 20 19 17 20 22 22 21 19 16 14 12 13 12 13 14 13 11 7 5 4 5 8 10 12 14 15 13 11 8 7 7 5 4 4 3 3 4 8 11 15 16 14 13 12 13 12 11 10 10 9 9 8 7 7 11 12 12 10 7 6 6 4 4 4 5 5 4 3 5 6 7 5 4 6 6 7 9 9 13 22 53 103 148 160 131 82 40 18 7 4 5 5 6 7 6 7 7 8 7 12 9 11 7 10 11 16 10 9 6 5 5 5 7 6 6 6 6 9 12 11 9 7 7 6 7 6 6 6 6 7 5 4 4 5 6 6 5 4 3 3 5 5 9 10 13 11 9 7 8 8 11 9 10 7 10 8 10 7 9 7 9 6 6 4 2 3 2 2 4 4 5 5 7 6 8 7 5 5 6 5 7 5 7 6 6 7 8 9 9 7 5 5 5 7 7 5 3 4 5 6 6 6 7 9 8 8 6 4 0 
0 5 7 10 8 9 8 7 8 7 7 9 9 10 10 9 9 6 8 6 7 6 6 6 6 6 6 6 8 10 7 8 8 10 8 6 7 10 10 8 6 4 5 5 7 8 8 7 5 7 7 8 5 5 4 3 3 5 7 7 5 6 7 9 9 9 8 8 7 7 7 8 9 9 8 6 4 5 7 8 10 7 7 5 5 6 8 6 10 9 13 10 11 9 9 8 11 9 9 7 8 8 8 9 9 11 10 9 8 11 10 10 7 8 6 10 7 10 8 8 7 8 9 9 8 6 9 8 9 8 8 8 9 8 8 8 6 7 5 5 6 5 6 5 6 6 7 8 9 12 12 8 8 7 8 8 8 7 7 10 11 11 10 9 7 9 10 16 39 70 105 133 119 89 44 16 9 4 7 9 9 7 5 8 12 12 10 7 6 6 5 4 5 5 6 7 10 11 11 8 7 6 8 7 7 7 7 7 8 8 9 10 10 8 6 4 3 3 4 4 4 6 10 11 17 16 15 15 8 8 6 8 9 15 10 13 6 9 7 9 10 9 11 9 15 19 21 18 14 10 12 12 12 13 19 22 22 17 13 13 14 12 7 7 8 12 12 14 13 13 9 8 7 8 11 10 11 11 11 12 11 13 11 13 12 13 10 8 11 13 15 11 11 8 9 7 7 8 7 9 6 11 10 12 10 12 20 25 26 21 12 7 7 8 11 12 14 15 14 12 7 5 4 4 5 6 7 8 11 13 13 10 7 5 5 4 4 2 4 5 8 11 14 16 16 15 13 12 13 12 10 7 6 6 6 6 6 9 9 9 7 6 6 6 4 6 5 6 4 3 3 5 6 7 6 4 6 6 7 9 8 9 12 29 68 121 157 155 117 66 28 12 6 6 6 5 4 3 4 5 6 6 9 8 8 4 6 9 11 8 7 6 4 5 3 6 7 6 4 5 7 9 10 9 6 6 7 9 7 7 7 8 8 6 6 6 7 9 10 9 7 4 4 5 5 9 9 12 9 8 6 7 7 9 8 9 8 8 7 7 6 8 7 10 8 6 5 3 4 4 5 5 6 9 7 7 6 8 6 6 4 4 4 8 6 9 6 7 7 9 10 9 9 7 7 5 4 3 3 3 3 4 6 7 8 6 7 5 7 6 4 0 
0 5 7 9 7 6 7 8 9 7 6 7 7 8 6 5 5 6 8 9 11 9 9 9 7 5 4 6 6 7 8 9 9 8 7 5 5 6 6 6 5 5 6 6 8 7 8 7 6 8 7 7 5 4 3 2 4 7 7 6 5 5 7 7 7 8 8 9 7 6 5 5 6 8 9 9 8 8 9 9 9 6 6 5 5 7 6 6 7 7 8 7 8 6 8 6 6 6 8 8 6 6 4 4 5 6 6 6 7 8 8 10 8 12 8 9 6 9 9 9 9 11 10 9 8 7 9 10 11 8 9 6 11 9 11 11 9 9 5 5 6 5 7 5 9 8 9 11 11 12 10 8 8 8 10 9 8 7 7 8 10 9 8 7 8 10 11 26 58 91 116 127 101 71 31 11 8 6 8 9 8 6 6 9 12 11 8 6 7 7 6 4 5 4 5 5 9 12 13 10 7 5 6 6 7 8 8 9 7 7 7 8 9 8 6 4 4 5 5 5 6 5 9 10 14 15 13 13 8 9 8 10 12 16 14 13 9 9 9 8 8 8 8 9 13 19 20 16 11 11 15 15 16 15 15 16 15 13 11 12 10 9 5 6 6 11 9 12 9 8 8 9 8 10 8 9 12 14 15 16 15 14 11 13 13 15 14 12 13 15 16 14 8 7 6 5 4 6 7 8 5 9 9 12 12 13 16 20 18 17 13 12 11 11 12 12 12 12 10 7 4 3 2 3 3 4 6 10 12 11 8 5 4 3 3 5 7 8 8 7 8 10 11 14 17 17 15 12 11 10 9 7 4 3 3 4 5 8 8 8 7 6 6 5 5 7 5 5 4 3 4 3 5 6 5 4 5 6 6 5 6 7 8 16 39 86 135 161 144 97 45 17 6 6 6 5 5 3 5 5 6 6 9 8 7 4 5 9 12 13 10 9 5 4 3 6 6 7 4 6 10 14 13 8 7 6 7 6 6 6 8 9 10 9 7 6 6 9 10 10 8 6 6 5 5 6 8 10 10 8 6 6 8 11 12 10 8 8 8 7 6 6 7 7 7 5 5 4 5 4 5 6 6 6 4 6 5 6 5 4 3 4 6 7 6 11 7 9 7 8 9 10 8 8 8 7 6 6 4 3 3 5 5 4 5 3 5 4 4 4 2 0 
0 4 8 9 8 6 8 8 8 6 6 7 7 7 6 7 7 7 8 7 7 7 6 7 8 9 6 6 6 8 9 8 11 9 9 4 5 5 8 6 5 5 6 6 9 6 8 6 9 11 10 7 6 4 5 4 6 7 9 9 8 7 6 6 5 7 7 8 8 8 7 7 7 9 9 6 5 6 7 7 6 4 4 3 4 5 5 6 4 5 7 6 7 6 7 7 9 8 9 9 8 7 6 6 7 6 6 5 6 9 10 11 8 9 7 9 6 8 7 8 8 8 10 9 8 7 6 6 8 7 10 7 12 9 12 10 9 7 5 5 5 4 6 5 8 7 9 10 11 14 13 9 6 5 7 8 9 6 8 9 11 10 9 6 6 10 17 39 75 106 122 116 85 57 25 11 10 9 9 9 7 6 6 9 11 10 8 8 10 10 8 4 4 4 5 5 8 11 11 9 6 7 10 11 11 10 9 9 6 7 8 9 8 5 4 4 5 6 7 7 7 6 9 11 13 14 11 11 9 10 10 11 15 18 17 16 10 10 8 9 11 13 11 12 15 21 22 20 20 20 18 15 12 13 15 17 15 13 14 12 11 9 9 10 7 12 11 13 11 10 9 8 7 9 6 10 12 16 18 18 17 15 11 10 11 13 15 13 13 14 14 12 7 5 3 4 6 10 11 12 8 8 9 11 12 13 14 20 19 21 18 15 14 14 16 18 18 18 16 13 9 6 5 4 3 2 3 5 7 8 7 5 3 3 4 7 10 14 18 21 17 13 10 12 17 18 17 12 10 10 10 7 4 2 1 2 4 7 8 8 8 7 9 8 9 8 6 5 6 5 7 5 6 5 5 5 6 6 6 5 4 5 7 10 22 54 105 151 162 130 74 31 10 8 7 5 4 4 5 7 8 8 8 6 5 3 4 6 8 8 7 7 5 6 6 9 9 7 5 6 7 9 10 8 8 6 9 7 9 6 9 9 10 9 8 8 8 9 10 10 8 6 5 5 6 6 6 8 8 8 6 5 8 8 10 9 8 7 6 5 6 5 8 7 8 7 7 5 5 5 6 6 6 6 6 5 6 6 4 4 3 4 6 8 9 10 8 8 7 9 9 10 9 10 8 8 6 5 4 4 4 5 5 5 5 3 3 3 4 4 3 0 
0 4 8 7 7 4 7 7 9 7 4 5 5 6 5 6 5 6 7 10 8 9 7 11 10 9 5 6 5 7 7 7 9 6 7 3 4 3 5 5 6 5 6 6 9 6 9 7 8 8 8 6 5 5 6 8 9 10 12 11 12 13 11 10 7 6 6 8 8 9 7 6 5 6 7 8 8 7 6 5 4 3 2 2 3 5 6 6 5 3 3 3 5 5 5 6 7 7 10 9 9 8 6 5 5 5 6 6 7 9 10 9 10 9 9 8 7 9 8 9 9 10 9 9 8 8 9 9 8 7 8 7 11 9 13 10 11 8 8 5 4 3 5 5 6 6 8 8 11 12 11 9 6 6 7 7 6 6 7 7 9 7 6 5 7 10 21 49 87 116 123 105 72 45 22 15 13 12 10 9 7 5 6 8 10 11 10 9 10 8 7 7 9 9 9 8 8 9 9 8 6 6 8 8 9 11 10 10 8 8 10 13 13 8 5 4 5 7 8 9 9 8 8 8 10 13 12 12 10 9 9 11 13 19 17 19 12 13 7 9 9 11 9 10 13 18 17 16 15 17 18 16 11 14 13 14 15 16 21 17 13 8 7 10 13 19 18 18 13 11 9 10 9 11 10 14 13 15 16 17 18 15 13 10 10 11 14 11 13 13 12 11 7 6 6 7 7 9 11 14 15 14 13 13 12 13 11 15 15 19 19 21 21 20 18 17 17 18 18 16 13 9 7 7 8 6 5 5 7 7 6 4 3 3 5 9 16 22 25 27 26 23 17 14 16 19 17 13 8 8 10 10 6 3 3 2 4 6 7 7 8 7 8 6 8 8 7 7 7 7 8 6 6 4 4 5 6 6 5 4 4 4 8 8 15 31 73 128 164 157 109 55 17 6 5 5 5 5 7 9 9 8 8 7 6 4 5 6 9 9 8 6 7 7 9 8 9 8 5 7 9 12 11 8 9 7 10 7 8 6 7 8 12 12 9 7 7 8 9 9 9 8 9 6 6 5 4 7 7 7 7 4 8 9 10 9 7 8 8 5 6 5 7 6 6 6 7 5 5 4 6 8 9 8 8 6 7 6 6 6 4 6 7 10 10 10 10 7 6 7 7 8 8 8 8 7 7 6 4 3 5 6 6 5 4 3 3 2 2 2 1 0 
0 4 9 8 7 4 6 6 6 5 5 7 7 8 6 8 8 10 7 7 6 7 7 10 10 13 9 7 5 6 6 6 8 7 8 4 4 3 6 6 7 6 6 5 8 6 7 5 7 10 9 7 5 6 6 9 9 12 13 12 12 12 10 9 6 6 8 11 9 9 7 7 8 10 10 7 5 4 5 5 4 5 5 5 4 6 5 7 5 4 4 4 4 5 5 6 7 9 10 10 10 9 9 7 6 5 7 7 7 9 11 9 10 9 10 9 9 9 8 7 7 6 7 6 6 6 6 5 5 5 5 5 7 7 9 9 8 7 6 5 4 4 4 5 5 5 4 6 8 9 9 9 7 5 5 6 5 7 8 10 13 9 8 7 8 21 42 72 103 120 118 95 61 34 19 18 18 16 10 7 7 7 6 9 11 12 11 9 9 9 10 10 11 11 8 8 10 11 9 6 6 9 13 14 13 12 11 9 8 8 11 13 14 11 8 6 6 8 8 9 10 10 9 11 12 15 12 12 9 9 7 8 11 19 18 18 11 10 7 11 13 15 14 13 16 20 18 17 17 17 14 12 11 12 12 13 15 16 19 17 14 11 11 15 19 23 23 23 18 16 14 14 15 17 17 19 17 14 11 12 13 12 12 8 8 8 10 9 11 10 10 11 9 10 10 10 10 11 14 16 16 14 13 11 11 11 10 13 14 16 17 19 18 16 13 12 14 16 19 21 20 15 12 9 11 10 8 5 4 4 4 4 4 5 7 10 16 26 35 34 29 24 23 21 19 17 13 11 8 13 12 12 8 6 6 5 5 6 7 7 7 7 9 8 9 8 6 6 7 8 9 8 8 6 4 6 8 6 6 3 4 4 7 8 10 17 44 94 148 170 142 89 40 16 8 6 7 7 10 10 12 10 8 6 5 4 4 5 6 5 4 5 7 9 12 11 10 7 6 6 6 7 6 7 8 7 8 7 6 6 6 7 7 8 8 9 8 7 6 5 6 5 6 5 5 5 5 7 6 6 5 5 7 9 10 10 8 7 6 6 7 6 8 7 7 6 6 5 5 5 6 7 8 9 10 7 7 6 6 7 6 7 7 10 10 11 9 8 6 8 8 9 9 9 8 7 5 4 4 4 4 5 5 5 5 4 3 1 2 2 1 0 
0 5 9 9 7 4 4 4 6 5 6 6 6 8 6 9 8 9 7 7 5 5 6 9 10 11 8 7 5 5 6 5 5 5 6 5 5 4 7 6 9 6 6 4 7 5 7 6 7 7 6 6 5 7 6 10 10 11 10 11 10 12 14 13 9 7 6 7 8 10 9 8 6 6 8 7 6 5 4 5 5 5 4 6 5 9 7 11 6 7 5 5 5 5 6 6 7 8 8 8 8 8 9 6 6 5 6 6 7 6 8 8 8 7 8 7 8 8 9 7 8 7 7 7 6 7 6 7 7 7 6 5 5 7 7 9 8 7 6 5 4 4 4 5 5 6 5 6 5 6 6 7 8 6 5 4 4 6 7 8 10 8 6 9 13 41 68 95 114 117 109 84 51 29 20 22 18 14 11 8 8 8 8 11 13 12 10 8 8 7 9 12 14 14 11 10 8 7 7 7 8 8 9 10 9 10 10 9 8 8 12 15 16 13 12 11 10 8 7 9 11 11 10 9 11 16 18 18 12 9 7 9 11 13 15 15 11 10 6 9 14 15 15 14 16 17 13 12 11 13 13 11 12 13 18 17 19 20 20 18 16 15 16 19 23 27 27 26 23 24 24 23 22 21 21 22 19 17 8 7 9 9 11 8 7 7 10 10 11 12 13 12 11 11 11 12 12 12 13 15 18 16 14 10 9 9 11 12 13 11 12 13 16 15 12 9 11 15 21 25 27 23 19 13 16 15 16 14 12 10 9 9 10 10 10 11 17 22 26 29 29 27 24 23 22 19 14 11 9 12 11 13 9 10 8 7 7 6 6 5 5 6 5 6 7 9 8 11 11 11 10 11 10 9 7 7 8 6 7 4 6 5 7 8 8 8 23 60 116 161 162 122 65 27 10 6 9 9 12 9 10 9 9 7 6 6 5 6 5 6 4 6 8 10 12 8 8 7 6 7 7 7 7 7 9 10 8 7 8 8 7 8 8 10 8 11 9 10 7 7 8 6 8 5 6 5 5 5 4 5 5 5 7 7 8 7 7 7 6 6 6 8 7 7 6 5 5 6 5 7 7 11 11 10 10 7 7 6 9 9 8 7 7 8 10 11 9 8 6 7 7 8 7 7 5 6 5 4 5 4 5 6 6 7 5 4 3 2 2 4 2 0 
0 6 10 9 6 4 3 3 4 5 8 7 7 7 7 7 8 9 7 5 3 4 7 8 9 10 9 9 7 6 6 6 8 8 7 7 8 6 8 8 10 7 6 4 6 5 6 5 6 7 6 7 6 7 7 9 11 14 12 11 8 10 9 10 8 7 7 10 11 9 7 8 8 9 10 7 5 4 4 5 5 7 8 10 8 12 11 15 10 10 6 7 7 7 9 7 7 7 8 7 9 8 11 8 7 5 6 5 6 6 7 8 8 9 9 7 8 7 8 7 6 5 4 5 6 6 6 8 7 6 5 5 5 6 7 7 7 5 5 5 7 7 7 6 5 4 3 4 4 5 7 8 9 7 5 3 4 4 6 9 9 9 7 11 25 64 93 110 111 103 94 69 42 27 19 20 15 12 8 7 11 12 13 13 11 11 11 8 8 8 11 12 12 12 8 8 9 8 8 7 7 8 10 11 10 10 9 7 6 8 12 15 16 11 11 10 9 8 9 10 13 14 13 12 13 14 13 11 9 8 8 11 13 13 13 12 11 11 9 14 18 17 16 15 17 17 13 13 11 13 13 17 23 21 20 17 16 15 13 15 15 15 14 17 20 23 22 20 19 19 19 19 19 18 17 22 19 20 14 9 8 8 10 9 8 8 10 11 12 12 12 12 10 10 10 10 11 12 13 13 14 11 10 7 7 8 10 10 12 10 11 10 13 11 9 6 6 9 13 19 26 29 30 24 21 19 20 19 17 15 14 13 13 13 13 12 16 24 27 23 16 17 20 24 21 20 16 13 12 13 12 13 9 12 11 10 8 6 7 6 5 6 6 7 6 7 6 8 10 12 12 13 12 11 10 8 9 8 8 6 6 5 6 7 8 6 12 33 81 134 162 149 96 50 19 9 11 10 10 9 9 8 8 6 6 6 6 7 6 7 5 7 10 11 12 9 9 7 8 6 7 5 6 6 6 6 6 7 6 8 9 9 8 9 10 11 11 10 7 5 7 5 7 4 6 5 6 5 4 4 6 6 8 9 11 8 7 5 4 6 8 12 10 10 7 6 5 8 7 10 8 9 9 9 9 6 6 5 8 6 9 6 7 5 7 8 8 8 7 6 8 6 7 8 9 7 7 4 5 4 4 4 4 6 5 6 4 3 3 4 2 0 
0 6 10 9 7 6 6 7 6 7 7 6 5 4 6 7 8 8 8 6 4 4 5 6 7 9 9 8 8 6 7 6 6 7 7 6 8 7 8 7 7 7 5 5 5 6 6 7 6 7 4 7 6 7 9 9 11 11 10 12 10 10 10 10 7 6 5 7 9 12 12 8 6 5 6 6 4 4 4 5 5 5 5 8 8 13 12 14 11 11 7 7 7 9 11 8 8 6 6 7 8 8 11 8 7 6 5 6 6 7 7 8 6 6 6 6 8 7 8 7 7 7 8 9 9 10 9 9 8 9 6 5 4 5 6 8 7 6 5 5 6 6 6 5 5 4 4 3 4 5 7 8 9 7 6 5 5 6 6 7 7 9 8 12 39 83 113 118 102 88 75 53 33 20 17 17 12 12 11 12 16 16 17 14 10 9 9 8 11 10 13 14 13 11 7 7 7 6 7 6 7 8 8 8 9 9 10 9 8 9 12 12 11 8 10 10 13 11 11 10 10 10 10 10 10 11 14 12 12 10 10 12 12 11 10 9 10 10 9 11 14 13 12 13 14 18 16 18 15 18 17 19 22 20 19 18 18 20 17 18 19 24 24 27 27 30 31 30 30 31 30 29 25 22 20 23 21 19 12 7 5 6 7 9 9 9 11 11 13 12 12 10 8 6 7 8 10 12 13 13 14 12 11 7 9 8 10 8 8 7 9 7 11 9 10 9 9 12 14 19 24 28 29 26 21 19 19 20 20 18 18 18 17 17 16 16 15 17 17 16 13 15 13 18 17 17 17 15 14 12 11 13 10 14 9 9 10 7 8 6 4 5 4 6 5 7 7 9 12 14 13 15 13 12 10 7 8 8 9 9 8 5 6 6 8 7 10 18 51 102 145 160 123 73 31 12 12 11 10 9 8 9 9 8 8 7 7 6 6 7 7 8 9 9 10 7 10 6 10 7 9 7 7 7 7 7 7 8 9 12 10 12 9 9 13 12 16 9 8 7 7 9 8 7 8 6 6 4 4 5 7 6 7 7 8 8 7 5 4 6 7 10 9 8 6 6 7 9 8 9 8 10 9 8 8 5 5 4 6 5 8 5 7 6 6 8 6 6 6 5 8 6 6 6 6 6 7 4 5 3 4 4 4 6 6 6 4 4 4 4 2 0 
0 5 8 6 6 8 8 9 10 10 8 7 5 4 5 6 6 7 7 6 7 5 7 7 7 8 9 10 12 9 11 10 9 8 9 10 11 10 8 8 6 6 4 5 4 6 5 7 5 7 5 7 6 7 11 10 14 15 15 17 12 10 9 7 8 6 7 9 10 9 7 6 6 5 7 7 5 5 4 5 4 5 6 8 7 9 12 15 12 10 8 9 7 10 9 9 8 7 7 7 7 9 9 9 6 5 4 7 5 9 7 10 8 9 8 6 8 7 9 7 8 6 8 8 10 12 11 13 8 7 4 6 6 7 7 8 6 7 5 7 7 7 7 5 5 3 3 3 5 6 8 8 9 9 7 9 7 9 8 9 7 9 9 15 52 96 121 113 87 71 57 39 21 15 15 13 11 13 11 12 17 18 18 11 8 6 9 10 12 10 11 14 15 13 9 5 5 5 5 4 6 5 6 8 10 10 11 9 9 10 13 10 8 5 6 9 12 12 11 10 10 11 10 9 9 6 8 7 9 10 11 14 13 10 7 8 9 11 12 15 15 12 10 11 13 17 15 16 14 14 15 19 24 23 20 14 13 13 14 15 16 19 17 18 18 19 20 18 16 16 16 18 20 22 23 26 27 26 21 15 12 11 11 10 9 9 10 9 9 8 8 6 4 4 5 6 6 8 9 12 15 16 15 10 9 8 9 9 11 13 15 12 14 12 14 11 9 8 7 9 15 25 30 27 21 17 16 17 20 21 20 17 15 13 11 11 12 14 15 13 9 14 15 16 14 14 16 14 13 11 10 13 13 15 10 9 10 10 11 8 7 6 5 5 4 5 5 7 9 13 12 12 10 10 8 5 6 9 11 10 9 4 6 5 7 8 10 13 30 71 119 156 144 102 51 21 14 11 9 8 7 6 7 6 7 7 8 8 9 7 9 8 10 10 10 7 9 8 10 8 9 10 7 7 5 4 6 6 7 9 8 10 10 9 11 11 14 10 8 8 7 10 9 8 9 7 7 5 5 6 7 7 8 8 9 8 6 5 4 5 8 11 11 10 9 7 7 8 8 8 6 7 7 8 7 6 6 6 7 5 5 4 5 4 5 7 6 6 6 5 6 5 6 7 8 9 7 5 4 3 3 4 4 6 7 7 6 4 3 3 1 0 
0 4 7 6 7 9 12 13 13 9 9 7 6 7 6 8 7 9 9 7 6 7 8 7 9 9 12 10 12 9 8 8 10 11 9 10 9 12 7 7 4 5 5 6 5 6 5 5 6 7 8 7 7 6 9 9 11 11 11 12 12 9 10 7 8 6 7 7 8 9 8 8 6 5 6 5 4 5 5 7 6 5 5 7 7 8 8 8 9 8 8 10 8 11 8 9 8 9 8 7 6 6 7 6 4 4 4 7 6 9 6 10 7 7 7 8 10 7 8 6 8 7 8 9 11 13 12 12 10 9 6 6 6 7 7 8 6 7 5 5 5 6 7 5 6 4 5 4 5 6 9 8 9 10 9 10 10 13 9 9 6 10 9 24 72 116 131 110 79 57 42 27 15 13 10 12 12 12 10 10 15 16 17 11 8 5 8 7 9 9 11 14 16 14 11 6 5 3 4 4 6 6 7 7 9 9 10 9 9 9 9 7 6 5 7 11 13 12 9 6 5 6 6 7 8 9 11 10 10 11 10 13 12 11 7 7 6 8 10 10 10 9 8 9 11 14 15 20 21 20 20 21 24 20 15 12 17 19 21 17 18 19 21 24 27 27 27 25 22 21 20 21 23 26 29 27 23 18 14 12 11 11 13 13 12 9 9 8 8 7 6 5 5 6 7 7 6 7 7 9 13 15 16 12 9 7 8 8 10 11 13 12 14 14 16 15 12 9 8 9 10 13 16 19 16 13 14 15 15 16 15 15 14 12 11 10 8 10 11 12 12 14 13 12 11 9 11 10 10 10 10 12 13 15 15 14 14 11 12 7 6 5 4 4 3 4 5 8 9 13 12 11 9 8 7 5 4 8 11 11 10 5 7 5 6 9 9 12 17 47 90 140 154 130 82 39 18 12 9 8 7 7 8 7 8 7 8 8 8 9 8 8 8 7 8 9 9 9 8 11 9 11 8 8 6 4 6 6 8 6 7 7 8 10 9 11 12 12 8 7 6 9 9 8 9 7 7 5 5 6 8 8 7 8 9 8 8 5 4 4 5 8 10 8 7 5 8 7 7 7 6 7 8 7 8 7 5 5 6 6 5 5 7 7 8 8 7 6 6 5 7 7 8 9 6 5 5 5 3 4 3 3 4 5 8 6 7 4 4 3 1 0 
0 4 6 4 4 7 10 10 13 10 12 10 9 9 7 8 8 9 9 10 9 8 9 9 12 9 14 13 13 12 11 11 11 12 12 13 9 12 6 7 3 5 4 5 5 5 5 3 8 7 10 7 8 7 9 9 9 9 11 11 11 9 9 8 8 7 8 6 7 7 6 7 9 7 8 6 6 7 6 6 4 5 6 6 5 5 6 7 8 7 7 11 9 10 8 10 9 11 9 7 6 5 6 5 5 5 7 7 7 7 6 8 7 9 7 6 6 6 7 6 7 7 7 8 8 11 13 13 11 8 6 7 7 9 8 7 6 6 6 6 7 7 9 7 7 6 6 5 6 5 8 7 10 8 10 8 10 11 9 9 7 9 12 46 96 133 132 99 67 45 32 17 12 9 7 11 12 11 9 8 14 13 14 10 9 7 8 6 7 6 7 9 14 14 13 8 5 3 4 5 6 6 6 5 7 8 8 8 9 10 9 6 4 4 8 10 13 10 7 6 7 8 7 9 9 10 10 10 9 12 10 12 12 11 9 7 6 9 11 12 12 7 8 9 10 11 12 13 13 13 14 15 20 19 17 14 15 18 18 13 13 15 19 18 16 13 11 9 7 7 8 11 15 20 24 26 25 23 21 21 20 19 18 14 14 15 16 12 11 9 10 12 13 14 14 12 9 8 7 8 11 13 14 12 10 7 8 8 10 12 13 13 13 14 17 17 15 11 8 9 13 18 17 14 15 15 16 17 18 18 17 15 14 13 11 7 7 10 14 14 14 14 13 11 8 8 9 9 8 7 7 8 11 14 13 11 14 11 12 8 7 6 6 4 3 5 5 8 9 12 11 11 9 8 7 5 5 7 10 12 10 7 8 6 6 8 8 12 13 30 64 112 147 150 115 68 30 14 8 8 5 4 5 5 8 6 9 10 11 10 9 8 7 8 8 7 7 8 9 12 11 13 9 8 5 5 5 5 6 5 5 6 6 8 7 12 9 9 6 7 6 8 8 6 8 6 7 6 5 7 8 8 8 8 8 7 7 5 5 4 6 8 9 10 11 7 8 6 7 7 5 6 9 9 10 6 6 8 8 8 6 6 6 7 8 7 8 6 6 6 7 8 8 7 8 7 6 4 3 3 4 4 6 6 11 8 8 4 5 4 3 0 
0 3 5 3 3 6 9 9 9 8 9 10 10 9 8 8 11 14 14 11 9 9 10 8 9 9 14 12 12 8 7 9 13 14 11 11 7 8 6 6 4 5 4 5 5 4 5 3 8 7 11 7 6 6 6 7 7 5 6 6 7 9 8 8 8 7 7 7 6 7 8 8 11 9 9 6 6 5 7 8 7 7 7 8 8 6 5 5 6 6 7 9 9 9 6 7 8 10 10 7 5 4 5 5 7 7 10 8 9 5 6 7 7 8 7 8 7 5 4 4 6 7 6 7 8 10 11 10 12 12 11 11 9 9 8 8 7 7 7 6 8 9 12 9 8 7 7 6 6 5 8 7 9 7 7 6 8 9 9 7 7 7 18 69 115 140 122 79 49 30 18 13 11 9 10 15 12 10 7 8 13 12 13 11 9 7 6 3 4 3 5 5 10 11 12 8 6 5 6 6 7 6 6 4 5 7 7 10 7 8 6 5 5 5 9 9 12 8 8 7 8 10 8 8 8 9 10 12 8 8 5 9 11 11 9 6 6 9 11 11 11 8 10 7 7 8 9 15 17 19 23 22 26 21 17 13 12 15 15 14 13 13 16 17 17 16 14 12 9 8 7 7 9 13 14 14 11 10 11 11 14 16 17 16 16 16 15 13 12 12 13 14 16 18 18 17 15 13 12 11 10 11 14 14 14 13 11 9 8 8 7 8 9 12 16 18 19 19 17 18 17 18 18 17 15 16 16 15 15 16 16 16 16 16 16 13 16 15 18 15 13 13 10 8 7 8 8 6 6 6 8 9 12 12 16 13 14 8 8 4 5 6 6 5 4 5 6 9 10 11 11 10 9 9 8 7 6 6 9 10 9 9 8 7 7 7 8 9 13 20 42 79 123 153 142 101 51 20 7 6 5 5 5 5 8 7 9 9 9 9 8 7 7 8 10 10 10 9 11 12 13 12 10 9 7 5 5 6 6 5 5 6 6 8 7 9 8 8 6 5 5 5 6 5 7 7 7 7 6 6 7 6 6 6 8 9 11 7 6 4 5 7 9 8 8 7 9 7 7 5 4 6 10 11 11 8 7 8 8 8 7 7 8 10 10 9 8 6 6 7 8 9 11 9 8 4 5 4 4 4 4 4 4 5 7 6 8 5 6 5 3 0 
0 3 4 3 2 4 6 7 7 8 9 11 10 8 7 7 9 9 10 12 12 8 7 6 8 7 10 9 11 7 8 10 13 17 13 11 9 10 9 7 6 6 5 7 7 5 5 3 6 5 8 7 6 7 6 6 5 5 6 7 8 8 6 7 6 6 6 6 5 5 5 7 10 11 12 10 9 8 8 7 7 7 8 8 7 6 6 5 6 5 6 8 10 10 7 5 6 7 7 6 5 5 6 8 8 10 11 9 10 7 8 6 9 8 8 5 4 4 4 5 6 9 9 9 10 11 13 12 14 10 10 10 10 12 9 8 5 7 6 7 7 10 13 12 11 7 6 5 5 5 7 7 7 7 5 6 7 7 8 6 7 11 36 88 126 135 106 64 39 24 15 12 10 9 9 14 12 13 11 12 15 12 10 8 8 7 6 4 4 4 4 4 7 8 10 8 6 5 6 6 9 7 7 4 5 8 9 13 9 10 7 5 4 4 6 8 12 9 10 10 11 11 8 6 7 7 12 14 15 13 8 10 13 14 12 8 8 12 14 15 14 12 11 8 7 8 8 10 11 14 18 18 22 19 18 13 11 14 12 12 11 14 15 14 11 10 10 9 9 9 9 10 9 9 10 10 11 12 13 13 14 13 14 16 18 23 25 24 21 19 20 24 28 29 26 20 14 11 10 12 13 13 14 16 19 19 17 13 11 9 8 10 10 10 13 14 18 20 19 18 18 20 20 20 17 16 18 19 16 14 13 15 16 18 21 21 25 20 20 14 10 9 6 6 5 6 7 6 6 7 7 8 9 8 12 10 11 7 5 3 4 5 6 5 5 5 6 7 9 9 10 9 8 10 8 7 7 7 8 9 8 10 8 7 7 6 8 6 10 13 25 48 89 136 152 131 78 34 11 6 4 4 3 4 5 5 7 7 8 8 8 9 8 9 9 9 9 9 11 13 14 11 12 7 7 5 7 5 5 5 5 5 6 9 11 10 9 6 7 7 8 8 7 5 6 6 7 7 8 7 6 5 5 5 7 7 8 9 8 6 6 6 7 9 10 10 10 9 9 8 6 6 8 10 10 9 8 8 8 6 6 7 7 9 8 7 6 6 7 9 9 10 10 9 8 5 4 4 5 4 4 3 4 5 7 6 7 6 7 7 4 0 
0 3 4 4 3 5 5 5 5 4 5 7 7 5 5 6 9 10 11 10 9 8 9 6 6 5 7 6 6 5 6 8 11 12 11 9 7 7 7 8 7 8 7 7 7 5 5 5 8 7 7 7 5 7 4 5 5 4 5 5 5 5 5 5 6 6 8 7 7 6 7 7 8 11 10 11 8 8 7 8 9 10 11 10 11 9 8 7 6 5 6 7 9 7 6 4 4 4 5 6 6 6 5 8 9 10 10 8 8 6 7 7 11 9 9 6 5 4 4 4 5 8 9 12 11 12 14 11 16 13 15 12 10 9 8 8 6 7 5 7 8 14 14 10 7 5 5 4 5 5 6 8 6 6 4 6 8 8 8 6 7 19 55 102 128 122 90 54 34 18 14 10 9 11 14 22 18 16 14 15 16 13 9 8 8 8 5 6 4 5 3 3 4 6 7 6 6 5 6 7 7 6 6 4 5 9 10 12 9 7 6 5 6 4 5 6 8 7 8 8 9 9 8 5 6 7 14 16 16 12 8 8 11 14 15 16 17 18 16 15 13 13 12 11 8 9 9 11 11 14 19 21 24 18 16 9 9 8 8 11 11 13 12 9 8 10 11 9 12 9 10 9 8 8 7 6 6 5 7 8 11 11 11 12 14 19 21 22 22 25 27 30 33 36 38 35 30 26 25 25 25 24 24 27 29 27 22 16 12 10 9 10 10 11 11 13 18 22 22 20 18 18 21 20 20 15 14 15 19 22 20 16 16 18 21 21 23 19 16 10 8 7 8 9 8 6 5 4 4 6 10 14 16 13 11 9 9 7 4 4 5 6 7 7 8 6 8 7 8 6 7 6 7 8 7 8 9 7 9 7 8 9 7 6 5 5 8 7 10 10 17 28 57 108 144 146 105 54 19 6 4 4 3 3 4 5 5 5 6 6 9 9 8 9 9 11 12 10 13 11 12 10 10 7 9 6 6 5 4 3 4 6 7 7 8 7 8 6 6 9 8 9 6 6 6 7 8 8 7 7 5 4 3 4 5 8 9 8 7 7 8 9 8 9 8 9 9 10 9 7 5 5 7 10 9 11 8 8 7 5 5 6 8 9 8 6 5 6 5 9 9 13 11 10 8 5 6 7 8 7 5 4 4 4 6 7 7 6 6 6 4 0 
0 3 5 5 5 6 6 6 5 4 5 6 6 5 6 6 7 5 7 7 10 9 8 7 7 4 4 4 4 4 4 7 10 13 11 8 8 9 10 11 10 9 9 8 7 6 5 5 7 7 7 6 6 6 5 6 5 7 7 7 6 6 5 5 7 7 7 7 7 6 5 6 6 11 11 17 11 11 7 9 7 8 10 11 12 12 10 10 8 6 9 9 11 10 7 5 5 4 4 5 6 6 7 7 9 8 7 7 7 8 10 9 11 9 7 5 4 5 5 5 6 8 10 12 12 11 12 11 15 11 13 10 12 14 11 9 7 6 5 6 7 10 12 14 10 7 5 5 5 6 6 7 7 6 6 9 8 10 9 9 10 36 78 115 123 105 77 52 35 18 16 13 11 12 14 19 19 16 15 15 14 12 7 7 6 9 6 9 6 7 5 3 3 5 7 6 5 6 6 8 6 6 6 6 7 9 10 10 8 6 6 6 6 5 4 5 8 9 9 11 11 11 10 9 11 14 21 24 26 18 14 15 18 21 21 20 17 16 15 14 13 14 12 10 9 9 9 7 7 9 12 15 17 15 15 9 11 10 11 9 10 11 9 9 9 9 11 9 11 10 11 8 7 6 6 6 6 7 9 9 8 8 9 12 15 21 25 26 21 22 23 26 29 29 30 28 26 25 26 29 32 33 34 35 36 35 34 30 27 22 18 20 21 21 17 14 13 14 16 16 17 19 25 24 21 17 16 17 16 16 16 20 18 17 19 19 18 13 11 8 8 7 7 7 6 5 4 3 4 6 8 9 11 12 13 12 9 6 5 4 5 6 7 6 6 5 6 6 8 8 7 4 5 7 7 7 9 8 11 6 8 7 7 4 4 6 8 7 9 8 13 20 38 80 123 147 126 78 35 10 3 3 2 2 2 2 3 3 4 4 7 8 8 9 9 9 13 9 12 9 10 7 7 6 6 6 6 5 4 3 3 5 8 12 12 9 7 8 8 11 11 13 10 8 5 8 8 10 8 7 5 5 5 6 7 7 6 9 8 10 10 10 8 10 9 11 10 8 8 8 7 5 6 8 7 10 7 6 4 4 5 7 8 8 6 4 4 5 5 9 9 10 11 11 10 7 6 6 7 7 8 6 6 4 5 5 5 5 6 4 2 0 
0 4 7 6 5 4 5 4 4 4 4 4 5 5 6 7 8 6 8 6 9 9 10 9 7 7 6 6 4 3 3 5 6 7 7 6 6 7 8 9 10 9 9 9 6 5 5 9 9 10 7 6 6 6 6 6 5 5 5 5 5 6 6 7 6 7 6 7 6 7 6 7 6 10 8 13 8 11 6 7 8 11 11 14 11 15 9 10 8 7 9 10 10 9 8 7 7 4 6 6 9 7 9 7 9 7 7 6 7 7 8 9 11 10 9 7 6 7 7 7 6 5 8 9 9 10 10 11 13 11 11 12 9 10 10 12 9 7 5 7 9 13 12 8 6 5 6 5 5 5 5 6 5 6 5 9 9 12 9 11 14 53 97 130 120 91 62 40 21 15 16 13 12 13 15 19 18 15 13 13 12 12 8 8 6 10 6 9 5 6 5 4 4 4 5 5 5 8 7 8 5 4 5 7 8 9 8 8 6 5 6 8 7 7 6 6 6 7 9 11 13 13 12 11 11 13 20 23 24 18 16 14 14 16 20 24 24 18 12 9 8 10 10 10 11 9 11 8 7 6 7 12 14 16 14 12 14 10 14 10 11 11 9 11 12 13 11 11 10 9 8 6 5 6 7 7 7 7 8 9 12 11 9 9 10 15 18 19 19 22 23 27 29 30 33 33 30 29 28 29 29 28 29 32 33 30 25 23 23 24 24 23 23 25 28 28 28 25 20 20 16 18 24 29 29 22 13 13 17 24 21 22 25 29 23 13 8 6 6 6 6 8 8 10 9 6 3 3 4 5 7 11 14 13 12 10 9 6 5 6 7 8 7 9 8 6 6 6 8 6 6 4 5 8 8 7 9 7 10 6 7 6 6 3 3 5 8 8 9 7 10 17 29 61 100 137 138 101 54 18 7 5 4 3 2 2 3 3 4 4 5 5 5 5 6 6 9 9 12 8 8 8 8 7 6 6 6 5 4 2 3 6 9 10 10 10 8 7 6 8 9 9 7 8 7 11 11 10 8 7 7 4 4 5 6 7 7 8 8 10 12 10 11 11 10 10 9 6 7 6 6 6 5 6 5 7 5 5 4 5 6 10 10 9 8 4 4 4 5 6 9 9 9 7 8 9 10 10 10 9 9 8 8 8 8 8 7 4 4 3 3 0 
0 4 6 6 5 4 5 5 6 5 5 5 6 7 8 7 7 5 6 6 8 8 8 7 7 7 7 7 5 4 3 5 5 6 6 5 4 7 8 11 9 8 7 5 4 5 5 9 8 12 7 7 6 6 8 6 8 7 7 6 6 7 7 8 7 8 5 6 4 6 5 5 4 8 8 12 9 9 6 7 7 10 11 16 10 13 8 9 6 7 8 9 8 8 9 8 9 5 7 6 10 8 10 7 8 5 5 6 7 8 10 11 10 10 7 10 8 10 8 8 6 7 6 6 7 6 7 9 11 14 11 13 10 13 11 11 10 9 7 7 9 9 10 9 10 7 8 6 7 4 4 5 6 6 6 9 9 10 12 16 22 73 113 139 114 71 41 27 13 13 14 15 15 13 13 15 15 14 10 10 9 8 6 7 6 9 7 9 5 6 5 5 4 4 5 5 7 9 8 7 3 3 4 7 8 8 8 6 6 7 6 10 8 10 7 7 6 8 10 12 14 14 14 13 13 16 20 23 24 20 20 17 18 16 17 17 17 13 9 7 7 8 10 10 15 12 12 7 7 7 9 10 13 19 16 17 13 14 16 14 13 10 9 10 9 13 10 12 9 13 11 10 7 7 7 7 6 7 8 8 9 10 9 9 8 12 15 14 12 12 13 15 14 14 15 16 17 20 21 23 25 25 27 29 31 31 31 32 31 28 25 26 29 28 27 28 29 29 26 27 26 33 32 31 28 23 19 16 14 15 17 23 22 23 20 15 8 5 5 8 7 7 6 6 5 5 5 5 5 6 6 7 8 9 9 8 6 5 5 6 6 7 6 6 6 5 8 6 9 7 7 5 5 7 6 6 7 7 7 5 6 7 8 5 4 5 9 9 9 6 8 16 26 49 81 122 140 119 75 29 10 4 4 3 3 3 3 4 4 4 3 4 5 5 5 5 7 7 8 8 7 6 6 6 7 6 7 6 4 3 4 5 8 11 10 9 7 8 8 8 8 10 9 8 7 8 8 9 9 9 7 6 6 6 6 7 7 8 9 9 11 9 11 8 11 9 8 6 6 7 7 7 5 5 5 5 4 3 3 6 7 11 10 9 7 5 4 2 4 4 5 4 6 8 11 9 11 7 9 8 9 10 10 8 6 5 4 3 4 4 3 0 
0 6 8 6 3 3 5 6 8 9 11 10 10 7 6 6 5 4 5 5 7 7 7 5 9 9 12 10 6 6 3 5 4 4 4 4 4 7 6 8 8 7 6 4 4 5 5 9 7 10 5 7 7 6 8 6 5 5 5 6 7 9 9 9 6 5 4 5 4 5 5 8 7 9 6 9 7 7 6 7 10 12 12 11 9 9 5 6 4 6 6 8 6 7 8 7 7 3 7 8 12 10 11 9 11 9 8 8 8 8 8 8 7 11 9 13 9 11 7 8 5 5 4 5 6 5 7 8 9 12 9 12 7 10 14 15 16 9 9 9 11 11 10 9 9 7 10 7 6 4 4 4 4 4 6 9 11 11 12 15 27 84 125 144 108 57 27 14 7 12 15 19 19 15 14 14 13 13 9 6 6 7 9 9 7 9 6 6 3 7 7 9 7 5 5 5 8 11 10 8 4 3 5 7 7 7 6 5 7 7 7 11 9 13 8 8 6 6 9 11 12 12 11 12 10 14 13 18 20 19 21 16 17 13 15 16 16 13 10 8 6 6 11 10 16 13 13 8 8 8 12 12 14 21 21 27 21 20 17 16 13 13 14 17 17 20 14 16 13 15 14 14 11 10 7 6 6 7 8 9 8 8 7 7 7 10 13 14 14 14 15 17 17 17 16 14 11 11 11 12 12 10 12 13 16 15 14 16 19 23 23 23 24 29 35 42 40 33 24 21 19 24 29 34 34 27 20 17 17 17 15 19 22 27 22 17 13 12 12 12 10 8 5 6 7 7 8 8 7 8 7 8 6 5 5 6 5 4 3 6 7 7 6 5 7 6 9 7 9 6 6 4 4 7 7 7 7 6 6 5 5 6 6 5 5 6 9 9 8 5 6 13 23 39 65 105 136 132 96 45 18 7 7 6 5 5 5 6 4 5 4 3 3 3 2 3 5 9 10 8 7 9 9 7 6 5 6 5 5 4 4 5 6 7 8 6 6 6 6 6 8 7 8 8 8 10 10 10 8 12 8 9 6 6 6 6 8 9 10 9 10 7 12 8 11 7 6 5 5 8 8 7 6 4 4 5 4 3 3 6 8 11 8 10 7 7 5 4 5 5 5 4 3 4 8 7 11 8 9 8 9 9 9 9 9 8 6 4 4 5 4 0 
0 7 8 5 3 3 4 6 8 10 12 11 12 8 7 3 4 3 4 4 6 5 5 4 7 7 9 9 8 9 5 5 3 4 5 5 6 7 7 8 7 8 8 6 4 5 6 8 8 9 7 9 9 9 6 5 4 5 5 5 6 7 8 8 7 8 7 6 4 4 5 7 7 9 7 7 6 7 9 10 14 12 14 9 8 7 7 6 5 6 5 6 4 5 6 7 8 6 8 8 11 9 9 9 9 8 7 8 9 9 7 7 7 8 8 10 10 12 8 7 5 5 5 4 5 4 5 7 9 13 9 10 7 10 12 14 15 9 11 7 10 11 10 8 9 8 10 7 7 5 4 4 5 5 6 8 9 9 12 14 37 97 139 147 102 48 21 9 7 11 15 15 17 15 14 15 15 13 9 4 4 5 7 8 7 7 5 6 5 8 9 9 7 6 6 6 10 11 10 6 4 5 6 7 7 6 5 5 7 8 9 10 10 13 10 8 6 5 6 7 8 9 8 10 10 14 10 13 14 13 17 12 13 8 9 9 11 13 12 9 8 8 16 17 25 19 17 14 13 14 15 14 15 20 19 21 19 19 19 20 19 19 18 21 22 25 24 21 16 13 14 13 12 10 9 8 9 10 8 7 7 9 8 8 7 7 9 9 10 10 10 12 10 11 11 11 10 10 10 12 14 14 15 13 13 11 13 15 15 15 15 16 16 17 20 26 29 27 22 19 19 22 22 20 18 18 20 20 16 17 18 20 16 17 14 17 14 12 11 11 10 10 8 9 12 11 13 11 9 11 6 9 5 4 2 3 2 3 3 5 8 6 6 2 5 6 9 7 9 7 6 4 3 5 6 7 7 6 6 6 7 8 8 7 6 6 8 8 8 4 4 9 19 31 52 88 127 139 115 65 28 8 6 6 7 7 8 9 6 6 5 4 3 3 3 5 5 7 6 7 7 7 7 6 4 4 5 4 4 4 4 4 5 5 6 4 5 5 7 8 9 11 11 8 9 7 6 8 7 10 7 9 7 8 7 7 9 9 10 8 10 7 11 7 9 7 6 7 6 8 9 9 8 6 7 5 6 4 4 7 8 9 6 9 7 9 6 5 4 3 4 4 4 5 7 6 8 7 8 8 9 9 9 8 7 7 6 4 4 6 4 0 
0 5 8 5 4 6 7 9 11 13 15 12 11 8 6 3 5 4 6 5 6 6 9 9 11 11 10 10 8 7 6 6 5 6 7 8 7 9 7 8 7 8 8 6 6 5 6 8 9 8 9 10 9 9 6 5 2 3 4 6 7 8 8 8 5 5 4 4 5 5 6 9 10 8 8 8 7 10 10 13 14 11 10 8 8 5 6 6 7 8 7 8 4 5 6 8 6 6 8 9 10 9 7 8 9 12 10 9 7 7 6 4 6 6 9 8 9 8 7 7 6 5 4 3 5 5 5 7 7 8 7 9 7 11 12 14 15 10 11 8 10 10 11 11 9 8 8 7 7 5 6 6 5 5 5 10 10 11 10 21 59 115 149 139 89 40 16 8 8 10 16 17 18 15 14 15 13 12 8 6 5 7 9 9 7 6 5 7 8 11 11 9 10 8 9 8 10 11 9 7 7 7 8 6 5 5 4 4 6 7 9 9 10 11 10 10 7 6 5 5 7 8 8 10 10 13 11 12 12 11 14 11 12 11 13 13 13 13 14 14 16 15 22 21 27 21 21 18 19 21 18 17 15 18 25 29 28 25 20 16 14 15 16 19 23 24 22 19 16 11 11 12 14 15 15 14 16 17 15 13 10 10 10 8 8 7 10 8 9 9 7 8 6 8 10 9 8 7 8 8 8 8 9 8 8 5 7 7 10 12 12 11 12 15 20 24 22 16 11 8 10 12 16 18 17 15 13 14 13 15 17 25 25 24 14 14 14 16 14 14 11 12 12 13 18 18 21 17 11 12 7 9 5 3 3 3 3 2 4 4 8 6 8 5 5 6 7 7 7 7 6 5 4 6 9 9 8 9 8 9 8 8 7 7 6 6 7 7 7 5 5 7 14 23 39 71 112 138 130 86 43 16 9 7 8 11 9 10 7 6 5 6 6 5 5 5 7 9 7 6 5 8 7 6 3 3 3 4 4 4 4 4 4 5 4 4 3 5 6 7 9 8 9 7 9 9 9 7 7 8 8 8 9 9 10 8 9 8 10 7 9 6 10 9 9 7 6 6 8 11 10 9 8 6 8 6 7 5 6 6 9 7 6 7 7 9 8 6 6 5 5 5 5 5 6 6 6 7 8 9 10 8 6 7 9 10 8 5 3 6 3 0 
0 8 12 8 6 6 8 9 10 11 12 12 9 8 6 4 6 5 8 7 8 7 7 8 8 9 9 8 8 10 7 7 6 8 7 9 6 9 6 9 9 12 12 9 7 8 10 8 11 9 12 9 11 9 8 5 4 4 5 6 7 7 6 7 5 8 7 7 6 5 5 5 6 6 5 5 5 10 12 17 14 14 12 9 7 5 6 8 10 13 11 11 8 7 6 7 9 8 7 7 8 7 5 5 6 7 7 8 9 7 5 4 5 5 6 6 7 9 8 8 7 6 5 5 5 6 5 6 5 7 7 9 9 9 10 9 9 7 8 9 9 11 8 8 5 6 6 6 6 5 6 6 6 7 7 10 7 12 10 39 82 132 149 122 73 38 18 15 11 11 12 14 16 16 15 13 11 12 7 7 5 7 8 7 7 5 5 7 9 11 10 8 11 12 13 8 11 10 10 7 9 9 9 6 6 5 5 5 7 7 9 10 11 12 9 9 8 8 7 7 8 9 10 10 11 10 10 9 9 9 10 9 10 9 10 12 14 15 15 16 18 18 24 23 26 23 21 20 20 21 20 18 18 18 18 20 22 24 26 29 30 29 29 30 33 37 38 32 23 17 14 13 12 12 12 13 15 19 20 20 16 14 13 11 9 6 7 6 6 7 6 7 4 6 9 10 12 7 6 5 6 9 11 8 6 3 4 3 7 9 11 9 5 6 10 14 14 12 11 7 7 7 6 6 6 8 10 12 12 17 18 24 23 24 21 19 14 12 10 14 13 15 13 15 18 18 21 21 15 12 8 7 6 4 5 4 4 4 6 6 8 6 8 8 8 7 6 7 9 8 6 5 6 8 10 11 11 11 9 9 8 8 7 7 7 6 6 7 7 6 7 7 11 17 31 56 95 129 137 107 61 24 10 10 9 14 13 15 9 6 6 6 6 5 5 5 5 5 6 6 6 6 6 5 4 4 4 4 4 4 4 4 4 5 4 4 4 4 5 6 8 7 7 7 8 9 7 7 5 6 6 6 9 9 12 10 9 9 7 7 10 10 12 10 10 10 8 9 8 9 13 12 11 7 7 6 8 6 8 7 11 7 6 6 8 8 8 6 6 7 7 8 7 5 6 8 6 8 8 10 9 9 6 5 6 6 5 5 3 7 4 0 
0 6 10 8 8 8 10 9 11 10 11 10 8 8 6 5 7 7 11 8 9 9 11 13 13 11 8 9 8 12 9 10 7 9 7 10 7 8 6 9 8 10 8 7 8 7 8 7 11 9 14 9 12 9 11 7 7 6 7 8 8 10 10 10 7 9 5 6 6 5 6 5 6 4 5 5 5 9 11 14 12 11 9 8 7 5 5 6 9 12 12 13 10 7 7 9 8 8 6 7 7 6 6 5 6 8 8 6 5 4 4 4 4 5 5 6 8 6 6 8 7 7 5 4 5 6 6 7 6 6 7 8 10 9 6 5 5 7 9 11 8 9 7 8 7 7 7 7 7 7 9 9 8 9 8 10 10 11 13 57 104 145 140 96 51 30 14 15 9 10 13 18 17 17 14 11 11 8 9 9 8 8 8 7 6 4 5 9 10 11 9 9 14 16 16 11 10 9 9 8 11 10 9 5 7 7 7 5 5 6 7 9 11 12 9 8 7 7 7 8 11 12 14 15 19 19 21 21 20 17 16 13 13 14 17 21 24 24 24 26 28 29 31 29 29 28 28 28 27 24 22 20 18 20 21 24 22 21 20 22 25 27 28 29 32 33 32 29 26 25 24 26 28 29 29 28 27 24 21 19 17 14 12 10 10 8 8 6 6 7 7 7 4 5 8 8 9 7 7 5 5 6 7 7 7 5 6 4 8 8 9 8 7 7 8 9 10 8 9 7 7 7 8 9 10 10 10 10 8 10 12 19 23 23 21 20 20 24 20 18 13 13 13 12 15 17 19 18 15 13 11 7 7 4 6 5 8 8 8 8 7 8 8 10 9 7 7 8 10 10 9 8 9 12 12 12 12 11 9 8 6 5 6 6 6 6 5 6 7 8 9 9 9 12 25 44 78 114 136 124 82 38 13 9 11 13 12 12 8 6 6 6 7 8 5 6 6 8 7 7 7 6 6 6 6 5 5 5 5 4 4 4 4 4 5 5 4 4 6 4 5 4 4 6 8 12 9 8 5 6 5 5 7 7 10 9 7 7 6 9 9 11 11 12 10 10 8 7 9 10 12 10 10 7 6 6 6 5 7 8 11 10 9 8 8 8 8 7 7 8 11 10 9 9 8 7 6 9 8 12 11 10 6 7 8 9 7 5 4 6 4 0 
0 10 16 10 8 7 8 8 9 8 10 8 7 7 6 5 6 7 10 8 9 6 8 8 10 10 9 10 8 13 10 13 8 11 7 9 8 10 9 9 9 10 10 9 8 10 8 7 7 7 10 9 11 11 13 10 9 8 8 9 9 9 10 11 10 11 8 10 8 6 5 4 4 3 3 3 4 6 8 11 11 10 10 9 8 6 5 6 10 10 13 11 11 7 6 8 7 9 4 4 5 5 7 6 8 6 7 7 7 6 4 4 3 5 5 6 6 6 6 8 7 8 7 6 7 6 6 5 6 6 9 10 9 8 6 4 4 5 7 11 8 9 8 7 8 7 8 7 8 9 8 8 7 8 10 9 10 8 16 64 114 148 128 77 36 25 15 20 14 11 13 19 19 17 13 9 10 7 9 8 7 8 10 10 9 7 6 8 9 11 8 9 15 19 17 11 8 8 9 10 12 12 10 7 9 8 8 6 5 5 7 9 10 10 9 7 7 9 11 12 14 16 18 17 20 18 19 18 20 20 22 21 23 23 25 26 28 27 27 29 33 36 37 36 36 36 37 38 37 33 32 32 31 28 22 18 16 16 19 23 27 29 30 31 31 33 33 31 26 24 26 29 30 30 30 30 31 31 32 24 18 11 8 9 11 12 10 9 9 10 11 9 7 5 8 11 12 9 6 5 6 7 8 8 7 7 7 6 7 9 13 10 11 9 10 10 12 9 9 6 7 6 6 6 6 8 9 12 15 15 12 10 13 18 20 20 18 20 21 24 21 15 11 9 9 9 15 19 17 14 14 12 11 6 7 5 7 8 10 10 9 8 8 11 10 9 8 9 11 10 7 9 11 13 13 11 10 9 7 4 2 2 4 6 7 6 5 4 6 8 8 9 7 10 20 34 61 96 129 136 104 58 22 9 11 13 14 13 8 5 5 6 5 4 4 7 6 8 7 8 6 6 6 5 5 6 7 6 8 6 7 5 5 7 7 7 6 6 5 4 4 4 5 7 8 8 8 8 6 6 5 4 4 6 8 8 8 8 7 10 10 15 10 10 9 10 11 9 9 9 13 11 10 7 6 4 3 6 7 11 11 13 9 9 9 10 6 5 7 8 10 10 9 9 7 8 7 7 7 11 9 10 7 6 6 5 5 4 5 8 5 0 
0 7 10 8 6 6 7 6 8 8 8 8 6 6 5 5 5 6 7 7 7 6 9 9 11 9 8 9 9 14 11 14 10 10 8 10 13 14 14 10 11 8 10 11 10 10 7 6 5 6 8 10 12 15 14 11 9 8 8 8 9 10 13 11 10 12 8 8 6 6 6 4 5 4 4 3 4 5 7 11 10 11 8 9 8 8 7 7 8 6 11 8 9 5 4 8 7 10 7 8 8 8 11 8 12 8 10 6 7 6 5 5 6 8 7 8 5 5 5 6 9 7 9 5 6 4 5 4 5 5 7 7 7 7 6 5 5 7 8 11 9 10 7 7 9 9 11 11 10 10 10 9 8 8 8 8 11 9 18 67 122 151 124 71 31 19 12 15 12 13 13 16 15 12 11 9 11 9 10 10 10 8 8 8 8 6 7 8 9 10 8 10 15 17 15 9 7 6 7 10 11 13 12 10 12 10 9 6 5 4 5 7 11 12 10 8 6 6 8 12 15 17 19 21 28 29 29 26 25 23 22 19 19 18 21 21 23 23 24 26 28 30 31 30 29 30 33 36 35 32 29 29 29 27 24 19 14 9 8 10 14 18 20 20 20 19 17 17 16 19 21 25 30 32 32 31 33 31 32 29 25 19 15 14 14 12 10 8 6 7 10 9 8 6 7 10 11 13 12 12 14 13 12 11 12 10 9 11 12 11 13 12 15 13 12 10 12 10 11 8 8 6 6 8 10 12 15 15 13 13 14 11 8 9 11 16 18 21 20 18 15 14 15 13 9 7 6 9 12 13 13 14 15 12 10 8 9 10 10 9 10 9 8 9 8 9 8 8 10 9 7 9 11 12 11 9 8 7 4 3 2 2 4 7 8 6 5 3 5 7 6 8 6 7 14 25 45 75 115 141 126 82 34 11 9 9 8 7 4 5 6 8 7 6 5 6 7 8 8 8 7 7 7 9 8 7 8 8 9 7 7 8 7 8 8 9 8 9 7 7 4 4 5 5 9 9 10 8 8 6 5 4 4 5 7 8 7 6 7 10 10 11 8 8 9 9 11 9 10 8 11 10 10 6 5 4 5 6 7 10 12 14 12 13 9 10 8 6 6 8 9 9 10 9 8 9 5 6 6 9 10 10 9 7 9 5 5 3 4 6 4 0 
0 7 9 8 5 7 7 6 9 7 9 5 5 3 4 4 6 5 6 5 4 5 7 7 11 8 9 9 7 10 11 12 11 9 9 9 17 15 19 11 11 8 12 12 12 10 8 7 5 5 6 7 13 14 14 11 9 9 8 6 9 8 10 10 9 10 7 7 7 6 7 5 5 4 4 4 5 6 6 11 10 11 10 10 9 12 8 10 11 9 10 6 6 5 5 7 6 7 6 6 7 7 10 9 15 9 11 7 9 6 7 7 8 11 9 9 5 5 6 5 11 7 12 5 7 3 4 3 3 5 6 7 7 7 5 5 3 5 5 8 8 9 9 9 8 8 8 9 10 9 9 8 7 7 8 9 9 7 23 75 133 159 122 67 25 15 14 18 15 13 13 16 15 11 10 9 11 8 7 8 8 10 15 16 13 9 7 7 8 9 9 11 13 13 11 7 7 6 6 8 11 13 13 10 13 10 10 6 5 4 7 7 9 10 9 8 6 6 8 11 14 15 18 20 21 20 18 16 15 15 16 18 19 18 19 17 18 18 18 19 22 26 26 25 25 25 27 30 32 31 31 29 29 25 21 17 14 11 9 8 8 10 10 9 7 8 9 11 9 8 11 15 17 17 19 20 24 29 34 36 34 30 27 27 28 27 24 21 19 17 15 12 10 11 14 21 21 20 17 16 17 18 19 16 13 10 10 11 13 14 15 18 19 18 15 12 12 11 12 10 9 6 6 5 8 10 12 16 20 19 16 14 12 9 8 10 12 12 16 16 17 15 11 9 8 8 10 12 11 11 14 16 16 15 12 10 8 6 7 8 10 10 8 9 7 9 6 8 8 8 7 7 10 11 9 6 5 5 4 3 3 3 5 6 8 6 4 3 3 5 5 6 6 7 13 19 32 54 94 133 138 104 52 16 6 6 6 5 3 4 6 9 8 6 6 8 9 7 6 4 4 6 6 7 7 6 8 8 10 10 6 8 6 9 8 9 8 11 8 10 7 7 7 7 9 8 8 8 9 9 6 4 5 6 8 7 7 7 8 9 10 9 6 5 8 8 12 10 12 11 14 10 11 6 5 4 5 6 9 8 12 11 11 12 12 11 8 6 5 5 6 5 8 6 8 7 5 6 5 6 7 8 8 7 6 4 4 3 4 7 5 0 
0 4 6 7 7 9 10 10 11 7 9 5 7 5 7 6 8 7 6 5 5 7 8 7 10 11 11 9 9 9 10 10 13 9 11 8 16 15 20 11 12 9 12 11 10 10 8 9 7 5 8 9 15 14 13 11 10 8 7 5 9 10 11 8 6 8 7 8 8 6 6 4 6 6 6 5 4 4 6 10 13 13 10 10 9 12 11 14 14 12 11 8 8 8 8 8 9 8 9 8 8 9 11 10 12 8 10 7 9 8 9 9 9 13 9 11 5 5 6 5 11 6 10 5 5 3 3 4 4 4 4 4 4 5 7 9 9 8 6 8 9 10 9 8 7 8 9 8 9 10 8 8 7 6 9 8 13 10 35 92 147 161 112 59 20 16 14 17 16 14 11 10 11 10 10 10 11 10 9 9 9 11 13 13 10 8 6 6 7 6 7 10 11 12 9 7 6 7 5 7 9 11 13 10 15 12 11 7 6 5 7 9 10 9 9 7 6 4 5 8 11 13 16 17 20 20 21 17 14 12 8 8 8 8 7 8 11 12 12 11 10 8 8 7 7 7 8 10 15 15 18 15 15 14 13 14 13 12 10 10 10 10 10 7 8 6 8 8 8 9 6 6 7 6 5 7 12 20 26 31 31 29 28 28 29 28 27 25 24 22 21 19 17 17 19 24 25 27 25 25 26 25 26 25 23 16 12 11 13 14 15 19 20 21 18 15 14 13 15 17 18 18 17 17 17 16 14 14 14 17 17 14 14 12 13 11 14 10 11 11 13 14 15 13 11 9 8 8 9 9 10 14 14 14 13 11 8 5 6 7 9 10 8 9 5 8 6 8 9 9 8 7 9 9 8 6 5 6 6 6 5 4 5 6 7 7 5 3 2 3 4 5 7 7 10 15 25 37 71 117 142 125 75 29 9 4 4 5 5 6 8 10 10 9 8 7 9 8 8 6 5 5 7 9 8 7 9 9 8 8 5 7 5 7 5 7 6 11 8 11 8 8 7 7 8 8 8 9 10 10 9 7 6 7 8 7 5 6 5 6 6 6 6 5 8 9 10 10 11 11 13 9 9 6 6 6 8 6 8 5 10 10 12 13 13 13 12 8 7 6 6 5 7 5 7 5 6 5 4 6 7 8 7 8 8 6 4 3 3 6 4 0 
0 4 9 10 11 10 9 8 10 7 8 8 9 8 8 8 8 9 7 8 7 8 8 8 10 11 11 10 9 9 11 9 12 9 11 9 15 15 16 12 10 10 12 11 10 9 8 8 7 5 7 8 10 10 10 8 10 9 9 7 9 11 11 10 6 6 7 10 11 9 9 6 6 5 6 6 6 5 7 11 13 13 11 11 10 13 12 15 13 12 11 10 11 10 9 7 8 7 6 6 6 7 9 9 11 8 9 7 9 8 9 10 11 14 11 13 8 8 6 5 8 8 10 8 7 8 5 6 6 6 5 3 4 6 6 7 7 7 8 7 8 7 8 7 6 6 5 6 7 7 7 7 7 6 10 7 11 13 55 117 159 152 92 42 15 17 14 17 16 14 13 12 11 10 10 9 12 7 7 6 9 12 15 16 11 9 7 8 8 7 7 9 8 11 7 11 8 8 4 5 9 9 11 8 10 10 10 7 6 5 7 8 10 10 9 8 7 7 7 9 11 13 14 14 17 13 15 12 13 9 8 6 7 7 8 12 13 14 13 9 11 7 9 7 7 8 6 5 8 9 14 10 9 6 6 7 8 10 9 10 9 9 10 8 10 8 11 11 10 8 8 9 6 4 5 6 8 12 17 24 24 25 24 27 30 31 28 26 25 24 21 20 17 16 20 25 28 27 22 18 19 22 27 24 20 13 13 9 10 13 15 17 17 17 18 16 15 15 17 19 20 21 24 26 27 25 21 21 21 18 15 13 13 12 16 15 15 11 10 11 13 13 10 8 10 9 12 11 11 13 10 11 10 12 12 11 9 6 5 5 8 10 8 9 5 8 7 9 10 10 9 9 10 11 9 7 6 7 8 7 6 5 5 5 6 7 6 4 2 1 3 4 5 7 11 16 22 28 53 98 136 137 96 45 18 6 5 4 4 6 8 9 9 8 8 9 10 7 6 4 5 7 7 7 8 8 9 10 9 9 5 5 4 5 4 6 6 8 8 10 9 9 10 8 9 8 7 8 12 12 11 8 7 10 9 8 6 7 6 7 8 8 9 8 9 9 10 10 11 11 12 9 8 7 8 9 10 8 8 6 9 9 9 14 12 18 12 12 7 6 6 7 8 6 7 5 7 5 6 6 6 8 10 10 9 7 5 4 5 7 5 0 
0 5 11 11 12 11 12 10 8 7 7 8 9 8 8 9 9 9 8 11 10 10 9 8 11 12 14 13 10 11 10 9 10 9 11 12 13 16 13 13 9 9 10 10 10 8 7 6 6 5 7 8 10 8 8 8 9 10 9 8 10 10 11 9 7 9 11 14 13 9 7 6 7 8 7 5 5 4 6 8 10 12 11 10 9 12 14 20 17 16 15 13 16 13 12 9 8 10 7 6 5 7 10 8 10 6 8 8 8 9 9 9 10 12 13 12 11 9 7 5 7 8 8 9 7 8 6 8 6 5 4 3 3 4 7 11 13 10 10 8 12 8 10 7 7 7 6 6 6 7 8 9 9 7 9 7 10 23 72 134 161 134 72 31 18 20 16 18 19 18 15 11 10 11 11 9 12 8 10 8 9 11 12 11 7 7 6 9 9 7 6 7 6 10 7 12 8 9 5 5 9 8 10 8 11 12 11 9 8 7 7 7 8 9 10 11 7 7 5 7 10 13 15 14 14 11 16 15 18 12 11 6 7 5 9 14 16 17 15 10 11 7 10 10 10 10 6 5 6 7 11 10 9 6 5 6 5 7 7 9 8 7 7 7 8 6 9 8 9 10 9 8 5 4 5 7 11 12 11 10 8 7 7 9 12 15 17 18 18 20 18 16 15 15 19 22 24 22 19 16 16 18 23 24 27 17 15 10 10 10 12 13 14 13 16 20 21 20 18 20 23 25 26 28 31 33 32 31 30 28 23 18 16 16 18 19 18 15 12 14 15 15 13 11 12 10 11 9 11 13 10 11 7 7 9 8 8 8 8 8 9 11 9 10 6 8 7 9 10 10 9 8 11 12 9 7 6 9 10 8 7 6 5 5 6 7 8 5 3 2 2 5 5 7 9 15 21 23 37 79 124 144 117 63 29 8 8 7 7 7 8 8 8 8 8 9 8 8 7 6 6 7 8 7 7 7 9 9 7 6 5 5 5 4 4 5 6 8 8 10 9 8 9 7 7 4 4 6 10 12 13 11 10 12 9 9 8 8 7 7 8 11 11 11 9 8 9 8 10 9 9 7 8 9 10 10 9 7 7 7 8 8 8 12 10 20 13 16 8 9 6 8 9 7 7 5 6 7 8 7 8 8 9 9 10 9 6 4 4 5 3 0 
0 5 11 14 15 10 9 7 7 6 7 8 9 8 7 7 7 8 10 10 10 10 8 7 9 8 9 9 10 10 11 11 9 10 10 13 11 15 10 13 10 11 12 11 12 9 9 5 4 5 7 9 8 7 6 6 7 10 11 10 9 7 9 9 6 9 10 16 16 14 11 9 8 8 7 7 7 6 6 8 9 13 12 13 12 13 13 13 11 10 10 12 14 11 10 9 10 12 9 7 4 5 7 7 9 7 7 8 6 8 6 10 10 13 13 11 13 10 9 6 7 9 13 13 13 13 10 10 9 9 6 4 4 5 7 7 8 8 11 8 10 7 8 6 7 8 6 6 5 5 7 7 8 7 7 6 8 33 91 149 156 116 54 25 21 19 18 20 21 23 16 14 10 10 9 9 12 9 8 7 8 8 8 7 7 10 10 13 11 9 6 6 6 8 6 9 8 7 5 6 8 7 6 5 7 7 7 8 8 8 7 5 7 9 10 12 7 8 5 8 12 15 15 14 13 11 12 11 12 9 8 5 5 4 9 14 16 15 10 10 10 8 9 10 10 11 6 6 5 8 8 8 7 8 6 6 4 4 3 5 6 8 9 10 9 6 7 9 11 9 8 8 7 5 6 7 9 10 12 11 9 6 5 6 7 7 7 8 8 8 8 8 9 9 11 15 16 13 10 6 6 9 16 15 19 11 13 9 9 10 13 10 9 8 12 16 18 18 16 14 14 16 21 25 30 31 32 33 32 29 26 24 24 23 23 24 23 21 14 13 13 16 15 13 13 11 10 10 11 11 9 7 7 7 9 10 9 9 10 10 12 12 10 10 8 10 10 10 10 9 9 9 11 10 8 6 6 8 9 7 7 6 6 4 5 6 7 6 4 3 3 6 5 8 8 13 17 18 24 60 109 143 133 81 40 11 9 6 7 6 8 8 8 8 7 8 7 6 6 6 7 9 10 7 8 6 8 7 7 6 6 5 5 5 6 7 8 12 10 11 8 9 9 7 7 4 5 7 11 13 15 13 11 11 11 14 11 10 8 8 9 12 13 11 10 8 8 9 10 7 8 7 8 9 10 9 10 9 7 8 9 9 8 10 9 15 11 12 7 8 6 8 8 8 7 6 7 8 7 6 8 9 11 9 8 7 7 7 6 6 3 0 
0 4 8 10 10 11 10 8 8 7 7 8 7 6 6 7 9 9 10 9 10 8 7 7 8 9 10 8 10 9 10 8 7 7 7 12 10 15 10 12 9 9 9 10 12 10 10 7 6 7 8 10 8 7 6 6 7 8 8 8 6 6 5 7 6 9 9 13 12 10 8 9 10 10 8 8 9 9 8 10 8 11 11 10 10 11 16 17 15 12 8 10 10 11 10 9 9 9 9 8 6 6 5 6 5 4 5 7 5 10 6 11 9 11 11 13 12 9 10 7 8 9 10 10 11 10 11 10 7 7 6 6 5 5 7 9 12 8 9 8 9 7 7 9 8 10 8 7 6 7 10 10 12 10 9 7 12 46 106 153 148 99 42 24 24 22 24 24 23 25 13 12 9 10 10 13 15 13 12 8 8 7 8 7 8 10 10 12 10 9 7 6 6 6 5 7 8 9 7 6 7 7 6 6 7 7 7 8 9 10 9 5 5 7 8 12 7 6 4 8 11 13 13 11 10 10 10 10 12 10 9 6 5 4 8 12 14 12 8 10 10 11 10 9 9 9 6 7 5 5 3 5 5 6 5 5 4 4 4 5 6 9 11 11 11 7 7 8 10 13 13 9 7 5 7 8 8 8 8 7 7 6 5 4 3 4 4 6 6 7 6 5 6 9 12 14 13 10 8 5 5 6 13 13 17 11 13 10 11 9 10 11 9 8 11 16 19 17 15 15 15 10 11 13 19 26 29 28 27 27 26 26 26 27 27 29 32 33 28 23 16 15 15 15 15 14 11 8 8 9 8 6 6 6 7 7 9 9 11 12 13 14 13 11 10 10 12 12 11 8 7 8 9 8 6 4 5 8 9 9 8 6 7 4 6 6 7 6 5 5 4 7 7 8 7 10 13 14 16 42 90 135 142 98 49 14 9 7 8 6 7 7 8 8 7 6 7 7 8 8 9 7 8 7 7 6 6 5 6 6 7 7 8 7 6 9 9 11 10 11 8 10 7 7 6 3 4 6 9 11 12 10 11 10 9 14 14 13 9 8 10 10 15 12 10 6 5 8 8 9 7 8 9 9 8 8 7 7 8 8 7 6 6 7 7 10 11 12 9 7 6 9 9 9 6 5 6 7 8 6 7 7 9 9 7 7 6 6 6 5 3 0 
0 3 6 9 11 11 8 8 7 6 7 7 8 8 8 7 8 8 9 10 8 8 7 7 9 10 8 7 8 9 11 10 8 7 6 9 8 10 8 11 12 12 10 9 11 14 11 10 7 9 9 9 8 9 7 10 10 12 11 9 6 6 4 6 5 9 11 14 14 13 11 9 10 10 10 10 11 10 11 11 11 13 11 10 8 11 12 14 9 6 3 5 5 9 7 9 10 11 11 8 6 6 4 5 5 5 5 7 6 10 7 12 8 12 10 11 12 11 10 10 11 10 12 15 15 13 10 8 9 9 8 8 6 6 7 7 7 8 8 9 7 7 5 7 9 12 10 9 7 8 7 10 9 10 10 10 21 58 116 152 139 89 37 23 23 23 24 24 22 20 10 12 9 10 10 10 16 13 14 7 6 6 6 6 8 10 11 11 9 7 6 5 5 4 4 7 9 9 8 7 7 7 6 5 4 4 3 5 9 11 11 7 5 6 8 10 9 8 7 10 13 13 11 9 9 8 9 9 11 8 8 7 6 7 9 11 11 10 10 13 15 14 12 10 8 9 8 10 9 8 4 4 4 5 6 6 7 8 9 8 8 10 13 13 12 9 8 11 11 12 10 8 8 6 7 8 9 9 8 8 7 6 4 6 5 6 6 8 6 6 4 4 5 7 10 10 10 7 6 8 8 10 13 13 14 10 12 10 11 9 8 9 7 8 9 11 12 15 13 14 14 10 10 11 14 17 17 17 13 14 17 23 26 27 26 29 35 40 38 31 24 17 15 15 14 13 11 9 6 6 5 5 7 7 8 7 7 8 9 11 13 14 14 12 11 10 10 9 8 6 6 7 6 6 4 4 5 7 8 7 9 6 7 6 6 5 6 5 5 5 5 8 8 8 8 8 11 13 12 30 72 122 144 114 62 20 8 7 8 7 8 8 8 7 5 5 6 6 7 6 7 7 9 8 6 7 6 7 6 7 9 9 8 10 7 10 10 13 13 12 9 9 7 7 5 5 6 8 11 11 13 10 9 7 9 13 12 14 10 7 7 6 11 9 10 7 7 10 9 9 6 7 6 7 5 6 6 7 8 7 8 6 5 5 4 7 7 8 6 7 6 7 7 8 5 5 5 5 5 4 6 8 8 7 5 6 7 10 9 7 3 0 
0 3 7 8 11 12 10 9 8 7 7 7 10 10 10 9 10 11 10 9 9 8 7 8 9 10 8 7 7 8 10 9 9 7 6 8 8 8 8 10 10 9 9 9 11 12 10 12 9 9 10 9 9 9 8 11 9 9 7 6 5 6 6 6 8 8 9 10 12 12 11 9 9 10 11 12 13 10 12 10 11 10 8 7 5 10 10 13 8 6 4 6 5 8 7 7 6 6 8 8 9 8 8 6 4 3 4 5 6 9 7 11 8 9 11 10 11 9 12 11 12 14 11 14 13 13 11 7 8 7 9 7 7 7 6 7 7 7 7 10 6 7 4 7 8 8 8 8 7 10 8 10 10 11 11 13 31 70 121 148 130 80 38 24 24 26 24 22 19 14 8 9 8 8 10 12 21 15 16 9 7 8 8 10 10 11 11 9 6 5 5 5 3 3 4 9 11 12 9 7 6 6 6 6 4 4 3 4 8 11 11 8 5 6 9 11 12 10 13 12 12 10 8 7 8 8 12 9 15 11 12 9 9 10 10 12 10 10 10 13 14 12 9 7 8 10 12 13 13 12 10 9 8 8 6 6 7 9 12 13 13 11 9 10 10 9 7 9 10 12 11 9 8 9 9 9 8 8 7 8 6 7 5 7 6 8 8 9 8 7 6 5 6 7 11 11 13 11 10 11 9 11 10 10 11 11 12 11 9 8 8 10 9 11 11 14 11 12 12 19 17 14 10 8 13 19 17 16 8 6 8 13 19 21 21 23 30 39 45 42 34 25 17 13 13 13 12 11 9 8 6 6 7 6 6 6 6 8 8 10 11 13 15 13 10 9 10 9 7 5 5 7 7 7 7 6 7 8 10 8 7 6 6 6 7 7 7 4 5 5 4 6 7 8 7 7 11 15 17 25 56 104 137 125 77 30 9 8 9 8 9 9 7 5 4 5 6 8 9 8 7 7 8 8 9 9 8 8 8 8 11 12 10 11 8 11 9 10 10 9 9 8 7 6 6 8 7 6 8 7 11 8 9 7 7 9 11 11 9 8 8 7 9 8 8 5 4 9 9 11 6 7 5 7 4 5 6 8 9 8 7 4 5 6 5 8 7 10 9 8 7 9 8 9 5 5 4 4 4 5 5 7 8 8 7 6 6 8 7 7 4 0 
0 4 8 8 11 10 9 8 7 6 6 10 11 12 11 10 9 9 11 9 12 8 8 9 9 10 10 7 7 7 8 8 8 7 6 6 7 5 8 9 12 11 10 8 10 10 9 7 8 8 7 7 7 8 9 10 12 13 11 9 7 5 7 7 11 11 14 14 13 13 10 10 9 10 12 12 11 11 9 10 10 10 9 7 8 10 11 11 8 5 3 5 4 6 5 6 6 7 6 7 11 12 12 9 6 4 4 5 7 9 8 9 11 11 12 10 13 9 13 15 16 19 14 19 13 12 8 7 8 7 9 8 9 7 9 7 8 6 7 11 8 9 6 7 8 10 10 9 7 8 7 8 10 8 11 14 40 82 124 140 119 71 42 28 29 27 21 16 15 10 8 8 7 8 9 11 16 13 15 10 9 9 10 10 10 10 9 8 5 4 4 4 2 2 6 10 12 13 8 7 7 7 6 5 3 4 4 5 6 10 10 9 5 7 9 11 13 11 13 10 11 8 9 10 11 10 15 14 23 14 13 10 10 12 11 11 9 11 12 13 15 13 12 10 11 12 12 12 12 11 11 9 8 8 6 7 8 11 13 12 11 9 8 8 7 7 6 7 9 10 9 8 10 11 11 14 12 10 8 5 4 4 4 6 5 8 8 10 9 7 6 5 6 7 10 12 13 13 12 13 10 12 12 12 12 13 16 18 16 12 10 10 12 14 13 12 9 10 10 15 17 14 13 9 10 17 17 16 11 8 10 11 11 11 13 15 20 28 36 42 40 33 22 13 9 9 11 12 11 9 8 6 7 8 7 6 6 7 8 8 9 11 13 13 10 7 4 3 3 3 4 7 8 9 8 8 8 8 8 7 6 6 6 7 8 7 7 3 5 4 3 5 7 7 7 6 10 17 22 24 43 86 128 134 96 47 15 8 7 8 9 9 8 6 4 6 5 9 7 8 8 7 8 8 8 9 10 9 8 8 10 11 11 11 8 8 7 9 10 10 12 7 9 8 8 10 8 10 9 7 10 8 9 7 7 7 9 9 12 10 9 9 7 7 5 5 5 9 7 10 4 6 3 4 3 4 5 6 7 7 8 7 7 10 9 11 8 9 8 7 6 8 6 8 5 5 4 4 4 5 6 8 10 8 7 5 7 7 9 7 4 0 
0 6 9 9 12 14 13 8 8 7 7 9 9 12 10 10 11 9 12 9 11 8 8 7 10 9 10 7 7 8 8 9 7 7 6 5 6 5 7 6 8 8 9 7 9 6 7 6 6 6 6 7 7 8 8 9 10 8 7 6 6 5 8 8 13 11 10 10 11 16 10 10 7 11 12 12 12 11 8 6 7 9 10 9 8 7 8 7 6 6 6 6 6 8 6 7 5 5 5 7 12 13 15 11 9 5 4 5 5 6 7 7 7 7 10 9 11 8 11 13 13 19 14 19 13 12 8 7 8 8 9 7 9 8 10 7 7 5 7 7 9 9 8 8 7 7 5 6 5 6 6 6 9 8 10 17 48 94 128 131 104 63 46 34 31 25 16 13 13 9 8 8 7 8 10 11 12 12 12 9 11 10 13 11 11 10 10 9 5 6 4 4 3 3 6 10 10 12 6 8 5 6 5 5 5 6 6 6 6 9 9 9 6 9 9 10 9 9 10 9 8 8 10 12 13 12 16 13 19 13 13 13 12 14 10 10 9 12 10 11 9 7 7 9 10 12 11 11 12 11 11 10 9 9 8 9 8 8 9 9 10 8 7 6 7 5 6 5 7 8 9 8 11 13 14 15 14 12 11 4 5 5 6 8 7 10 11 13 13 10 8 7 7 8 9 12 15 17 13 13 8 8 6 7 10 12 15 17 17 17 15 11 13 13 16 13 11 10 10 12 17 16 18 13 12 17 18 15 11 8 9 11 12 10 9 9 11 15 21 30 36 36 28 18 11 8 10 12 13 13 11 8 8 8 8 7 6 8 9 9 9 9 11 11 10 9 8 7 6 5 6 8 10 11 9 8 7 7 7 6 5 4 4 6 8 6 7 3 5 3 3 4 7 8 7 6 10 18 24 26 36 72 116 138 115 67 27 11 6 8 7 8 7 6 6 6 5 9 9 11 10 9 8 8 9 9 11 9 7 7 8 10 9 8 6 6 5 6 8 7 11 6 7 8 8 10 9 8 9 6 8 7 8 8 8 5 7 6 10 9 10 10 7 7 4 4 3 8 6 11 5 8 7 6 5 5 6 9 10 9 8 7 7 10 9 9 8 8 8 8 8 8 7 8 6 6 5 5 4 5 5 6 8 8 9 6 6 4 6 5 4 0 
0 6 8 9 10 10 10 9 7 6 7 8 10 10 9 10 8 7 9 8 11 10 11 9 11 11 13 11 10 9 9 8 7 7 5 5 7 5 8 8 10 10 8 6 7 5 6 6 6 6 6 7 7 7 7 8 8 9 10 7 6 4 7 9 12 13 14 14 11 11 8 11 9 14 11 13 13 10 8 6 8 8 9 10 11 9 8 6 5 5 4 4 4 5 6 7 7 7 9 10 13 14 17 11 11 5 5 6 8 9 8 6 9 10 12 11 10 9 9 12 14 18 15 15 10 9 8 7 9 10 13 12 11 10 10 10 9 7 10 11 14 11 9 9 7 8 6 6 5 5 6 8 10 9 8 20 57 105 132 122 88 51 39 34 28 23 13 13 14 15 12 13 12 11 11 10 8 9 9 11 14 11 12 8 10 8 8 7 7 8 6 6 4 5 6 9 8 9 5 6 5 6 5 3 4 6 6 7 6 8 7 8 8 9 9 10 8 9 8 7 6 9 10 11 12 11 15 14 15 12 9 11 11 14 10 10 9 11 10 10 9 7 8 9 8 10 7 5 6 6 6 6 7 8 8 9 9 9 9 7 6 7 6 6 8 6 8 4 7 7 10 10 11 12 15 16 17 13 11 6 7 5 7 6 6 6 6 8 9 8 9 8 8 10 12 16 18 20 17 16 12 13 12 13 13 13 14 18 21 23 24 22 24 20 23 17 16 15 15 14 15 14 17 17 17 15 15 13 12 11 12 11 8 7 8 8 8 7 10 17 24 30 30 23 15 9 9 10 14 16 12 11 8 9 9 8 8 9 11 12 10 9 8 10 11 10 8 7 7 7 8 9 11 12 9 7 5 5 5 5 6 7 8 8 9 8 8 5 5 3 3 5 9 9 7 6 9 16 22 22 25 54 99 135 129 87 40 14 5 6 5 6 6 6 6 6 5 8 10 12 10 9 6 5 6 7 8 7 8 6 7 6 7 8 6 5 5 5 10 8 9 7 8 11 9 9 9 9 10 7 7 7 8 7 7 7 8 8 9 10 10 13 11 10 7 7 5 9 6 10 5 7 7 7 7 7 6 7 5 6 7 7 8 10 11 11 8 7 7 6 6 7 7 9 8 8 6 6 5 6 6 8 8 9 7 7 6 6 6 6 3 0 
0 6 7 8 9 13 12 9 7 7 8 8 8 7 7 7 8 9 9 10 11 9 8 7 10 11 13 11 12 10 13 10 8 6 4 4 7 6 8 6 6 7 7 6 6 5 6 5 5 6 6 7 8 7 8 7 9 7 10 9 9 7 7 9 12 11 10 9 11 10 8 9 8 11 12 12 11 9 7 5 7 10 13 10 9 5 4 4 4 4 6 6 6 7 7 8 10 10 9 7 10 10 16 11 14 6 7 6 8 7 7 5 6 7 10 12 12 10 11 11 14 13 14 13 11 9 7 7 8 8 9 9 10 12 12 11 8 8 9 11 10 11 8 8 6 7 4 7 6 6 7 8 10 12 12 27 67 114 137 114 71 37 27 29 22 19 12 15 16 18 14 13 12 12 11 9 7 8 8 10 13 11 11 7 7 6 6 5 6 8 7 8 6 6 6 7 6 6 4 4 6 6 6 6 6 7 7 8 7 7 6 6 8 11 13 12 12 10 9 6 8 9 10 9 10 10 12 13 12 11 10 14 13 14 9 9 9 11 10 13 15 15 15 14 13 14 12 12 12 13 14 15 15 14 13 13 12 10 8 7 8 9 11 12 13 11 13 9 11 9 9 8 9 9 13 13 13 11 9 7 8 8 9 9 8 6 7 8 9 8 8 8 8 9 10 12 14 14 13 13 11 11 10 10 9 9 8 12 17 23 27 26 29 27 29 24 25 24 22 18 14 14 16 17 16 16 15 12 10 10 10 9 8 8 10 8 9 6 6 7 14 21 27 28 24 16 10 8 13 18 15 15 9 12 10 7 8 11 11 12 8 8 7 9 12 15 14 13 10 8 8 9 10 11 8 7 4 4 5 6 6 7 7 9 9 10 10 7 6 3 3 5 9 10 9 7 8 13 17 18 22 43 84 126 134 100 51 16 5 4 4 4 5 6 6 6 5 8 9 11 10 8 5 6 6 7 9 8 8 7 6 6 4 4 4 4 7 5 10 7 9 8 7 8 7 8 7 9 9 8 7 5 6 6 8 8 7 9 6 9 10 12 12 11 9 8 8 9 8 7 6 8 10 9 8 7 8 9 8 10 10 8 7 6 6 7 6 5 6 6 8 6 6 7 7 6 6 7 7 6 5 7 5 9 7 9 6 5 5 5 3 0 
0 5 8 7 9 11 10 11 7 8 8 8 9 7 7 7 7 7 7 8 9 9 9 8 10 11 13 12 12 10 12 10 8 6 4 5 6 6 7 8 8 9 7 8 7 7 8 10 11 10 9 7 8 6 6 5 8 6 12 10 11 9 10 10 12 12 14 11 9 9 8 9 9 9 11 9 10 7 5 4 5 6 8 7 8 7 6 4 3 3 4 4 5 6 7 9 8 10 11 10 12 9 14 8 11 5 7 5 7 7 7 5 8 9 13 11 11 10 12 11 14 12 12 10 10 11 11 9 8 8 12 13 13 11 9 10 9 12 10 16 11 10 5 7 5 7 5 9 8 9 7 8 11 11 13 29 75 119 139 106 59 27 19 22 18 17 13 15 17 15 14 15 14 12 12 8 9 8 9 10 12 10 9 7 7 5 4 4 5 9 10 11 7 7 7 7 6 5 3 3 6 7 8 7 7 7 7 6 7 6 6 6 9 11 14 12 15 11 11 7 10 9 12 11 12 14 14 13 9 8 7 12 13 14 10 10 10 13 14 15 15 14 13 10 9 9 9 9 9 10 10 12 14 15 15 16 17 18 18 17 16 15 13 12 13 13 15 12 10 8 9 10 12 11 14 15 13 10 8 10 9 7 7 7 8 7 6 6 6 6 8 12 15 15 14 14 15 15 18 20 23 23 25 26 23 19 16 17 20 24 29 29 30 26 27 24 27 30 31 27 18 13 14 17 16 16 12 12 13 10 11 10 11 11 14 14 13 7 6 4 7 12 20 26 27 23 16 12 13 19 18 17 12 12 11 9 9 12 12 13 8 8 8 11 14 18 17 16 11 11 10 11 11 9 7 6 5 5 5 5 6 10 9 10 9 11 11 9 6 4 4 5 9 10 9 7 8 11 14 12 15 32 69 115 130 105 56 20 7 5 6 6 6 5 4 6 6 9 8 9 7 6 5 4 5 5 9 8 8 8 5 6 4 5 5 5 8 6 10 7 8 7 8 12 10 8 7 8 10 9 9 7 7 7 6 7 7 7 6 7 11 13 16 14 11 7 8 6 6 5 4 7 8 9 9 7 6 6 5 6 7 8 6 7 7 8 6 4 6 5 8 5 6 7 8 9 8 8 7 7 6 7 6 10 7 8 6 6 6 5 3 0 
0 5 7 8 8 11 11 12 9 12 10 9 11 7 8 7 9 9 9 7 6 5 5 6 8 9 10 9 9 10 10 9 8 4 4 5 5 8 7 8 5 8 6 8 7 7 7 6 7 8 8 7 6 5 6 4 7 7 15 13 17 12 10 8 9 9 9 9 7 7 8 9 7 7 8 7 8 5 3 4 6 8 10 8 7 4 4 4 5 4 6 6 8 8 7 8 7 10 8 8 8 8 12 9 11 6 5 6 8 8 7 6 8 9 10 12 12 14 15 13 12 12 9 9 9 9 10 8 8 5 8 7 11 11 10 9 7 9 10 12 10 10 7 7 5 8 7 10 9 9 6 7 10 13 16 33 84 125 139 100 51 20 14 16 15 14 13 14 16 15 15 14 14 12 11 8 11 9 11 11 11 10 9 9 8 5 3 3 4 9 11 11 7 7 7 8 7 5 6 6 7 8 9 8 7 7 8 7 9 6 7 6 9 11 13 15 18 13 11 8 10 11 12 11 11 12 12 11 11 11 13 16 15 12 7 8 11 16 19 22 27 27 25 21 19 19 19 18 18 20 22 25 25 23 19 17 15 14 13 13 15 18 21 23 25 24 25 25 22 18 14 10 9 10 12 12 10 9 8 10 10 10 11 11 10 8 8 8 8 9 12 14 14 13 11 9 6 7 12 15 19 20 23 23 22 21 21 22 24 28 31 31 34 30 33 28 28 30 32 33 27 22 19 20 15 13 14 14 13 11 12 11 14 17 17 15 12 7 5 4 4 6 12 20 25 26 22 19 17 18 19 18 15 11 10 8 10 11 9 7 7 10 10 11 14 19 19 20 13 10 10 10 11 9 7 6 6 5 5 4 5 9 9 12 10 11 12 9 7 5 4 4 6 9 9 8 9 9 11 11 17 33 65 111 126 108 60 22 9 5 6 6 7 7 5 6 6 6 7 6 7 7 7 7 9 9 12 10 9 8 6 5 4 4 5 5 7 5 8 6 7 7 9 9 8 8 8 8 7 9 9 9 8 7 9 8 8 6 6 7 12 13 16 11 11 9 8 8 8 7 5 5 7 7 7 5 4 5 6 8 10 9 6 6 4 7 5 5 6 6 9 7 6 5 5 6 8 10 11 9 7 7 7 10 9 9 6 6 5 5 2 0 
0 6 8 11 10 13 9 12 10 13 11 10 11 8 12 7 8 6 5 4 4 5 5 7 8 9 11 11 9 8 7 7 7 6 6 5 5 6 5 7 6 8 8 9 7 8 10 10 11 9 7 7 7 8 6 5 6 6 14 11 14 9 11 12 12 14 10 9 6 6 8 8 7 6 6 6 6 5 3 3 4 4 7 5 6 5 8 6 7 6 8 7 8 10 9 9 5 8 7 9 8 9 11 8 8 5 5 5 5 6 8 7 7 10 9 14 13 16 14 14 11 9 8 7 10 12 15 11 9 4 8 7 11 7 6 6 8 9 12 12 13 13 9 10 7 8 8 10 10 10 6 7 8 11 12 39 93 132 138 93 47 20 13 14 15 14 13 12 10 9 9 12 13 13 14 12 14 15 16 14 10 10 9 10 7 5 3 4 6 12 14 12 7 7 8 9 9 5 6 6 6 8 9 9 9 8 9 7 9 5 7 6 10 14 17 16 15 11 9 8 9 10 11 14 19 18 15 10 9 8 10 14 16 16 10 10 13 19 22 20 18 17 15 12 9 9 10 10 10 10 10 11 12 13 13 15 16 18 19 19 18 17 16 15 15 16 18 18 18 18 20 22 23 24 23 21 14 13 12 13 10 7 8 10 12 11 9 8 7 8 13 19 23 24 18 15 10 12 17 19 23 23 28 30 27 23 22 22 22 22 24 23 25 21 26 28 29 33 31 30 27 24 24 26 24 21 16 14 15 11 12 12 16 21 21 20 14 9 6 6 4 5 8 13 19 24 27 26 22 21 20 17 15 9 9 9 11 11 10 9 10 11 12 12 13 18 19 21 15 10 12 12 12 10 7 6 7 5 4 3 4 8 10 12 11 9 11 9 8 6 5 6 5 7 7 8 9 9 12 12 18 33 62 110 127 113 68 26 14 6 6 7 6 6 6 6 6 6 5 5 7 7 10 8 10 10 10 8 9 6 5 4 5 5 6 5 5 5 7 7 8 7 8 9 11 8 7 7 7 10 9 9 8 7 7 6 7 6 7 7 10 14 15 13 10 7 6 6 6 6 6 6 6 6 6 5 4 3 3 3 5 6 6 8 5 7 6 5 7 8 9 8 5 5 6 8 10 10 9 7 5 5 7 9 10 8 7 7 7 7 3 0 
0 6 7 12 8 11 10 12 10 11 10 7 9 7 11 6 9 5 5 4 4 6 7 9 10 9 8 9 11 10 7 8 7 6 5 4 4 6 6 7 9 9 8 9 10 10 10 7 6 5 6 7 7 7 7 6 7 6 11 9 11 8 9 8 8 10 8 7 5 5 7 8 8 6 5 5 4 3 2 3 4 5 7 5 6 4 6 6 9 6 8 7 10 12 9 8 5 8 8 9 7 8 11 9 10 5 6 6 9 11 9 10 11 14 13 17 15 18 14 10 9 6 7 6 8 9 10 8 6 4 6 5 8 6 5 6 7 7 9 12 13 17 11 11 7 8 7 11 11 10 8 6 8 10 16 54 106 138 131 78 39 17 12 11 10 12 11 11 10 11 13 15 18 16 15 15 19 20 17 15 10 11 7 10 6 4 3 3 7 13 15 13 6 7 9 9 7 4 6 6 7 8 9 9 9 9 8 7 9 7 9 8 10 11 13 14 14 12 12 11 13 13 14 15 14 12 10 8 9 12 16 20 21 18 13 12 17 24 29 31 31 30 28 24 21 20 19 18 16 16 17 19 19 17 14 11 8 7 8 9 11 13 15 17 18 19 20 20 21 21 19 18 19 22 23 22 17 18 19 21 19 16 18 19 19 18 16 15 15 18 21 23 22 19 15 13 11 13 17 16 18 15 17 17 16 15 16 18 20 22 25 22 26 23 30 33 33 36 34 34 32 30 29 26 21 19 20 20 19 14 13 14 14 15 14 12 10 11 10 10 8 7 6 8 11 15 22 28 26 22 18 15 13 8 7 8 10 10 10 11 12 13 11 10 9 15 16 18 15 12 12 12 13 9 7 6 6 4 4 4 5 8 10 10 10 8 12 10 9 7 5 5 4 6 7 8 9 9 11 11 17 30 57 106 129 120 79 31 16 6 6 6 6 8 7 7 6 7 6 8 8 8 10 10 12 10 10 8 7 6 6 4 6 6 9 7 6 6 7 7 8 7 9 8 9 7 7 6 6 7 8 9 10 8 7 7 6 8 9 9 8 10 11 10 10 9 10 11 10 9 6 5 4 4 4 3 3 3 3 4 4 6 6 7 7 7 8 5 6 7 9 8 5 6 5 9 8 10 11 9 7 6 7 8 9 7 8 8 8 7 3 0 
0 6 7 10 10 12 10 11 12 12 11 8 10 8 11 7 8 4 5 3 5 6 6 8 7 7 9 9 9 8 8 7 7 7 7 6 5 4 5 6 7 7 8 9 10 12 11 9 7 6 6 6 9 9 9 6 6 7 8 6 6 6 9 11 11 11 8 7 5 5 6 6 6 5 4 3 3 3 4 4 4 6 6 7 7 8 9 9 11 8 10 7 9 10 10 8 6 6 7 7 8 8 10 8 10 6 7 6 7 9 8 10 10 13 14 16 17 15 13 12 11 8 7 7 9 13 13 11 7 4 5 6 6 5 4 5 6 7 7 10 13 18 13 14 8 10 9 9 10 9 8 5 7 7 19 64 116 138 121 66 37 18 12 10 10 14 12 12 10 9 12 11 14 13 16 19 21 21 18 15 11 13 10 10 5 4 3 5 10 15 15 12 8 7 9 8 5 3 4 4 5 5 7 8 9 8 7 9 9 8 9 7 10 13 16 17 14 11 11 10 10 10 10 14 16 17 14 11 11 11 13 15 19 19 18 15 17 23 25 25 23 22 20 18 16 15 14 12 9 9 9 10 9 8 7 7 8 9 10 11 12 11 10 9 7 7 9 9 13 16 19 22 23 25 24 21 19 19 22 23 20 17 15 16 17 18 17 17 15 15 15 17 19 19 17 15 13 13 16 14 15 11 14 12 11 9 9 10 10 10 13 11 17 14 21 26 31 35 33 30 29 29 32 34 33 28 21 18 20 23 24 24 23 21 15 13 11 12 14 14 10 9 6 9 7 9 16 24 27 25 21 15 10 8 8 8 10 10 13 15 15 14 9 10 9 13 15 15 13 13 13 13 11 8 6 5 5 5 4 5 6 8 10 8 9 7 12 10 9 6 5 5 4 6 8 7 8 6 8 9 14 26 50 98 129 127 89 38 17 6 7 4 5 6 6 7 6 8 8 9 8 7 8 7 9 9 8 7 7 5 4 4 7 8 9 7 5 5 8 8 12 10 9 9 7 7 5 4 5 5 7 7 10 6 6 5 5 9 9 9 9 10 11 10 8 7 8 9 9 9 7 5 5 4 4 5 6 4 3 4 4 6 8 7 8 7 8 7 8 9 10 7 5 6 7 11 9 8 8 4 4 3 4 5 6 7 7 9 8 7 4 0 
0 4 7 8 10 10 12 10 11 11 12 9 9 7 8 6 8 5 7 4 7 8 9 11 10 8 7 9 12 11 8 7 7 4 4 3 5 5 6 6 6 7 6 9 11 13 11 8 5 4 5 7 9 8 10 10 10 8 8 6 5 5 7 9 7 10 6 8 6 8 9 10 7 5 3 1 2 2 3 4 5 5 6 8 8 10 9 10 11 10 9 6 8 8 7 6 7 8 10 10 8 7 8 8 10 8 7 7 6 7 8 8 11 14 18 18 15 13 10 11 9 9 6 10 9 14 11 10 7 3 5 5 6 6 4 6 6 7 7 9 12 13 13 13 10 9 7 7 10 9 9 5 6 9 27 74 118 130 107 56 34 17 12 10 9 14 12 11 10 9 12 12 15 13 16 18 22 21 14 13 14 12 10 9 6 5 5 6 9 13 14 11 8 7 8 6 4 3 3 3 4 5 7 7 8 8 7 9 9 9 8 8 9 10 9 9 9 10 13 14 15 15 15 17 14 11 9 9 9 10 12 14 18 19 18 17 17 21 24 25 26 25 23 20 18 18 16 14 11 11 12 13 13 11 8 5 5 5 6 7 8 10 11 10 10 9 11 13 16 13 12 11 12 16 16 18 17 18 22 24 22 19 17 18 20 20 17 17 15 15 14 14 12 10 10 10 10 12 15 13 15 10 11 11 11 14 12 11 11 10 12 9 11 9 11 14 20 27 30 29 26 23 21 20 20 25 31 35 31 27 26 28 28 24 19 15 12 13 14 13 10 9 5 7 4 5 7 15 22 24 22 16 11 9 10 10 11 10 15 17 16 13 8 10 10 10 13 14 14 14 14 13 10 7 5 5 4 4 4 4 5 5 6 5 6 7 12 12 11 8 7 6 5 6 7 7 7 5 6 7 12 25 44 86 121 128 98 47 19 6 5 3 5 6 5 7 7 8 9 9 9 8 8 8 8 8 8 7 6 5 5 4 6 9 11 10 8 6 7 8 10 11 10 10 6 6 5 4 4 4 7 7 11 7 7 5 5 9 11 11 10 7 8 8 8 9 9 11 10 9 7 5 4 4 6 6 6 5 4 5 6 7 9 7 10 8 8 8 7 8 7 5 4 5 8 10 11 9 8 5 5 4 5 6 6 6 8 10 9 7 4 0 
0 4 5 6 10 9 13 12 13 14 14 12 10 7 8 6 9 6 8 5 6 5 6 7 7 7 9 9 9 8 8 6 6 7 6 6 6 6 6 7 6 6 6 8 9 10 11 8 7 5 5 6 9 9 9 6 7 7 10 7 8 6 9 11 9 9 5 7 5 8 7 7 5 3 2 2 3 5 7 7 6 5 8 10 12 13 10 12 10 10 9 10 7 9 9 8 7 9 11 12 10 9 8 8 7 6 6 6 7 8 8 5 9 9 11 12 11 9 8 10 10 10 6 11 10 15 11 10 9 5 6 5 6 6 4 6 5 7 7 7 10 11 13 12 11 9 8 7 8 6 7 6 5 12 34 80 114 117 92 50 31 16 11 10 10 14 13 11 10 9 13 11 14 13 17 18 17 15 11 10 13 13 13 10 9 8 7 8 10 12 13 11 9 7 7 5 4 3 3 3 4 4 5 5 5 5 7 8 8 9 8 7 6 7 10 9 7 7 9 11 10 10 10 13 12 12 9 10 8 9 9 10 14 16 17 15 14 15 16 17 18 19 18 15 13 13 12 11 10 10 12 13 12 9 7 6 6 6 7 8 9 10 11 11 11 13 14 16 17 15 17 11 10 10 8 11 12 16 17 16 16 13 10 9 10 11 11 11 9 9 8 7 6 6 7 8 9 10 11 10 12 11 11 16 11 15 10 9 10 9 10 8 8 8 7 8 11 18 20 20 18 17 19 21 22 21 21 26 33 42 44 39 34 27 21 17 16 19 21 19 14 9 8 9 8 7 7 11 15 18 19 16 14 15 12 12 10 11 16 16 15 13 11 10 11 9 10 10 12 14 14 12 10 8 6 6 5 6 5 4 5 5 5 4 6 7 12 11 11 7 8 7 7 7 8 8 6 3 3 4 12 26 40 74 111 125 106 55 21 7 6 5 4 4 3 4 4 6 6 7 6 6 5 5 5 7 6 6 5 4 4 4 6 8 10 8 6 6 6 8 10 11 8 8 6 7 6 5 4 4 6 8 9 6 6 5 4 8 10 12 12 10 9 7 5 5 6 9 9 9 7 6 7 6 6 6 7 7 5 8 8 8 9 6 9 7 8 9 8 9 7 6 5 7 10 11 10 8 7 5 6 7 6 6 6 6 8 8 9 7 4 0 
0 4 8 8 9 9 9 10 12 16 16 12 8 5 6 6 10 8 10 7 6 5 7 8 10 9 10 12 14 13 8 7 5 6 4 7 6 8 9 7 9 7 9 7 8 8 8 8 6 5 5 6 8 8 8 8 9 9 11 9 9 8 9 11 11 11 6 7 6 8 8 8 8 6 5 4 5 6 7 7 8 5 6 7 10 11 10 9 9 11 8 11 8 11 9 9 11 11 11 10 10 8 8 6 7 6 6 6 6 6 6 4 7 8 11 13 10 9 8 9 9 8 7 10 9 11 10 10 8 5 5 5 6 7 6 7 6 7 9 8 10 8 9 10 10 7 7 6 7 8 7 7 6 18 43 86 109 106 80 46 28 14 10 11 13 16 15 14 12 8 11 10 16 17 20 18 15 11 8 10 11 10 10 9 8 10 10 9 9 9 10 11 10 7 6 4 4 4 4 3 5 4 5 4 4 6 8 8 7 5 6 7 7 5 5 5 5 7 8 11 10 13 11 13 10 8 4 5 6 8 10 11 14 17 18 16 13 13 14 16 17 18 16 11 10 11 13 13 12 11 10 11 12 12 11 10 10 9 9 9 9 9 10 11 12 13 13 16 16 15 14 11 13 10 9 10 8 10 11 12 12 8 6 7 8 8 6 4 4 5 7 7 6 6 6 9 8 9 11 10 10 13 11 19 12 19 9 9 9 10 14 12 10 10 8 6 6 11 12 13 9 6 6 7 10 15 23 29 31 32 37 42 43 35 27 21 16 15 18 19 17 13 10 9 9 9 10 10 13 15 16 17 18 18 14 11 10 10 12 13 12 13 12 11 9 7 10 11 11 11 10 9 9 9 7 8 6 6 5 3 3 2 3 3 6 8 11 10 10 8 10 8 8 5 7 7 8 6 6 6 14 28 36 62 98 121 113 65 26 7 5 5 4 4 2 4 4 6 6 6 5 6 6 8 6 7 7 6 5 5 5 6 7 10 9 8 6 5 7 7 8 10 9 7 7 8 9 8 6 8 7 9 7 7 5 5 5 10 12 16 12 10 6 5 4 6 5 6 8 7 6 5 5 6 7 6 6 6 5 7 8 8 10 7 9 7 7 9 8 10 7 6 6 9 9 11 9 9 9 8 7 8 8 8 7 6 9 8 10 7 5 0 
0 4 7 7 7 9 9 10 11 13 12 10 8 8 9 8 10 8 9 6 5 4 5 6 10 10 12 12 10 11 9 10 7 9 5 8 6 8 9 7 11 8 12 7 10 9 7 9 6 5 4 5 7 7 7 5 6 8 11 12 11 11 11 13 11 9 5 5 4 4 4 4 6 6 7 6 7 10 11 9 7 4 6 7 9 9 9 7 6 6 7 11 9 13 13 14 15 12 15 15 14 10 8 5 5 4 3 5 8 9 8 5 6 6 8 7 6 7 7 7 7 6 6 7 9 9 10 9 11 8 7 5 6 7 7 7 7 7 9 7 9 7 9 8 8 5 7 7 6 6 7 9 9 25 54 94 108 97 68 40 23 11 10 14 17 18 17 15 12 11 12 12 18 20 21 20 14 10 9 10 10 10 9 11 10 11 11 11 10 10 11 12 10 6 5 4 5 4 5 4 6 6 6 5 4 7 9 8 7 7 10 8 8 7 6 5 4 6 6 9 7 10 7 10 6 7 6 9 11 11 11 12 14 17 18 18 15 13 14 15 19 21 20 16 13 14 14 14 12 10 9 10 13 15 16 16 16 15 14 14 13 11 8 9 10 13 13 15 14 14 13 11 11 10 9 8 8 10 12 12 12 9 7 5 5 5 4 3 4 7 9 9 7 7 5 8 9 11 10 9 9 13 10 20 10 15 6 8 9 10 12 10 10 9 9 9 9 11 12 12 8 5 5 6 5 5 7 12 19 28 31 33 32 29 25 21 23 28 32 27 19 14 13 12 11 9 9 9 10 9 9 14 19 21 18 9 7 9 9 10 8 12 13 13 9 5 5 7 9 8 7 7 9 10 9 9 6 8 6 4 5 4 5 4 7 6 9 8 8 7 8 7 7 5 7 8 9 8 6 8 16 27 33 53 88 117 116 73 33 11 9 8 5 6 4 4 3 4 4 4 3 4 5 6 7 6 7 4 6 5 7 8 8 9 9 9 9 8 8 7 8 8 9 7 9 9 11 8 6 7 8 11 8 10 6 6 5 7 9 13 11 12 8 6 5 5 6 7 6 5 5 6 8 8 7 6 5 4 5 7 8 7 7 6 8 6 7 7 7 7 6 7 10 12 14 11 11 8 8 8 9 9 9 8 7 6 7 7 8 8 5 0 
0 4 7 8 7 7 6 8 9 11 10 10 7 7 8 8 9 8 8 7 6 5 6 7 9 10 10 13 14 14 10 8 6 7 5 7 7 7 9 8 9 8 10 8 8 8 7 8 5 5 5 4 6 5 7 6 8 10 11 15 13 13 13 11 10 8 5 5 4 4 4 6 8 10 10 9 8 11 10 10 8 6 6 6 7 7 7 7 7 7 7 9 9 13 15 14 16 12 11 9 10 9 8 5 5 4 5 6 8 8 8 6 6 6 7 7 8 7 7 6 5 5 6 7 8 8 10 10 12 9 8 8 7 8 8 10 10 9 10 8 9 6 8 6 8 5 6 6 6 7 7 9 13 34 66 101 106 88 57 34 20 13 14 19 20 17 15 13 11 10 10 9 13 18 18 17 14 12 11 10 9 10 10 12 12 13 13 13 12 10 10 11 10 7 4 4 4 4 6 5 7 7 6 6 4 8 8 9 8 7 10 11 11 10 8 8 5 6 5 7 5 8 6 9 8 9 8 8 9 10 11 12 12 16 16 16 14 11 12 13 18 22 25 23 20 20 18 16 12 8 7 7 10 12 16 18 19 19 17 15 14 12 9 7 6 9 10 14 13 13 12 11 11 10 8 8 7 9 12 12 12 8 6 6 6 6 4 4 5 7 7 7 6 5 6 8 9 10 11 10 10 15 10 18 9 14 7 9 8 10 12 11 12 10 11 9 9 11 13 12 9 6 5 5 5 5 6 7 8 13 21 30 31 28 24 20 19 21 26 29 28 19 14 11 10 10 7 8 8 8 7 12 17 20 17 11 6 6 6 7 6 9 10 12 10 8 7 8 7 6 5 5 7 10 9 10 7 8 7 8 8 8 7 5 7 5 6 6 6 6 7 6 6 4 6 8 10 10 9 10 17 25 31 50 81 115 116 78 39 12 9 10 7 9 6 6 5 5 6 5 5 5 7 7 9 7 9 5 7 5 7 8 8 10 7 7 8 8 9 8 8 8 10 8 11 9 10 8 8 8 7 9 8 10 7 6 5 8 10 11 11 9 8 6 5 5 6 6 6 6 5 6 6 8 8 6 6 6 6 6 7 7 7 8 8 7 7 6 7 7 8 9 13 12 15 10 11 9 12 9 8 8 9 10 10 11 11 11 9 8 4 0 
0 5 6 7 5 8 5 7 6 8 7 7 6 9 10 8 6 5 5 6 6 6 6 7 8 8 9 11 10 11 12 11 8 6 5 5 5 5 6 5 7 7 7 8 8 11 9 8 5 3 5 5 8 6 9 6 6 9 10 14 15 13 13 10 9 6 5 4 3 3 3 5 8 11 10 10 9 10 9 9 5 6 8 11 12 13 13 11 10 7 6 8 9 12 13 13 15 12 15 15 15 10 7 4 6 6 8 7 10 9 9 6 6 6 6 5 5 5 8 6 5 3 4 6 7 8 11 10 10 10 8 9 7 9 9 10 10 11 10 7 8 5 7 6 7 6 7 7 8 10 9 8 17 39 74 104 102 81 50 28 16 12 16 21 20 16 14 12 12 10 10 11 14 16 16 17 18 16 19 13 12 10 11 14 14 12 14 14 14 11 9 10 9 7 4 4 4 5 6 6 7 7 6 6 4 8 9 9 9 10 11 12 10 11 9 8 6 5 5 6 5 6 6 8 9 9 10 10 11 11 10 14 11 11 13 14 14 12 10 11 15 19 25 26 25 25 23 19 14 8 7 6 9 9 13 15 19 18 17 15 14 13 11 9 5 6 9 11 11 11 10 10 10 11 9 11 11 12 14 13 12 8 6 7 7 7 6 6 7 9 8 6 6 6 8 8 9 9 9 7 8 13 11 18 10 13 6 8 6 8 9 11 14 10 11 10 10 13 16 17 14 11 8 6 4 3 3 5 7 9 11 13 16 18 17 16 17 22 25 24 22 21 20 14 9 8 7 7 7 8 8 10 14 18 16 13 7 6 6 6 6 9 11 12 11 9 9 7 7 6 5 4 6 9 10 10 8 8 9 9 9 10 9 7 5 4 5 5 6 6 5 4 5 5 6 8 10 10 9 11 17 25 34 53 79 110 111 80 44 17 12 10 9 11 9 7 6 5 7 5 6 6 8 9 9 7 8 5 6 7 7 8 7 7 7 7 9 10 10 7 7 7 9 8 9 9 8 6 5 5 6 7 8 10 8 7 5 6 7 8 8 9 8 6 6 5 5 5 5 5 5 7 7 8 7 7 6 5 6 6 6 5 5 7 7 9 6 6 7 6 8 9 15 13 15 10 11 11 10 9 9 9 9 10 10 9 8 9 8 9 5 0 
0 3 6 7 5 6 3 6 6 6 6 5 5 5 5 5 5 5 5 5 6 5 7 7 8 8 9 12 15 16 11 9 8 9 6 5 5 4 5 5 6 7 6 7 7 9 9 8 6 3 5 5 7 6 9 7 8 10 11 14 13 13 12 10 9 8 6 5 5 3 4 5 8 11 12 12 9 10 8 7 7 8 10 12 13 14 16 13 13 8 9 8 9 10 12 11 12 9 10 9 9 9 6 6 7 8 12 9 12 7 8 7 6 8 7 7 7 7 8 7 7 6 7 8 10 10 9 9 9 9 9 10 9 9 8 11 9 10 10 8 9 5 6 5 7 7 7 8 9 9 9 7 17 45 79 105 98 75 45 24 16 14 17 20 18 14 10 8 9 8 9 8 11 10 11 14 18 18 20 12 14 12 10 13 14 13 17 16 15 10 7 9 10 9 6 4 4 4 5 5 5 6 5 6 7 8 11 11 11 11 12 12 11 14 12 9 7 8 8 8 6 7 8 10 12 10 10 8 7 8 7 8 8 9 12 15 16 13 10 8 12 16 21 22 21 20 21 20 16 13 12 12 10 9 11 12 15 14 15 14 14 15 14 13 11 11 11 12 12 11 13 14 14 16 15 16 15 16 16 14 12 9 7 8 9 9 8 8 8 8 8 6 9 10 9 9 8 7 7 7 10 13 11 13 10 11 7 8 5 7 9 12 14 13 12 11 13 17 22 25 24 20 16 13 9 6 4 7 8 10 12 14 15 16 16 16 14 17 22 28 27 22 19 18 17 11 9 9 9 9 8 7 9 13 14 13 10 8 7 9 10 12 14 14 12 10 9 8 8 7 6 5 6 9 10 9 8 7 8 8 10 12 9 8 5 4 5 6 6 5 4 4 7 8 8 8 10 10 9 10 16 27 38 56 78 106 109 82 46 16 12 11 11 11 10 9 9 8 9 6 7 6 6 7 7 7 7 8 8 9 7 8 8 7 5 4 5 6 6 5 6 6 7 8 7 7 6 7 5 5 4 4 5 7 6 6 7 8 10 10 10 11 9 8 7 7 7 6 5 6 5 6 6 8 9 8 10 9 9 7 5 4 4 7 7 8 5 7 6 8 11 13 17 14 13 9 11 11 12 10 9 7 8 9 11 12 13 12 10 8 4 0 
0 5 8 5 5 4 3 4 6 7 7 5 5 5 5 5 5 5 5 5 6 4 7 6 7 8 10 9 9 10 9 12 9 11 8 6 5 5 6 6 6 7 6 6 7 8 11 8 7 3 4 4 7 7 10 9 8 8 8 11 11 11 10 13 9 9 6 5 5 4 5 6 8 10 8 11 7 8 6 5 8 6 10 12 15 19 19 15 15 9 11 7 9 7 8 7 8 7 9 11 9 9 5 9 8 11 13 10 11 7 7 7 7 10 8 9 7 8 8 8 8 8 8 9 8 8 8 6 6 6 9 6 7 9 7 9 7 9 8 7 7 5 4 4 4 8 8 9 11 10 9 7 19 48 81 105 95 71 44 23 16 14 16 16 13 10 9 10 10 8 9 7 10 10 11 14 18 19 21 14 14 12 10 11 10 11 15 15 12 7 5 7 10 9 6 4 3 4 4 5 3 4 5 7 9 10 11 12 12 11 11 12 11 9 9 11 11 11 12 11 10 10 10 11 10 8 8 8 7 7 7 9 9 10 12 14 15 14 13 10 9 11 15 16 17 19 22 21 19 17 17 18 15 16 15 14 13 13 15 15 16 17 18 18 16 17 16 14 13 12 14 16 18 20 21 21 19 18 17 15 12 10 8 9 11 13 14 15 15 12 13 9 12 12 10 9 7 8 7 8 8 9 10 12 12 11 8 9 8 10 10 13 13 12 11 11 15 21 27 27 23 19 16 15 13 12 13 13 12 13 13 14 14 13 13 14 15 16 15 16 18 23 22 18 16 15 15 11 11 10 10 9 8 10 12 12 12 13 11 12 12 13 14 12 10 10 8 8 7 7 7 6 6 9 10 9 7 5 6 7 9 10 8 8 5 5 6 7 7 6 4 5 9 9 10 10 11 11 10 9 14 27 40 57 76 104 110 86 49 18 12 12 11 10 9 8 8 9 11 7 7 7 9 9 8 7 7 9 8 9 8 7 6 5 4 3 3 4 5 6 6 7 6 6 7 8 7 7 6 5 4 4 4 6 6 6 7 10 12 12 12 12 9 8 6 6 5 5 5 7 6 6 6 7 7 9 9 9 9 7 5 4 4 6 7 8 5 7 6 12 12 15 15 13 11 10 10 9 12 8 10 7 7 8 9 8 7 6 6 7 5 0 
0 5 8 6 5 3 3 5 7 8 7 6 6 6 5 6 6 7 6 5 5 4 6 7 11 10 10 12 14 13 8 8 8 11 9 7 7 6 8 7 8 8 9 7 7 6 8 6 6 4 5 4 6 7 8 9 9 9 9 7 6 9 10 12 9 9 6 5 6 3 5 5 5 9 7 11 6 7 6 5 8 6 9 8 9 12 13 13 11 7 8 6 7 7 8 8 7 7 8 9 8 9 6 8 8 11 12 10 10 8 7 8 8 10 9 9 7 7 8 9 10 9 9 10 11 10 6 7 8 7 8 8 9 10 7 7 6 8 9 11 11 9 6 6 4 7 8 10 10 10 11 7 19 54 84 106 93 67 44 23 20 17 17 14 11 8 8 7 9 9 9 7 7 6 7 11 16 18 18 16 15 12 9 8 6 11 14 14 11 6 6 7 10 9 7 5 3 5 4 3 2 4 6 9 11 11 10 10 10 10 9 8 9 12 14 13 12 13 14 14 13 13 12 12 9 8 8 10 10 8 6 5 8 11 17 23 23 18 13 10 9 11 11 10 10 13 18 20 21 19 22 22 21 20 18 17 13 11 12 13 15 16 16 18 19 20 20 18 15 14 14 16 17 21 22 23 22 20 19 16 14 11 10 11 12 14 15 15 16 13 14 11 14 13 12 11 9 10 11 12 15 16 15 14 15 16 16 13 10 10 11 15 15 14 13 14 17 21 26 29 28 24 19 16 14 15 17 19 19 16 13 13 14 15 17 18 19 19 17 16 13 15 18 23 21 17 14 14 12 10 10 10 11 10 11 12 13 14 13 12 13 15 17 13 9 9 7 9 9 9 9 7 7 8 9 8 6 4 4 6 7 7 7 6 6 6 7 8 6 6 4 6 11 12 13 11 13 12 9 6 13 26 38 51 68 100 113 93 53 19 11 11 11 12 12 13 13 12 10 7 8 7 8 7 7 6 8 8 7 8 5 7 8 9 8 5 4 4 5 5 7 8 8 6 6 7 8 8 7 5 5 4 5 5 6 6 9 9 10 13 12 14 12 9 7 7 7 6 5 6 6 5 5 6 7 9 9 11 10 8 6 4 4 6 6 6 5 8 9 16 15 19 13 12 9 8 9 10 10 8 8 7 6 7 8 8 8 7 7 6 3 0 
0 6 9 9 6 6 5 6 6 8 6 7 7 7 7 7 7 10 9 7 6 5 6 6 7 8 9 7 8 8 7 7 8 9 10 8 8 8 11 10 13 8 12 8 10 8 9 8 8 5 5 4 5 9 9 11 9 9 7 8 7 9 10 11 10 6 6 5 6 4 6 7 6 9 5 10 7 10 7 6 6 6 7 6 7 10 11 12 11 9 9 7 6 6 7 6 6 5 6 7 7 7 7 8 8 9 9 9 8 8 8 9 9 8 10 8 8 6 8 8 9 8 11 10 8 9 6 7 6 6 7 8 8 8 8 8 9 9 9 10 9 8 6 5 6 7 7 8 9 7 7 7 22 60 88 104 87 62 41 23 20 20 18 12 7 5 5 7 10 10 9 6 5 6 7 11 14 16 16 15 14 12 9 8 6 9 11 11 8 4 6 7 10 9 7 5 3 4 4 4 5 6 8 10 11 11 11 10 9 8 9 12 12 11 11 12 12 11 11 11 11 13 13 13 10 8 8 9 9 9 9 8 11 10 13 14 14 13 10 9 7 11 13 17 17 21 22 24 22 19 22 21 23 20 21 17 14 11 10 11 12 13 13 14 17 20 20 18 16 14 13 12 12 15 17 19 20 21 20 18 15 14 13 14 15 16 16 16 17 17 17 15 16 18 18 17 16 14 13 13 15 17 18 18 18 17 15 14 14 16 16 15 13 11 11 14 19 25 26 22 17 11 10 10 13 16 19 18 15 14 14 16 17 18 20 21 22 19 14 13 13 16 15 17 17 20 17 13 9 10 9 11 11 10 10 9 13 16 18 15 12 9 9 9 8 9 6 8 9 9 9 7 6 7 8 7 5 3 3 6 8 7 6 5 7 7 8 8 7 6 4 7 12 14 18 16 16 13 9 7 14 24 34 45 62 98 117 100 60 23 11 11 9 8 8 10 9 9 8 7 7 8 12 10 8 5 6 6 6 6 4 6 6 7 7 7 7 6 5 7 8 7 8 6 7 7 8 7 7 5 7 6 7 5 6 5 6 7 8 9 10 10 8 8 6 6 7 6 6 6 7 7 6 5 4 7 7 8 8 7 6 5 4 5 6 7 8 10 9 16 13 19 10 10 7 7 7 7 8 8 8 7 7 8 7 7 6 4 5 5 4 0 
0 6 7 9 7 8 6 7 7 7 5 7 8 10 10 8 8 9 8 8 7 6 6 8 7 7 7 7 10 9 8 7 6 7 10 8 8 8 10 11 14 10 14 9 10 8 9 9 8 6 6 5 6 9 8 10 7 8 6 7 7 11 13 10 7 4 7 5 6 4 5 6 5 7 5 11 8 11 8 8 6 6 7 8 7 7 9 10 9 9 9 6 8 8 10 9 8 6 8 10 10 10 7 8 7 9 8 9 9 9 9 7 9 7 11 8 7 6 6 7 8 6 7 7 7 6 6 7 6 6 8 9 11 9 8 8 9 11 12 12 12 11 9 7 6 7 10 9 10 10 9 7 25 64 91 102 81 55 38 28 24 22 16 10 7 6 6 7 11 11 11 8 8 7 9 11 12 15 14 15 13 13 10 10 6 8 10 9 8 5 8 10 11 10 6 4 3 4 4 5 8 9 10 10 9 8 6 6 6 9 9 9 8 11 15 16 15 13 11 10 9 12 14 14 13 10 10 12 12 11 12 10 11 9 13 13 12 12 9 9 9 11 14 17 18 21 22 24 21 20 21 20 23 17 20 14 17 12 9 10 9 11 12 12 14 15 17 17 15 13 12 10 9 10 12 14 17 20 21 21 17 16 16 16 16 16 15 13 14 16 16 20 19 21 22 18 18 14 13 14 17 21 22 25 22 21 18 15 14 15 17 16 14 12 12 15 16 19 22 21 22 19 16 11 11 12 15 16 15 14 13 14 15 17 17 16 16 15 13 11 10 12 13 16 14 15 15 14 10 11 10 14 12 9 10 8 12 15 16 15 11 9 9 8 7 7 7 8 10 11 9 7 6 6 7 7 5 3 3 5 6 5 6 5 5 5 7 8 6 6 4 6 10 15 20 20 17 12 8 6 15 22 29 36 56 95 119 105 66 28 12 11 8 10 11 12 11 10 8 6 6 9 10 10 8 5 4 4 4 4 4 6 6 10 11 10 10 9 8 7 6 8 8 7 8 7 10 7 7 5 7 6 8 6 7 6 6 5 6 6 8 8 7 7 5 8 9 8 8 6 8 8 7 6 5 7 7 7 9 7 7 5 4 5 5 5 7 10 11 21 15 18 8 8 6 6 8 8 9 9 9 8 9 8 7 7 6 5 6 6 4 0 
0 5 8 11 10 10 8 7 5 5 5 5 7 10 10 9 9 10 11 10 7 6 7 7 8 7 6 5 9 9 9 8 6 8 8 8 9 8 9 10 11 11 14 11 12 12 12 10 9 7 6 5 7 10 9 9 7 10 10 10 10 10 11 10 8 6 6 4 4 4 6 6 6 7 6 10 9 12 10 8 6 8 8 10 10 10 10 12 14 12 13 11 11 9 10 8 8 7 8 11 9 10 6 9 5 7 6 8 7 7 9 6 8 6 8 9 6 7 6 8 7 6 7 7 8 9 9 8 6 5 7 8 9 7 6 8 9 9 12 10 12 10 9 7 6 8 9 11 11 7 5 6 30 70 96 102 77 48 35 23 26 22 18 10 7 6 7 10 12 12 12 8 9 8 8 11 10 13 10 14 11 15 12 12 9 7 8 8 7 8 10 11 10 7 5 3 2 3 7 10 11 11 9 8 7 7 7 8 8 9 11 14 14 13 13 13 12 10 8 9 9 11 15 16 14 13 13 15 15 16 16 13 13 8 8 7 7 9 8 9 10 11 15 16 18 20 20 21 19 17 18 18 19 16 16 16 19 15 13 13 13 13 11 10 13 14 17 17 16 15 14 13 13 10 10 10 13 17 21 23 22 20 19 18 17 16 16 13 12 15 14 20 22 22 24 17 17 13 9 8 11 19 18 21 18 18 17 17 21 23 24 20 15 12 11 14 18 19 22 22 22 19 18 17 18 17 16 13 11 11 13 17 21 20 18 15 15 13 14 13 11 10 8 8 10 12 12 11 8 9 9 9 9 7 7 6 9 15 17 16 12 9 8 8 8 8 7 9 10 11 9 5 4 5 6 7 5 5 4 5 7 6 6 6 7 6 7 8 8 8 6 5 7 14 22 25 23 12 10 10 15 22 24 31 53 92 121 110 72 35 13 9 6 7 7 8 6 6 5 6 5 8 10 10 7 4 4 4 5 5 5 7 6 8 9 11 12 10 8 7 6 7 8 7 8 7 9 8 8 6 8 8 9 6 6 4 5 4 5 4 5 5 5 6 7 9 12 9 9 6 7 7 6 7 8 6 7 6 9 7 8 5 5 4 4 4 7 8 9 14 11 15 6 8 6 7 9 8 9 8 9 9 10 8 9 9 8 6 5 4 3 0 
0 5 8 9 9 10 7 6 5 3 5 5 8 9 10 9 8 9 10 10 8 5 8 9 10 9 7 6 9 9 10 8 7 9 8 11 8 9 8 9 11 14 14 12 10 8 11 11 12 7 6 6 6 8 7 7 6 7 8 9 11 14 15 11 8 6 7 8 5 5 5 6 6 5 6 7 8 9 10 10 9 9 10 12 13 13 14 11 12 12 13 13 13 12 12 8 7 8 10 13 11 12 8 9 7 7 5 7 6 7 7 5 7 6 7 7 5 5 6 6 6 5 5 7 7 7 6 6 6 7 8 8 8 9 7 6 8 8 12 10 13 12 10 9 4 9 11 15 14 11 8 11 38 80 105 102 71 40 33 21 29 21 18 9 8 10 12 14 14 11 9 9 10 9 9 11 11 13 10 15 12 16 13 11 7 6 9 10 9 10 11 11 10 7 4 3 3 6 9 11 12 11 10 7 6 4 6 6 6 9 11 12 10 10 12 16 15 14 12 10 10 10 13 15 15 13 12 16 18 17 14 12 12 9 9 6 8 9 9 12 11 10 11 10 12 12 13 14 15 14 14 15 16 16 15 16 18 18 17 17 17 16 14 11 12 13 15 16 16 14 13 14 18 16 12 9 12 16 21 24 25 24 21 18 16 14 15 14 13 15 14 20 23 20 21 13 13 12 9 9 10 16 22 27 25 21 19 16 18 21 24 24 22 21 19 14 13 14 18 23 26 26 26 23 21 17 14 14 13 14 15 15 15 15 12 7 8 10 12 12 11 9 7 5 6 8 8 9 7 8 9 9 8 6 5 5 6 10 12 13 11 9 9 8 7 8 8 9 10 10 8 5 4 6 6 7 5 6 4 6 6 7 7 6 7 6 7 6 7 8 8 6 6 12 21 24 23 15 10 12 14 21 20 28 55 94 127 118 76 37 15 11 9 10 8 10 7 7 6 5 6 8 10 9 7 5 5 4 6 6 7 6 6 8 10 12 13 12 10 7 7 8 8 8 6 8 8 9 7 6 8 6 6 5 6 5 6 5 6 6 6 5 6 6 9 9 13 9 9 7 7 8 8 7 8 6 8 7 9 6 7 5 7 5 4 5 6 8 10 12 10 11 5 8 7 10 9 9 8 9 8 10 10 8 8 7 7 6 4 4 3 0 
0 3 8 9 10 11 8 9 6 5 5 5 7 11 11 10 10 10 11 10 7 5 7 9 12 11 8 7 10 10 12 8 7 11 7 11 8 9 8 9 10 13 15 13 10 9 11 10 11 8 7 8 7 9 6 5 6 8 11 10 11 9 10 10 7 7 6 6 5 7 6 8 7 6 5 5 6 8 8 9 10 11 11 13 13 11 13 10 10 13 12 15 13 11 9 7 8 9 10 12 10 10 7 6 5 5 7 10 10 8 7 6 6 5 5 4 4 4 5 7 7 7 7 8 10 11 9 8 7 5 6 6 7 6 6 6 8 6 10 9 11 15 12 12 6 9 10 14 14 10 8 18 48 91 110 98 62 32 21 17 28 20 20 14 12 13 14 15 14 11 10 8 8 7 8 8 12 11 11 12 12 16 14 12 9 8 9 8 7 9 10 9 6 4 4 3 4 6 10 12 13 8 8 7 8 5 6 7 9 9 9 11 12 12 11 11 10 8 7 10 12 13 15 14 11 11 14 19 19 16 13 13 12 9 9 7 10 12 11 12 9 8 7 5 9 7 10 10 11 10 9 11 13 15 15 16 17 16 15 15 17 18 16 13 10 12 13 16 15 13 13 15 18 18 15 13 14 16 21 23 23 23 21 18 15 13 13 14 14 16 16 19 23 19 19 10 11 10 11 14 20 26 28 26 24 19 19 16 17 18 21 24 26 26 24 20 15 13 15 18 21 22 23 23 23 22 19 17 16 16 16 18 18 13 12 12 13 12 12 11 9 8 7 8 8 8 7 7 5 6 6 7 6 4 3 4 5 7 8 8 8 9 9 10 10 10 9 9 9 9 8 7 5 5 5 6 5 7 6 8 8 9 9 9 11 10 9 7 7 8 8 6 5 7 16 23 24 18 14 11 16 22 22 27 52 97 133 129 84 41 16 11 10 12 9 11 8 8 8 4 6 6 8 6 6 4 6 4 7 6 9 7 8 7 10 11 14 11 11 8 9 10 10 8 5 6 5 6 7 6 8 6 6 6 5 5 6 6 7 7 8 7 7 6 9 7 12 8 10 8 9 9 8 9 8 6 5 5 6 6 7 7 7 7 6 6 5 5 6 8 7 9 6 7 6 8 7 8 6 7 7 8 8 7 7 7 7 5 4 3 2 0 
0 4 9 7 8 10 8 9 5 5 5 8 8 10 9 9 9 9 12 11 9 7 6 8 11 13 12 11 12 10 11 9 8 10 8 10 8 9 9 9 12 16 17 13 8 6 9 10 11 8 7 8 7 7 5 5 4 6 8 8 11 10 11 8 6 8 7 9 6 7 7 8 7 7 5 6 5 9 9 12 10 12 10 11 10 10 9 8 6 10 10 14 12 12 10 7 8 11 12 13 11 8 9 8 8 7 7 8 7 7 6 6 6 6 5 4 4 5 6 8 8 7 9 8 8 7 4 4 5 5 8 5 7 7 8 6 5 5 7 10 9 14 9 10 5 7 10 11 14 9 10 25 59 101 111 90 49 25 14 19 23 20 20 15 15 16 14 13 12 9 10 7 9 5 8 7 13 10 11 9 9 10 9 8 8 9 10 9 7 10 9 9 7 5 5 5 5 7 9 10 10 9 11 9 9 7 8 8 7 7 7 8 8 9 10 11 10 9 8 10 11 12 14 15 13 11 11 14 15 14 13 12 11 9 7 6 8 9 10 11 10 8 7 4 9 6 9 9 10 9 8 7 10 13 13 12 11 12 12 12 13 16 15 14 9 8 8 10 10 9 10 12 17 18 16 14 15 16 17 19 19 21 20 19 17 16 15 16 16 17 18 19 24 19 20 13 15 13 15 16 19 23 28 27 26 19 18 14 15 13 14 18 23 26 25 21 16 13 13 15 17 16 17 17 17 18 17 16 15 14 14 15 18 20 17 13 12 11 12 11 9 9 8 8 8 6 7 6 6 7 5 5 5 5 4 3 3 4 6 6 6 7 8 9 10 10 10 9 8 8 8 8 6 5 4 4 5 6 7 10 10 10 8 8 12 12 12 7 5 8 9 9 8 9 13 19 23 18 18 12 19 23 23 27 47 99 137 138 90 42 17 12 12 13 10 11 10 10 8 5 6 6 6 5 6 6 6 5 7 8 10 8 10 7 12 12 14 11 9 8 10 13 13 10 5 4 4 5 7 7 7 6 5 5 5 5 5 5 7 7 7 6 5 5 7 6 10 7 8 6 7 7 8 7 7 6 4 5 6 6 5 6 6 7 6 7 7 8 8 9 8 7 5 5 7 8 7 6 5 7 8 9 9 6 4 5 5 6 4 4 2 0 
0 5 8 8 10 11 10 10 5 6 5 6 7 10 10 10 9 8 11 9 9 7 6 8 9 12 11 10 10 11 11 10 8 12 10 12 7 7 9 9 9 10 11 11 8 6 7 9 9 8 8 8 8 7 5 4 4 5 8 9 10 8 7 7 5 7 6 7 8 7 8 9 9 8 7 8 7 10 8 12 9 13 9 11 7 8 6 5 6 8 10 11 11 10 8 8 8 10 10 10 11 11 11 7 7 8 11 12 12 9 6 7 5 5 6 7 6 6 6 8 10 8 8 7 8 8 5 4 5 4 5 4 5 5 5 6 6 6 6 8 7 12 11 11 8 5 7 6 9 7 10 30 66 103 107 80 40 18 10 20 20 18 17 15 17 16 12 10 10 9 11 7 7 4 8 10 13 12 9 7 8 9 10 10 9 9 8 7 5 7 8 9 6 5 6 6 6 6 7 8 10 12 11 10 10 9 9 10 11 9 7 6 8 10 11 8 8 7 8 10 12 15 18 19 17 15 15 15 14 12 12 13 14 11 8 7 7 8 9 10 10 9 8 5 7 6 7 8 9 10 9 7 9 10 11 10 10 12 12 11 10 15 15 15 10 6 6 7 7 10 12 12 14 14 14 14 13 16 13 17 14 15 15 17 19 19 18 17 16 17 18 19 23 18 19 14 16 16 17 19 22 23 23 19 18 14 16 18 20 18 14 12 15 19 21 20 18 16 15 13 13 12 12 13 14 17 17 15 12 10 12 15 17 19 22 25 22 15 10 8 7 10 10 11 11 8 9 7 6 6 6 5 4 4 5 5 4 4 4 5 5 5 7 9 11 10 10 9 8 9 9 9 7 5 3 3 4 5 8 11 10 10 7 8 14 13 13 7 5 8 8 9 7 8 9 14 22 21 25 18 22 28 28 33 47 99 140 141 94 41 18 10 12 11 11 12 9 10 8 6 5 5 6 6 6 8 7 7 6 7 9 8 9 8 11 12 12 11 8 8 10 13 12 11 9 8 7 5 6 8 7 7 5 6 6 4 5 4 6 8 10 9 6 5 5 6 7 6 7 8 9 7 9 9 9 6 5 4 5 5 5 7 8 9 8 7 5 6 6 8 9 7 6 5 5 7 7 6 6 6 6 6 6 5 5 5 7 7 6 5 3 0 
0 4 7 6 7 8 8 7 5 5 6 6 8 9 9 7 8 8 12 10 11 8 6 8 11 17 16 15 9 10 9 10 8 12 10 10 6 6 6 6 8 9 10 9 6 5 6 7 6 7 8 7 8 5 6 4 4 5 7 8 9 12 9 9 6 7 7 7 6 6 9 8 9 8 7 9 8 12 9 10 9 12 7 10 6 8 9 7 8 7 10 9 9 8 7 8 8 10 10 11 11 11 10 8 10 8 9 8 8 7 6 8 7 10 9 8 8 7 7 8 8 8 7 6 6 6 6 6 5 4 4 3 4 5 5 5 4 4 5 6 7 8 7 7 5 4 5 4 6 6 10 35 71 102 102 74 38 19 12 19 17 16 14 15 16 13 8 5 8 7 8 5 6 6 10 12 14 13 13 8 8 5 6 6 7 8 8 8 6 8 9 9 8 5 6 7 7 6 7 9 14 14 12 10 8 8 9 9 9 8 8 6 7 11 15 15 16 13 14 15 16 18 20 21 20 18 19 19 19 17 16 14 12 9 7 6 5 4 6 9 10 11 9 7 8 6 7 8 10 11 9 6 7 7 9 9 11 13 16 16 14 15 17 17 13 8 6 5 6 10 11 12 10 10 11 12 10 15 12 18 12 16 14 15 17 18 19 18 15 14 15 15 21 16 19 15 16 17 18 19 16 13 12 12 13 14 17 22 24 23 19 15 15 17 20 21 20 19 17 16 14 13 12 13 12 15 16 14 11 10 12 13 15 17 16 16 14 12 9 7 6 9 9 8 8 8 8 9 10 8 6 4 6 8 10 9 7 6 6 6 5 5 7 10 12 10 9 9 9 10 9 9 6 4 3 3 4 7 9 13 10 9 5 8 12 14 12 9 7 10 9 9 7 8 8 11 21 24 27 19 17 26 28 35 49 95 135 133 90 36 14 9 9 9 8 8 7 11 6 8 6 8 6 7 6 11 8 10 6 7 7 7 8 9 10 13 10 10 6 7 9 11 12 11 9 9 9 9 7 9 7 7 6 5 5 5 6 6 6 6 7 7 6 5 4 5 5 6 4 4 6 5 7 6 7 5 5 6 8 7 5 5 6 7 6 7 5 9 9 12 9 7 6 7 9 10 8 9 8 8 8 7 7 5 6 6 7 6 6 5 3 0 
0 4 6 6 7 8 7 5 5 5 6 5 7 9 11 10 9 6 10 8 10 7 7 8 9 15 11 13 8 10 9 9 9 12 12 10 8 7 6 5 5 5 8 7 7 5 6 6 8 7 8 6 7 4 6 4 4 5 7 11 10 11 7 9 7 7 5 6 7 8 8 8 8 9 8 9 8 9 9 10 9 9 7 7 6 6 8 7 11 9 10 8 8 6 5 7 9 10 8 8 9 10 10 8 9 8 11 10 10 9 7 7 6 7 7 8 9 7 8 7 7 6 4 4 6 6 6 6 5 4 3 3 4 4 6 6 6 5 6 5 7 9 10 9 6 3 3 3 4 5 11 39 76 102 99 72 39 20 14 17 17 14 12 13 13 10 7 6 7 8 8 6 8 10 12 12 14 12 13 9 10 9 11 8 7 8 9 9 6 7 11 10 9 6 6 7 7 6 6 8 11 12 12 10 8 8 7 8 11 9 11 9 12 14 16 15 17 16 17 17 18 20 21 21 20 18 18 17 17 16 17 15 14 10 9 7 8 9 12 13 14 14 12 10 11 9 13 11 15 12 10 6 7 10 13 13 13 14 15 15 15 16 20 22 20 14 9 6 6 10 10 12 8 9 11 13 14 18 16 20 16 18 16 14 13 13 17 16 13 10 11 11 18 17 20 17 17 18 17 17 15 13 14 15 15 17 18 22 25 24 22 17 15 16 20 22 23 22 20 19 17 18 16 16 13 13 12 12 12 12 13 12 12 14 14 16 14 11 8 6 6 8 10 11 9 8 9 11 12 11 9 6 8 11 14 13 10 8 7 6 6 6 8 11 13 12 10 9 10 11 9 8 6 4 3 4 3 6 9 14 11 10 6 8 10 12 11 9 8 9 8 7 6 6 7 11 20 26 27 24 20 29 34 43 56 96 130 123 84 32 11 10 7 8 7 8 6 11 7 12 7 9 7 8 7 10 7 11 5 6 6 6 7 7 7 11 8 9 6 6 8 10 10 9 11 13 12 10 7 8 6 7 6 6 6 8 7 8 8 8 10 9 8 7 6 7 7 6 7 7 7 6 7 7 7 6 5 5 6 4 5 6 8 10 6 8 5 9 7 9 9 11 8 10 12 14 13 12 10 8 6 5 6 4 7 6 10 7 6 5 3 0 
0 1 3 3 4 5 5 4 5 5 6 5 6 8 9 9 10 9 11 8 10 6 9 10 12 18 12 13 7 8 8 8 7 8 9 8 7 6 7 5 5 7 8 7 7 5 6 5 6 7 10 6 8 5 6 5 5 7 7 9 10 10 8 9 7 7 6 6 6 8 8 9 8 7 6 6 8 9 9 8 9 7 8 6 7 9 10 8 9 9 10 8 7 6 6 8 9 10 10 8 8 6 8 7 8 7 9 10 10 8 8 10 11 12 10 8 7 8 9 8 6 4 4 5 6 7 8 8 6 6 5 5 5 5 7 6 7 6 6 6 8 9 9 8 6 3 3 3 3 4 13 44 81 103 96 67 38 21 15 14 17 12 13 13 11 9 7 6 8 8 7 10 11 13 12 10 10 10 11 9 11 10 10 7 8 9 10 9 6 7 10 11 10 6 6 7 7 5 5 9 11 12 10 8 7 6 8 7 10 10 15 13 14 15 19 19 21 18 19 19 21 24 23 20 19 19 22 20 21 19 18 18 17 16 20 23 25 25 25 25 24 21 18 18 20 22 26 22 25 22 20 16 14 16 18 20 18 17 14 14 14 16 20 23 24 20 16 13 11 12 10 8 7 7 13 14 19 17 18 17 18 19 18 14 10 8 12 14 15 11 12 12 20 21 23 17 13 12 13 14 14 13 16 19 21 22 20 17 21 19 20 18 17 17 18 20 22 23 21 19 18 20 20 19 14 13 11 11 12 12 16 15 12 10 6 7 7 7 7 5 5 6 6 7 7 7 9 11 14 15 14 12 13 14 16 15 13 12 9 7 8 6 9 12 15 14 10 8 9 11 10 8 6 4 4 5 5 7 8 12 11 12 8 9 10 10 10 11 10 9 7 5 4 5 8 12 18 25 21 19 16 22 30 42 54 94 123 117 81 31 11 8 6 7 6 6 7 10 8 11 7 9 7 5 5 9 7 12 6 8 6 6 6 6 6 8 9 8 6 5 7 9 9 9 8 8 9 9 7 6 6 6 5 5 6 8 9 11 9 8 7 7 7 7 6 6 6 6 7 6 7 7 8 8 7 7 7 7 8 7 7 7 6 7 5 8 6 9 9 11 8 8 8 13 13 15 13 13 13 13 12 9 9 6 7 5 6 5 5 6 3 0 
0 3 4 5 6 6 4 4 4 6 5 4 4 8 11 13 13 11 10 9 9 9 11 10 10 11 9 9 7 8 8 7 8 7 8 7 8 7 7 6 5 6 6 7 5 5 6 5 8 7 10 6 9 5 8 7 7 8 10 11 9 7 6 7 9 9 7 7 8 9 9 7 6 5 7 5 6 6 8 8 11 8 10 9 9 9 9 9 9 10 9 8 8 8 6 8 9 12 11 8 7 5 8 7 9 9 9 8 7 8 8 9 9 8 7 6 7 10 10 10 8 4 5 4 7 8 6 7 5 6 6 6 7 8 8 8 9 10 9 9 8 9 10 9 8 6 6 5 5 6 16 49 85 104 94 64 36 19 12 10 16 11 13 11 11 9 8 6 9 11 9 11 12 14 11 7 6 8 8 9 10 12 12 10 9 10 11 9 5 6 10 11 10 6 6 7 6 4 4 6 8 9 9 9 9 7 6 6 10 12 14 16 17 17 19 19 23 23 25 25 24 24 23 23 23 24 28 27 25 21 19 20 21 25 30 33 35 35 34 33 31 31 29 30 31 32 34 33 34 31 30 26 25 27 26 23 19 16 13 14 12 13 16 21 22 21 18 17 17 15 13 10 9 9 19 17 23 16 20 15 18 19 19 15 10 8 12 14 16 14 16 16 24 21 25 17 14 9 10 11 14 18 22 26 29 27 24 16 17 16 19 17 14 13 15 18 21 22 21 19 19 21 24 24 19 15 13 13 13 12 12 14 15 15 10 9 8 8 7 5 4 5 7 8 8 7 7 10 13 16 16 17 19 19 18 16 12 12 9 7 8 7 10 13 16 15 11 8 8 10 10 8 4 3 4 6 6 8 7 10 9 10 8 8 9 9 10 10 9 10 8 8 8 9 13 15 19 21 17 16 18 24 29 37 48 89 121 121 87 37 14 8 9 9 8 7 10 10 10 9 6 6 6 6 7 7 6 10 6 10 7 8 6 4 6 7 9 8 8 6 9 11 11 10 8 9 9 8 5 5 5 4 4 5 6 10 10 11 8 8 7 8 8 10 10 10 9 10 11 9 8 7 7 10 10 10 9 8 8 7 7 6 6 6 6 8 8 10 7 8 8 9 9 12 14 16 15 13 15 12 10 8 7 6 6 6 5 5 4 5 3 0 
0 2 4 6 8 9 7 6 5 5 4 4 4 7 7 10 11 12 10 9 9 11 10 9 10 8 8 7 7 7 8 7 5 5 6 6 6 6 7 6 6 7 5 6 5 5 7 5 10 8 12 7 9 7 10 9 9 9 10 11 10 7 6 7 6 7 7 9 8 9 8 7 7 5 5 4 6 8 12 10 11 9 12 10 12 12 9 7 7 7 7 7 7 9 8 10 8 10 11 9 8 6 8 9 9 7 7 7 6 6 7 12 14 13 11 8 8 9 10 10 9 5 7 5 8 7 7 8 7 8 9 6 8 7 8 9 9 12 10 9 6 8 7 8 8 7 7 5 7 7 18 52 86 103 89 59 34 20 12 11 14 10 12 12 13 12 10 7 10 8 8 11 11 10 7 5 4 6 8 10 9 13 12 13 10 11 10 8 4 7 9 11 9 6 5 6 6 5 7 8 11 10 10 8 7 7 9 10 11 13 16 20 21 20 20 21 24 25 25 22 20 20 19 18 20 26 33 36 34 30 26 27 29 36 41 43 44 42 39 37 36 38 39 38 34 31 31 32 36 39 40 37 34 32 30 25 21 19 18 19 14 13 13 16 16 18 16 18 20 19 16 11 9 10 17 16 18 10 16 12 15 15 16 14 9 7 10 14 15 14 17 17 24 19 24 14 16 11 10 13 16 21 25 27 31 29 25 15 13 13 16 16 14 13 15 18 20 22 22 21 21 23 25 27 24 20 17 18 16 16 15 16 17 14 13 10 10 9 9 8 7 8 9 9 9 9 8 8 9 13 16 18 20 22 21 20 14 11 8 6 7 7 10 12 15 15 11 8 8 10 10 8 6 4 5 8 8 9 5 7 7 9 9 9 10 9 10 9 8 9 10 13 11 10 11 15 18 17 12 11 13 21 23 27 38 78 118 128 95 46 17 8 8 8 10 9 9 9 7 6 5 5 6 6 6 8 7 9 7 10 7 8 6 5 5 6 9 8 9 6 8 9 9 8 6 7 7 7 5 4 4 5 5 5 6 8 8 8 6 5 4 6 7 9 9 9 7 8 7 7 7 8 10 12 12 14 13 11 8 8 7 8 6 5 5 6 7 7 7 8 9 10 9 11 12 13 12 10 10 10 12 11 10 9 6 6 6 7 7 9 4 0 
0 4 6 6 7 8 8 7 8 7 6 4 4 7 8 11 12 11 9 8 9 11 11 9 7 6 8 7 6 6 6 8 6 6 5 4 4 5 5 8 7 8 7 7 7 7 8 7 12 8 12 6 10 9 12 11 11 10 11 9 8 7 6 8 9 11 10 11 10 9 8 7 7 6 6 4 6 7 10 10 13 10 14 14 16 14 13 11 8 8 7 7 6 9 7 8 6 9 10 9 9 8 10 10 9 8 8 6 5 4 7 10 12 13 10 9 8 9 11 11 11 6 6 4 6 6 7 6 7 7 8 6 8 9 9 9 9 11 9 8 6 7 6 7 7 7 7 8 10 9 22 55 88 102 85 54 32 19 12 11 12 11 12 14 16 15 12 7 9 9 9 9 9 10 7 5 5 9 10 11 9 15 13 16 10 12 10 9 6 9 11 11 8 5 4 4 4 4 6 7 9 9 10 8 10 11 15 16 16 17 18 19 19 18 18 20 23 25 24 21 19 16 16 19 22 29 36 40 39 36 36 36 38 40 41 40 39 36 36 36 36 39 41 40 37 31 28 27 33 40 44 42 36 29 28 24 23 21 22 21 17 13 11 14 13 15 14 16 17 19 18 14 12 14 16 15 11 9 13 12 16 16 16 12 7 7 9 13 11 14 17 18 21 16 17 12 13 11 12 17 20 24 22 21 24 24 23 16 10 11 14 15 16 17 19 20 20 20 20 20 20 20 22 24 24 23 19 22 20 20 18 18 21 18 19 15 17 13 13 13 15 15 15 13 11 9 8 6 6 9 12 14 18 22 23 22 17 11 7 5 5 5 8 10 14 14 12 9 8 9 8 7 4 3 4 10 9 12 6 8 6 7 7 7 11 10 10 7 7 8 10 14 15 15 11 15 19 20 17 10 11 20 21 22 31 70 118 134 102 52 17 7 9 8 7 8 7 8 6 5 4 4 5 7 7 6 6 8 8 9 7 9 7 8 7 7 8 8 9 10 10 10 9 7 5 7 8 8 5 5 5 4 5 6 7 10 8 8 7 8 8 9 8 10 10 9 7 7 8 8 7 8 9 10 13 15 14 14 10 10 8 7 6 6 6 6 6 6 6 7 8 9 9 9 10 11 11 9 10 10 9 8 8 9 8 7 5 6 6 8 4 0 
0 3 4 5 8 11 11 10 9 8 6 4 5 6 7 8 9 9 10 11 13 13 10 9 8 7 8 8 8 9 8 8 7 6 4 3 2 4 4 10 8 12 10 11 11 8 10 9 11 8 10 5 11 9 14 10 11 8 10 11 8 7 6 8 9 9 10 10 9 8 7 8 9 7 8 5 7 9 12 12 12 10 13 13 14 15 11 11 8 6 5 6 6 8 7 6 6 9 11 12 11 10 11 10 12 10 10 7 5 4 5 8 9 12 12 13 10 10 11 10 9 5 5 4 4 6 6 7 8 9 8 7 6 6 7 9 12 14 11 9 7 7 6 6 6 6 7 6 11 11 27 60 90 100 78 49 29 19 15 14 12 10 9 15 19 17 14 8 11 10 10 10 9 7 6 5 7 11 12 13 8 14 13 18 12 12 9 8 7 10 10 10 8 6 5 4 5 7 7 7 8 9 9 8 12 14 18 17 15 14 16 18 17 14 12 14 16 16 14 10 8 9 12 12 15 24 31 37 36 35 39 43 46 43 39 34 31 30 31 30 28 27 30 31 32 28 26 23 25 28 34 35 33 27 24 20 20 17 21 21 17 13 12 16 16 15 12 11 12 16 17 15 15 14 13 12 7 10 11 11 13 14 14 10 6 6 7 8 7 10 13 18 18 19 15 15 12 11 14 19 21 21 17 15 17 19 21 19 15 11 13 13 16 18 21 20 17 15 16 17 18 18 18 20 21 22 21 23 24 24 23 19 21 19 21 20 23 19 17 13 15 16 15 12 11 9 7 5 5 7 9 10 12 17 22 23 18 10 5 3 4 4 5 9 12 14 13 10 8 7 6 5 5 5 5 11 10 12 6 7 6 8 6 8 10 9 10 7 6 7 11 15 16 14 12 12 16 16 16 14 17 22 21 18 25 65 117 140 109 56 18 6 6 5 6 6 5 5 3 5 5 6 6 6 8 8 10 9 8 6 6 7 7 7 6 6 7 9 10 8 8 7 6 5 5 6 6 6 7 5 8 7 8 9 9 11 9 10 10 12 13 12 10 9 8 6 6 6 5 4 6 7 9 10 13 16 15 15 9 9 8 6 6 6 5 5 3 4 5 8 8 9 8 7 9 8 8 7 7 7 8 8 9 9 9 9 9 10 8 8 4 0 
0 4 5 4 7 10 12 12 10 7 7 5 6 7 7 10 10 10 9 10 10 10 9 9 11 9 11 8 8 6 6 6 6 5 4 2 1 4 5 9 9 15 12 16 13 10 10 10 12 11 9 8 11 9 11 9 11 9 8 8 6 7 6 8 10 10 10 9 8 8 8 8 10 7 8 5 6 7 8 9 8 8 9 14 13 14 10 11 8 8 7 7 5 5 4 5 6 8 9 11 11 11 14 13 12 9 9 8 7 5 5 8 11 12 10 8 8 8 10 9 8 4 3 3 3 5 5 7 7 9 9 8 6 8 8 10 9 10 8 7 7 9 10 8 7 7 8 8 12 12 32 65 93 98 74 45 26 17 15 14 13 10 12 19 21 19 17 11 12 12 11 10 9 7 7 5 9 12 12 11 6 11 12 16 12 11 9 9 9 11 10 10 7 6 6 7 6 5 5 5 5 5 7 9 13 17 19 18 17 18 19 19 17 17 19 21 19 17 14 14 13 13 14 18 21 25 26 26 26 36 42 45 44 42 37 31 25 23 23 24 23 21 20 22 26 25 24 20 20 21 30 33 27 23 16 17 17 14 18 18 16 15 14 17 17 15 12 10 8 11 13 15 14 12 10 8 5 8 8 9 12 14 12 8 5 7 8 8 7 12 13 19 16 19 15 15 11 11 12 17 17 16 10 7 9 15 21 21 21 16 17 16 20 21 21 19 15 14 14 14 15 14 14 15 18 19 19 20 22 23 22 19 20 19 21 24 29 26 25 21 21 19 16 11 9 8 6 4 4 7 8 9 7 11 17 20 17 11 7 4 4 4 5 8 12 15 14 11 8 6 5 5 5 4 3 8 9 12 10 11 8 8 5 7 10 9 10 8 8 8 9 13 18 18 19 15 18 17 15 13 12 16 16 15 20 61 116 144 115 59 17 6 6 5 4 4 3 4 4 6 6 8 6 6 5 5 7 7 8 6 5 5 6 7 7 7 8 8 11 8 9 7 8 7 6 5 6 4 7 5 9 6 8 9 11 13 10 13 13 20 20 18 15 9 8 7 6 5 4 4 7 8 11 11 12 13 11 11 8 8 8 8 7 7 5 4 2 3 3 5 5 5 6 5 7 6 7 6 8 8 8 7 7 8 9 9 7 7 6 7 4 0 
0 2 4 4 9 11 16 12 12 7 6 5 5 7 7 11 10 11 11 13 13 11 9 9 12 10 12 8 13 10 10 9 8 6 4 2 2 4 6 10 10 14 13 16 12 10 9 10 10 11 8 10 9 11 9 9 7 8 9 8 7 7 6 9 11 13 13 12 11 10 9 8 8 6 8 4 6 5 5 6 6 6 7 10 11 14 10 11 9 7 9 8 7 6 4 5 6 10 11 13 10 11 13 12 14 14 14 11 9 6 6 7 7 9 12 11 11 8 10 7 6 4 3 4 3 5 5 5 6 8 7 8 6 6 6 9 11 13 11 8 9 9 9 8 6 6 7 9 11 15 37 70 95 95 70 41 23 15 15 14 15 12 13 18 19 20 17 13 14 13 11 9 8 5 7 6 10 13 12 10 5 8 11 12 11 9 10 9 10 8 6 6 5 7 8 9 10 11 8 8 6 7 8 11 14 17 16 15 16 18 19 19 21 24 29 33 33 27 23 22 24 24 21 18 18 24 30 34 32 34 34 36 31 29 29 24 19 16 15 18 14 14 11 13 19 22 22 17 16 16 21 31 27 27 13 13 10 11 18 21 22 17 16 18 17 14 11 9 7 9 9 11 12 13 10 8 7 8 9 10 14 15 14 10 6 6 6 5 6 14 14 20 15 19 16 16 13 14 16 21 18 16 12 11 14 14 20 22 24 21 22 22 26 28 28 24 20 18 15 15 16 17 18 17 15 15 16 18 22 22 23 20 19 17 18 23 29 29 25 21 21 21 19 16 14 13 9 7 6 7 7 7 6 8 12 15 15 11 8 6 5 5 6 8 12 15 14 11 8 6 5 5 5 5 4 7 8 11 9 11 9 9 6 7 9 9 9 7 8 12 12 14 19 19 23 15 12 10 9 12 12 14 12 10 16 59 117 148 120 61 17 5 5 4 4 4 4 5 5 7 7 10 7 8 6 7 8 9 7 6 5 4 5 5 5 6 8 9 10 8 7 6 6 6 6 5 5 4 7 5 10 7 11 9 11 11 10 13 14 20 19 20 14 13 10 8 9 6 5 4 5 7 10 9 10 10 9 7 7 8 6 5 5 5 5 4 3 3 4 6 6 7 6 7 10 10 8 7 8 9 8 7 7 9 9 10 10 9 7 6 2 0 
0 4 7 9 11 13 16 12 12 8 9 7 6 6 8 11 11 13 10 12 12 11 10 10 11 9 12 7 9 7 7 7 7 6 4 3 2 5 6 8 8 9 9 11 9 8 8 8 11 13 11 13 10 10 7 9 9 11 9 8 9 8 7 7 8 9 9 9 8 10 8 9 8 7 7 4 5 3 5 5 6 6 7 9 9 12 9 11 10 9 12 11 9 7 5 6 8 10 9 9 9 10 12 13 14 11 13 12 12 10 8 9 10 11 9 8 8 7 7 5 5 5 6 6 5 4 5 5 6 8 8 9 9 9 9 8 8 8 6 5 6 8 9 8 7 8 9 9 10 19 42 74 94 89 64 38 21 11 11 12 14 13 13 17 18 20 16 14 13 10 10 7 7 4 7 6 10 12 11 8 6 6 10 8 9 8 10 10 9 7 6 6 6 6 9 10 13 14 12 12 9 11 13 14 16 16 16 17 18 19 21 21 25 33 40 42 37 32 29 28 26 23 20 17 19 23 28 28 26 29 28 27 22 21 23 19 15 12 8 12 10 13 10 10 10 9 10 11 12 13 16 28 29 33 23 17 13 11 21 24 27 21 18 18 17 12 10 10 10 9 7 9 9 9 9 7 8 9 10 12 15 17 16 12 10 10 10 8 10 16 17 21 15 15 14 14 14 16 17 21 18 16 13 15 19 18 21 21 24 24 25 28 33 36 36 33 30 26 21 19 21 24 25 21 16 14 15 19 24 25 26 23 21 17 16 18 23 27 26 25 27 28 29 26 21 15 10 8 7 7 7 6 5 6 10 13 13 11 8 5 5 5 6 9 12 14 13 11 9 8 6 6 7 7 6 8 7 11 10 11 10 9 8 7 8 9 8 7 8 14 14 17 21 19 24 15 12 9 5 7 6 8 9 9 14 56 113 149 122 62 18 5 6 5 5 4 7 6 7 8 8 10 8 8 6 6 7 8 6 7 5 5 5 5 5 6 5 6 7 7 7 7 8 8 8 6 6 4 6 6 9 7 9 9 10 10 9 9 13 17 16 20 13 15 10 9 9 6 6 6 6 8 11 9 11 5 6 4 5 5 7 7 7 6 5 4 4 5 5 8 8 9 7 9 8 10 9 8 7 8 7 7 7 7 7 8 8 7 7 6 4 0 
0 5 7 12 11 14 13 12 12 8 8 6 6 5 7 10 9 11 8 11 11 10 11 9 10 7 9 8 10 11 10 10 9 7 6 4 4 6 9 11 9 7 6 6 6 6 6 7 12 11 12 10 11 14 12 13 9 10 9 10 8 7 7 9 11 12 12 11 12 13 9 8 5 5 6 4 4 3 5 4 6 5 6 9 10 14 14 12 9 10 11 9 9 7 8 8 11 10 11 9 8 8 10 9 12 12 15 13 12 11 9 10 8 9 11 11 12 9 8 7 6 7 8 7 6 4 5 4 6 5 9 7 10 6 7 5 6 8 8 9 8 8 8 8 5 4 5 7 9 22 47 79 94 82 59 36 22 15 9 10 12 13 14 16 16 15 13 11 11 8 9 6 7 5 6 6 11 11 10 7 5 4 7 5 6 7 10 9 9 6 5 4 6 4 8 9 14 16 16 16 13 15 16 17 16 16 16 17 19 23 25 29 34 40 46 51 47 37 32 31 35 35 28 20 19 24 33 40 41 40 34 27 20 17 18 16 13 13 10 14 10 12 12 10 10 8 9 10 12 16 18 24 25 28 28 24 21 16 24 26 29 24 22 20 19 16 15 15 13 12 9 8 8 10 13 10 11 11 14 17 18 18 16 12 10 12 14 15 16 22 22 24 17 15 13 12 13 16 17 20 19 19 18 19 22 22 23 23 25 27 29 32 35 37 37 36 34 32 29 28 28 32 34 31 23 18 16 19 24 24 24 22 21 18 17 16 20 24 23 24 25 28 33 35 31 22 14 10 11 10 8 6 6 8 11 13 13 10 8 6 5 5 6 8 11 13 12 11 10 9 7 6 7 7 7 7 7 9 8 9 10 11 11 10 8 7 7 6 6 13 14 18 23 20 22 12 9 6 5 9 9 8 8 7 12 55 112 147 122 62 18 5 6 4 4 3 6 6 9 8 8 8 9 8 8 6 6 7 7 8 8 7 7 6 6 4 5 6 6 6 6 7 7 7 9 7 7 5 6 8 8 10 9 9 8 7 6 7 10 11 12 14 9 12 9 11 9 8 7 7 6 8 10 8 9 5 6 5 7 6 5 4 5 5 6 5 6 6 7 9 12 16 11 12 12 15 11 9 7 7 8 7 7 7 8 8 8 6 7 5 4 0 
0 5 7 14 10 13 10 11 10 11 13 9 7 4 6 8 9 11 8 9 11 10 15 9 10 6 6 7 7 7 7 7 9 9 8 7 7 8 8 10 7 6 3 5 6 7 6 8 9 8 11 9 11 13 11 13 10 12 9 9 9 10 10 9 11 9 11 9 9 8 6 7 5 5 4 4 4 4 6 6 9 10 9 9 11 13 12 11 9 7 9 9 9 7 9 8 10 8 8 5 6 6 8 8 10 11 12 13 13 13 10 9 7 7 9 10 10 11 8 7 7 7 8 7 7 4 6 4 8 5 10 8 13 9 10 6 7 8 7 7 5 8 7 7 6 8 9 9 11 26 52 82 93 75 50 32 22 18 8 8 8 11 11 14 15 14 13 9 9 8 7 6 5 5 6 6 8 9 8 6 5 4 6 5 6 8 10 9 9 7 7 6 7 6 10 10 17 18 18 16 15 17 18 16 13 14 14 17 16 16 19 23 28 35 40 41 37 31 28 28 31 33 31 28 26 27 29 31 32 34 34 32 28 25 23 19 13 13 9 10 8 9 9 10 10 8 9 10 9 11 11 16 22 27 30 28 26 21 24 25 28 22 23 20 21 18 17 17 17 16 11 9 8 8 11 9 13 12 16 15 17 16 15 14 13 14 16 18 23 32 31 30 19 14 12 12 11 13 15 19 20 20 18 19 21 22 22 24 26 28 30 32 34 33 32 30 32 33 34 34 33 35 38 41 38 31 20 20 22 22 21 19 20 19 21 21 22 23 21 20 20 22 28 33 33 27 17 10 11 12 9 7 6 7 11 13 12 10 6 6 5 6 7 8 10 12 12 11 10 9 8 8 7 8 8 7 7 7 10 16 24 25 20 13 10 7 8 7 4 11 12 18 25 23 25 13 10 5 5 9 9 11 12 11 15 55 111 145 121 61 17 4 4 4 4 4 6 7 8 7 8 7 8 8 8 8 8 9 8 9 8 9 6 4 4 4 4 4 4 5 5 6 6 7 7 7 6 5 6 9 8 10 7 8 7 9 9 8 8 9 9 10 8 9 8 9 8 9 6 7 6 7 7 9 8 7 6 5 7 5 8 8 8 6 5 5 5 6 8 9 11 12 12 11 10 10 10 8 7 5 6 6 8 7 8 6 6 6 7 5 5 0 
0 3 6 9 8 9 8 8 11 9 9 6 7 5 6 5 7 8 7 6 7 7 10 8 7 6 7 8 8 8 10 8 8 11 10 12 8 10 9 13 8 8 2 5 5 8 7 8 8 9 9 8 10 13 12 14 9 9 7 7 10 10 13 11 14 10 12 11 13 11 8 6 4 6 4 5 5 5 6 7 7 7 7 12 11 17 13 11 8 6 8 7 7 9 9 10 8 7 6 4 6 6 7 6 7 9 11 11 10 10 10 10 8 7 7 11 12 13 13 11 10 10 11 8 6 6 7 6 8 6 9 7 8 6 8 7 9 9 11 13 9 9 7 10 8 8 8 7 8 22 50 82 94 73 47 31 24 25 15 11 9 12 16 20 18 13 11 9 10 8 7 8 8 7 6 6 7 9 8 6 5 4 5 4 5 6 8 7 8 9 10 11 10 9 11 16 19 18 19 16 19 17 15 12 9 10 12 15 14 16 20 23 27 34 41 45 45 40 36 36 38 37 33 30 29 30 32 32 34 38 37 33 28 25 22 17 12 13 14 13 11 11 12 12 11 9 10 8 9 11 13 14 15 14 21 24 23 20 20 21 25 19 22 18 20 18 19 23 23 20 14 11 10 11 14 11 16 14 18 14 16 17 18 18 17 16 16 22 32 44 42 36 21 16 13 12 11 12 17 22 24 22 19 17 16 18 22 26 28 29 30 30 29 26 24 23 27 30 33 33 31 29 32 37 40 35 24 19 19 21 20 18 20 22 23 22 23 23 22 20 17 15 17 24 29 30 24 18 13 11 9 9 7 9 11 13 11 10 4 7 7 10 10 8 8 10 11 11 10 9 9 8 7 6 6 8 8 8 18 28 38 39 33 23 14 10 8 8 6 10 10 16 23 25 30 19 13 6 5 9 9 10 9 10 17 59 114 145 118 60 17 6 5 4 3 3 4 5 6 6 5 5 6 8 6 7 6 8 7 12 8 8 4 5 5 5 5 6 7 6 7 6 5 5 5 6 5 5 6 7 9 8 6 6 5 6 7 6 6 6 7 8 7 7 9 10 7 8 7 8 7 10 11 12 11 9 10 9 11 7 7 6 6 5 5 5 5 6 8 9 12 13 14 10 10 8 9 7 7 5 5 6 7 8 8 9 8 6 6 5 4 0 
0 2 5 7 8 8 11 8 10 8 11 10 8 6 7 5 7 8 7 6 6 7 8 8 8 7 7 6 8 8 9 9 9 12 10 13 9 10 7 10 8 8 3 7 7 11 8 8 7 5 6 6 8 8 9 9 8 9 7 6 9 10 13 10 11 9 12 11 10 7 4 5 4 6 4 5 4 5 5 8 9 11 9 12 10 14 12 10 10 8 9 11 11 13 10 11 7 7 7 5 6 6 6 6 7 8 11 10 9 9 9 10 7 7 7 10 13 14 12 12 10 9 7 6 5 6 6 6 6 5 6 6 7 7 9 8 9 9 10 10 9 10 7 8 9 10 12 11 11 18 46 79 97 78 47 27 20 21 15 13 14 14 16 16 15 16 14 15 10 9 7 9 8 8 6 6 7 9 10 8 7 6 6 5 5 7 8 7 8 11 13 14 12 12 14 17 18 18 17 16 17 14 11 8 5 9 12 15 15 15 13 14 16 21 26 31 33 33 31 29 28 28 27 26 27 28 28 26 28 30 31 30 25 23 20 17 14 12 13 13 15 17 18 17 15 11 11 9 9 9 13 14 14 12 13 18 19 19 16 17 20 14 19 15 18 19 21 24 24 19 14 11 9 8 11 13 24 25 27 21 19 20 21 21 20 17 16 21 38 52 50 39 21 20 15 14 15 18 23 28 28 24 19 15 12 16 22 27 27 26 25 23 21 19 20 21 25 28 30 29 27 23 25 31 38 36 28 24 27 31 32 29 28 27 25 24 24 25 26 25 22 18 14 17 22 29 29 27 25 23 18 13 10 9 9 11 11 12 7 9 9 12 12 10 9 10 11 10 8 9 11 10 8 5 7 6 8 8 23 42 56 55 38 30 16 13 10 9 8 11 10 12 17 20 24 20 16 8 7 7 9 9 8 10 19 65 119 148 116 57 14 4 4 5 4 5 4 4 4 3 4 5 5 6 5 7 6 8 7 7 6 7 5 5 5 6 6 6 7 9 7 6 3 3 3 4 4 4 6 6 9 6 6 5 6 6 8 6 5 5 5 6 6 6 6 6 6 7 5 6 6 7 10 10 13 10 14 12 11 9 8 8 6 5 4 4 5 6 8 8 9 8 9 9 9 7 7 6 7 6 7 8 8 9 8 9 7 7 7 7 4 0 
0 4 6 5 6 7 8 8 9 8 8 9 9 8 7 6 7 8 7 6 5 5 8 7 10 8 9 6 6 8 8 9 7 10 10 13 10 9 9 9 8 6 3 6 6 9 7 7 8 6 8 5 6 6 7 8 9 8 5 6 8 9 10 8 8 9 8 11 8 7 5 6 6 8 6 8 6 7 6 8 7 8 7 10 10 11 11 8 11 10 12 14 13 18 12 12 7 7 6 6 6 8 8 8 8 8 8 7 6 7 9 12 9 10 7 9 11 13 12 12 9 11 10 7 5 6 6 7 7 8 7 5 4 4 7 9 11 11 13 13 12 10 9 9 9 11 10 9 9 12 40 77 101 87 50 21 14 15 15 14 13 12 15 16 15 16 14 14 10 10 7 10 8 10 7 8 10 10 11 8 9 8 7 5 4 5 7 7 9 13 17 18 13 13 15 18 18 17 19 19 19 14 10 8 6 9 12 15 14 12 11 11 12 15 19 23 24 26 27 25 21 18 16 16 19 22 24 24 25 28 31 28 26 25 23 22 20 19 18 17 16 18 19 18 19 17 18 18 17 16 15 17 14 12 12 16 17 18 12 15 14 11 14 13 17 19 20 25 23 17 14 12 13 14 17 23 30 31 30 24 23 24 24 23 23 20 20 27 45 59 56 46 24 24 19 18 20 24 28 29 25 21 16 14 14 20 23 24 21 18 17 16 16 16 19 21 24 24 22 22 23 19 15 15 23 31 34 32 35 38 37 33 31 30 30 30 29 30 31 31 29 25 19 15 16 23 28 30 30 28 25 20 13 8 8 10 10 8 5 5 9 12 13 11 9 12 12 11 7 8 11 11 9 5 8 7 10 8 20 41 51 66 43 32 17 13 12 11 11 14 12 11 11 17 22 20 17 12 11 8 9 9 8 11 21 71 125 153 117 57 16 7 5 5 3 4 4 4 4 3 3 4 4 4 4 5 5 5 5 6 7 7 7 8 7 7 8 7 8 9 7 7 3 2 2 4 5 5 5 4 6 4 6 4 5 4 5 4 4 4 5 6 7 9 9 7 5 6 6 7 6 7 12 10 13 11 15 16 14 11 7 8 8 7 6 4 5 6 10 11 11 10 8 8 8 7 7 6 6 6 6 7 7 8 7 7 9 8 8 8 6 0 
0 4 7 7 8 8 8 8 6 8 9 12 8 9 8 7 8 7 7 5 4 5 7 7 10 8 7 5 4 6 6 9 8 9 8 9 10 8 8 6 6 5 3 6 6 9 8 7 9 5 6 4 4 4 5 8 10 11 10 9 6 6 6 5 6 8 8 9 5 5 4 5 7 7 9 8 9 9 9 8 9 9 8 9 6 7 8 8 9 10 11 14 15 19 15 14 9 11 8 8 7 8 8 9 7 9 6 6 5 5 6 9 7 9 7 9 10 12 10 11 8 8 6 4 4 5 5 5 5 6 6 6 6 6 6 7 7 7 8 9 11 10 9 11 9 14 12 11 12 10 38 76 101 91 54 24 13 12 11 13 13 12 10 9 10 13 16 15 12 9 8 11 8 10 7 9 12 11 12 8 9 9 8 5 5 6 10 9 12 15 18 19 16 16 15 15 15 16 20 21 19 14 11 11 11 13 13 13 13 12 12 12 13 15 13 12 12 14 16 14 13 13 14 16 17 19 21 24 27 30 33 32 30 28 28 29 29 27 23 23 25 27 25 18 16 16 20 24 26 26 23 22 18 16 15 20 23 23 16 13 10 10 12 14 18 21 22 23 19 13 11 10 13 16 18 25 31 32 31 25 25 25 23 20 20 22 25 31 49 64 59 46 26 24 23 22 23 25 27 25 21 20 17 16 17 20 23 24 21 16 14 12 12 11 14 16 18 19 16 17 20 21 22 23 28 34 38 38 39 41 41 39 35 33 32 33 33 34 33 32 31 30 25 18 14 17 24 30 32 32 30 25 18 12 9 9 9 8 6 6 8 10 12 10 10 13 13 11 6 7 10 11 9 6 9 7 8 8 14 34 38 47 34 25 16 13 14 15 15 15 14 11 9 10 11 11 16 13 15 11 12 12 10 13 21 75 129 157 118 56 14 5 5 6 5 5 5 4 3 3 3 3 3 3 4 4 6 5 4 2 5 8 10 10 9 9 7 5 7 7 6 6 3 3 4 5 5 4 5 4 4 3 5 6 8 7 6 4 5 4 4 5 5 6 5 5 5 6 5 5 6 5 10 8 11 9 13 14 12 10 9 10 9 7 6 5 5 6 7 9 9 11 9 9 11 9 9 7 6 7 8 8 7 6 8 7 8 7 10 9 5 0 
0 6 9 7 6 5 5 5 4 8 7 11 8 8 6 6 7 6 6 5 5 5 6 7 7 7 6 5 4 5 6 7 6 6 9 10 12 8 9 8 6 5 4 5 7 8 10 9 11 6 6 3 2 3 4 8 10 12 11 9 7 5 6 4 8 7 8 7 5 5 6 6 10 7 12 8 14 10 13 8 8 8 8 9 6 6 4 5 6 9 10 16 21 22 16 11 7 8 7 9 7 8 7 9 7 7 5 5 5 5 6 8 8 8 7 7 8 10 8 10 8 8 6 5 4 4 5 5 6 7 6 5 5 6 8 8 10 10 9 9 9 11 9 12 8 12 10 9 12 12 41 77 98 89 53 25 14 10 10 13 14 12 10 8 11 13 16 17 15 11 9 9 8 11 9 10 11 9 9 7 8 10 8 6 5 6 10 10 11 13 15 17 18 18 17 16 13 17 20 19 16 13 13 14 15 15 16 14 12 11 11 12 12 13 10 9 8 9 12 12 12 12 14 15 15 16 19 22 24 26 30 34 35 35 35 38 39 38 34 31 30 30 28 23 20 20 23 25 26 27 28 26 24 21 19 22 26 24 20 13 10 12 14 16 17 20 20 20 17 13 14 19 22 23 22 25 27 25 25 23 24 24 22 19 18 21 26 34 50 68 64 47 28 21 23 22 23 22 21 18 17 19 18 17 18 19 23 18 12 11 12 10 10 9 11 13 15 14 11 13 19 27 33 33 34 38 41 41 38 37 38 39 36 32 30 28 29 30 29 27 26 28 28 23 17 15 19 24 25 27 27 26 22 18 14 11 8 8 6 6 7 8 9 8 9 13 14 13 8 7 8 9 8 6 8 6 8 8 11 19 28 33 26 18 12 14 14 17 17 16 16 12 12 11 12 10 15 12 13 12 13 17 14 16 24 78 134 159 117 56 12 5 5 6 5 5 5 5 6 5 3 3 3 3 5 6 8 5 4 3 6 9 10 12 9 9 8 7 6 6 6 7 5 6 7 6 8 5 5 3 3 3 4 6 6 8 6 5 4 4 4 5 7 9 7 6 5 5 5 5 5 5 8 7 7 7 11 13 11 9 9 10 11 11 10 8 7 6 8 11 11 13 10 11 11 10 8 6 5 5 7 6 6 5 6 5 6 6 7 8 7 0 
0 4 8 8 7 5 6 7 7 10 6 9 5 8 8 8 7 6 5 5 6 7 9 9 10 11 9 7 7 7 7 7 8 8 10 9 9 8 7 5 4 3 5 5 7 7 11 10 10 5 5 3 4 6 8 12 15 18 19 14 11 7 8 6 7 7 7 7 5 7 7 9 10 8 13 9 15 11 13 9 8 10 9 9 6 5 6 10 10 9 9 10 14 15 13 10 10 11 10 9 9 10 8 10 7 9 7 7 6 7 6 8 9 8 7 6 7 9 9 10 9 8 6 5 4 5 5 5 6 5 5 6 7 7 7 7 7 6 7 7 6 9 9 13 12 15 12 10 9 13 42 79 93 81 48 27 20 12 12 13 16 15 13 12 11 15 19 21 18 13 10 11 12 12 9 9 9 8 8 6 5 7 6 6 7 9 11 11 12 13 17 20 21 18 16 12 13 17 18 18 16 13 14 13 14 13 13 13 12 11 10 11 11 11 9 8 9 10 14 13 14 12 11 12 13 13 15 18 19 20 22 26 29 30 31 34 38 39 38 36 38 41 36 29 21 21 23 25 24 23 27 28 29 25 22 22 26 25 24 18 16 18 17 19 17 19 21 21 19 17 18 19 20 21 20 21 22 21 23 23 25 24 21 19 19 22 25 33 49 67 69 52 31 20 21 19 20 16 16 14 14 18 18 17 16 12 13 14 15 14 12 11 11 9 7 7 8 9 10 13 19 25 28 30 31 32 33 33 31 30 31 34 35 31 27 23 22 22 21 18 18 22 29 28 23 17 16 17 17 18 22 25 26 24 20 15 9 7 9 9 9 8 8 8 9 12 14 13 10 8 7 8 6 5 7 6 10 8 13 13 18 17 15 12 9 13 13 16 17 16 17 14 15 14 14 14 16 14 16 17 16 20 14 17 31 81 136 155 112 53 9 5 5 8 7 9 6 6 6 5 5 5 4 4 6 8 9 7 5 4 5 8 9 11 9 9 7 5 7 9 7 11 9 11 12 8 8 5 5 5 4 4 6 10 12 13 8 7 6 6 6 7 8 8 7 7 6 7 5 5 7 7 7 7 5 6 7 8 7 8 8 9 10 9 9 10 8 9 6 9 8 10 10 10 9 10 9 8 8 7 9 7 6 5 5 7 5 6 6 8 5 0 
0 4 5 5 5 5 6 8 7 9 6 9 8 11 8 7 7 6 6 6 6 6 6 8 8 9 8 7 8 8 9 7 8 8 10 9 9 7 7 7 6 5 6 5 8 8 11 9 9 5 4 3 4 4 5 9 12 15 14 12 11 10 10 8 6 7 5 6 6 8 7 11 9 10 11 10 13 12 10 9 6 8 9 10 11 8 8 8 8 8 10 12 16 14 11 8 8 9 10 11 9 7 7 9 7 7 6 9 7 11 7 12 12 9 7 5 5 6 8 8 10 7 7 5 4 5 5 6 7 6 7 6 6 7 8 6 7 6 6 5 5 7 9 10 9 11 11 10 8 17 48 84 93 76 47 24 18 10 12 13 20 18 16 17 12 18 24 26 21 13 7 7 9 11 9 8 7 7 7 6 5 6 7 6 8 11 13 12 11 12 14 15 16 15 13 10 10 12 13 12 11 9 9 9 9 10 10 11 10 10 9 9 7 6 4 6 10 12 15 12 12 10 8 6 7 10 15 15 13 12 14 18 20 23 24 26 30 33 33 32 34 41 41 41 34 30 27 23 20 18 20 23 24 25 25 24 27 26 25 22 22 26 25 25 20 20 21 20 20 18 21 23 24 21 16 18 22 23 25 22 23 23 22 20 19 21 23 31 48 66 71 58 35 20 18 17 19 16 15 13 11 18 16 15 13 13 15 14 10 11 12 12 10 8 9 11 12 13 11 10 12 18 24 25 22 21 23 27 26 26 26 29 33 31 26 17 12 14 15 14 13 16 24 28 25 22 18 15 14 15 20 24 30 32 27 19 11 10 13 11 11 8 8 8 9 11 13 12 10 9 8 8 5 4 6 8 11 11 16 17 16 14 10 10 10 10 12 12 13 14 18 17 15 17 19 24 23 20 19 19 19 21 12 15 33 83 138 150 104 49 8 4 5 9 7 10 7 8 7 6 6 5 5 4 6 9 10 10 7 5 5 7 9 11 10 9 11 8 9 8 9 14 11 14 13 10 8 5 5 5 5 7 6 9 9 11 8 6 5 5 6 9 9 11 8 8 6 7 6 6 6 6 7 7 5 6 6 8 7 6 6 6 9 10 13 14 9 12 6 9 9 8 10 11 13 9 9 6 8 7 10 8 7 5 5 8 7 7 5 8 5 0 
0 3 4 4 4 5 8 11 10 9 6 8 8 9 8 7 6 6 6 5 5 6 8 10 12 16 13 12 11 11 11 10 10 9 12 9 10 9 7 6 5 5 7 7 7 7 8 8 6 5 4 3 4 6 9 13 17 22 19 17 14 13 12 11 8 6 6 5 5 7 6 9 7 10 8 10 8 8 6 6 5 7 9 10 10 8 11 13 15 13 10 9 10 9 8 8 11 12 13 11 10 10 10 10 9 8 7 10 7 11 8 14 11 10 7 7 7 7 7 6 10 7 9 7 8 9 9 8 9 7 10 7 7 5 6 6 6 5 6 8 8 10 10 11 12 13 12 9 9 19 55 90 96 72 39 19 18 13 14 14 20 18 18 16 15 23 25 25 20 11 7 10 12 11 9 6 7 8 8 7 5 6 6 8 10 13 14 15 13 14 16 16 14 12 8 8 9 11 12 10 9 7 7 6 5 5 5 8 8 9 8 8 10 10 9 9 12 11 14 11 12 9 8 4 4 7 11 14 14 11 11 14 19 24 26 25 24 22 25 25 28 36 38 40 36 34 35 33 27 21 17 23 21 22 23 27 31 31 28 26 26 31 33 34 28 24 21 20 20 19 19 18 17 16 13 17 22 23 25 22 20 19 18 19 18 21 24 32 48 68 77 66 41 23 18 17 18 16 14 12 8 13 12 18 16 16 14 12 10 11 11 12 13 13 12 12 12 13 14 13 12 11 9 8 9 13 16 23 21 19 17 19 24 27 26 22 17 17 16 15 11 14 21 26 26 23 20 17 14 12 14 17 24 30 31 25 16 11 13 12 14 8 10 9 11 12 12 12 11 11 11 10 8 6 7 11 12 14 14 16 13 15 11 13 10 9 9 8 10 12 18 19 17 19 24 30 29 24 29 24 23 18 11 13 34 86 140 147 99 45 8 4 6 8 9 13 10 8 7 5 6 7 8 8 9 11 12 11 9 7 6 6 7 10 11 11 11 8 11 8 11 13 14 16 12 9 7 6 6 6 6 8 8 11 10 9 7 7 7 9 10 10 9 10 8 8 7 8 7 8 9 9 9 7 6 6 6 7 6 6 5 5 9 9 9 11 7 8 6 8 6 7 9 8 8 7 9 6 9 7 10 8 8 8 8 9 8 8 7 10 6 0 
0 2 3 2 3 4 7 9 11 10 8 9 11 12 7 5 5 6 6 5 5 6 8 10 12 13 12 11 11 13 12 12 11 9 11 9 10 8 7 6 7 7 8 10 8 9 7 8 7 6 5 3 4 4 4 8 11 14 13 15 11 12 12 9 9 7 6 6 7 7 7 6 7 9 8 9 9 11 9 7 7 8 8 10 10 9 8 9 12 11 12 10 9 8 8 8 10 10 14 10 10 7 9 11 8 8 7 9 6 9 6 11 11 12 9 7 6 5 5 6 8 8 9 8 9 8 9 8 9 8 12 7 6 5 5 4 4 4 5 7 8 11 9 7 8 9 11 9 9 23 63 95 99 69 34 17 13 12 13 14 20 18 20 17 17 21 24 22 17 9 7 9 10 10 9 9 10 11 8 8 7 9 8 9 11 13 15 15 14 13 13 13 12 11 9 7 8 9 10 10 8 6 6 4 4 4 4 6 7 9 10 11 12 10 9 10 13 11 13 9 10 9 10 7 6 8 11 13 14 18 23 29 35 36 33 24 17 13 16 15 18 25 29 32 32 33 35 36 32 28 21 18 16 20 22 29 33 35 33 29 28 32 38 43 40 33 24 19 17 17 17 18 18 19 17 17 18 19 19 18 17 18 17 15 14 17 23 30 46 69 83 75 50 27 19 18 19 19 17 17 16 21 21 26 25 26 23 21 19 20 22 23 22 23 22 20 19 18 17 15 13 10 8 10 13 17 20 24 21 19 17 17 22 30 29 24 17 18 18 19 14 14 18 21 23 21 20 17 14 10 11 14 19 25 29 30 24 19 16 11 12 7 8 6 8 11 12 12 11 11 11 10 9 7 8 12 12 14 14 15 14 16 13 14 8 8 7 7 6 9 17 18 18 21 28 34 40 30 35 28 27 19 12 12 33 86 140 149 100 43 8 5 7 8 9 8 7 6 5 5 7 8 8 7 6 8 10 13 11 9 7 8 9 12 9 10 12 9 11 8 10 13 14 14 9 8 5 5 5 5 5 7 6 7 5 7 6 5 5 7 8 9 8 7 7 7 6 8 6 8 6 8 9 8 7 6 6 9 7 6 4 6 7 10 8 8 6 6 5 7 9 11 10 11 11 11 9 8 9 7 9 8 8 7 9 11 11 11 9 11 6 0 
0 2 4 2 3 3 6 8 9 8 7 10 8 7 6 4 6 5 5 5 6 7 9 9 12 14 15 16 13 14 12 12 10 10 12 12 15 14 10 9 7 7 8 9 7 8 5 8 6 7 7 4 5 4 7 11 14 21 17 18 14 13 11 10 8 9 8 9 10 9 10 7 8 8 7 8 7 9 8 8 7 8 10 12 10 9 10 10 14 13 14 9 10 7 7 6 9 11 14 10 9 8 7 9 7 9 8 7 6 5 4 9 10 10 8 8 9 8 7 6 8 11 10 9 11 13 14 13 12 9 9 5 4 4 4 5 5 6 7 13 12 12 9 8 9 8 8 5 6 25 63 96 98 65 30 12 11 13 15 15 23 19 22 17 16 18 21 18 16 10 10 11 13 12 12 13 14 12 9 7 7 10 11 11 11 12 15 13 15 13 16 17 14 12 7 8 10 11 10 8 9 10 10 8 5 4 4 7 8 10 10 10 11 13 13 11 9 9 9 8 8 8 9 8 10 18 29 37 43 49 56 61 61 55 47 34 25 21 22 27 30 29 25 22 22 24 29 33 31 29 24 19 17 16 19 25 29 33 34 32 30 32 40 51 53 45 30 18 16 15 16 20 22 22 18 15 14 16 17 17 15 15 16 14 13 14 20 27 42 69 88 86 60 31 20 20 20 20 21 22 22 25 29 33 34 35 33 33 32 32 32 31 31 31 29 25 20 17 15 14 15 15 17 19 24 30 35 37 34 30 25 23 23 26 26 25 20 21 20 21 14 15 18 19 18 17 20 22 19 14 9 10 12 17 23 27 27 22 18 12 9 6 6 5 6 8 11 11 11 11 11 10 8 8 9 11 11 11 10 10 11 12 13 13 9 9 7 7 5 7 13 17 16 18 26 29 35 26 32 26 27 23 16 12 30 86 140 152 103 43 10 7 9 8 9 9 8 6 5 7 9 8 8 9 9 9 8 10 8 9 7 7 7 9 8 9 9 8 9 7 9 13 11 14 9 9 8 8 6 4 4 5 6 7 6 7 6 6 6 8 9 7 6 4 5 5 6 5 5 8 7 11 10 10 7 5 6 9 8 8 4 6 6 8 6 5 3 4 4 8 7 9 9 9 6 9 8 9 7 7 8 6 7 10 12 12 10 12 11 14 8 0 
0 2 4 3 4 3 5 5 7 9 7 11 10 11 8 5 7 5 6 4 6 7 9 9 11 11 11 12 12 13 12 11 10 12 11 15 13 11 10 8 7 8 6 6 6 7 5 8 6 6 6 4 5 3 4 8 10 14 15 16 14 10 9 7 6 9 9 11 11 10 11 8 9 8 8 8 9 13 12 12 12 12 11 11 9 8 8 8 12 9 11 6 8 5 7 5 7 8 10 10 8 8 7 8 8 7 10 8 5 3 2 5 8 9 8 7 6 5 6 6 9 9 11 11 12 13 13 12 11 10 9 6 5 5 5 7 6 8 6 10 9 10 7 5 7 7 7 4 5 24 61 93 94 62 28 13 12 13 14 14 21 23 24 19 16 13 17 16 15 11 10 11 10 11 12 13 15 12 8 5 8 11 15 14 13 14 14 12 15 15 20 19 15 13 10 13 12 13 13 12 11 10 10 8 8 7 6 8 7 8 10 11 10 11 11 13 12 11 10 12 15 23 33 43 54 68 80 89 95 99 102 102 97 87 76 66 61 59 57 52 46 40 34 28 25 23 24 27 27 25 22 17 19 19 20 19 21 26 29 31 31 31 39 56 67 61 41 19 13 15 19 23 25 22 18 13 11 13 17 20 20 18 15 11 10 12 18 24 38 65 91 96 73 44 27 25 24 24 26 28 30 32 34 37 38 39 41 42 41 39 36 33 31 29 27 24 20 17 17 23 30 32 35 37 43 49 52 53 50 46 40 35 33 32 31 28 24 25 21 20 16 20 21 20 14 9 13 18 19 20 18 20 17 15 16 20 24 24 21 15 10 7 6 6 7 9 10 12 12 11 9 9 6 8 9 11 9 8 7 7 9 11 12 11 7 7 6 5 4 7 12 14 13 14 22 25 30 22 24 21 22 19 15 15 29 87 141 154 105 44 10 7 10 8 7 6 5 5 6 7 8 9 9 5 4 4 7 9 9 9 7 8 9 8 7 6 6 6 8 8 9 11 9 13 9 11 10 9 7 4 5 5 7 6 8 6 7 6 6 7 7 6 5 3 4 4 6 4 7 6 6 8 8 8 6 6 7 11 9 8 4 5 5 7 6 5 4 4 4 7 7 11 10 9 7 11 8 9 7 6 7 6 6 7 10 15 13 14 11 12 7 0 
0 3 4 5 5 4 4 4 5 6 6 9 8 10 8 6 7 5 5 4 5 6 7 6 8 8 11 11 11 10 10 8 7 11 9 13 12 13 12 9 7 5 4 5 4 4 4 5 5 5 6 5 5 5 7 11 11 15 15 13 15 10 8 7 7 8 10 13 13 13 12 9 10 7 8 7 9 9 11 12 10 10 12 10 11 9 10 7 10 7 10 5 7 5 6 5 6 8 10 8 8 7 7 6 7 6 9 8 6 4 3 6 8 8 7 5 5 5 6 6 10 10 11 9 10 12 11 13 13 11 8 7 6 6 5 7 6 8 6 13 9 10 7 8 7 6 5 3 5 24 60 91 92 64 32 16 13 13 13 13 17 22 24 20 14 11 14 16 15 13 9 12 9 10 11 14 17 12 8 5 8 12 17 15 13 15 14 13 17 20 26 22 17 12 10 10 13 13 11 10 13 13 11 9 9 10 9 10 9 9 10 10 11 13 18 25 34 45 56 69 82 95 107 115 122 128 134 138 138 135 129 122 113 105 100 99 101 101 99 94 88 78 64 50 37 29 22 20 21 23 22 20 22 22 21 17 14 16 20 25 27 28 35 55 75 75 55 27 11 12 17 23 25 23 17 13 14 17 20 22 23 22 21 17 15 16 19 25 37 62 92 104 85 53 30 28 31 33 33 35 36 38 39 39 38 38 40 40 38 34 30 27 24 23 26 28 27 25 24 32 43 50 54 55 59 61 61 59 57 55 50 43 39 35 34 32 28 28 24 22 19 21 19 16 11 7 10 15 17 21 20 23 20 17 13 12 15 18 20 17 13 9 7 8 7 10 10 11 11 10 9 9 6 9 10 12 10 6 4 4 6 9 10 9 7 7 6 4 5 9 11 12 11 10 17 19 21 15 16 16 20 19 16 15 32 89 143 154 102 42 10 8 10 7 9 7 8 8 10 12 14 10 8 6 7 5 6 6 6 7 8 7 7 7 6 7 7 7 7 7 8 7 8 12 11 14 10 9 9 6 5 5 8 6 9 6 7 7 6 8 7 7 4 3 5 4 7 4 6 6 9 10 11 8 7 6 9 10 10 7 5 4 5 6 8 5 4 4 4 6 7 7 8 9 7 11 7 9 5 5 5 4 7 9 15 15 16 13 12 10 6 0 
0 3 5 5 6 4 5 4 5 6 7 10 11 11 9 8 7 6 5 5 4 5 6 6 8 5 8 7 10 9 10 7 9 12 12 13 11 12 14 10 8 5 3 3 2 3 5 5 8 5 6 4 5 5 7 10 12 11 12 11 10 8 8 6 6 7 8 9 9 10 11 10 8 6 9 8 10 9 9 10 12 12 11 7 8 6 8 6 8 5 6 4 6 5 5 6 5 5 7 7 9 10 10 8 6 7 8 8 7 5 4 5 5 5 4 4 4 3 4 6 8 8 9 10 11 12 11 11 9 9 8 8 7 8 7 10 9 10 6 9 7 9 7 8 7 7 6 5 9 25 61 88 89 64 32 17 14 13 12 10 16 23 24 22 13 14 13 15 12 10 7 7 5 7 7 9 11 10 7 5 9 15 19 17 14 17 16 16 19 24 26 22 17 14 16 14 16 13 12 10 11 10 11 10 9 10 10 11 11 10 10 14 27 42 61 78 93 106 116 122 128 130 131 126 119 119 122 124 118 107 98 89 83 80 82 87 94 98 101 103 103 100 91 79 63 47 32 23 20 19 20 23 26 27 23 17 12 10 13 17 21 23 27 48 74 82 64 32 13 12 16 21 23 21 18 16 15 18 20 21 19 17 15 15 13 15 18 25 35 58 91 110 97 64 36 29 31 31 32 33 35 37 36 34 31 29 29 28 25 21 17 16 17 21 27 33 38 40 43 51 60 63 63 62 60 57 52 48 48 48 47 42 40 35 34 32 31 29 26 22 21 20 18 13 10 9 12 15 18 22 22 26 23 22 15 12 10 13 18 18 16 12 9 9 8 10 10 10 9 8 7 8 6 10 10 12 10 8 6 4 6 9 9 9 7 9 7 5 7 10 12 11 7 9 14 15 15 11 11 11 12 12 15 14 36 95 147 153 97 37 8 8 10 6 7 6 8 9 11 12 11 10 8 7 6 5 8 7 8 7 6 6 8 8 8 8 7 8 11 11 10 9 9 11 12 13 14 11 10 8 8 9 11 8 10 5 6 6 6 8 8 8 5 4 5 4 6 4 5 5 7 7 8 6 8 9 13 11 11 5 5 3 5 4 9 5 6 4 5 5 7 8 10 8 8 10 8 9 5 4 3 3 7 7 15 14 21 14 14 10 7 0 
0 3 5 5 5 4 6 4 7 7 8 9 8 8 9 9 8 8 5 3 4 6 6 6 5 4 7 8 10 10 11 11 10 9 9 10 12 11 13 11 8 5 4 4 3 4 7 7 9 6 8 6 7 7 9 9 12 10 12 9 10 7 8 8 8 8 6 7 9 9 9 8 8 7 7 9 9 9 8 9 9 9 9 7 6 5 6 4 5 4 4 3 3 4 5 5 6 7 8 8 7 8 8 8 7 5 7 9 7 7 5 7 6 7 5 4 4 4 5 6 7 6 6 6 7 10 9 9 9 7 8 10 10 9 7 8 8 7 6 9 8 10 9 9 8 8 7 7 13 27 62 88 89 65 33 18 15 10 9 10 18 25 23 23 13 18 13 14 12 9 8 7 5 6 7 10 10 10 7 7 13 19 20 17 12 17 19 18 19 24 24 27 19 18 16 13 13 10 7 7 13 14 12 9 8 8 9 12 14 22 36 56 78 95 107 113 118 120 119 122 131 143 149 146 137 132 123 121 117 104 90 80 79 78 80 80 85 85 85 83 82 84 89 91 85 69 51 38 32 30 28 32 31 28 20 14 14 10 11 12 17 19 19 39 69 84 74 39 16 12 14 18 22 22 21 18 18 19 20 20 20 19 17 15 13 17 19 26 33 53 89 115 108 75 41 30 31 31 32 34 37 39 36 31 25 19 16 14 16 19 23 29 31 34 40 46 50 50 53 58 63 63 58 53 47 40 34 29 30 30 32 32 32 30 29 26 26 25 23 20 18 16 14 12 10 10 12 11 14 16 16 19 19 21 17 12 8 10 15 19 19 16 11 9 7 10 8 8 7 6 7 7 6 9 9 11 9 8 7 7 8 9 9 11 9 11 9 8 9 10 10 9 6 10 13 17 16 14 12 13 12 11 11 12 41 102 150 149 90 33 7 8 9 6 6 6 9 12 13 14 12 12 10 10 8 7 7 5 6 6 6 7 8 9 10 11 12 14 11 11 8 7 7 9 14 11 10 8 10 8 7 7 8 7 8 5 7 6 7 7 9 8 7 4 5 6 7 5 4 5 7 10 10 9 7 8 10 11 10 6 5 3 6 4 10 5 7 5 5 5 6 6 8 7 8 7 9 7 5 5 3 5 8 8 14 11 14 11 12 11 6 0 
0 3 5 4 5 4 6 5 7 8 8 8 7 7 7 9 10 8 6 3 3 5 6 8 6 4 5 7 9 13 12 10 9 11 12 10 12 12 17 12 8 5 4 4 5 6 8 7 11 7 10 6 9 8 10 11 14 13 14 9 9 7 10 9 8 7 6 6 7 8 11 10 7 6 7 9 12 9 8 10 10 12 7 5 4 5 5 6 5 4 3 4 4 5 6 5 6 4 6 7 9 10 11 9 7 5 5 8 7 9 6 7 4 5 4 4 4 5 5 5 5 4 5 5 8 9 10 10 7 5 6 6 7 8 9 10 10 8 6 10 9 9 7 7 7 8 8 8 15 26 62 87 89 66 31 15 10 8 11 14 20 25 20 20 14 18 16 13 11 7 6 4 3 5 5 8 8 10 9 11 15 19 19 17 14 18 22 19 19 21 21 26 20 20 15 12 10 8 7 7 11 13 13 12 9 9 12 24 42 63 81 97 107 110 109 104 102 99 97 95 87 82 75 66 54 48 48 52 54 53 53 51 51 47 45 42 43 47 56 64 72 74 71 73 76 75 65 52 43 38 32 34 30 28 20 14 14 11 11 11 16 19 16 33 62 81 76 43 18 12 13 16 20 23 23 20 17 16 15 13 12 12 12 11 10 14 16 24 29 47 87 120 120 89 48 31 30 28 28 30 32 33 29 24 18 13 11 12 18 26 32 38 43 47 50 51 51 49 50 51 52 47 40 33 27 21 17 14 14 15 16 21 22 22 20 20 23 23 21 17 14 13 13 14 13 13 14 12 18 16 16 14 14 19 19 16 11 9 11 15 18 16 12 8 6 6 6 5 5 5 6 6 6 7 6 8 7 8 9 9 9 9 8 10 11 13 10 7 8 7 7 6 4 8 11 14 14 15 15 17 13 13 11 14 47 107 151 142 81 28 6 7 8 5 5 7 9 12 12 12 11 10 10 10 10 7 9 7 8 5 4 5 7 10 9 13 12 13 14 12 10 9 9 9 12 11 12 11 9 9 8 9 9 7 7 7 7 6 8 8 11 9 8 5 5 5 5 4 3 4 6 8 7 7 7 10 11 12 9 7 6 4 8 4 10 6 8 6 5 6 6 7 8 7 6 6 8 9 6 6 4 6 10 10 12 12 13 13 11 10 6 0 
0 2 4 3 3 3 4 5 7 9 9 9 6 7 8 10 14 11 8 4 3 5 7 7 7 7 7 9 9 12 15 16 11 9 9 10 13 10 12 8 9 5 6 5 6 6 9 8 11 7 10 7 11 10 12 11 12 11 13 9 7 7 10 12 11 8 7 5 7 6 8 9 9 8 9 10 11 12 9 9 7 8 6 6 5 7 6 7 5 6 5 6 6 7 7 5 6 5 8 8 8 8 9 9 8 6 7 7 6 8 7 9 6 6 6 8 8 9 7 6 4 3 3 3 6 9 10 8 8 5 7 8 10 9 7 9 6 7 5 8 7 8 7 8 8 9 9 8 15 25 62 87 91 68 32 17 9 10 12 17 22 23 19 15 16 16 18 11 11 7 6 5 5 7 7 8 7 8 11 14 16 20 21 20 18 20 24 18 15 14 17 24 21 19 12 10 8 7 7 10 13 14 12 10 13 23 42 65 85 100 108 109 104 94 84 74 69 62 57 55 66 76 82 89 94 98 100 98 93 84 70 59 52 51 49 50 51 53 55 52 50 51 59 70 69 68 65 63 57 48 37 34 27 23 16 12 15 14 13 12 15 20 20 34 61 80 76 46 21 15 16 18 20 23 23 20 16 14 12 11 12 14 15 10 10 14 17 23 27 42 86 128 134 102 54 33 29 27 27 27 25 25 22 20 18 15 16 21 26 34 41 45 46 44 41 38 36 35 33 36 38 36 32 25 20 17 15 11 11 14 15 21 19 20 19 21 25 27 25 20 16 15 16 18 17 15 12 9 13 14 18 15 13 15 16 16 12 9 9 11 15 17 16 11 7 6 5 6 5 5 5 6 6 7 8 9 8 9 10 11 10 9 9 10 11 10 9 7 8 7 6 4 4 5 7 10 14 18 20 21 17 15 11 17 54 113 152 133 72 24 5 6 5 5 7 9 11 13 11 10 9 9 11 9 10 9 8 8 7 8 7 7 8 12 10 13 15 16 13 9 11 8 8 10 10 10 8 7 6 7 4 4 4 4 6 7 10 10 11 8 9 7 6 5 6 7 7 6 4 4 6 8 10 12 9 9 7 9 10 9 9 6 9 5 11 8 11 9 6 6 6 6 7 5 6 5 5 6 5 7 6 8 10 10 11 10 8 8 8 8 5 0 
0 3 6 6 6 5 6 6 7 8 8 7 7 8 8 11 10 9 8 7 7 7 8 8 10 9 9 8 8 11 13 12 13 13 13 12 11 12 12 9 8 5 6 5 7 7 9 8 10 9 10 8 9 10 12 11 13 11 11 11 11 12 10 10 8 8 8 6 8 6 11 9 8 9 9 11 10 11 9 12 11 11 8 6 5 8 7 9 5 7 6 7 8 8 8 6 5 5 7 9 9 10 10 10 8 5 6 5 5 7 7 9 7 7 8 8 10 10 8 7 5 4 3 4 5 7 8 8 8 5 7 4 4 5 5 8 6 6 5 6 6 6 5 6 6 7 8 7 12 24 62 88 93 66 32 15 7 13 15 19 23 19 20 13 19 14 18 9 10 6 5 5 5 6 6 8 10 12 15 14 16 17 17 19 21 21 25 20 14 11 15 18 17 13 8 7 6 7 10 13 13 13 14 22 41 62 85 99 105 106 99 89 74 57 46 39 37 42 57 69 75 72 71 74 78 81 81 80 79 78 74 68 59 51 40 37 37 42 48 53 56 54 50 52 54 56 51 49 48 42 33 28 22 18 16 14 15 15 14 12 15 21 25 38 62 80 73 45 20 16 18 20 21 23 23 20 16 13 11 9 12 15 16 11 10 13 17 21 24 37 87 139 148 115 58 33 29 29 29 27 21 19 18 20 21 21 25 29 34 37 37 37 40 43 45 46 47 51 54 59 59 55 49 40 35 30 23 17 14 15 17 22 24 26 26 27 29 31 31 29 25 23 21 20 18 17 16 14 14 16 18 17 16 17 16 16 13 9 8 7 10 14 17 14 10 6 6 7 6 5 5 7 7 9 8 9 10 11 11 10 9 9 9 9 10 7 6 4 5 4 5 4 4 4 4 6 10 15 18 19 19 16 14 18 62 119 152 126 63 19 3 4 6 8 9 10 11 11 12 10 9 8 7 8 6 8 7 11 10 10 7 8 8 12 10 13 12 13 12 9 11 8 11 9 10 11 8 8 6 6 6 6 6 5 7 8 11 11 13 9 8 6 7 6 7 7 6 6 5 6 6 6 9 10 13 12 11 11 10 8 10 6 10 5 11 8 9 8 6 7 6 5 9 5 7 5 8 9 7 7 6 8 10 11 12 10 10 8 8 6 3 0 
0 5 6 6 6 7 7 6 6 7 9 9 9 11 8 12 8 11 8 7 7 6 7 7 9 11 11 9 8 9 13 13 15 13 15 13 11 8 6 6 6 7 7 5 6 6 7 8 8 8 8 9 9 10 10 8 8 6 7 8 8 9 10 10 8 9 8 7 9 5 10 8 11 12 9 14 10 11 6 6 6 7 8 7 8 8 6 6 5 7 9 10 14 11 10 7 5 6 6 9 8 9 10 9 10 8 8 5 4 8 10 13 11 8 9 10 13 12 10 9 6 6 5 5 4 8 7 9 8 6 7 5 6 5 5 6 7 8 6 4 4 5 7 9 9 7 7 7 10 26 65 92 92 60 28 15 11 17 18 22 22 17 21 12 19 11 16 8 9 6 7 7 8 9 8 10 9 9 12 12 12 14 17 17 21 19 24 22 16 12 13 14 15 10 9 8 9 10 14 18 21 28 42 64 85 96 103 100 96 86 71 55 39 29 28 34 41 52 62 72 78 81 80 82 86 90 92 92 89 84 75 66 57 49 43 40 37 38 38 37 37 40 44 49 48 47 52 48 42 35 26 20 17 15 14 12 13 14 15 11 13 21 29 44 65 79 69 42 21 18 22 23 23 24 22 19 15 13 10 8 11 15 16 11 9 12 18 20 23 35 88 149 160 123 55 25 24 26 26 23 18 15 17 22 24 25 28 33 34 31 26 28 34 47 63 73 78 81 81 83 87 89 88 84 76 66 54 41 32 29 28 27 25 24 24 24 25 27 27 28 27 26 22 18 16 19 24 27 28 27 24 23 21 21 17 15 12 8 7 4 6 12 15 15 13 8 8 8 7 6 5 7 8 10 9 12 13 13 12 9 7 8 8 8 8 6 7 5 6 5 5 5 6 6 5 5 6 10 13 14 16 14 15 17 67 123 153 120 57 16 5 6 6 8 10 10 12 8 11 8 8 8 5 8 8 10 8 11 10 14 10 10 9 11 10 12 11 14 11 8 11 9 13 11 10 10 7 5 5 4 4 4 4 5 7 8 10 12 11 9 6 5 6 7 9 9 7 6 6 7 7 6 11 12 17 12 11 8 8 10 10 7 10 7 10 10 12 13 9 9 10 8 9 6 9 6 7 6 6 7 7 9 10 10 12 11 10 5 7 6 6 0 
0 5 8 8 7 10 7 7 5 5 6 7 8 11 7 10 5 7 7 8 9 7 8 7 11 11 10 8 7 6 10 9 14 14 16 12 11 10 8 8 7 6 5 5 5 6 6 6 7 8 9 8 7 8 8 6 6 4 6 8 13 13 9 7 7 7 8 7 7 7 9 8 8 11 9 13 8 8 6 8 8 9 8 6 7 6 7 4 6 5 10 9 13 11 11 6 7 7 6 7 6 8 8 8 8 7 6 5 4 7 10 11 10 10 13 13 15 14 10 10 7 8 7 7 5 7 5 6 6 6 7 4 3 3 4 7 7 7 6 5 5 6 7 8 8 6 7 7 11 33 75 97 87 52 22 15 14 18 20 25 21 16 20 11 16 9 10 7 7 6 6 6 6 8 8 12 11 12 10 11 11 13 15 14 19 17 20 22 20 19 16 14 14 9 11 11 13 16 22 30 40 59 77 92 97 94 90 78 67 52 42 36 36 38 36 37 35 45 48 50 48 43 43 47 52 55 58 61 65 67 67 68 64 56 49 46 46 42 32 23 18 19 25 34 41 41 41 35 29 23 18 16 15 14 15 14 13 12 15 13 15 25 33 51 69 75 63 36 18 18 24 28 29 26 21 17 14 12 10 9 12 16 14 9 9 12 19 19 22 32 87 157 170 129 53 19 21 23 24 22 18 15 17 23 26 27 28 30 32 33 34 43 58 74 83 83 81 84 92 100 103 100 90 78 69 68 74 78 78 73 64 53 42 36 32 25 20 20 21 24 23 23 19 15 16 19 26 29 30 28 26 27 26 25 20 15 11 8 7 6 6 10 14 15 13 10 10 8 7 6 7 8 8 9 7 9 13 13 11 7 5 7 8 8 8 5 8 5 6 3 4 4 4 6 7 9 9 9 8 7 10 11 13 18 69 126 153 116 53 13 5 5 7 9 11 10 10 7 10 8 7 7 5 7 6 7 7 8 8 11 9 9 10 10 10 9 8 10 9 10 10 8 9 10 10 11 11 8 8 6 6 6 6 8 11 11 10 10 8 8 6 7 10 10 11 8 6 5 6 6 7 5 9 8 14 11 12 10 9 8 9 10 8 7 8 9 11 11 11 9 6 7 9 8 10 6 8 8 7 6 6 9 10 10 9 9 10 9 11 9 6 0 
0 8 10 10 8 9 6 5 3 5 6 8 8 8 7 7 4 6 6 6 6 3 5 5 8 10 11 9 8 6 9 7 9 12 12 15 12 9 6 6 6 8 9 6 6 6 7 7 7 5 6 7 9 10 10 9 7 5 6 7 9 9 9 8 7 7 6 6 7 8 7 8 7 9 8 10 8 8 6 5 5 5 6 6 7 5 5 4 5 4 9 10 17 13 14 9 8 7 5 6 5 6 8 9 9 9 6 5 5 7 11 13 14 11 11 11 13 12 9 9 7 9 9 6 5 5 5 7 7 7 6 4 3 4 6 7 11 11 9 6 5 6 8 9 9 8 10 11 16 40 80 97 81 44 20 16 15 17 21 24 19 15 14 10 12 8 8 8 7 8 6 6 8 10 12 15 15 14 9 11 11 14 15 16 19 20 23 23 20 22 17 15 12 11 14 15 18 21 29 46 67 89 100 101 92 79 67 53 43 41 50 56 48 35 28 33 33 37 31 26 17 13 16 19 20 21 22 24 30 37 47 57 58 54 49 49 55 56 46 33 19 12 11 15 25 30 35 33 28 24 19 13 12 12 14 14 13 12 15 15 18 30 38 58 72 71 56 30 16 19 26 32 34 30 23 18 16 14 11 10 12 14 13 9 9 14 21 20 22 28 84 160 176 136 57 18 18 18 18 17 19 20 19 23 24 23 23 25 33 42 51 60 63 71 85 101 109 110 110 110 114 119 123 122 116 103 87 78 82 97 107 107 95 75 55 36 23 15 13 16 16 18 15 12 14 17 26 34 35 30 25 24 25 24 21 17 13 11 7 7 8 13 16 17 16 13 9 6 7 5 7 7 7 8 7 8 11 11 10 6 4 6 7 7 8 7 8 5 5 3 4 4 5 9 10 12 13 12 11 8 9 11 12 19 71 127 151 112 52 16 10 9 7 7 7 7 8 6 7 7 6 8 6 8 9 7 7 5 6 8 8 9 10 10 11 9 9 11 12 10 9 11 10 10 8 9 9 9 8 7 7 6 7 7 11 10 11 9 6 6 5 7 11 10 13 8 7 5 6 6 7 5 8 8 12 12 12 10 8 10 8 11 11 11 8 10 12 12 11 10 9 9 9 8 8 6 5 6 5 6 6 9 9 11 10 13 10 9 7 8 6 0 
0 7 13 11 11 9 8 6 4 5 6 6 7 6 5 5 4 6 6 6 6 6 7 8 11 13 10 9 7 7 8 8 7 10 11 13 12 11 8 7 7 8 9 7 7 9 9 8 9 8 9 8 8 11 10 10 7 7 8 10 12 13 9 9 7 8 7 6 8 8 9 7 6 7 6 9 7 7 7 7 7 6 6 6 6 6 5 5 5 5 6 9 16 15 14 9 9 8 5 6 7 9 10 11 8 8 5 5 5 5 9 9 11 10 14 14 16 12 10 7 8 9 9 7 6 4 4 5 6 7 6 5 3 4 5 6 9 8 8 7 7 8 9 10 10 10 12 14 19 48 86 98 82 42 21 16 13 15 22 22 19 12 9 11 9 8 6 8 7 8 5 5 7 9 11 14 14 14 11 14 14 16 18 18 22 22 24 24 23 19 16 17 17 19 22 22 24 32 47 71 91 102 96 82 67 55 49 41 41 51 51 49 49 49 48 41 36 37 29 24 10 5 6 7 10 11 10 9 13 21 34 43 42 41 42 46 51 54 54 49 39 31 26 22 21 18 21 22 21 20 21 18 17 14 16 15 13 13 15 16 23 37 46 65 73 66 48 25 16 20 27 38 42 36 26 20 17 15 11 9 12 13 13 9 10 16 22 20 21 24 80 161 182 147 63 18 17 14 14 16 21 22 21 23 24 24 26 29 40 49 53 59 66 83 88 86 80 75 73 72 71 69 66 60 59 68 84 102 110 115 114 117 124 126 113 89 65 45 27 20 15 12 11 10 11 15 17 19 18 17 17 17 20 19 21 18 16 14 9 10 10 14 19 21 19 14 10 8 7 6 6 5 6 6 6 8 9 9 8 5 5 6 8 8 8 8 7 5 4 3 3 3 5 10 15 16 17 15 15 13 12 14 12 24 75 130 149 108 49 13 6 6 5 6 6 8 8 7 6 6 6 7 6 6 6 4 4 3 3 5 5 8 9 10 10 8 9 9 10 12 12 10 8 8 9 11 12 13 9 10 8 8 8 8 14 13 13 11 7 5 5 7 11 12 12 8 6 5 5 5 5 4 7 6 9 10 11 13 9 10 8 10 10 11 8 10 11 12 11 8 6 7 9 8 8 6 6 7 6 6 6 10 9 10 8 10 9 11 8 9 4 0 
0 8 15 13 15 9 7 5 5 6 7 7 7 7 5 4 4 5 6 6 5 5 5 6 9 10 11 10 8 8 8 8 7 7 8 11 12 10 8 8 9 9 9 8 8 8 9 10 10 7 8 10 12 17 13 14 11 9 10 8 9 11 9 11 9 9 8 7 9 7 8 6 6 7 4 7 5 7 7 7 7 4 4 5 6 6 7 7 8 6 6 8 12 12 12 9 7 6 5 5 6 9 10 13 10 9 5 5 6 6 9 8 11 9 10 9 10 8 7 5 7 7 7 6 5 4 5 7 9 10 7 6 4 6 6 7 9 9 10 8 7 7 7 9 8 10 11 14 21 46 80 92 81 47 28 17 11 15 21 22 19 14 15 16 12 12 9 10 9 8 5 6 7 9 13 16 18 17 14 15 19 17 24 22 28 28 28 29 26 21 19 23 27 33 37 39 43 54 75 96 103 96 75 54 41 43 54 57 54 52 53 67 68 61 52 42 36 33 25 27 23 17 11 8 11 14 16 15 19 31 46 54 48 42 35 36 42 44 47 51 53 49 42 32 22 15 13 14 19 22 26 27 28 26 26 22 18 16 15 22 36 50 61 71 71 57 39 20 17 22 30 45 49 41 27 19 17 14 10 7 10 12 12 8 11 18 25 21 20 19 73 160 188 157 69 17 13 11 12 15 21 23 22 23 24 25 26 27 34 45 56 71 69 70 74 83 85 78 70 64 65 74 85 96 100 89 68 56 64 92 123 137 129 125 127 131 124 107 80 50 33 22 22 17 15 16 15 14 13 10 11 13 15 15 19 21 19 16 9 11 11 16 23 25 26 20 12 7 5 6 6 6 7 9 10 10 8 7 6 6 7 8 9 8 8 8 7 6 4 4 4 6 8 13 17 17 19 17 16 13 11 13 12 30 80 134 146 103 45 14 7 7 5 4 5 7 7 7 6 6 6 6 6 6 6 4 3 3 3 5 5 9 12 14 12 10 9 12 11 12 10 10 9 8 7 8 6 8 7 10 8 10 11 9 10 10 10 10 8 7 5 7 9 10 10 12 11 10 7 6 6 6 8 7 10 12 10 11 7 7 5 8 10 11 10 11 8 10 8 7 8 7 10 6 8 4 7 7 8 5 7 7 8 8 7 8 7 7 4 6 3 0 
0 5 12 12 14 12 10 10 10 8 8 7 7 7 5 4 5 7 8 7 6 8 9 9 11 10 10 8 8 10 11 10 6 5 7 8 10 10 9 10 12 12 11 7 9 10 11 10 8 8 9 10 12 12 10 9 8 8 10 9 9 10 8 9 10 11 11 9 8 6 9 6 6 7 5 8 6 6 6 6 5 6 6 7 6 6 7 8 10 7 7 9 11 12 9 10 8 7 6 6 8 10 10 12 8 9 5 6 5 6 8 7 8 7 10 11 11 10 7 6 6 7 8 8 7 5 4 7 8 9 6 6 5 6 6 6 7 6 7 7 7 8 7 9 8 11 12 11 21 41 76 91 83 53 31 17 12 18 21 25 22 18 18 16 16 13 12 10 10 8 6 6 7 8 11 15 19 19 18 13 18 15 24 22 30 32 31 33 29 31 29 29 33 35 39 46 61 81 97 98 86 70 55 55 67 82 83 77 72 67 59 68 63 69 53 36 23 23 27 32 35 37 39 39 40 38 35 29 30 42 52 53 40 35 32 33 28 26 38 44 52 56 57 50 38 29 23 20 20 23 27 31 34 36 40 38 33 29 31 44 60 71 74 73 63 45 28 16 17 23 33 51 55 43 26 15 14 11 9 6 9 10 11 8 12 17 25 22 21 16 67 159 194 165 72 14 8 7 11 15 20 22 22 24 24 23 22 25 33 46 52 57 62 69 71 66 63 64 69 70 70 72 74 78 84 90 92 91 86 79 75 79 100 119 119 124 130 137 128 103 75 50 38 30 23 18 16 13 12 8 9 8 11 12 19 23 23 20 10 9 9 10 19 23 27 22 15 9 8 8 7 9 9 12 11 12 10 7 6 9 9 9 9 7 10 8 8 7 6 6 7 8 10 15 18 16 16 16 14 14 13 14 13 36 88 138 142 96 39 10 4 4 5 6 6 7 8 8 8 6 7 5 7 4 4 3 3 3 3 4 6 7 10 9 11 8 10 9 8 10 8 8 8 10 8 10 8 8 8 8 9 10 8 9 9 9 8 11 9 10 6 7 8 10 12 11 11 9 8 5 7 7 10 9 10 9 9 7 7 7 6 6 9 11 12 10 9 11 9 6 6 6 11 9 11 7 9 7 8 5 6 6 9 8 7 6 5 5 5 5 3 0 
0 4 10 11 12 10 9 9 10 12 11 9 9 7 6 5 9 9 10 8 7 7 10 9 10 8 8 9 9 11 11 9 8 5 8 8 10 8 9 12 14 12 13 7 11 9 9 9 8 7 9 11 16 15 13 11 10 8 8 7 7 7 6 7 9 11 11 8 8 7 8 5 5 5 5 7 5 6 4 6 6 6 5 7 6 7 8 9 10 8 8 10 10 10 7 7 7 8 7 6 6 6 9 9 7 6 6 6 6 9 10 10 9 7 8 8 8 7 6 7 7 8 9 9 7 6 5 6 7 8 7 8 7 11 12 11 10 7 8 6 6 5 6 9 9 9 10 9 20 40 72 89 81 56 32 20 15 17 21 25 21 18 18 16 19 13 16 9 10 6 4 5 5 7 10 15 19 20 20 18 19 17 23 22 26 29 34 40 36 39 44 45 41 39 46 60 76 85 96 102 104 93 84 85 87 93 101 106 100 84 71 80 86 95 71 55 43 38 37 43 52 56 55 49 46 42 38 34 37 48 53 48 32 26 26 33 36 33 36 42 49 49 51 52 49 42 34 28 25 25 28 34 41 50 58 60 58 57 62 74 86 89 80 66 49 31 20 14 17 26 38 54 57 42 23 9 10 8 8 5 8 10 11 8 12 17 25 23 21 15 63 158 198 169 73 10 5 6 10 15 18 20 22 25 25 24 23 27 34 45 54 60 58 55 58 65 75 83 91 97 102 104 110 117 122 119 105 90 85 89 94 75 58 51 69 106 121 132 134 134 127 109 84 57 38 28 25 19 16 9 12 13 15 15 20 24 25 23 14 9 6 6 12 18 23 22 17 11 7 7 7 13 11 17 13 14 10 8 8 10 10 11 9 9 11 10 11 9 9 8 10 11 13 13 14 15 13 13 10 11 12 18 18 43 95 141 141 91 35 9 5 6 8 7 8 7 8 7 9 7 8 6 8 5 5 3 3 3 5 5 7 8 13 10 11 7 8 7 8 8 8 8 7 10 8 9 5 6 7 8 10 11 11 11 7 7 5 10 10 13 8 8 7 9 13 14 17 12 9 6 8 9 10 8 9 7 6 4 4 4 6 6 7 7 9 10 10 10 9 8 7 9 12 14 11 10 9 8 7 5 5 5 6 6 5 5 5 5 5 4 3 0 
0 3 6 6 9 8 9 11 11 11 10 10 7 5 7 5 10 10 12 8 8 7 9 7 9 7 8 8 10 10 13 8 8 5 8 6 7 7 7 9 14 12 14 9 13 10 12 9 8 8 9 9 10 8 7 7 6 6 7 7 7 7 4 5 8 9 9 8 6 5 6 5 4 6 7 7 5 5 4 4 5 8 8 10 7 9 8 11 9 10 9 11 9 8 8 8 9 9 8 7 7 7 7 6 7 6 6 5 7 8 11 10 10 8 9 7 8 8 10 9 8 10 10 15 9 7 4 4 6 7 7 6 7 9 11 12 11 8 6 4 4 5 6 6 7 7 9 10 19 40 68 86 77 54 32 18 17 19 22 25 22 16 15 13 17 12 17 8 9 5 4 4 4 5 7 11 17 20 22 20 20 19 22 25 32 33 31 31 40 47 49 48 46 49 56 64 75 93 120 119 113 107 102 103 106 109 111 106 99 83 76 84 96 105 101 97 91 82 71 69 75 83 85 79 70 62 57 54 60 67 66 54 34 25 28 39 50 58 63 63 61 61 59 55 52 46 41 36 31 28 28 32 37 45 56 68 78 86 93 99 99 89 72 52 36 21 14 12 16 27 41 55 55 39 21 7 7 6 8 6 9 10 11 10 13 17 24 25 21 15 58 155 201 174 78 10 5 7 10 13 16 18 22 26 27 26 24 29 39 45 46 44 42 49 57 69 86 102 115 120 116 115 116 119 116 114 110 107 103 93 86 73 67 64 51 48 59 95 114 123 130 136 131 109 78 50 34 25 21 16 14 12 12 13 17 21 23 22 17 10 5 3 6 11 17 21 19 16 12 10 8 15 13 21 11 13 9 9 10 11 11 12 10 10 11 10 12 8 10 9 12 11 13 13 13 11 11 10 9 13 18 23 24 49 101 145 144 92 36 9 7 7 12 9 11 8 10 11 12 10 9 6 6 5 5 3 3 4 4 6 6 7 7 7 6 5 6 7 9 8 7 8 7 11 9 10 8 9 9 9 10 9 8 8 6 7 7 10 9 9 8 8 7 10 12 13 12 10 10 8 10 8 8 8 7 6 5 4 4 5 8 7 8 8 10 8 9 11 10 10 9 13 14 19 13 13 7 6 5 4 3 5 7 7 7 5 4 4 5 4 3 0 
0 4 6 6 6 5 6 7 8 11 10 9 8 6 6 5 11 9 13 10 8 6 8 9 10 9 11 10 12 8 11 5 10 6 8 9 7 6 6 8 12 14 14 10 10 8 8 8 10 9 11 11 13 12 11 10 8 7 6 6 7 9 8 6 7 7 6 5 5 7 7 5 4 4 5 5 5 5 5 7 9 10 9 11 9 11 8 9 7 9 7 10 10 9 7 7 8 8 8 7 6 6 7 6 5 5 5 5 7 9 13 12 12 9 7 5 6 7 11 10 12 14 13 14 12 11 5 4 6 6 9 8 12 15 17 17 16 12 10 5 5 5 8 9 9 7 6 10 18 41 67 89 80 55 33 18 19 20 23 26 23 13 14 12 16 12 13 7 8 4 4 4 3 4 6 7 11 17 22 25 27 30 34 35 37 42 51 48 44 46 53 53 48 53 55 63 85 99 109 115 122 122 116 108 98 87 81 75 76 69 70 77 94 110 119 123 122 113 99 89 87 93 99 98 90 79 71 69 75 80 74 57 38 28 31 40 52 62 69 74 73 73 79 88 94 92 82 72 61 50 37 35 39 48 54 65 80 92 98 96 84 69 54 37 26 15 12 11 16 29 44 54 52 37 20 6 5 5 8 9 12 14 12 12 15 20 23 23 20 17 53 152 202 181 87 12 6 9 11 15 16 18 26 34 38 40 37 37 37 38 40 40 45 55 65 80 92 96 93 85 88 110 120 134 115 107 91 95 101 100 94 81 63 54 55 62 47 45 58 97 118 126 130 131 122 98 72 50 35 26 20 20 19 19 18 19 19 20 18 14 7 2 3 7 11 16 18 16 14 10 9 16 13 21 10 13 10 11 12 11 9 9 10 10 13 9 10 6 10 8 11 12 12 11 11 9 10 8 10 14 24 29 33 51 106 150 149 96 39 10 6 7 10 9 11 10 9 9 8 9 7 7 5 5 5 4 4 5 5 9 6 9 5 6 3 3 3 4 6 7 6 8 7 11 9 10 9 12 12 14 13 14 12 9 7 7 6 6 8 7 6 7 7 10 9 11 11 12 11 9 8 7 7 6 5 4 3 4 5 5 6 6 7 6 7 9 9 11 9 12 10 13 13 14 11 12 8 7 6 5 4 4 6 7 7 6 5 5 6 6 4 0 
0 2 4 4 6 5 6 5 7 9 10 9 8 6 8 9 10 11 9 8 7 6 5 6 8 9 10 10 10 8 9 6 9 6 7 6 5 4 6 7 12 12 12 9 8 6 6 8 8 10 11 10 10 8 8 6 6 5 6 6 8 9 9 9 7 6 5 5 4 6 6 6 5 5 6 6 5 5 6 6 9 10 12 12 10 12 9 10 8 9 9 10 9 8 8 8 8 9 8 9 8 8 8 6 6 6 5 5 6 8 10 9 8 8 7 6 7 7 13 11 11 9 12 14 13 10 9 8 12 12 21 26 36 41 42 42 41 35 29 18 11 7 7 7 8 7 6 9 14 34 58 87 87 65 42 23 23 23 24 24 19 15 19 18 17 12 10 8 8 6 5 4 3 5 5 6 9 13 18 22 24 26 28 31 33 35 40 46 51 51 48 51 52 57 60 81 85 98 105 103 94 89 83 78 69 57 47 42 49 52 60 65 75 88 101 111 116 112 104 94 92 93 92 88 87 81 75 73 75 76 69 54 43 36 39 45 54 62 67 78 89 96 101 101 103 103 99 90 78 68 62 63 55 50 47 49 60 70 70 62 51 45 40 28 23 12 11 9 17 31 44 53 51 39 24 8 6 5 8 9 12 14 11 11 15 21 22 20 19 16 45 146 202 189 97 13 6 9 10 12 17 29 36 41 44 42 37 33 34 35 36 40 48 55 63 68 66 59 52 43 54 92 121 156 100 82 53 61 72 81 87 84 77 66 52 46 42 50 45 50 64 96 118 123 125 124 115 96 71 52 37 25 16 14 13 12 10 14 17 18 13 6 3 5 9 12 14 17 20 17 14 15 13 19 9 12 11 11 12 8 9 8 8 6 7 6 8 6 9 12 12 14 12 14 11 12 12 10 11 12 25 30 37 55 109 157 158 101 39 10 6 7 9 10 8 12 10 14 12 14 9 8 4 6 6 6 6 6 6 9 6 8 4 5 3 4 5 6 7 7 6 7 7 9 8 9 10 12 12 16 16 15 11 7 6 5 8 5 7 5 5 6 5 7 6 7 8 10 10 12 9 8 6 5 5 4 4 5 5 5 6 6 6 6 7 7 7 9 8 11 10 11 11 11 12 9 9 7 7 6 5 5 5 6 6 5 5 5 6 6 3 0 
0 2 5 4 5 5 6 6 8 10 13 12 10 6 7 9 10 11 8 10 6 7 6 10 10 13 11 14 10 10 7 7 7 5 6 5 5 5 8 8 14 12 13 8 4 5 5 7 8 12 12 11 12 8 9 7 7 4 5 5 8 11 12 13 8 8 6 5 5 7 7 7 5 5 4 5 5 6 7 9 13 12 13 13 10 14 10 11 8 7 8 10 10 10 9 8 8 9 7 11 8 9 6 6 6 6 6 5 6 7 9 8 7 6 6 5 7 7 11 10 12 10 12 10 12 10 10 7 14 26 47 67 84 94 97 97 94 85 69 49 28 16 11 10 9 7 6 8 12 28 57 92 97 75 42 22 21 21 22 23 23 24 23 22 18 11 8 8 8 8 7 6 6 8 11 15 18 24 29 32 35 40 46 48 50 50 52 47 41 42 46 44 38 42 40 66 79 92 72 53 43 45 45 47 44 37 29 25 32 40 47 52 57 63 69 75 84 87 92 86 85 82 88 85 91 89 83 80 70 66 65 55 53 49 53 52 50 52 54 66 79 90 99 103 106 104 98 87 77 68 61 63 65 58 45 36 37 41 40 34 29 29 30 24 21 9 10 8 18 31 41 48 48 40 25 9 6 6 8 12 15 16 12 12 15 21 20 17 16 14 38 137 200 195 110 17 6 10 14 22 29 38 39 41 43 45 50 47 43 45 48 48 48 47 50 47 39 29 18 13 31 81 112 145 94 68 31 39 45 50 58 63 67 65 58 50 36 31 36 47 44 42 54 86 104 114 121 127 115 88 58 38 23 16 14 13 9 10 15 20 19 12 6 6 8 11 15 23 27 25 20 18 12 15 9 14 14 14 16 9 10 6 7 7 9 8 8 10 12 14 11 14 11 14 10 12 11 10 9 10 19 26 34 58 117 161 161 101 36 7 4 5 6 7 7 11 8 9 7 9 7 7 4 5 5 5 5 6 9 11 9 10 6 6 5 5 5 5 5 5 5 6 8 9 7 7 9 12 14 16 14 15 12 10 10 7 9 6 7 5 5 6 6 8 5 4 5 8 9 10 7 8 7 5 4 4 6 7 6 7 5 6 6 7 9 10 10 8 7 7 7 7 7 5 9 7 12 7 9 6 5 4 4 5 6 4 5 5 7 7 4 0 
0 2 4 5 7 8 8 6 7 10 12 11 10 6 8 10 10 12 8 10 7 8 6 9 8 11 9 12 9 9 6 7 7 5 5 5 6 6 9 7 13 9 10 8 6 8 8 10 11 12 14 11 10 4 5 4 4 4 6 7 7 11 9 13 8 10 7 7 5 7 8 10 8 7 7 6 6 5 7 7 9 10 9 12 10 15 11 11 7 7 9 10 10 9 9 8 8 9 7 11 8 9 6 6 7 7 7 5 5 5 7 5 6 5 7 6 8 7 8 8 8 6 8 10 12 10 12 20 41 69 100 125 141 150 154 154 151 142 127 102 70 41 19 11 8 7 7 10 11 22 54 94 105 81 44 22 19 20 19 18 15 18 21 23 17 11 9 8 9 7 7 9 13 16 17 18 19 21 22 21 20 20 24 25 27 29 33 35 38 36 37 39 35 33 38 65 70 71 46 29 22 24 29 33 34 31 25 21 24 32 40 46 51 55 56 55 60 65 73 73 72 66 70 61 65 69 70 70 62 52 55 52 59 60 62 59 51 46 46 52 60 65 66 65 66 68 65 57 51 53 58 60 57 48 36 26 22 22 21 18 18 21 25 19 16 6 7 11 21 30 35 43 48 44 31 14 7 8 6 11 12 14 11 10 13 21 18 15 13 14 31 124 194 198 123 26 8 13 19 27 35 39 40 42 48 52 58 57 58 59 54 47 46 46 55 53 39 23 15 18 30 64 89 100 69 40 16 22 25 28 35 43 49 55 56 50 43 34 28 25 28 36 36 36 45 78 101 121 128 124 100 69 43 26 16 11 8 10 14 22 23 20 13 9 8 11 18 28 29 28 18 17 13 14 13 16 17 16 14 10 12 8 8 5 5 8 11 12 12 13 13 14 12 14 13 15 13 14 11 10 12 20 26 52 117 164 155 94 29 5 4 5 7 9 10 9 10 11 11 12 13 10 7 6 6 7 6 6 7 9 9 8 7 7 7 7 7 6 6 5 6 6 6 7 7 7 8 11 11 15 14 13 11 8 8 9 10 9 9 8 8 7 5 4 3 3 4 7 8 10 9 9 8 5 7 5 7 7 7 7 7 7 7 9 10 11 9 8 8 8 8 6 6 6 8 7 11 7 10 6 6 4 3 5 5 4 5 5 5 5 3 0 
0 2 4 5 6 8 9 8 8 9 11 11 8 5 6 9 10 12 9 9 8 9 6 10 8 9 11 10 12 11 11 9 8 7 6 6 7 8 10 8 10 8 9 7 6 6 6 8 10 11 13 11 10 5 4 4 5 5 6 7 7 11 9 14 9 11 9 10 9 8 10 8 8 8 11 10 10 6 7 7 10 10 8 10 10 13 12 11 10 10 9 11 9 8 8 8 10 10 9 9 7 6 5 4 6 7 8 5 5 4 5 5 7 6 10 7 9 8 6 7 8 9 12 10 9 11 24 48 85 120 145 154 154 152 154 158 163 166 166 154 125 88 51 27 13 9 8 9 9 20 58 97 106 78 38 20 20 22 23 20 18 19 18 19 14 11 10 7 8 6 7 9 13 16 19 22 27 30 31 31 32 36 43 48 48 45 37 27 22 25 33 39 41 40 39 49 49 50 37 30 30 22 21 24 27 28 24 21 17 20 27 32 37 40 42 43 49 54 60 63 60 55 55 52 52 55 62 67 64 54 52 52 59 63 63 58 49 43 40 40 42 39 34 30 30 35 38 34 29 28 31 39 43 39 30 22 20 20 20 19 19 19 19 13 12 7 8 14 24 31 31 37 46 45 31 13 7 8 7 13 14 14 12 9 14 20 19 17 13 17 24 107 184 199 138 41 13 18 26 35 37 37 36 36 44 54 61 62 59 53 49 51 58 66 75 68 52 31 20 25 34 38 46 40 27 13 8 15 16 14 13 20 33 53 64 53 41 23 27 22 17 16 23 29 28 31 55 91 108 116 116 101 73 47 29 20 14 15 17 24 25 27 23 20 17 16 22 32 33 32 18 17 12 11 13 17 18 16 14 13 14 9 9 6 9 11 12 13 14 11 11 10 12 12 13 14 16 17 13 13 11 14 21 56 118 160 143 82 22 4 4 5 8 9 11 10 10 8 7 9 10 10 7 6 5 5 5 8 9 11 9 10 9 8 8 7 7 7 5 6 5 7 8 9 8 6 7 10 11 14 10 8 9 9 11 13 11 11 10 8 8 8 7 5 3 3 4 7 9 9 10 7 9 5 7 6 9 9 9 7 9 8 10 11 12 14 11 10 8 11 9 10 6 7 7 6 9 8 11 8 7 6 6 6 5 5 5 6 5 4 2 0 
0 3 5 7 8 9 8 7 6 8 8 9 7 5 6 6 9 9 10 13 10 12 9 9 7 7 9 8 13 8 10 8 9 6 7 8 10 10 10 11 10 8 8 7 9 9 10 9 9 12 11 12 8 7 6 7 8 8 8 9 6 9 9 11 11 10 11 10 11 9 12 12 11 12 11 11 11 7 9 6 8 6 5 6 9 10 12 10 9 12 10 12 8 7 8 9 11 12 9 7 6 4 4 4 7 8 9 7 7 4 4 4 7 6 10 8 9 7 5 7 8 10 11 13 15 25 53 93 132 151 147 131 116 109 109 110 118 132 152 165 162 135 94 55 27 15 11 11 9 20 64 97 103 72 33 26 29 27 26 17 13 13 13 16 11 11 9 6 6 3 5 9 14 19 23 25 25 22 20 18 20 23 29 34 34 29 26 28 31 32 35 39 45 48 44 46 44 47 42 34 31 29 25 20 19 21 21 21 18 16 15 17 23 28 31 32 33 37 41 41 38 38 42 44 43 43 47 55 55 47 41 41 43 44 42 38 32 26 24 25 28 27 26 27 31 35 37 36 33 28 23 23 25 29 29 24 23 21 19 16 13 13 12 9 9 7 8 19 27 32 31 37 46 44 30 12 7 8 9 14 18 16 15 12 16 20 20 18 15 19 19 86 170 197 153 60 18 26 34 42 41 44 44 52 60 65 69 69 66 63 67 79 84 89 98 87 72 45 30 37 46 40 32 14 6 7 16 23 25 22 16 14 22 51 68 61 46 20 20 18 19 26 27 26 27 35 36 45 70 95 110 114 103 77 49 32 21 16 14 19 24 28 27 23 18 16 21 29 27 23 13 14 13 13 15 18 18 15 14 12 15 9 9 5 6 9 12 12 10 8 9 10 13 12 17 19 22 26 24 25 14 14 13 54 116 157 135 72 17 5 5 5 9 8 12 10 10 8 6 11 12 14 9 8 7 9 8 8 6 7 6 8 8 8 7 6 7 6 5 6 6 7 7 8 9 8 9 11 13 14 10 8 7 8 9 11 12 12 11 11 10 8 6 4 3 3 5 7 11 8 11 6 9 5 7 6 8 7 8 9 10 9 9 10 13 14 12 11 10 16 13 13 7 7 7 6 7 7 10 10 10 8 8 8 9 7 6 5 4 3 1 0 
0 2 5 6 6 8 8 9 9 9 9 8 6 5 6 6 10 8 10 11 12 16 12 10 8 7 10 8 12 10 15 9 8 7 8 10 12 10 10 9 10 9 11 8 11 9 8 8 7 9 8 10 6 7 7 8 10 9 9 9 7 10 9 10 11 8 12 10 14 11 11 9 7 9 11 15 13 8 11 8 11 7 6 4 8 8 9 9 9 13 12 10 7 7 9 13 14 14 11 9 8 7 6 4 5 6 7 6 5 3 3 4 6 6 8 8 8 8 5 6 5 9 11 14 19 52 96 137 154 141 111 81 62 54 54 53 58 74 102 134 157 159 139 103 66 37 19 11 7 23 70 99 99 65 34 33 36 32 31 20 21 18 15 15 9 11 9 9 7 4 4 7 11 15 19 20 22 21 24 25 29 33 35 38 40 43 42 37 35 35 42 49 54 59 56 54 45 37 30 32 29 26 23 22 21 24 21 20 17 17 18 18 17 17 17 17 15 16 18 19 17 15 20 25 25 22 22 31 33 28 22 20 27 29 27 22 21 21 22 24 26 27 31 34 38 41 44 43 40 35 31 30 31 32 29 24 21 17 14 11 9 9 8 8 8 10 11 23 29 33 32 38 46 41 27 9 5 7 9 13 16 14 15 14 19 20 21 18 15 17 13 63 153 194 167 82 22 35 45 56 59 69 82 101 113 117 117 115 113 108 105 108 101 92 98 97 96 73 45 44 50 50 45 32 30 36 43 44 40 29 23 19 22 50 65 65 43 24 20 24 19 28 33 45 36 37 41 47 42 50 78 99 109 104 80 56 39 28 20 17 19 23 26 26 23 20 23 28 28 23 14 12 9 12 12 16 16 12 12 10 13 9 9 7 8 10 11 10 9 10 9 11 10 14 13 16 16 22 23 24 17 16 14 62 121 155 128 64 16 7 7 6 11 7 11 8 8 8 6 9 9 12 8 9 7 10 10 12 9 7 6 6 6 6 7 7 8 9 9 7 7 8 8 8 9 8 7 11 11 12 11 7 8 8 10 11 10 10 9 7 9 7 8 6 6 6 8 9 11 8 10 7 9 5 6 5 8 9 10 9 9 10 9 12 12 13 13 12 13 16 14 12 9 8 9 7 8 9 11 14 12 11 10 10 9 9 9 7 5 4 2 0 
0 4 6 8 8 8 8 7 8 10 12 12 10 6 7 6 9 6 8 10 14 15 12 8 7 4 7 6 10 8 8 7 6 5 8 10 12 12 12 9 13 9 12 9 12 14 11 9 7 9 9 9 7 8 8 10 12 9 8 9 7 9 7 9 8 7 9 8 9 8 11 10 10 9 8 9 9 9 9 8 11 6 7 4 7 8 7 7 8 10 10 10 10 9 10 10 13 11 10 10 9 9 8 5 5 5 6 6 5 4 3 4 5 7 8 9 9 9 6 6 5 7 10 17 44 91 138 156 137 95 55 30 21 24 28 26 24 32 49 78 114 142 155 144 116 82 52 31 18 37 84 106 96 53 30 37 40 34 26 17 20 17 16 13 11 12 10 10 8 6 7 11 16 19 20 20 20 19 23 24 24 27 33 41 40 33 27 27 33 39 45 47 48 49 46 44 38 31 23 21 25 25 23 20 20 25 24 27 25 22 18 14 14 16 15 12 8 7 9 13 14 13 15 14 15 14 14 20 23 23 23 20 25 22 24 25 28 32 36 40 44 45 46 43 40 34 31 31 32 31 27 25 28 31 32 28 21 14 11 8 7 7 7 6 5 7 14 25 30 33 32 38 44 37 24 10 5 7 11 16 17 15 16 17 22 22 21 17 13 15 11 39 130 188 180 111 39 51 63 74 79 86 99 115 129 139 145 146 143 138 130 117 92 68 71 86 104 100 79 69 67 68 65 56 50 53 53 51 45 37 32 29 30 51 60 59 40 31 27 38 34 44 35 41 45 54 46 44 45 36 43 64 91 104 105 85 60 38 21 15 15 16 20 23 26 31 33 34 31 25 17 15 9 14 12 15 13 11 12 9 10 7 7 5 7 8 8 8 7 8 8 13 12 18 14 17 15 20 24 24 18 14 16 65 126 156 124 58 14 5 7 6 9 8 8 7 7 6 5 7 9 10 9 11 12 15 14 11 9 5 4 4 5 6 7 8 8 10 11 13 13 11 10 9 8 10 8 10 13 13 11 6 7 8 11 12 10 9 7 7 8 5 8 6 8 8 7 10 10 10 11 8 8 6 7 7 8 6 8 9 11 10 9 10 11 13 13 12 13 11 13 11 9 8 11 9 10 10 9 12 10 11 10 11 11 10 8 7 6 5 2 0 
0 4 7 7 8 7 7 6 7 8 8 9 7 7 7 7 12 10 11 11 12 13 11 6 6 5 8 7 7 8 7 6 5 6 8 14 14 11 9 7 10 9 11 9 10 9 8 8 7 7 9 7 6 7 7 11 9 10 8 8 8 10 7 7 6 6 7 8 9 8 8 7 6 5 6 8 8 10 9 10 10 7 8 6 8 7 7 5 7 9 12 11 10 7 10 8 11 9 11 11 12 13 8 5 3 3 4 4 4 5 5 6 5 5 6 7 10 9 7 6 5 7 12 27 75 130 162 144 96 49 22 11 14 22 29 30 25 22 23 35 63 97 134 154 151 132 101 77 62 77 107 111 89 46 31 36 36 30 21 17 21 17 17 10 10 10 9 10 9 8 11 13 16 16 16 15 13 19 21 23 26 31 29 28 28 30 31 30 31 34 36 38 40 46 50 46 36 25 21 18 17 17 25 33 40 42 37 33 32 32 32 29 27 27 25 25 22 21 20 22 22 22 22 22 22 22 24 30 32 30 32 32 39 41 45 48 53 56 58 57 53 48 42 36 33 28 28 28 28 29 29 30 32 32 28 21 16 12 9 6 6 6 7 6 6 8 17 25 28 31 31 39 44 36 25 11 6 7 11 13 13 11 13 17 24 25 22 17 13 13 11 22 100 175 190 141 67 63 79 86 86 87 99 114 132 143 148 147 143 136 123 102 73 47 45 65 92 106 106 103 103 104 100 88 75 67 58 51 41 37 33 31 34 48 54 50 38 35 34 44 40 54 58 66 55 53 60 54 41 33 34 41 73 98 117 114 89 63 39 22 15 12 16 23 31 36 37 33 25 19 13 13 8 14 12 14 11 8 9 7 7 6 8 6 7 8 8 9 7 10 8 13 11 19 15 15 9 11 17 19 15 11 19 71 132 155 116 50 11 6 7 6 7 7 6 6 6 7 7 6 8 9 11 12 13 14 16 14 10 5 4 3 5 5 6 8 9 14 13 12 12 12 11 10 8 8 6 7 8 9 10 7 7 8 10 12 9 9 6 6 6 4 6 7 9 11 8 9 7 8 11 12 12 9 9 10 8 7 7 9 11 12 11 11 10 9 12 10 11 9 10 9 9 9 9 10 9 10 9 11 10 10 9 9 11 11 12 10 8 6 3 0 
0 5 9 7 8 6 7 6 6 8 8 11 9 8 6 7 9 10 8 8 9 10 8 5 5 4 6 5 6 6 4 5 5 8 9 10 13 15 13 8 9 8 8 7 8 8 8 5 6 7 8 8 6 7 7 10 8 8 5 7 7 7 5 4 6 5 6 5 4 4 6 8 7 6 5 6 7 8 8 7 7 8 7 7 8 6 5 4 6 6 8 7 11 8 8 5 7 7 9 10 12 10 8 5 3 2 3 3 3 4 4 5 5 6 8 9 11 9 8 6 7 8 14 49 107 158 158 111 56 23 12 6 8 14 23 29 28 23 17 15 26 49 88 128 154 164 155 139 125 129 135 116 82 37 26 32 31 26 16 15 18 14 15 9 11 10 8 8 9 11 14 15 18 17 14 14 18 19 22 30 29 28 28 29 28 22 20 20 22 27 34 38 35 32 28 26 26 25 23 21 22 27 36 46 51 50 46 43 40 36 33 29 25 25 25 27 25 26 26 28 31 33 36 36 35 38 43 50 54 54 56 58 61 63 63 62 59 53 48 44 45 46 44 40 35 29 25 21 21 22 23 26 28 28 24 18 14 10 8 6 7 7 7 6 6 10 19 25 26 28 31 41 44 35 25 12 8 7 13 14 14 9 11 15 23 26 25 19 15 11 10 12 67 156 194 166 106 75 92 89 75 64 64 71 85 92 93 91 90 86 81 71 56 42 38 50 74 95 104 104 109 116 120 118 107 97 84 75 65 60 53 53 57 59 53 43 34 34 36 43 39 44 45 54 61 61 51 57 58 43 34 33 50 81 108 122 111 86 62 41 24 17 15 21 28 35 38 37 30 23 15 11 8 14 12 14 9 7 7 6 5 5 7 6 6 7 7 10 9 12 11 17 16 25 21 21 17 15 17 15 11 9 21 79 137 153 107 42 8 5 4 4 5 6 7 9 8 9 8 7 9 12 13 16 14 17 14 12 9 7 5 6 7 7 8 7 7 8 9 12 12 12 10 9 8 7 6 6 8 8 9 6 6 8 9 12 8 10 7 8 8 8 8 10 11 12 9 7 8 10 14 12 12 9 9 9 7 7 6 8 10 11 11 9 8 7 11 10 8 7 7 10 8 8 7 8 8 7 8 9 10 8 8 8 9 10 10 9 8 6 3 0 
0 5 9 6 6 4 5 4 6 5 5 4 5 5 6 9 10 13 11 10 9 9 8 7 7 5 7 6 7 8 7 9 8 9 9 11 11 11 10 9 7 8 9 7 6 4 5 5 7 8 8 6 5 6 6 7 7 8 7 7 7 6 6 5 7 6 8 7 6 7 6 7 6 5 6 6 9 9 8 6 5 5 6 9 9 8 6 5 5 7 8 8 10 9 9 6 6 7 10 12 14 10 9 3 4 2 3 4 5 7 9 8 6 5 6 7 7 8 7 7 8 10 20 73 130 162 133 75 31 14 9 7 6 9 16 24 28 28 23 17 15 23 43 76 112 143 160 166 163 159 144 108 68 31 24 26 24 19 11 12 17 13 16 8 9 7 8 11 13 14 15 17 16 14 15 17 19 24 30 28 28 28 24 18 17 19 20 20 25 28 27 25 28 34 37 34 27 24 27 30 30 35 40 48 52 49 43 38 40 45 49 50 49 49 50 52 51 50 49 49 52 56 60 63 65 69 71 72 69 67 63 60 57 55 55 58 62 63 63 61 61 58 49 39 31 28 25 23 25 26 30 33 34 31 24 15 11 7 6 4 4 5 7 7 7 12 20 23 23 24 30 40 44 37 24 11 7 7 12 12 12 7 10 15 23 26 26 22 17 12 10 8 35 124 185 182 145 89 93 87 64 46 39 42 47 45 39 34 35 37 42 44 42 39 36 39 49 62 76 84 91 99 105 109 107 103 98 93 90 91 91 93 90 81 70 57 52 53 54 55 54 62 73 75 59 53 44 42 45 50 57 42 39 57 91 112 120 100 79 60 39 24 17 19 27 38 41 38 29 21 14 10 8 14 13 13 7 6 6 5 5 5 7 6 6 7 7 13 12 15 14 17 18 23 25 20 19 14 16 12 10 8 24 85 141 150 101 36 7 6 6 4 6 6 8 11 12 11 9 7 12 15 17 19 12 13 10 11 8 8 6 8 9 7 8 5 6 7 6 7 6 9 8 9 6 7 5 6 8 9 8 6 5 6 6 9 7 10 7 8 7 8 8 10 11 11 9 9 10 10 12 10 11 9 10 10 8 8 7 11 9 10 9 7 7 5 9 8 8 8 7 13 8 7 4 5 6 7 8 10 10 9 6 8 9 13 14 12 8 5 2 0 
0 5 10 6 5 4 5 5 6 4 6 5 7 7 7 8 9 11 12 11 11 9 10 7 9 5 7 6 7 10 7 9 8 8 6 6 8 12 12 8 9 9 10 9 9 7 7 5 8 7 8 6 5 5 5 5 6 5 8 6 6 4 5 5 6 5 6 4 3 4 4 5 6 6 8 6 8 7 6 5 4 4 5 7 7 6 5 6 7 6 7 7 10 9 9 7 5 6 7 11 11 9 8 5 6 5 5 5 4 5 5 5 6 5 6 6 6 7 6 8 10 11 30 91 141 150 106 51 29 24 20 15 11 9 12 18 22 24 22 19 15 14 20 36 61 89 113 130 138 133 114 86 55 30 25 22 21 17 10 12 15 13 17 9 12 11 13 14 14 15 16 16 15 17 17 18 25 29 28 28 30 24 16 17 16 19 21 24 26 25 28 33 36 29 24 26 32 38 35 32 36 50 61 68 57 44 33 29 31 40 48 54 56 59 62 65 67 66 65 66 68 70 69 67 64 62 60 62 63 64 67 72 73 72 71 67 62 56 51 49 50 50 47 39 32 28 23 22 26 28 33 32 29 21 14 8 9 6 7 5 6 8 9 9 9 16 21 23 23 23 29 38 42 37 24 11 6 8 11 11 9 7 10 16 22 25 26 23 16 11 7 6 18 86 164 184 160 106 88 87 61 41 33 38 45 43 35 24 21 21 27 33 38 41 41 42 41 40 45 51 60 69 79 92 100 106 107 105 99 97 98 103 103 93 80 69 67 66 68 71 73 75 77 78 67 47 37 37 47 50 52 48 47 38 72 93 114 108 90 78 62 45 34 31 32 39 43 42 37 29 20 12 10 13 14 13 7 5 5 5 6 5 6 6 6 7 8 13 14 19 18 19 22 20 25 23 20 13 14 9 9 8 28 91 144 149 95 34 8 7 8 5 6 5 8 12 12 11 10 8 14 16 19 17 13 12 8 9 7 8 6 8 8 6 8 4 5 7 6 9 6 6 5 5 4 7 6 10 9 9 7 6 6 6 6 6 8 10 9 10 9 10 11 12 11 11 10 10 10 10 10 9 8 7 6 7 8 10 9 10 7 9 8 8 6 5 10 10 10 8 7 10 7 7 4 7 8 11 10 11 11 11 7 7 6 9 9 8 6 4 2 0 
0 6 8 7 5 5 6 5 6 5 5 3 6 7 10 9 11 11 13 11 10 7 9 7 9 5 7 6 7 8 9 12 11 9 7 5 7 7 10 8 12 11 17 12 11 7 8 5 9 8 8 7 5 5 5 3 6 6 10 7 7 6 7 7 8 8 7 7 6 6 5 5 5 5 6 6 8 7 6 5 4 5 6 9 9 8 7 7 8 8 9 9 13 12 11 7 6 6 7 11 11 11 7 5 7 6 7 6 7 8 7 6 6 4 4 6 4 6 5 8 9 9 41 103 141 132 82 42 39 39 35 28 20 14 11 13 16 21 24 23 21 18 17 20 28 44 59 71 80 81 74 63 49 31 28 21 21 18 10 12 14 12 15 10 13 10 12 14 18 19 18 16 16 18 17 22 27 27 28 28 20 16 15 19 19 26 24 23 21 24 30 25 26 30 37 38 31 27 29 39 51 58 57 52 42 37 27 26 27 37 48 55 59 61 63 65 65 63 62 64 67 72 77 80 83 84 84 80 76 76 74 68 61 55 50 49 50 52 53 54 52 51 41 33 23 21 22 25 32 34 35 28 23 18 15 11 10 7 5 4 7 9 9 9 10 18 20 21 21 23 28 35 40 38 26 13 8 10 12 12 9 9 13 19 23 23 22 21 15 12 8 7 10 47 132 176 165 127 81 85 61 37 27 31 40 40 34 25 20 17 18 19 21 26 29 33 33 30 27 27 33 42 54 66 75 81 84 88 88 92 92 94 89 85 84 89 94 96 100 102 103 104 103 97 85 69 61 56 57 64 69 69 77 77 94 97 97 97 91 87 87 77 66 58 55 56 53 47 40 35 25 17 13 11 14 11 8 7 6 6 8 8 7 8 7 7 8 12 15 19 17 15 14 16 15 16 14 12 12 10 10 9 34 97 147 145 89 31 9 7 8 6 8 7 9 12 12 12 10 10 14 14 18 16 11 9 7 7 6 8 8 9 9 7 6 5 5 6 6 6 5 5 5 5 5 6 5 11 11 14 9 9 10 9 8 6 6 7 7 7 8 9 8 11 8 10 8 12 12 10 7 7 7 8 8 8 9 11 10 10 8 6 6 5 6 6 9 9 11 7 8 8 9 9 7 7 9 11 14 13 14 12 10 6 9 10 12 9 6 3 2 0 
0 8 8 8 5 6 8 5 6 6 6 6 9 9 13 10 10 10 13 11 10 7 7 5 6 5 4 5 6 6 6 7 7 8 8 5 5 7 9 8 11 10 12 9 11 7 8 6 10 8 8 7 6 5 4 4 6 7 9 7 7 6 8 7 7 6 6 7 7 6 5 5 6 7 7 8 6 7 5 6 5 6 7 7 7 6 6 7 8 8 10 9 9 8 9 8 8 8 10 10 12 8 6 5 6 8 8 8 8 8 6 4 4 3 3 5 4 6 5 9 10 9 51 107 135 115 62 39 46 51 52 45 34 22 13 9 12 17 21 23 23 24 23 23 21 20 21 26 29 34 38 43 44 32 33 22 26 20 14 14 12 11 11 10 12 13 18 18 18 15 15 16 15 16 18 26 25 26 24 18 18 20 16 16 18 26 24 27 27 26 24 25 33 28 25 27 34 40 40 37 39 47 55 53 42 35 28 31 30 37 47 55 61 66 71 77 81 83 83 81 80 82 84 83 78 70 63 58 56 57 59 60 58 55 52 47 44 38 36 33 29 31 21 20 15 20 27 33 37 35 28 20 15 10 10 10 9 7 5 5 8 9 9 11 16 22 22 22 24 25 28 31 36 36 27 15 10 12 14 13 10 10 16 22 24 21 20 17 13 11 9 7 8 22 95 156 160 139 80 79 62 41 30 32 39 42 38 31 26 22 20 21 19 21 20 20 18 18 23 29 35 37 39 41 45 49 55 68 77 83 79 75 71 75 83 94 103 108 113 117 119 120 118 114 110 106 106 105 103 110 122 136 150 154 156 154 125 92 76 77 83 83 73 60 49 42 39 36 36 37 29 21 14 11 13 11 9 8 7 9 10 11 8 7 8 7 8 8 10 12 12 13 10 14 12 15 11 11 14 13 11 11 44 105 149 138 81 28 9 8 9 6 6 6 8 9 10 10 10 11 14 18 14 14 9 9 7 7 6 7 7 7 7 6 6 6 6 7 7 8 6 4 4 5 5 6 6 11 10 12 11 10 9 8 8 8 8 8 9 9 9 8 7 9 6 9 9 13 10 8 6 8 8 9 9 10 10 9 8 8 8 6 8 6 6 5 8 9 10 6 8 8 10 8 8 9 12 10 11 9 13 13 16 13 13 9 10 7 6 3 2 0 
0 5 6 7 6 6 7 5 5 6 5 7 7 8 10 9 7 9 9 9 7 4 5 5 5 5 6 6 4 3 4 7 9 9 8 7 6 5 7 10 10 11 11 10 8 7 8 6 10 9 11 8 6 7 5 7 7 9 8 8 8 7 8 7 8 7 8 8 11 11 9 7 7 9 10 11 8 10 7 8 9 9 10 9 8 8 7 8 8 8 7 6 7 7 8 10 10 9 12 8 12 6 5 4 5 6 6 8 10 10 9 6 6 5 4 5 5 7 5 6 7 10 54 107 126 100 47 33 41 49 54 56 50 36 21 12 12 14 19 21 24 25 26 27 28 27 24 20 19 23 30 38 43 33 37 23 30 18 16 13 10 10 9 10 9 9 10 10 13 17 20 17 16 19 21 22 22 22 18 20 21 15 13 15 20 24 26 31 22 22 24 23 21 26 39 48 47 41 34 33 37 45 44 35 26 25 26 31 30 30 32 34 34 35 38 42 45 46 47 48 51 57 59 62 63 66 66 63 57 51 48 45 39 35 30 22 21 13 16 12 11 15 12 18 18 28 35 38 35 28 20 14 10 10 10 9 7 5 4 5 7 7 8 12 20 23 21 18 22 25 28 33 36 33 24 15 14 16 16 14 11 12 18 22 23 20 18 15 12 9 9 8 7 10 62 131 151 139 85 68 57 41 25 24 31 36 33 28 24 24 24 23 23 25 25 25 21 15 13 13 18 28 37 43 44 41 43 54 68 76 77 76 76 83 89 96 104 111 115 117 118 119 121 123 127 132 137 140 137 136 143 158 176 190 190 181 153 116 77 63 75 84 82 76 65 60 57 50 46 44 32 21 13 9 10 11 10 8 8 10 12 12 10 8 11 8 8 6 9 11 10 8 6 9 10 11 11 14 18 17 14 16 57 115 150 127 68 22 8 9 9 9 9 8 8 8 11 10 12 13 13 14 11 13 8 8 6 5 7 8 11 10 9 7 7 5 6 5 5 5 6 6 6 6 7 8 5 7 9 10 11 11 13 12 9 7 7 5 6 8 8 7 6 7 7 10 9 10 9 9 7 9 9 12 10 11 9 9 7 7 8 7 9 6 7 5 8 8 9 6 6 6 8 10 9 8 7 11 12 12 13 15 15 16 15 11 12 7 7 4 3 0 
0 6 7 6 4 5 5 5 4 8 7 10 8 11 9 9 7 8 6 7 5 5 4 4 5 4 5 5 5 5 5 7 9 9 11 8 7 6 6 7 6 7 5 6 7 9 8 10 11 10 11 11 7 8 7 9 8 7 6 7 8 9 9 8 6 5 6 8 10 11 9 10 11 10 11 10 9 9 8 9 9 9 10 8 9 9 8 9 7 7 5 4 3 5 6 8 12 10 12 8 11 7 7 5 4 6 6 8 11 10 8 6 5 5 5 6 6 7 6 7 7 13 56 110 122 93 41 25 31 37 44 56 62 55 39 24 19 17 20 22 26 27 28 28 27 27 26 23 23 25 29 35 38 31 38 24 32 17 19 15 11 9 9 8 8 10 11 13 15 15 15 17 20 20 20 21 20 16 18 20 18 16 16 15 18 23 28 27 24 27 21 23 29 34 36 37 39 37 32 27 25 30 33 27 22 19 27 30 30 28 32 37 40 43 46 51 55 57 56 51 47 53 57 63 56 51 42 34 27 23 20 19 16 15 14 8 13 8 12 7 11 13 18 24 29 36 38 34 26 18 12 9 9 9 8 7 5 4 5 7 8 7 10 18 24 23 20 19 21 25 28 34 33 29 20 16 17 19 18 15 12 13 19 22 21 19 18 15 11 8 8 8 7 8 38 106 140 138 91 60 49 39 26 21 25 29 29 27 23 22 23 24 26 27 28 29 27 24 17 14 11 11 14 20 28 36 44 55 68 74 74 71 72 77 81 84 87 91 93 92 90 91 95 99 104 108 114 118 122 126 132 139 144 155 164 173 161 126 91 56 57 71 68 62 48 44 50 54 50 41 27 17 11 9 10 10 10 9 9 12 12 11 9 7 11 8 7 5 5 6 8 9 9 10 9 9 8 14 21 21 18 25 70 125 148 112 54 15 8 8 7 7 8 8 8 6 8 8 9 9 12 14 14 12 10 8 7 5 5 7 7 7 6 5 8 6 6 4 6 7 7 9 9 9 8 7 7 8 9 11 12 9 7 5 7 6 7 6 8 8 7 7 6 6 6 8 10 12 11 9 9 10 11 13 12 13 10 7 5 6 9 8 9 6 6 5 8 9 9 7 8 9 10 8 7 8 8 11 11 12 11 16 16 19 14 12 10 7 8 5 3 0 
0 3 6 5 5 4 3 4 5 8 7 8 7 9 7 7 5 5 7 7 6 6 5 5 5 6 8 7 6 5 5 5 7 8 9 7 6 6 7 10 11 9 7 8 10 12 8 8 8 10 10 9 8 8 9 9 8 6 6 7 7 7 7 8 7 7 7 9 10 13 12 11 11 9 10 8 8 9 7 8 12 11 12 8 9 9 11 9 7 6 5 4 4 5 5 6 9 9 10 6 7 5 6 5 3 3 6 9 12 13 9 10 9 12 9 7 7 7 6 8 5 12 58 115 124 93 38 22 23 25 32 48 62 67 59 42 26 18 17 19 22 24 23 24 25 25 25 23 22 22 26 32 33 31 36 26 29 18 19 17 14 11 10 7 6 4 5 7 12 14 19 23 24 22 21 17 17 20 21 19 17 16 18 18 21 21 20 20 21 19 23 28 26 28 36 41 44 33 25 19 23 31 34 26 21 15 23 22 22 19 20 19 16 13 16 20 23 23 23 26 29 30 24 20 19 20 22 20 13 9 7 12 13 14 15 14 15 9 11 9 14 18 25 30 35 37 33 26 16 11 8 9 9 8 7 7 4 5 6 7 9 12 17 25 25 20 16 17 20 21 27 36 38 32 17 16 19 24 22 16 12 15 20 22 21 19 18 15 11 8 7 7 6 8 22 80 119 129 94 60 43 34 24 16 22 28 30 24 16 14 18 20 24 27 30 35 34 33 27 24 21 19 21 24 25 26 29 33 41 50 61 70 74 71 63 57 55 55 54 54 57 60 65 67 70 72 76 76 76 76 75 75 76 83 92 120 149 139 107 64 47 73 85 88 80 73 64 53 41 31 20 14 12 12 12 11 10 9 9 11 11 9 8 6 8 6 6 3 5 7 10 11 9 9 10 13 13 17 24 21 21 33 82 133 143 101 46 11 8 9 11 11 11 8 6 6 6 6 8 7 10 11 13 12 12 9 7 6 5 8 8 7 6 6 8 6 6 4 5 7 8 12 10 10 8 8 7 9 10 9 9 9 7 5 5 5 6 7 8 9 10 8 7 8 9 11 10 10 11 9 13 12 11 11 10 10 9 8 8 8 9 10 11 8 7 7 9 10 8 7 5 5 6 7 7 7 10 11 15 14 13 13 14 14 10 8 6 5 5 5 3 0 
0 5 9 5 4 3 3 5 8 9 11 10 8 8 7 6 6 5 5 5 5 6 5 6 4 5 5 5 6 7 8 8 8 9 8 8 6 5 8 8 9 9 9 8 8 8 10 11 10 9 9 8 9 8 10 8 9 7 7 7 8 7 9 8 9 9 9 10 8 9 12 12 12 8 6 6 6 7 7 8 9 10 12 8 9 10 10 9 8 6 5 4 4 4 4 4 7 8 9 7 7 7 6 6 4 3 8 9 14 11 9 12 8 12 7 8 8 9 7 8 6 11 63 119 129 99 38 25 24 22 22 33 50 63 66 55 37 21 14 14 17 19 20 20 20 20 20 20 19 19 23 28 27 30 27 25 24 19 21 18 12 8 7 6 6 5 7 10 13 15 21 24 24 21 17 15 20 20 19 18 19 21 22 24 22 19 21 18 17 22 29 29 28 26 27 26 29 27 30 31 34 34 31 23 20 16 23 19 17 17 23 32 36 29 29 28 28 25 22 19 18 20 26 28 27 24 23 18 12 10 9 13 14 16 16 15 16 15 18 20 22 25 30 34 34 30 24 19 11 10 9 8 6 7 7 8 6 6 9 9 13 20 26 29 23 16 16 18 19 19 24 33 33 26 18 21 22 27 22 18 13 16 21 22 21 19 17 16 12 9 9 9 8 9 13 54 92 115 97 68 48 35 23 12 16 25 32 30 23 11 12 16 21 23 24 30 35 38 36 33 31 28 26 25 28 32 38 41 39 35 34 40 46 49 46 42 37 33 28 22 21 21 23 27 33 38 44 49 50 48 45 48 49 56 60 77 120 132 112 74 45 65 83 91 82 69 64 60 48 34 23 19 19 19 17 14 10 9 8 9 9 9 8 7 6 6 6 6 7 8 11 13 13 11 10 11 12 16 22 20 22 40 92 139 140 92 38 8 10 9 8 6 6 6 5 4 6 7 8 9 10 13 14 12 10 8 8 7 7 7 6 7 5 6 6 6 5 5 5 7 7 10 11 12 8 7 8 11 12 14 11 8 5 6 6 7 6 8 9 9 8 7 9 9 10 10 11 10 14 12 13 11 11 10 8 9 9 10 10 10 11 10 9 7 7 9 9 13 9 9 7 8 7 8 7 9 10 13 15 12 13 10 11 8 7 5 4 4 4 5 3 0 
0 4 7 5 4 4 5 5 9 9 11 8 7 7 7 6 5 4 5 5 7 8 7 6 5 5 6 7 6 6 5 5 6 7 6 5 4 5 8 9 13 9 7 6 9 8 8 8 8 8 6 6 8 8 10 8 10 8 9 7 8 7 9 9 9 10 11 11 10 9 12 13 12 8 5 5 6 7 5 6 8 11 11 8 7 8 9 10 7 7 6 7 7 5 3 3 7 9 12 8 7 6 7 6 5 5 8 10 14 13 10 14 11 17 10 10 8 9 8 7 7 6 67 122 132 99 35 27 27 23 20 20 32 47 57 55 42 26 16 10 12 12 15 16 17 17 15 15 14 13 18 25 23 31 22 26 20 19 20 17 12 9 8 6 5 6 8 10 12 16 21 24 24 20 14 16 18 20 23 23 22 22 24 28 22 23 16 15 18 22 27 29 28 23 27 30 34 30 26 23 25 27 29 26 24 23 25 22 18 18 25 31 32 28 27 27 28 25 24 26 31 33 27 20 17 15 15 13 12 10 12 16 17 19 17 21 24 28 31 32 33 33 32 29 25 19 15 13 9 10 8 8 7 8 9 10 9 8 10 11 22 28 31 28 19 13 15 17 18 19 23 30 32 24 20 20 22 27 22 17 12 15 21 24 22 18 14 11 11 10 10 11 9 9 8 32 66 95 96 78 57 42 27 14 13 21 29 29 22 13 9 10 14 17 18 20 25 30 36 39 40 38 33 29 27 29 34 39 40 41 42 46 49 48 44 42 41 40 36 33 30 27 26 24 26 32 38 41 41 47 54 64 71 73 69 73 107 115 101 64 43 63 77 89 90 74 57 47 40 34 31 25 21 19 15 12 9 8 7 7 8 9 10 8 5 5 5 5 6 8 12 14 13 15 17 19 19 21 20 18 20 45 99 141 134 85 36 11 10 9 9 8 6 6 6 6 6 7 8 11 12 15 13 13 11 9 10 8 9 9 8 7 6 8 8 7 5 5 6 6 5 7 9 8 7 6 6 9 10 11 8 9 8 9 8 9 9 11 12 13 12 9 9 8 10 11 14 12 13 13 17 16 11 6 5 5 9 11 13 11 10 8 8 8 6 10 8 9 7 6 5 6 5 8 6 8 10 12 11 10 8 7 8 6 5 4 3 2 3 5 3 0 
0 6 9 4 3 4 6 8 11 9 9 6 6 5 5 5 5 4 4 4 5 7 7 7 4 4 3 5 5 7 7 8 7 6 6 5 4 5 7 7 9 8 9 7 6 5 8 9 10 10 7 8 7 9 10 10 11 9 11 8 7 8 9 13 11 11 11 10 11 10 13 14 12 9 7 5 7 7 7 5 8 9 10 8 7 7 9 11 10 8 6 5 4 4 4 4 8 9 13 9 10 6 8 6 7 7 8 11 13 13 11 11 9 10 8 12 11 12 9 6 7 8 72 123 132 94 34 27 31 27 24 20 24 38 50 50 41 30 20 11 9 8 11 13 14 14 11 10 10 10 15 21 21 29 20 26 21 23 21 14 8 5 4 5 7 8 9 11 14 16 19 21 18 15 13 15 15 20 23 25 26 27 27 23 21 21 17 21 18 22 28 31 29 23 21 23 29 35 38 37 35 31 28 24 21 22 24 25 19 17 22 30 33 32 29 26 26 25 28 33 35 35 31 28 23 20 18 16 16 17 21 22 20 22 23 29 34 38 39 37 34 31 27 21 17 13 13 11 9 8 6 7 6 7 8 9 8 9 11 18 27 31 31 22 15 13 14 14 15 18 24 29 30 25 23 21 22 26 22 19 15 16 22 26 24 17 11 8 9 10 11 13 12 11 7 16 41 68 83 78 62 47 33 22 17 18 23 25 21 16 12 14 16 15 14 16 20 23 26 33 39 41 40 37 35 36 39 42 42 40 41 46 53 56 57 56 57 58 57 56 53 50 47 43 41 39 36 42 47 55 59 66 75 81 79 84 104 102 104 86 79 84 92 90 86 76 69 66 62 51 40 33 31 27 20 14 10 8 7 5 6 9 11 9 7 6 6 7 9 9 10 15 15 22 21 24 18 18 16 15 19 49 103 142 129 78 29 10 11 11 8 5 5 5 6 6 7 8 8 12 11 14 12 12 9 11 9 10 12 10 10 10 8 7 7 7 7 7 7 6 6 7 9 9 9 6 6 8 8 10 10 11 10 13 11 12 12 12 12 10 8 7 9 12 12 10 9 9 11 12 12 11 9 6 6 6 12 13 14 10 8 7 6 7 6 9 10 9 8 7 7 8 6 8 6 8 8 8 8 7 6 6 5 5 5 5 4 3 3 4 3 0 
0 4 8 6 5 5 6 7 9 9 8 5 5 4 6 6 6 4 4 4 6 9 9 8 4 4 3 5 5 7 5 8 7 8 7 7 6 6 5 7 9 9 10 8 7 5 6 6 8 11 10 9 9 12 10 10 10 7 8 6 6 8 9 12 9 10 10 10 10 9 10 12 14 9 8 6 9 7 8 5 7 8 10 7 8 8 11 11 10 9 9 9 9 7 4 4 7 7 10 8 9 6 9 6 8 8 9 10 12 11 12 10 11 10 11 11 13 11 8 7 7 14 78 125 132 88 36 27 31 25 22 24 28 35 41 42 38 30 22 14 9 8 10 12 14 13 11 9 9 9 14 17 21 24 19 24 24 24 20 12 9 10 8 9 8 10 12 14 15 15 16 14 13 14 15 13 14 21 24 28 29 25 21 20 20 16 16 18 18 23 20 21 23 25 29 31 31 28 22 17 16 17 21 23 24 25 25 24 20 17 17 20 23 23 22 21 23 25 29 34 37 37 32 26 23 22 21 17 16 16 19 23 24 27 30 34 36 35 33 30 25 22 19 17 17 15 14 10 6 4 4 5 5 7 9 10 11 12 16 25 31 30 23 15 14 16 15 13 12 16 23 27 31 29 27 21 20 22 24 23 19 17 22 27 25 17 9 4 5 7 9 13 14 12 8 9 24 44 60 64 57 48 41 35 30 24 22 21 18 15 11 10 10 12 12 13 13 20 25 27 28 29 33 37 40 42 44 47 49 48 46 47 52 55 58 60 64 69 71 72 71 68 64 58 51 46 40 33 30 41 57 78 85 87 81 91 110 115 114 95 104 106 109 101 85 70 59 55 53 49 43 35 26 19 15 12 9 8 8 6 8 10 12 10 7 5 5 6 9 13 15 21 18 27 24 32 26 23 15 12 15 51 107 143 126 74 28 13 10 9 7 6 8 8 9 7 7 7 8 9 10 12 10 14 11 13 12 12 10 10 10 9 9 10 9 9 8 8 8 7 6 7 8 9 7 7 6 6 5 6 7 9 10 11 11 12 14 11 15 10 9 9 8 8 7 8 9 10 10 11 14 14 9 6 4 6 10 11 13 9 8 7 6 8 8 7 6 5 5 6 5 7 6 7 6 6 6 10 9 8 6 6 8 6 5 5 4 5 6 8 6 0 
0 6 9 8 7 5 7 9 11 8 7 5 4 4 5 5 7 5 6 6 7 8 8 8 7 6 5 6 5 9 8 11 8 8 10 10 9 10 6 6 5 7 9 7 6 5 5 7 9 11 11 12 11 13 12 12 10 9 8 5 5 5 6 9 9 9 9 10 10 12 13 13 12 8 8 5 8 7 6 4 5 6 7 7 7 9 10 13 10 9 7 6 6 7 5 4 7 7 10 7 7 5 5 5 8 7 12 10 11 11 11 9 9 7 11 11 13 10 9 7 8 21 86 130 133 83 36 26 31 25 24 30 36 43 43 37 32 27 21 15 11 10 11 13 13 12 10 9 9 10 13 13 19 18 20 18 23 23 21 14 8 7 7 9 9 11 12 13 15 13 12 9 12 14 12 14 19 24 27 34 29 26 23 17 14 13 14 17 21 20 20 26 29 27 21 17 18 22 23 22 18 16 17 15 15 14 16 17 16 11 9 9 10 11 11 10 11 15 21 26 28 26 24 21 20 20 19 18 18 19 20 23 24 30 32 34 32 27 21 17 18 20 21 21 19 18 15 11 9 7 6 5 5 8 10 12 10 13 22 29 30 24 16 14 14 19 16 13 10 11 18 26 36 36 32 22 17 21 27 29 29 25 27 30 27 19 9 4 5 6 8 12 14 13 9 8 15 29 43 49 47 45 45 47 43 33 23 15 13 13 12 11 12 11 10 13 13 18 22 26 32 33 34 35 33 33 35 41 49 54 57 57 58 58 59 59 62 66 68 70 70 70 69 67 63 55 50 47 46 43 40 45 53 57 57 69 89 107 113 100 100 98 99 94 76 58 49 50 52 44 35 29 24 21 16 12 10 8 8 7 9 11 10 8 6 5 6 8 12 16 15 20 19 28 22 23 17 18 14 13 19 58 114 145 121 66 21 9 8 10 6 7 8 8 7 5 6 6 7 7 9 10 9 11 10 13 10 11 11 11 9 9 8 8 8 9 9 7 8 7 7 10 9 10 8 7 7 7 6 6 7 8 9 9 10 10 12 10 9 7 8 8 10 12 11 7 5 6 7 7 7 7 6 6 6 10 11 12 12 10 9 7 8 8 10 10 10 8 7 8 6 6 5 5 5 5 7 10 10 11 8 8 6 6 4 4 3 6 5 8 4 0 
0 6 8 9 8 6 7 7 9 6 7 6 6 5 6 6 7 5 6 7 8 9 9 7 7 7 6 7 6 9 8 9 8 9 11 15 12 13 7 8 6 6 8 7 5 5 4 7 7 10 9 10 12 12 11 9 8 8 7 7 6 6 6 8 8 7 10 11 12 12 11 14 10 7 6 5 7 6 5 5 5 5 8 10 11 15 10 12 9 10 11 12 10 7 5 4 6 6 7 6 6 5 5 6 7 7 9 8 9 9 11 9 9 8 10 9 11 12 11 9 10 25 93 135 134 81 37 27 28 20 21 31 40 45 45 40 33 28 20 13 10 11 12 14 14 11 10 7 8 9 12 12 17 14 15 11 18 19 20 13 10 9 9 9 10 10 10 13 14 12 10 8 13 13 16 20 21 25 31 32 28 25 18 14 13 10 13 17 18 20 21 18 16 16 16 17 16 14 11 8 5 4 8 9 12 11 13 13 12 8 6 5 8 10 11 11 12 13 15 14 16 13 13 12 15 19 20 16 12 11 13 17 18 25 26 27 23 15 11 11 12 14 15 16 18 20 19 17 16 14 12 9 7 8 10 12 13 22 28 31 26 15 9 13 15 24 19 17 11 9 14 22 34 39 33 21 12 19 26 30 26 20 22 26 26 21 11 6 4 3 5 9 12 13 12 11 14 22 32 40 41 44 48 56 57 47 32 20 12 10 10 10 9 7 7 8 11 16 20 22 23 25 30 35 37 39 38 38 39 42 47 51 56 60 65 67 66 66 65 64 63 63 64 62 61 58 56 55 51 51 56 59 65 60 54 61 76 93 99 92 77 74 75 74 63 54 44 37 36 39 39 33 22 17 12 12 11 10 10 10 11 12 9 7 6 6 8 10 14 18 19 23 20 24 23 27 24 21 17 12 25 72 128 149 113 56 18 10 8 9 5 7 7 8 8 6 8 8 8 8 8 8 9 9 10 10 10 10 9 8 9 8 6 8 8 8 10 8 8 6 5 9 7 7 6 6 8 7 6 4 4 6 6 9 8 9 8 8 8 8 8 9 11 9 7 7 7 6 6 8 9 9 7 7 7 11 10 14 10 11 9 8 8 7 7 6 6 6 6 6 6 6 5 5 6 6 9 14 14 12 8 8 8 7 5 5 4 7 8 12 7 0 
0 5 8 9 7 6 7 8 8 8 7 7 7 7 7 8 7 6 7 9 11 7 7 5 7 7 7 7 7 8 10 10 8 8 11 14 10 12 8 9 4 3 4 4 4 7 6 9 7 9 8 10 12 12 12 9 9 8 8 7 6 7 6 7 7 8 12 13 17 13 12 11 9 7 5 6 6 5 5 5 5 5 7 11 11 14 10 13 9 10 9 7 8 6 6 4 6 6 9 7 5 5 4 6 6 8 8 8 9 9 9 7 9 8 10 9 10 9 11 8 10 26 98 138 135 79 34 27 27 18 21 31 42 45 42 40 36 33 25 17 10 11 13 14 13 9 8 5 6 7 10 10 15 14 15 10 12 16 19 14 10 5 9 11 10 8 9 12 12 11 9 12 14 17 21 21 24 32 35 32 31 23 17 14 12 12 12 14 17 22 22 22 21 16 11 8 7 7 7 6 4 4 7 9 9 8 11 13 12 9 4 4 5 7 8 10 11 12 13 11 11 9 10 9 10 10 11 12 12 10 9 11 12 17 19 19 15 13 11 10 11 16 21 24 26 23 21 20 18 16 16 14 12 11 11 12 16 23 31 29 19 8 7 11 12 21 18 18 12 9 12 20 32 38 32 24 13 19 24 29 30 25 24 24 23 19 12 10 9 6 5 6 9 11 12 13 14 17 24 32 35 39 41 51 57 54 41 26 15 10 10 10 12 11 10 10 10 11 14 19 24 27 27 26 23 24 29 38 46 52 54 52 49 46 46 48 52 55 57 58 59 57 56 53 51 50 51 55 55 55 57 59 53 41 29 30 47 64 67 59 52 49 44 51 47 39 33 38 35 32 30 29 23 19 14 13 11 11 12 11 11 10 7 5 6 6 8 10 14 18 17 17 16 22 21 22 18 16 15 13 37 92 143 148 99 43 11 7 6 6 4 6 5 7 5 5 6 6 9 8 11 10 9 7 9 8 9 8 10 9 7 6 4 5 6 7 8 5 6 5 4 6 6 7 5 5 7 6 8 6 7 9 8 10 7 7 6 5 5 6 9 10 9 10 10 8 6 7 6 7 7 7 6 7 11 13 13 14 11 13 12 11 9 7 6 6 8 7 8 6 6 5 6 7 7 7 9 12 11 10 8 7 9 6 6 4 4 7 7 11 6 0 
0 7 10 9 6 5 5 6 5 4 5 7 7 9 8 9 7 6 7 8 13 9 9 5 7 6 7 6 8 9 11 10 8 8 11 13 12 9 8 7 7 7 8 8 7 8 8 9 8 7 5 7 9 8 8 7 6 6 7 9 9 8 9 12 10 8 11 12 14 11 10 8 8 6 5 4 4 4 5 6 6 7 9 11 13 14 11 12 9 12 11 8 8 5 6 4 6 5 7 6 6 8 5 8 5 9 9 9 10 8 9 8 11 10 11 8 11 11 15 9 8 26 99 140 134 78 30 25 27 21 25 34 42 41 35 32 33 37 30 22 12 10 13 14 12 8 6 3 3 4 7 9 15 15 14 12 11 15 17 14 12 9 13 13 11 9 10 10 12 10 11 13 15 23 21 24 28 27 29 31 25 18 16 12 13 12 12 14 15 18 22 20 14 8 6 8 8 9 9 8 7 6 7 8 8 7 10 15 15 13 7 6 6 7 9 12 13 13 12 12 14 13 14 12 12 10 11 9 8 8 9 9 11 12 12 12 13 14 15 18 20 24 24 23 23 23 22 19 17 20 21 19 15 11 9 9 16 26 32 24 13 4 5 10 12 20 19 19 13 10 13 18 28 35 32 28 17 18 17 20 22 22 21 23 19 20 13 12 10 9 6 5 6 8 10 12 13 14 19 24 27 30 28 38 48 53 48 36 26 20 13 9 9 9 11 13 14 14 16 16 17 20 23 27 29 30 30 32 36 43 50 56 60 64 70 69 69 67 63 61 60 61 61 59 53 48 47 49 48 54 61 73 70 54 39 29 35 38 56 58 56 54 55 51 48 55 42 32 32 39 36 32 27 25 19 15 13 12 12 11 10 8 7 7 8 9 8 10 12 15 15 16 15 26 27 33 26 20 13 15 50 109 150 137 80 28 9 10 8 7 4 5 5 5 5 5 6 8 9 8 9 7 8 7 9 8 10 9 10 8 7 7 6 6 5 6 7 7 7 6 4 4 4 4 4 5 6 6 8 6 8 9 8 10 8 7 6 4 5 7 8 8 9 9 8 11 8 9 7 8 8 8 7 8 10 12 12 11 10 10 9 8 7 5 4 4 6 7 8 6 7 6 8 7 9 11 10 10 10 10 7 7 11 10 8 5 4 7 7 10 6 0 
0 6 10 10 8 6 5 6 8 9 8 9 8 11 9 10 8 5 6 8 13 11 11 5 7 5 7 6 5 7 8 8 9 9 11 9 9 7 11 8 9 7 9 10 10 9 9 9 9 9 8 8 8 9 10 8 6 6 6 6 7 7 7 7 7 9 9 12 13 12 10 8 7 6 5 5 4 4 5 7 7 7 8 8 11 12 11 12 9 9 7 7 7 7 8 6 6 4 6 5 6 7 6 8 7 10 12 12 13 9 11 10 12 12 13 10 11 11 11 9 8 29 100 141 133 75 26 23 23 21 28 35 38 32 25 24 27 37 37 30 18 12 14 17 15 10 7 4 3 5 6 7 11 13 16 16 14 14 14 13 14 14 17 18 16 10 11 11 14 9 13 14 20 23 23 27 23 27 31 25 22 20 16 14 12 12 14 13 14 18 20 18 12 8 7 8 9 9 9 10 10 8 8 8 7 7 9 13 15 15 10 7 5 5 6 8 9 11 12 12 13 12 12 11 11 9 9 8 7 7 5 6 7 9 12 15 20 22 23 24 23 24 25 24 22 20 17 15 14 16 19 19 14 9 8 9 20 27 30 20 10 6 7 9 11 16 16 16 13 12 14 17 23 27 26 24 18 17 16 19 25 28 23 26 16 20 13 14 13 13 8 6 5 6 8 10 11 11 14 18 20 23 19 26 38 45 50 46 42 34 25 17 12 11 11 11 12 12 15 17 18 19 19 18 17 17 22 29 36 41 44 45 45 46 49 53 58 62 65 69 72 71 64 56 52 52 51 44 39 47 53 74 79 66 50 30 39 37 37 40 49 58 64 70 60 48 46 44 33 32 34 34 27 24 20 14 13 14 13 10 7 5 6 7 8 6 5 7 11 14 13 14 12 26 27 36 23 17 14 20 64 123 149 121 60 17 10 7 6 5 6 7 7 5 4 3 4 5 5 7 7 8 6 6 7 7 8 7 7 7 7 5 5 5 5 5 5 5 5 5 4 4 3 4 5 5 5 6 7 7 10 9 11 10 10 10 8 6 5 6 7 8 7 10 8 13 8 12 8 9 8 7 5 7 7 8 9 7 9 8 12 10 9 6 5 4 5 6 6 5 6 6 8 7 8 9 7 7 6 5 5 9 10 11 9 6 5 6 7 10 7 0 
0 7 11 9 6 4 4 7 8 8 7 9 7 10 8 9 6 5 6 8 13 13 13 7 9 6 7 6 7 9 10 11 10 12 12 13 11 8 7 7 9 9 12 10 10 9 11 10 8 7 6 6 7 8 8 7 6 5 6 6 7 6 6 8 8 9 6 8 11 11 10 8 8 10 7 6 5 7 7 8 8 9 9 10 10 9 11 9 9 8 7 7 8 11 11 10 7 4 4 4 6 7 7 8 9 12 16 16 13 10 10 11 14 14 11 10 9 11 11 10 7 32 102 143 131 73 22 21 21 23 31 37 35 24 17 16 21 35 41 38 26 19 20 22 20 14 9 5 4 5 6 6 8 9 13 14 15 12 13 14 16 16 18 16 16 14 12 11 11 12 13 15 19 22 26 24 21 25 20 20 23 19 16 14 11 13 11 12 13 16 16 15 11 8 9 9 9 9 9 10 11 10 9 9 9 9 11 15 19 20 17 12 9 6 6 8 9 8 7 7 9 11 14 13 11 8 8 8 8 9 11 15 16 18 19 19 22 24 25 25 24 24 22 18 15 13 11 11 13 18 20 17 12 8 6 10 23 29 29 17 8 6 7 8 10 11 15 17 14 14 15 17 19 20 21 20 16 15 14 17 23 29 23 24 15 20 15 15 13 13 9 6 5 6 7 6 9 10 14 17 19 20 17 22 31 40 48 49 52 48 37 22 13 11 11 11 12 14 16 19 21 23 25 25 22 19 18 19 23 27 33 39 44 50 52 54 54 54 53 51 49 51 53 55 53 52 52 51 43 35 39 63 74 70 60 35 32 36 37 33 36 50 64 71 72 60 46 43 41 38 35 32 29 21 18 15 11 10 9 7 5 5 7 10 11 10 8 9 11 11 10 13 15 27 25 27 23 16 14 30 80 134 143 104 45 11 9 9 9 7 7 6 5 5 5 5 5 4 5 5 5 7 6 6 6 7 8 8 9 9 8 6 7 6 7 6 6 7 7 6 4 3 3 4 4 4 4 5 6 7 8 8 10 10 10 9 8 8 7 6 5 7 6 12 9 15 10 11 9 10 9 8 5 7 6 7 6 4 7 6 8 6 7 6 6 8 10 10 9 6 6 5 6 5 7 7 7 6 4 5 5 8 12 15 13 11 7 6 6 9 7 0 
0 7 11 10 9 7 6 8 11 11 9 8 7 10 9 10 10 6 7 11 13 13 11 7 8 6 6 5 5 7 9 11 12 15 14 14 9 11 8 8 7 7 7 8 9 9 9 8 8 7 7 7 8 11 9 11 6 7 7 6 8 7 9 10 9 9 8 9 13 15 16 13 10 9 7 8 7 8 6 7 9 9 10 9 9 9 10 7 7 5 5 7 9 12 10 10 6 6 4 4 5 6 7 8 10 13 14 14 12 9 9 10 12 12 12 11 9 10 9 11 9 34 105 145 132 72 22 20 20 25 32 35 28 17 13 14 20 31 40 43 35 28 27 28 28 21 13 7 4 5 6 6 8 11 17 16 16 12 14 15 15 14 17 18 18 13 10 10 10 12 13 19 18 23 22 20 21 18 18 22 20 18 16 13 11 11 12 12 11 13 12 12 10 9 10 8 6 6 7 8 9 9 9 10 11 12 14 17 20 22 22 20 17 15 13 13 13 13 12 11 12 13 14 14 15 15 16 16 17 17 18 19 19 20 21 22 24 23 22 23 21 19 15 11 9 9 11 13 17 19 18 14 8 5 7 18 29 32 26 14 8 8 10 12 19 26 27 23 18 17 17 19 21 19 15 12 11 14 17 19 24 27 24 19 13 15 14 15 15 16 12 8 6 8 11 10 10 10 12 16 19 20 19 23 31 39 44 46 54 56 50 37 26 19 14 10 8 9 13 18 22 25 26 26 23 20 19 18 19 21 23 26 29 32 32 33 35 40 48 54 57 57 50 46 48 53 55 45 37 37 40 44 60 65 66 50 42 33 41 38 39 42 60 68 69 66 49 41 35 35 37 30 27 21 14 12 10 10 8 6 5 6 8 9 9 7 8 9 12 12 9 11 13 20 28 26 22 15 16 43 94 141 134 89 32 10 8 9 7 6 7 7 7 6 6 5 5 4 4 4 6 7 7 6 6 7 7 6 7 8 8 7 6 6 7 7 6 6 5 4 4 3 3 4 4 4 5 6 6 7 8 9 12 14 16 17 13 9 8 8 6 9 6 10 8 10 9 9 9 10 11 9 7 5 5 7 7 5 7 6 7 6 7 6 6 6 7 7 7 5 4 4 5 5 6 5 5 4 3 3 4 7 11 14 14 13 10 8 7 9 7 0 
0 5 9 7 7 6 9 9 12 9 9 9 7 9 8 9 9 9 9 10 13 11 9 6 6 5 4 4 7 10 12 12 12 13 13 16 11 11 6 7 5 6 6 6 7 8 10 9 8 7 5 7 9 13 9 13 9 12 11 10 11 9 11 11 12 11 8 8 11 12 11 10 11 11 10 10 11 13 9 9 9 10 11 10 8 7 7 6 5 4 6 8 10 12 12 11 7 5 4 4 5 6 7 9 10 15 16 15 12 7 7 8 10 12 10 12 10 10 11 10 10 37 109 148 135 73 22 19 20 25 31 29 21 12 14 14 21 28 39 46 43 36 33 31 33 27 17 10 6 6 6 7 8 9 14 15 16 14 13 13 11 10 11 15 16 13 11 8 11 13 18 18 18 20 17 20 17 15 18 18 19 18 13 11 10 10 11 9 9 9 10 11 11 10 9 6 5 5 5 5 6 9 11 12 12 13 15 18 22 25 27 26 24 22 20 20 21 21 21 20 21 22 23 23 22 22 23 23 23 22 22 22 22 22 21 20 17 14 13 11 10 10 11 14 17 19 19 19 20 18 15 10 8 11 19 29 36 34 23 12 9 11 13 18 24 30 32 29 24 22 21 21 19 17 13 10 7 11 17 18 20 20 20 18 12 14 14 14 15 16 13 10 8 8 10 9 8 9 10 14 17 19 19 23 30 36 40 42 49 56 58 51 42 37 31 24 18 16 17 21 25 30 30 29 25 22 22 22 23 23 24 27 27 28 26 25 26 25 26 23 22 26 35 46 51 49 48 50 60 61 62 57 60 57 62 56 52 40 41 40 43 44 50 59 60 60 53 42 32 27 31 30 27 26 20 14 9 6 5 6 6 6 7 9 10 9 10 10 12 11 8 11 16 18 20 22 17 14 21 57 109 142 123 72 25 7 7 7 7 8 8 6 6 5 7 8 7 7 5 5 7 8 8 7 7 7 8 7 8 9 10 8 7 7 8 9 7 8 6 6 3 3 3 4 4 4 5 5 5 6 8 11 13 14 11 11 10 10 7 7 6 6 5 6 9 9 10 7 9 11 14 12 9 7 7 8 9 7 8 6 6 5 5 4 5 9 13 13 10 7 4 5 5 5 6 6 5 4 4 4 4 6 9 12 13 14 11 8 6 8 5 0 
0 6 9 8 8 7 10 7 11 7 7 6 6 6 7 13 11 9 10 12 15 10 8 5 4 4 2 3 6 9 11 13 14 12 13 13 12 13 8 8 5 6 4 5 6 7 8 10 7 7 7 10 9 13 10 13 9 12 10 10 10 11 14 13 12 9 8 8 8 11 11 11 10 8 7 9 10 10 9 10 9 11 10 10 8 6 6 5 6 5 6 6 9 9 10 7 8 6 6 6 6 6 5 7 8 11 10 9 8 5 5 6 6 11 9 12 10 10 11 9 9 36 112 153 139 75 23 18 19 24 27 23 14 8 14 15 24 24 36 46 48 40 36 28 35 30 22 13 7 5 4 6 9 12 19 21 20 15 10 12 9 10 13 17 16 12 7 7 10 14 18 19 22 19 18 17 14 15 16 17 18 13 12 11 11 8 11 9 10 8 10 11 11 10 8 6 5 5 5 5 6 7 10 11 10 11 13 16 19 21 24 26 28 28 26 24 25 27 28 28 28 28 29 30 30 29 28 26 24 21 20 18 16 14 12 11 8 7 10 13 15 17 17 21 24 24 23 21 19 15 12 10 13 21 33 41 42 34 21 17 15 17 15 23 31 40 39 31 25 21 21 25 27 25 17 11 10 13 18 18 23 24 21 17 11 10 11 13 14 16 17 13 10 10 11 11 10 8 8 9 11 13 15 19 25 31 34 36 43 55 62 63 59 57 53 43 31 24 22 26 28 32 31 31 30 27 24 21 21 21 22 23 24 25 25 23 23 24 32 43 55 62 65 64 62 62 62 60 60 62 68 65 62 64 61 58 53 51 41 47 44 47 46 50 54 52 45 37 32 27 25 26 28 26 23 19 10 7 6 7 7 9 8 8 7 7 8 9 10 10 10 12 16 23 22 25 16 13 28 72 121 137 108 56 21 7 7 6 6 5 8 6 8 5 6 7 7 8 6 6 6 8 9 7 7 6 7 6 6 7 7 7 7 7 6 8 6 7 6 7 5 4 4 4 4 5 6 6 5 5 8 12 13 16 17 18 13 9 8 8 7 6 7 5 6 5 6 6 7 8 11 12 10 7 7 7 9 8 8 6 5 5 6 6 5 6 8 9 9 6 5 4 5 6 5 6 6 6 5 4 5 7 9 11 11 11 9 9 7 10 7 0 
0 5 8 6 6 6 8 7 8 6 6 6 7 9 10 10 8 9 11 11 14 11 8 6 3 4 2 4 6 9 11 9 9 8 9 10 11 11 9 8 8 6 5 5 4 6 6 8 7 8 6 8 8 10 8 11 10 14 11 10 9 9 9 9 11 9 8 6 5 8 6 9 9 8 8 8 10 11 10 9 8 8 9 8 9 7 7 4 6 4 8 9 11 10 9 7 7 6 6 6 6 6 6 6 6 9 10 11 8 6 4 6 6 9 7 9 8 8 10 9 12 41 116 156 140 77 21 15 14 17 20 17 11 11 16 18 24 24 34 42 48 41 36 25 32 30 24 16 11 7 5 6 8 9 18 23 23 19 8 9 7 12 15 17 15 10 10 10 12 14 18 25 22 20 18 14 13 14 15 14 13 11 11 9 10 9 11 11 10 9 9 10 10 8 6 6 7 7 6 5 5 7 10 10 8 9 9 11 12 14 17 22 26 28 28 28 28 31 32 31 29 28 28 29 29 28 26 23 19 15 12 11 10 9 10 9 9 11 15 18 20 21 23 26 25 22 20 20 19 16 13 16 24 35 44 46 39 30 19 18 17 18 15 20 27 33 36 24 23 20 19 19 16 15 15 13 11 11 17 19 20 17 19 17 16 14 14 16 16 16 17 14 11 8 7 9 9 10 10 10 10 11 12 15 17 22 25 28 35 48 57 63 65 68 69 62 51 40 35 36 37 37 35 33 33 34 35 35 36 38 42 48 52 56 59 61 63 64 65 67 69 71 73 73 71 67 65 67 68 67 65 67 64 68 67 62 50 52 38 39 41 45 43 42 38 41 37 30 24 27 28 27 28 30 24 21 15 12 8 8 7 7 6 6 6 7 6 9 9 10 11 14 17 20 18 20 16 12 38 87 132 134 92 42 17 7 7 5 6 5 8 6 7 6 6 6 7 9 7 6 6 6 6 6 7 6 6 6 6 8 8 8 5 7 6 7 7 8 9 8 8 7 6 5 5 5 6 5 4 5 7 11 11 11 10 10 10 8 7 6 8 7 6 5 6 5 7 6 6 7 10 11 11 8 7 8 9 9 9 7 6 5 5 6 7 10 11 12 9 5 5 5 5 5 6 8 8 9 8 7 6 8 8 9 8 9 8 8 8 8 5 0 
0 6 8 7 6 7 7 7 5 5 4 5 6 7 8 10 10 9 13 12 13 10 8 7 5 4 4 4 5 6 7 8 9 7 7 10 10 12 10 9 8 7 6 6 5 8 9 9 8 7 6 7 6 6 6 8 8 7 6 7 6 8 8 8 8 6 7 6 6 8 7 7 7 6 8 8 10 10 9 8 8 7 8 7 6 5 5 4 6 5 9 8 11 10 9 8 8 8 6 6 7 5 5 4 4 7 9 8 8 5 5 6 6 7 6 7 6 8 9 8 10 42 118 158 138 76 20 15 12 13 16 15 12 15 16 21 24 27 32 37 43 40 33 25 27 27 23 17 12 9 7 7 10 9 19 25 23 17 8 10 9 14 18 17 16 10 11 12 12 15 21 25 23 25 18 15 11 11 14 16 14 12 10 10 9 8 9 10 10 9 9 8 7 5 4 5 7 8 7 6 5 5 6 9 9 8 7 9 10 11 12 15 20 24 26 25 24 25 25 25 23 22 22 22 20 19 17 15 13 10 9 9 10 9 9 8 10 14 18 21 22 24 23 22 19 18 18 19 19 20 23 30 38 45 46 39 29 23 18 21 18 16 12 14 22 20 26 16 19 15 15 17 18 18 15 14 14 13 18 23 25 25 19 15 15 14 14 15 18 17 18 14 11 7 6 8 11 16 16 16 14 12 10 12 12 15 16 18 23 34 43 51 56 63 71 72 67 59 53 51 51 51 52 53 55 57 58 59 63 68 73 78 81 83 85 86 86 86 89 93 93 87 79 72 69 69 71 69 63 51 40 51 59 64 62 64 53 43 40 39 36 49 43 44 33 27 25 31 27 28 26 33 28 31 27 20 15 13 11 10 8 7 7 5 5 7 5 9 9 10 12 16 21 26 22 19 15 15 49 102 141 130 78 31 11 7 6 5 5 6 5 6 8 8 6 6 6 7 7 6 4 5 6 5 4 4 4 6 6 7 6 7 6 7 5 6 6 9 10 11 9 8 8 6 7 6 8 8 7 6 8 9 10 10 11 13 10 6 6 5 6 7 9 10 9 6 7 5 6 5 7 9 8 8 7 8 8 9 7 8 8 7 7 11 9 11 7 8 6 5 5 4 6 6 6 7 10 10 9 8 6 10 8 11 9 9 8 8 9 15 9 0 
0 5 9 7 7 5 5 5 6 7 6 8 9 12 11 10 11 11 15 12 14 9 9 5 5 5 5 5 4 5 5 6 5 6 7 9 8 11 9 10 9 7 6 5 5 7 7 8 9 7 7 8 7 6 6 6 8 9 10 8 8 7 7 8 8 7 6 6 7 8 8 8 8 7 9 9 10 8 9 7 8 8 8 7 8 8 6 5 6 4 9 7 13 8 10 9 10 9 7 5 6 6 7 5 6 6 9 8 9 6 7 6 6 5 4 5 5 7 7 9 10 47 121 158 133 71 18 15 13 12 14 13 14 17 17 21 23 27 30 33 38 38 34 29 24 24 20 19 13 12 9 9 11 12 21 24 23 18 10 10 12 15 18 15 14 11 12 17 12 18 20 24 29 25 20 16 10 11 14 14 12 9 8 8 8 9 11 11 12 13 12 9 7 5 7 9 11 11 9 6 4 5 7 9 9 9 9 8 7 8 9 11 14 18 22 22 21 18 16 15 14 14 12 12 12 13 12 10 10 9 9 8 10 13 14 15 18 21 22 23 23 22 20 18 16 14 15 19 25 32 39 44 45 44 38 29 21 19 16 18 15 13 12 13 22 19 21 13 14 13 14 10 9 10 15 18 17 15 16 21 21 22 20 17 16 13 20 22 23 17 16 12 11 9 7 11 12 16 20 22 20 18 13 13 10 11 9 10 13 21 27 34 38 45 57 66 71 70 67 66 66 66 67 68 70 73 77 80 84 88 91 94 97 99 100 100 97 95 92 87 78 66 55 48 45 44 46 45 41 34 29 30 40 58 60 57 57 47 35 43 40 47 44 41 35 28 19 25 28 35 29 32 31 28 28 23 19 15 12 11 9 5 4 4 5 7 6 10 10 10 11 15 18 22 19 21 18 27 64 121 147 122 66 22 9 9 8 8 8 8 6 7 6 8 6 6 5 6 7 5 4 3 3 3 4 3 3 4 5 8 8 8 8 7 7 8 8 12 11 11 11 8 10 7 8 5 6 8 9 8 10 9 10 10 8 9 9 8 8 7 7 8 9 9 9 6 8 7 8 6 7 9 8 7 6 8 8 12 11 12 9 8 7 9 9 14 10 9 7 4 6 4 5 5 6 6 11 11 12 9 6 8 6 10 8 10 8 9 8 11 6 0 
0 4 8 7 8 6 7 6 7 6 6 7 7 7 7 9 13 15 19 12 13 6 9 6 6 5 6 5 3 3 2 5 4 6 6 7 8 9 9 9 8 5 6 5 6 7 9 8 8 7 6 6 6 7 8 7 9 8 9 8 8 7 8 8 8 8 7 8 9 11 10 11 8 9 9 10 13 9 8 7 9 9 10 7 7 6 6 5 5 4 7 5 10 7 12 9 14 9 9 6 7 6 5 4 6 8 12 10 9 6 8 7 7 5 5 5 5 8 7 8 7 50 123 157 128 63 14 15 15 14 16 16 18 20 17 19 20 26 27 29 32 35 35 30 24 23 17 20 13 14 9 13 14 17 23 24 22 17 11 13 14 16 16 12 12 12 12 18 13 22 20 27 29 25 25 17 13 12 13 16 14 9 7 7 7 7 8 8 10 12 12 10 8 7 10 10 11 10 8 4 5 5 5 6 8 10 10 10 11 11 10 8 9 12 17 19 18 15 12 10 10 10 9 8 6 7 7 8 9 9 9 11 15 17 19 18 21 22 20 17 16 17 19 18 20 22 26 30 37 44 48 46 41 34 25 21 17 20 17 19 17 15 14 11 16 14 14 11 15 16 14 12 11 10 12 12 11 10 10 16 21 25 23 18 17 12 15 16 19 16 16 13 12 12 12 15 16 18 24 30 36 33 23 19 15 13 8 7 8 13 17 20 23 27 37 49 60 66 68 68 68 70 71 72 71 71 73 75 77 77 75 74 74 74 73 70 68 66 63 55 45 35 30 30 32 33 36 40 45 38 29 27 28 34 49 57 53 48 40 34 44 41 52 40 37 29 23 26 28 28 32 27 33 26 25 20 18 16 14 11 10 9 7 5 5 7 6 10 9 10 8 13 17 23 18 22 19 48 86 137 145 107 51 14 7 10 12 9 9 10 11 12 9 10 7 6 7 7 8 6 4 3 3 2 2 1 3 5 5 7 7 7 12 9 10 8 10 12 13 11 10 7 11 8 8 5 6 9 13 12 15 13 14 13 11 12 10 10 9 6 7 6 10 10 10 8 7 5 7 6 9 8 7 6 5 6 7 11 10 13 12 10 8 10 9 10 8 6 7 4 7 4 6 5 7 6 11 10 13 9 6 7 6 8 8 10 9 9 8 11 7 0 
0 3 6 7 7 6 6 6 8 8 8 8 7 7 7 9 13 12 16 11 14 8 8 5 5 5 4 4 4 3 3 4 4 5 6 5 7 7 9 9 9 7 6 5 5 5 7 7 7 7 7 11 11 9 7 6 9 10 12 10 8 7 8 9 8 6 6 6 8 9 11 13 11 10 8 11 11 10 8 7 10 10 11 8 9 8 6 5 4 4 6 5 8 6 12 8 16 8 11 5 7 6 7 5 6 7 8 8 8 7 7 5 6 6 7 7 6 8 8 10 10 56 127 156 123 53 10 12 15 15 15 14 18 19 17 16 20 27 27 27 27 29 30 31 23 23 16 20 14 14 9 13 13 15 18 21 21 17 11 15 16 18 15 11 11 13 14 15 16 20 20 27 23 25 24 18 16 13 13 13 10 7 5 5 6 7 9 10 12 17 15 14 12 9 13 12 12 9 6 3 4 5 5 6 7 9 10 12 11 10 8 6 6 7 11 14 14 12 9 6 4 4 4 6 6 8 7 8 12 13 14 17 21 21 21 18 18 18 15 13 11 12 17 21 28 33 37 41 44 44 41 35 27 21 16 20 20 25 20 23 21 22 23 22 22 18 13 10 12 16 17 17 13 14 15 17 17 15 12 12 18 27 29 25 17 14 17 17 17 12 11 11 11 13 15 20 21 22 30 39 47 47 42 37 31 26 20 16 12 11 12 14 16 17 23 30 38 45 49 53 56 59 61 60 57 54 51 48 46 41 36 33 30 30 30 28 26 25 25 24 23 21 20 18 17 16 20 21 26 30 32 27 30 35 35 42 52 45 43 28 44 37 51 40 37 31 28 24 32 26 27 25 26 23 22 20 18 15 12 11 9 8 6 5 4 7 6 10 8 10 7 12 12 19 13 21 24 67 108 148 133 85 35 11 9 10 11 11 16 17 18 17 13 9 7 8 8 6 7 5 4 2 2 2 2 2 3 5 6 6 7 6 10 8 11 8 11 11 13 10 9 6 10 7 7 4 4 6 12 11 16 13 18 17 13 15 12 12 11 7 7 5 6 7 7 6 6 5 8 7 10 8 7 5 4 5 7 10 13 14 10 7 6 6 7 8 7 5 7 4 6 4 5 5 5 5 9 10 12 10 8 7 7 9 8 10 8 8 5 7 3 0 
0 3 5 7 7 6 7 7 7 7 6 5 5 4 4 6 9 10 12 8 8 7 8 7 5 4 4 4 4 3 3 5 5 6 5 4 5 6 8 10 8 8 5 6 4 5 5 5 6 5 5 6 6 6 6 6 8 11 11 10 8 8 8 9 8 8 8 8 11 12 15 14 12 11 10 11 11 9 8 7 7 9 9 9 9 8 7 4 4 5 6 5 7 5 9 7 12 7 12 7 11 7 7 4 6 6 9 7 6 6 6 6 8 7 9 7 8 8 8 8 10 62 131 156 119 46 7 11 15 15 14 14 18 18 15 12 18 27 32 31 25 22 22 29 23 24 15 19 16 16 16 20 24 24 23 22 21 19 13 18 18 18 14 13 12 17 12 16 18 17 21 23 20 25 20 21 17 12 12 12 9 7 6 5 5 6 7 7 9 13 13 12 10 9 12 10 9 8 6 4 4 5 5 4 5 9 9 11 9 10 10 8 7 7 9 12 15 15 11 7 5 4 6 8 8 11 12 14 19 21 22 23 25 21 18 14 14 14 11 9 10 15 21 28 35 39 42 42 39 36 33 26 18 15 16 21 21 25 21 22 21 21 21 18 16 17 17 14 16 15 16 14 12 11 12 12 12 13 12 13 17 25 26 24 15 13 13 13 11 9 11 13 13 14 16 19 24 28 32 36 43 46 48 48 47 44 38 31 25 19 15 11 11 11 14 17 20 25 28 32 33 36 37 36 34 31 27 23 19 16 13 12 11 9 8 8 9 12 14 13 10 9 13 16 19 17 21 29 35 33 32 36 34 34 38 38 39 38 34 25 36 38 45 40 35 32 31 23 23 27 24 29 25 23 20 18 19 18 14 13 12 11 8 6 4 7 5 9 8 10 7 12 10 18 11 20 31 82 127 149 115 62 20 10 10 13 19 25 32 35 35 30 21 13 9 8 9 8 8 4 4 3 3 3 3 3 4 6 6 6 6 7 9 10 9 6 8 9 11 8 7 6 8 7 7 4 5 7 14 14 21 15 18 16 13 14 10 10 9 8 7 7 7 7 8 6 6 4 7 7 10 10 10 7 5 4 5 9 9 9 10 9 7 5 6 5 5 4 6 5 5 5 5 6 5 6 7 9 9 9 8 8 7 8 7 9 6 8 4 7 4 0 
0 4 5 8 6 8 6 8 7 7 7 6 5 4 5 6 6 6 7 7 8 8 6 7 5 5 3 4 5 6 6 6 8 8 6 4 5 7 8 9 8 9 5 6 4 4 5 5 5 5 6 8 8 7 5 5 6 10 9 10 8 8 9 9 8 8 8 8 8 7 9 10 12 9 12 9 12 10 8 7 5 7 6 8 8 7 8 7 7 7 7 6 6 6 7 8 10 10 11 7 10 9 10 7 7 6 7 5 6 4 5 4 7 8 14 11 10 9 11 12 14 68 135 157 116 41 6 12 14 13 10 11 16 17 14 11 16 25 33 33 27 20 16 23 22 24 15 17 17 20 21 22 23 19 19 18 21 25 25 25 20 16 13 16 15 18 13 19 16 17 19 17 18 19 19 20 17 16 13 11 10 8 7 6 6 6 8 8 10 11 11 12 12 10 12 11 9 7 6 6 5 6 6 6 6 7 8 9 9 7 8 9 10 8 9 10 11 11 11 9 6 5 6 11 14 16 17 19 23 24 25 25 23 18 13 10 10 9 9 9 14 21 28 34 36 36 38 37 36 31 23 18 17 19 23 26 27 27 22 22 23 22 24 23 19 21 19 17 16 13 17 15 15 12 14 14 16 19 16 15 13 20 25 27 20 18 12 14 13 10 9 9 11 12 14 17 25 34 42 41 41 39 45 49 53 54 53 48 40 32 23 18 14 12 10 11 12 16 17 18 17 17 18 18 17 15 13 10 8 8 9 9 9 8 8 9 10 14 16 16 16 13 14 12 13 16 21 23 29 38 35 33 35 40 36 37 34 30 25 20 25 38 40 41 32 31 31 26 23 23 22 22 25 25 23 18 17 18 17 16 16 13 9 6 4 6 5 9 8 11 8 13 11 17 10 13 36 92 141 145 97 43 13 14 21 35 52 66 78 81 79 70 53 34 18 11 9 6 6 4 5 5 5 4 4 4 5 5 6 6 8 9 9 9 8 6 6 8 9 8 7 6 6 7 7 6 7 6 9 9 13 12 14 12 11 12 10 10 7 7 6 8 5 7 8 8 6 6 6 9 10 11 10 8 8 7 7 8 7 9 6 6 5 6 5 4 5 5 6 6 5 6 5 8 7 8 6 8 7 9 8 8 7 7 7 7 6 6 6 8 5 0 
0 4 5 8 6 9 6 9 9 10 9 8 7 5 5 4 4 3 3 4 4 7 8 10 8 7 5 5 6 7 7 10 10 9 5 4 5 7 9 9 8 8 6 7 5 5 5 6 6 6 6 6 6 5 5 5 6 8 9 10 8 9 7 8 7 8 9 10 11 9 10 9 11 8 13 7 10 8 7 6 4 6 7 6 7 6 7 6 6 8 6 7 5 7 7 7 7 8 8 9 8 9 10 7 7 6 6 4 5 4 6 4 9 9 13 9 9 9 8 9 15 71 137 156 113 40 7 11 12 10 7 9 14 15 14 10 12 21 31 35 30 21 17 23 27 28 19 18 16 24 26 31 33 30 26 22 26 28 26 23 18 16 17 16 18 15 16 16 15 18 15 15 17 15 17 15 13 11 10 11 9 10 9 8 8 7 9 8 8 9 9 10 13 12 12 8 6 8 7 8 8 8 8 7 7 7 8 6 7 8 12 13 12 9 8 7 9 10 10 10 10 12 14 19 20 21 21 22 26 27 26 23 19 13 9 8 10 9 8 12 23 29 32 31 29 28 30 28 28 24 23 23 23 25 29 31 30 29 25 20 20 17 20 22 17 21 19 19 18 16 18 14 14 10 14 11 15 15 17 18 20 24 28 32 26 21 14 13 12 10 10 8 12 11 12 13 20 32 40 38 33 30 36 47 55 60 62 60 54 45 35 26 18 15 13 11 10 12 11 13 12 12 11 11 11 10 9 6 5 5 6 7 7 7 7 9 10 13 14 13 12 8 11 13 15 13 14 21 27 35 38 41 34 37 43 36 33 24 19 15 16 34 38 40 32 27 28 23 23 22 22 21 23 27 29 30 23 19 19 19 16 13 11 9 6 6 5 8 8 10 10 14 13 15 10 13 47 105 148 136 80 31 19 39 63 88 108 122 130 128 123 116 101 76 48 25 12 7 7 5 5 5 5 5 7 4 7 5 6 7 9 12 13 11 7 5 6 6 7 5 5 4 5 7 7 8 9 8 10 11 13 11 9 8 10 10 11 10 10 9 7 7 6 9 8 9 6 6 5 9 10 11 12 9 9 7 7 7 4 5 6 9 7 6 5 4 6 4 6 6 6 6 5 6 6 7 5 6 4 7 7 6 6 4 5 5 6 6 7 10 7 0 
0 4 5 9 6 11 8 11 9 9 8 7 8 7 8 6 6 4 5 5 5 6 7 7 7 5 5 6 8 9 8 9 9 10 6 5 5 8 9 8 7 6 7 8 7 8 5 5 5 6 7 6 6 5 5 6 5 5 5 6 6 8 7 8 7 9 8 8 7 7 6 6 10 9 11 7 7 7 6 5 4 5 5 4 5 5 8 9 9 7 6 6 6 8 9 10 11 12 8 7 5 8 10 9 8 7 7 5 5 4 5 4 8 9 13 10 8 9 9 13 19 73 137 152 109 38 9 12 11 9 7 9 13 15 15 13 10 14 23 31 32 24 20 24 31 33 26 23 17 30 29 35 33 29 27 25 25 33 39 37 24 19 18 18 20 13 18 15 18 15 15 15 13 13 14 12 11 11 11 10 9 11 9 8 7 6 9 9 8 7 6 10 16 16 16 13 11 10 8 10 10 12 12 9 10 8 9 7 7 6 8 11 11 10 8 6 8 9 14 19 19 20 20 24 26 26 23 23 24 25 24 20 16 13 11 11 11 9 12 18 28 33 33 28 24 23 22 24 29 28 26 24 24 27 30 30 28 24 21 16 15 14 20 25 23 24 18 20 20 17 16 13 15 14 17 14 16 16 21 20 20 21 24 30 28 24 18 18 22 20 15 10 12 13 13 14 16 26 38 47 50 46 40 40 46 55 61 62 60 55 49 41 33 24 19 15 11 11 9 8 7 6 7 8 10 10 10 8 6 5 5 5 6 6 7 9 10 13 14 13 14 8 8 8 12 15 18 21 27 32 30 31 36 35 44 42 34 28 18 16 14 26 37 41 39 25 26 24 20 23 20 20 15 23 27 30 29 23 19 18 17 14 11 10 8 7 6 9 9 12 16 18 18 17 10 14 56 116 150 124 69 39 56 90 121 143 154 154 147 140 140 142 138 121 90 56 28 12 7 8 9 8 8 5 8 5 10 6 9 13 15 17 14 12 9 7 8 7 9 6 6 5 5 6 8 11 10 9 7 8 9 9 9 7 9 10 11 10 10 9 9 7 5 6 7 8 6 6 7 8 9 8 8 7 9 7 8 7 5 5 5 5 5 5 5 4 7 5 7 6 6 6 6 6 7 9 7 8 6 8 8 7 7 4 6 7 7 7 8 10 6 0 
0 3 4 8 6 11 8 12 10 10 9 9 9 6 6 5 5 4 5 5 5 6 6 7 7 6 7 7 7 8 9 9 8 6 4 5 5 9 8 8 6 6 8 9 9 10 7 7 5 5 6 5 4 4 5 5 4 4 5 7 8 7 7 7 6 6 5 10 8 11 8 10 10 9 10 8 8 7 6 7 5 6 5 4 3 3 4 5 6 6 4 6 7 10 11 10 8 8 7 6 4 5 8 7 8 7 7 5 5 5 6 6 8 9 10 9 6 8 9 13 20 74 136 148 107 39 12 14 12 9 7 9 8 12 13 15 13 14 17 24 29 28 25 25 30 37 32 26 19 31 33 42 38 35 33 24 28 38 35 32 24 26 21 20 14 16 17 16 18 13 14 12 12 11 9 9 9 8 7 8 8 8 8 7 7 7 8 8 8 6 5 9 16 18 19 11 10 9 8 10 11 11 12 9 10 8 8 7 7 8 11 13 11 11 9 8 11 16 24 28 27 25 24 26 28 27 24 22 21 21 19 15 14 12 13 12 11 11 14 21 29 29 24 18 17 21 25 29 31 30 26 23 23 24 25 23 23 20 19 14 14 14 20 28 29 28 24 24 24 21 19 15 18 16 17 17 17 16 18 19 21 22 26 31 28 25 21 21 23 21 16 10 10 13 14 16 13 18 28 43 57 65 64 55 46 45 52 56 58 57 55 51 44 37 29 21 13 8 5 5 6 5 6 6 9 10 11 10 8 7 6 7 7 7 7 9 11 13 15 12 11 7 8 10 12 16 20 22 23 25 29 29 34 37 38 43 35 30 23 17 13 17 34 40 39 31 24 27 22 23 20 19 17 17 26 31 31 29 25 17 10 8 8 10 8 7 6 8 10 16 18 20 17 17 11 20 68 125 149 120 84 85 117 146 162 162 150 133 119 111 115 127 141 147 132 100 59 27 12 8 9 9 10 6 10 6 9 7 9 12 12 17 12 13 7 8 7 8 7 5 4 4 6 9 10 10 8 8 9 10 12 10 9 7 9 10 11 12 13 10 9 5 5 6 8 9 7 6 8 8 8 6 6 5 6 6 7 6 5 6 8 8 8 5 5 4 6 5 7 5 7 6 6 4 6 7 8 8 8 7 10 8 9 5 6 8 10 10 9 9 6 0 
0 2 5 7 6 10 8 11 9 9 8 7 7 7 8 6 7 6 6 5 4 4 4 4 4 3 5 6 8 8 8 6 6 5 5 6 6 9 8 6 5 5 9 11 12 10 7 6 5 4 4 3 2 4 5 7 6 6 6 7 7 7 7 6 6 5 3 8 7 11 6 8 7 9 9 8 8 7 5 7 6 5 3 3 3 4 4 7 5 6 3 5 6 9 9 9 8 7 6 5 5 5 7 7 9 8 10 9 8 7 7 7 9 9 8 8 6 9 11 17 28 82 139 146 105 38 14 14 11 8 7 8 7 10 12 17 17 15 16 19 22 25 25 23 27 35 36 29 25 32 38 48 45 40 38 27 27 34 35 42 33 32 22 20 10 17 14 19 18 16 17 12 11 9 11 11 9 11 9 10 9 8 8 6 6 6 7 7 7 6 5 8 14 17 18 13 12 10 8 8 10 10 12 9 9 7 6 6 6 6 8 11 11 13 11 13 17 24 31 32 29 24 23 24 26 25 23 21 20 18 15 12 11 11 11 9 9 12 18 24 26 22 19 17 21 24 26 27 27 26 24 22 22 22 21 17 16 14 14 10 10 10 15 26 33 37 35 30 28 24 21 18 17 17 16 15 15 15 15 14 13 12 15 20 23 25 23 24 25 24 20 15 13 16 16 17 12 12 19 33 52 68 74 66 52 41 41 47 51 53 54 52 47 43 38 31 22 16 10 7 6 6 7 6 7 8 10 10 9 8 6 8 8 8 7 10 13 16 16 12 10 6 6 8 13 18 22 23 21 17 20 25 30 40 38 38 38 30 30 22 18 15 23 41 41 45 29 30 27 22 23 18 19 14 15 22 26 26 24 18 13 9 7 8 6 7 6 8 10 21 25 30 22 19 13 21 71 122 151 143 127 141 162 164 151 129 106 85 70 62 65 79 104 132 147 137 99 54 22 8 12 9 13 7 9 6 8 10 11 18 16 17 10 11 6 9 6 11 7 8 4 6 8 10 11 10 7 7 9 9 14 9 10 7 7 9 10 10 12 11 11 6 8 8 8 9 8 8 9 7 6 4 4 4 5 7 9 9 10 8 9 8 7 5 5 5 9 9 10 6 8 7 8 7 7 8 12 12 13 9 12 9 12 10 12 11 12 10 10 9 7 0 
0 3 7 7 7 8 9 10 10 11 9 10 7 7 6 4 5 4 5 5 4 4 4 6 5 4 4 4 5 5 6 5 6 5 5 7 9 9 8 6 4 6 7 8 10 10 11 7 6 6 4 3 3 4 6 8 8 8 9 9 7 7 8 7 7 4 4 9 8 11 7 8 7 8 9 12 9 9 6 7 6 6 5 4 4 3 2 5 4 6 3 5 5 8 6 6 4 4 6 6 5 5 6 6 7 7 6 6 6 7 9 9 10 9 9 6 6 9 12 18 33 93 147 148 101 34 15 16 14 8 6 5 5 8 11 15 17 17 17 19 22 25 25 23 27 36 40 33 29 35 39 46 47 45 43 29 28 34 32 40 30 30 21 14 9 14 13 20 17 18 17 13 12 8 10 10 11 12 10 11 9 8 8 6 7 6 6 7 7 6 7 9 14 17 17 13 10 8 7 7 9 9 13 11 11 8 7 8 10 12 13 14 13 15 13 17 24 30 34 31 25 22 21 22 24 25 23 21 19 17 13 9 8 8 10 9 9 15 20 24 21 17 18 18 22 23 24 24 23 22 20 20 21 21 20 17 17 17 17 14 12 11 15 23 29 34 32 30 29 28 25 23 21 18 15 13 14 14 13 10 7 7 13 19 22 22 20 18 17 17 16 15 15 18 20 19 15 11 12 19 34 58 76 79 63 43 34 35 45 48 49 48 45 43 41 37 30 24 18 13 9 6 6 6 5 5 8 9 10 9 7 8 8 11 11 12 13 15 15 13 10 9 9 12 16 21 22 20 17 14 15 21 26 35 38 39 31 30 25 26 16 16 14 37 43 45 39 31 34 24 24 19 19 16 11 13 17 22 24 20 14 10 7 7 4 6 5 9 9 19 24 29 22 21 15 21 68 114 154 162 156 165 159 134 104 78 58 43 33 32 34 41 60 92 131 151 133 88 42 12 9 8 12 7 8 6 6 7 8 11 11 13 10 10 7 7 6 10 8 9 5 8 10 14 11 9 4 5 9 8 14 8 9 6 7 7 10 10 13 10 9 6 7 9 9 12 9 9 9 7 6 4 5 7 6 6 8 9 10 11 14 12 10 7 5 6 7 9 9 8 7 7 7 7 7 10 9 10 12 9 12 8 13 8 11 10 15 11 13 10 6 0 
0 4 8 6 8 5 9 8 11 13 10 11 6 7 7 5 6 6 5 4 3 3 4 4 4 3 2 4 5 6 8 7 7 6 8 9 9 9 7 6 4 6 8 10 11 9 9 8 5 4 3 3 3 4 6 8 10 11 11 9 8 7 8 7 7 5 5 9 8 9 6 6 5 7 7 11 8 8 5 7 7 5 4 4 4 4 3 5 5 6 5 5 4 6 3 4 3 4 5 5 5 4 5 6 6 7 7 10 9 11 9 10 11 8 7 5 5 7 10 16 38 107 158 151 94 26 11 10 10 6 5 4 6 7 9 11 14 16 18 20 25 30 32 31 33 40 44 41 39 41 39 43 43 43 42 27 28 27 26 29 29 26 20 11 10 10 15 19 18 21 20 17 13 9 10 11 12 12 12 12 8 9 11 8 7 4 5 6 7 7 9 10 12 14 15 13 11 10 10 11 13 14 17 16 15 12 11 11 12 12 14 16 18 21 21 24 27 30 29 25 22 22 23 24 24 21 19 17 17 16 14 9 7 6 8 8 10 19 22 23 18 16 19 20 22 22 22 20 18 16 15 17 18 20 18 18 19 21 21 17 14 13 15 20 24 28 28 27 26 27 27 27 24 20 18 16 15 16 17 15 12 9 13 16 19 19 17 13 10 11 14 16 17 19 21 20 18 16 16 13 16 33 56 77 78 58 42 29 37 39 41 39 39 42 42 40 34 28 24 19 12 8 7 6 5 4 6 7 8 7 5 5 7 10 12 14 15 14 13 11 10 10 10 12 14 17 17 14 11 10 11 12 19 30 36 41 29 31 22 30 15 17 14 23 43 42 52 37 38 28 21 19 19 17 10 6 8 13 17 16 15 11 9 8 4 7 5 8 10 19 23 28 25 22 16 19 57 96 139 154 155 144 115 82 56 38 29 24 22 23 22 21 30 53 96 140 151 119 66 23 9 8 11 8 8 6 7 7 8 10 12 11 11 7 6 5 7 9 10 8 6 8 9 14 10 9 5 5 8 7 11 7 8 5 8 8 10 10 10 9 8 8 9 11 10 10 8 8 7 6 6 6 7 7 8 10 11 13 13 12 12 12 12 9 7 9 10 14 11 7 6 6 6 7 6 8 10 15 14 10 11 6 11 8 13 9 12 9 11 9 8 0 
0 6 12 7 10 6 11 8 11 12 10 10 6 6 6 4 5 4 4 3 3 3 4 5 5 4 3 3 3 4 5 5 6 7 7 8 9 9 7 6 5 6 6 8 9 12 9 10 8 8 5 4 5 8 10 11 11 11 11 9 7 8 9 9 8 8 9 9 8 9 7 9 7 8 7 10 7 8 4 5 5 5 5 5 5 6 5 7 7 6 6 5 5 5 3 4 4 4 4 4 4 4 4 6 6 7 5 6 6 8 9 9 11 9 8 6 5 8 8 15 44 120 165 150 84 19 8 9 9 7 5 4 5 6 7 8 11 15 21 25 30 33 36 39 43 51 54 51 54 50 43 42 35 42 42 31 26 25 28 24 26 18 15 9 9 12 17 17 19 22 23 20 15 8 8 9 9 11 10 10 7 10 11 10 8 5 5 6 7 7 10 11 12 12 13 13 12 11 11 13 15 17 18 18 17 15 15 15 15 16 16 19 24 28 29 29 28 28 25 23 22 22 24 24 23 20 18 16 15 14 13 10 9 6 7 8 13 23 23 22 15 15 19 20 20 19 19 19 18 17 16 16 16 17 16 18 19 21 21 17 15 14 17 19 18 18 19 20 20 21 23 24 23 22 20 19 18 19 22 23 22 17 17 17 18 16 14 12 10 10 13 16 18 19 20 21 22 22 21 16 11 14 33 62 81 71 51 30 31 34 36 33 34 40 42 41 35 28 26 22 17 10 8 8 6 5 5 6 7 6 6 6 9 11 13 12 11 10 8 8 8 11 12 15 18 19 18 15 14 14 15 13 14 24 35 37 34 23 18 21 18 15 17 17 41 42 48 44 38 36 22 18 17 17 11 8 6 7 10 10 12 11 8 9 5 9 7 11 11 15 20 27 24 20 18 19 41 69 99 110 106 84 59 39 27 22 21 19 19 18 17 13 12 25 60 114 151 142 91 38 11 7 8 8 8 6 6 5 5 6 8 9 11 11 9 7 7 8 9 7 6 8 8 13 9 10 6 6 6 5 7 6 6 7 10 11 11 11 9 9 8 7 7 9 11 12 10 8 6 6 5 6 8 8 9 8 11 12 11 12 13 12 10 8 9 11 10 9 8 6 5 5 5 6 6 9 9 9 11 9 9 5 8 6 8 7 10 8 10 10 8 0 
0 5 9 6 7 4 7 7 9 9 7 7 4 5 6 5 5 5 5 5 4 4 3 4 3 5 5 6 5 8 8 10 9 8 8 10 9 8 7 5 4 6 8 10 9 10 8 9 7 6 5 6 7 8 9 9 9 9 9 9 8 8 9 9 8 9 11 8 6 8 8 11 9 10 8 10 6 7 5 6 6 4 4 4 5 6 6 8 8 8 8 7 7 6 6 7 5 5 6 4 4 4 5 7 6 7 7 9 10 8 9 9 10 10 8 8 5 9 7 17 51 131 167 143 71 13 7 9 9 7 6 6 8 8 7 8 11 16 22 29 34 40 46 49 52 60 62 62 71 63 51 37 29 39 34 31 28 27 25 24 22 14 15 11 9 15 15 18 20 20 21 18 12 8 8 7 8 10 8 7 4 11 11 12 8 6 6 7 7 7 9 11 11 11 10 11 11 12 13 16 18 18 17 17 16 15 16 17 18 18 19 22 27 30 31 30 29 28 25 23 22 22 22 22 22 22 21 19 16 14 12 10 9 7 7 10 18 25 24 22 15 16 18 18 17 17 18 21 22 22 19 16 14 14 15 18 17 19 18 16 14 15 17 20 17 19 14 17 15 18 17 19 18 20 19 20 19 20 26 30 30 25 22 21 19 16 14 13 13 14 15 17 18 17 18 20 24 27 25 21 15 11 19 42 71 79 63 43 30 33 35 32 31 36 41 42 37 28 25 25 24 17 11 9 7 7 6 5 4 4 5 5 8 9 12 12 11 8 6 6 5 10 10 11 10 10 12 11 11 11 11 13 11 15 30 31 33 22 19 16 19 15 15 15 26 44 43 55 40 41 26 18 14 16 12 10 6 6 7 7 9 10 7 10 5 9 7 12 13 15 14 18 20 18 17 20 30 44 55 58 52 38 28 20 17 15 12 14 16 16 15 13 12 16 38 87 139 152 111 53 15 8 9 9 8 9 7 8 7 7 8 10 11 10 10 9 9 10 8 7 7 9 8 12 7 9 6 6 5 5 5 6 6 7 9 12 12 12 10 11 10 11 11 13 10 11 9 9 7 7 6 7 7 6 7 8 12 13 11 10 9 9 9 7 6 8 10 10 9 7 8 7 9 10 8 8 9 10 11 9 9 6 7 6 7 7 9 7 9 10 7 0 
0 5 8 5 5 6 7 8 8 8 7 6 4 5 4 4 4 4 4 6 5 5 3 5 4 6 5 6 5 7 7 8 8 8 8 8 9 8 7 7 6 5 6 9 10 11 9 11 11 10 7 5 6 9 11 11 10 7 7 7 8 9 9 9 8 9 10 9 7 9 7 10 9 9 8 9 5 7 4 4 6 5 7 7 9 11 10 12 8 8 8 8 9 7 7 8 6 6 5 5 5 4 5 6 6 5 6 5 5 6 6 8 9 12 8 9 6 9 8 19 62 141 166 133 57 10 7 9 8 7 7 6 7 8 9 12 17 22 26 30 35 41 48 52 56 64 60 72 84 76 61 33 25 32 31 31 24 31 27 23 23 17 18 13 11 17 14 20 19 23 21 15 9 7 7 8 7 7 7 8 5 11 11 13 9 9 8 7 7 8 12 15 15 13 11 10 8 11 12 15 16 15 14 12 10 11 12 14 16 18 20 23 25 26 27 26 26 26 24 21 19 17 17 19 23 26 25 21 16 13 11 12 11 9 8 12 17 24 24 19 16 17 18 17 16 16 17 21 23 25 23 21 20 17 16 15 15 18 17 17 15 16 16 19 15 17 13 16 9 12 11 15 11 11 12 14 15 17 21 27 30 29 26 25 24 21 17 17 18 20 19 18 19 20 20 20 24 29 30 26 19 14 14 27 55 75 71 51 32 29 32 29 28 29 35 39 39 34 30 30 29 25 17 12 10 10 9 7 5 6 7 8 11 9 10 9 9 9 7 8 7 10 10 12 12 9 8 9 12 13 15 16 14 14 18 25 30 24 19 16 17 19 14 16 21 40 40 48 44 41 34 20 11 13 12 11 8 5 6 6 8 9 8 9 6 9 8 12 11 14 19 19 18 16 15 21 23 25 22 20 18 15 12 10 11 13 13 16 17 14 11 11 13 17 27 67 123 152 125 67 20 7 8 8 7 7 7 7 7 7 8 8 12 12 14 12 13 9 10 7 9 9 8 12 7 9 6 6 7 5 7 8 8 8 9 12 12 14 10 13 12 14 9 13 10 16 15 12 8 6 6 7 5 5 5 7 8 8 8 8 7 7 6 6 9 11 10 9 10 8 11 9 9 11 9 12 9 7 8 6 6 6 8 8 10 8 9 8 11 11 8 0 
0 3 6 5 4 4 5 5 7 7 8 7 6 7 6 7 5 5 4 5 5 8 4 4 3 6 6 8 7 9 11 10 9 8 9 9 9 6 7 6 5 5 6 8 9 7 6 7 7 8 8 8 7 8 8 8 9 7 7 8 8 11 10 11 9 9 9 8 6 8 7 8 7 7 7 7 5 6 7 7 9 6 9 8 10 11 8 10 8 9 9 9 8 8 8 9 8 8 6 8 5 5 5 4 5 3 4 5 6 5 6 9 9 12 8 8 6 9 10 24 75 149 164 122 44 7 8 11 10 8 7 6 9 10 12 16 19 23 26 30 37 44 50 52 56 58 60 89 96 87 62 27 27 38 34 36 30 27 32 23 28 25 23 16 14 17 15 21 20 21 15 9 6 7 8 8 7 6 6 5 5 8 9 12 10 11 10 9 10 10 13 15 18 18 17 15 12 16 16 18 17 15 13 12 10 11 12 14 16 17 18 19 19 17 18 20 21 22 20 19 17 16 17 21 25 26 28 25 21 16 12 12 11 9 9 14 19 24 22 19 18 17 16 14 13 13 17 22 24 26 26 24 21 17 16 17 17 18 19 20 19 19 18 20 16 17 15 16 13 13 9 8 6 6 8 10 12 14 15 21 23 25 25 26 25 24 21 20 21 23 23 24 24 25 23 21 21 24 26 27 24 20 17 20 40 63 75 60 44 31 32 32 29 27 32 39 43 42 37 37 37 36 29 23 17 16 14 11 7 5 7 7 10 8 11 10 11 10 8 9 10 12 15 11 9 7 7 7 7 9 14 16 15 14 12 21 27 25 23 17 17 18 18 14 17 29 42 42 54 42 38 25 10 8 9 8 7 4 5 6 9 8 7 6 6 7 7 9 10 10 15 16 18 15 14 21 20 18 14 11 8 6 7 9 12 14 15 16 16 15 15 18 23 27 28 55 109 149 132 76 23 7 8 6 5 6 6 7 8 7 6 8 9 9 12 10 15 11 12 8 9 10 8 8 5 7 6 6 7 6 10 9 9 8 6 10 12 12 11 14 12 16 10 12 9 10 10 12 11 9 5 5 4 4 4 5 8 7 6 6 5 7 6 7 6 8 8 9 12 10 12 10 11 13 10 10 8 7 8 6 8 7 9 8 9 8 11 8 8 9 6 0 
0 3 5 4 4 4 7 7 10 9 10 10 9 8 6 4 4 4 5 7 6 6 4 4 4 5 7 8 8 8 9 9 8 9 9 8 7 6 8 8 7 6 5 6 7 7 7 7 8 8 6 6 4 5 6 9 9 8 8 9 8 12 9 12 9 10 9 10 9 10 7 7 5 6 6 5 5 7 7 7 9 8 12 11 14 16 10 10 8 9 9 9 9 8 7 7 6 10 6 10 6 7 6 7 7 6 5 4 4 4 6 8 7 8 7 7 5 9 7 24 85 154 161 111 34 5 7 7 7 6 8 8 11 12 14 16 19 23 26 32 39 45 48 48 47 50 69 96 101 86 51 23 31 35 36 32 36 26 31 19 29 32 30 25 16 16 18 20 20 18 12 8 7 9 9 8 8 6 6 5 5 9 10 11 9 10 10 10 11 10 12 13 15 17 19 20 20 22 21 20 18 15 15 14 13 15 15 16 15 14 14 14 15 15 16 16 16 17 16 17 18 19 21 24 25 23 25 21 20 17 12 11 11 9 8 12 18 23 22 21 21 20 19 18 17 17 18 20 22 27 32 39 43 43 40 36 31 29 28 28 28 28 26 24 20 19 16 15 13 12 10 7 5 5 6 8 9 10 10 13 15 19 23 26 30 33 32 31 28 29 28 29 29 29 27 24 19 19 21 25 26 25 20 16 26 48 73 68 54 35 32 35 32 29 31 37 43 45 42 42 43 47 44 38 29 24 21 17 12 7 8 8 12 9 12 12 12 11 10 10 13 12 14 13 11 8 7 9 12 14 16 16 15 12 11 12 23 26 25 20 21 21 20 15 15 22 40 40 45 46 38 31 15 7 7 6 6 3 5 7 8 7 6 4 5 5 7 7 8 10 15 17 18 16 16 20 20 18 12 10 10 10 11 13 16 18 17 17 20 21 26 32 37 40 36 50 101 143 135 83 25 7 7 6 6 5 5 6 7 5 6 6 7 8 11 11 13 9 9 7 8 9 9 10 8 8 6 9 9 7 10 11 10 9 6 8 9 9 10 10 10 11 9 8 8 12 14 14 10 8 6 6 6 5 5 4 5 4 5 4 5 7 7 10 9 14 10 12 11 11 11 9 9 8 9 8 8 6 6 4 5 5 7 8 9 9 11 12 12 12 6 0 
0 4 7 6 5 5 6 7 8 8 10 10 10 9 8 7 6 4 6 5 7 7 7 5 6 6 10 8 8 8 7 7 7 7 8 9 7 5 7 6 7 5 6 7 7 6 5 5 4 5 5 7 6 7 6 10 10 10 9 9 8 13 8 11 9 11 10 10 9 9 7 6 4 4 4 3 3 6 7 10 9 8 10 10 10 10 6 7 7 7 9 9 8 7 6 7 6 8 6 10 6 7 6 7 8 6 6 4 5 5 8 9 11 9 7 7 5 10 9 30 97 158 159 102 27 6 8 7 8 8 10 11 12 12 14 16 19 23 27 33 39 41 41 40 39 58 85 107 101 70 38 27 38 41 46 36 37 26 27 22 35 37 31 22 13 16 20 19 18 13 8 8 7 10 10 10 9 7 7 6 7 8 9 9 8 8 8 10 11 11 11 8 11 13 16 19 22 23 22 19 15 13 13 14 15 18 18 18 16 13 12 12 15 18 20 19 16 15 15 18 21 22 24 24 22 16 15 16 18 16 11 10 8 8 8 12 17 21 23 22 22 21 22 22 22 21 22 30 45 63 82 97 105 108 106 103 97 88 73 57 45 38 34 30 27 25 19 18 13 12 9 9 8 8 8 9 10 10 9 10 15 21 29 35 40 44 46 44 41 38 35 33 31 31 29 27 21 18 18 21 24 25 23 18 20 36 68 75 63 40 27 32 31 28 28 30 34 38 38 38 40 46 50 48 40 33 29 24 20 14 14 12 15 14 15 14 14 11 12 10 11 14 14 13 10 10 9 12 13 16 20 20 19 15 13 10 17 22 23 23 16 23 19 19 13 21 28 46 39 49 38 31 21 9 6 5 4 4 5 7 7 6 4 3 4 4 4 6 6 9 13 18 19 16 15 17 18 18 13 14 14 15 19 22 23 20 17 18 25 33 42 48 49 47 41 48 100 138 134 83 24 7 6 5 5 4 6 5 6 5 6 5 8 7 9 9 12 10 11 8 8 8 7 7 7 9 7 11 9 10 11 12 14 9 7 8 10 9 8 8 8 8 6 6 5 7 9 11 10 7 6 7 8 7 7 6 7 6 7 6 7 6 7 10 8 13 8 12 10 10 9 8 8 7 6 5 6 5 5 6 5 8 6 7 8 8 9 7 6 8 5 0 
0 3 5 5 6 6 7 8 7 7 8 8 9 9 6 4 5 4 5 5 7 7 8 7 8 7 10 7 7 5 6 5 6 7 9 8 7 8 8 8 7 5 6 6 7 8 7 7 6 6 5 5 5 6 7 10 9 8 7 9 7 11 7 11 8 10 8 9 9 9 7 5 5 5 5 4 4 7 6 8 7 7 7 7 8 8 5 5 6 8 10 8 8 7 6 7 6 8 6 8 7 9 11 12 15 9 8 5 6 6 9 9 9 7 6 6 6 10 11 33 107 159 154 92 19 5 6 5 6 8 12 14 14 14 16 18 21 25 29 34 37 36 35 32 42 75 99 105 77 43 29 30 41 44 43 41 33 29 32 29 38 36 30 20 12 15 18 18 14 8 6 8 11 12 10 10 9 8 8 7 9 10 12 9 8 6 6 10 10 10 7 5 5 6 10 15 19 20 18 14 11 10 9 11 15 18 19 19 17 15 15 15 17 20 21 20 18 19 21 24 25 26 26 22 18 14 14 16 18 16 12 8 8 9 11 13 18 22 24 25 24 24 25 26 27 34 48 68 90 108 122 129 134 138 140 139 134 127 119 107 87 66 49 41 34 30 24 21 15 17 13 14 15 16 17 17 17 16 17 18 23 28 35 40 43 45 48 49 48 46 44 39 35 34 34 34 29 22 19 19 22 22 22 19 18 31 65 79 68 44 23 30 28 26 25 26 28 30 31 31 34 39 45 47 43 35 32 28 25 18 15 12 13 12 13 13 14 14 14 15 14 13 10 12 10 12 11 13 14 14 14 16 17 15 12 10 13 19 20 19 16 22 17 18 12 23 23 42 36 41 38 28 23 10 7 7 4 4 5 7 7 6 5 4 4 6 4 5 5 8 12 18 20 17 15 15 16 17 12 14 16 21 26 27 25 20 17 21 34 47 57 57 52 46 39 49 102 137 131 78 22 6 5 4 5 5 7 5 7 5 6 5 6 5 10 7 11 7 9 7 7 8 10 11 9 9 7 13 9 11 12 13 14 11 10 8 9 8 7 7 4 5 3 4 5 7 11 11 9 6 4 7 9 9 8 5 6 4 7 7 9 9 10 11 8 12 8 11 7 8 8 7 6 7 6 5 5 5 5 6 5 7 5 5 7 7 11 11 11 10 5 0 
0 5 8 7 6 7 8 7 6 6 7 8 8 7 7 6 6 5 5 5 6 7 7 7 7 7 9 8 9 8 8 7 6 6 8 10 11 9 7 6 6 4 6 6 7 8 8 8 7 5 5 4 4 5 6 8 7 5 5 7 7 10 8 10 8 9 7 7 7 6 5 3 4 3 4 3 3 4 6 6 6 5 4 4 4 4 4 4 5 6 7 7 9 8 8 8 6 6 5 5 7 6 9 8 10 7 8 5 7 8 9 9 9 7 6 5 7 12 15 38 112 156 146 83 18 9 9 6 8 11 15 15 14 15 18 21 24 27 31 34 35 34 31 33 61 92 105 87 49 23 26 35 43 46 39 42 39 40 36 31 32 24 21 12 12 13 16 15 11 8 8 10 13 13 12 8 8 8 8 6 9 9 10 7 7 7 7 8 7 10 6 6 5 5 7 9 11 12 11 9 6 6 7 10 13 14 15 15 15 16 17 18 19 19 19 20 20 22 26 28 28 26 22 18 15 13 14 16 18 18 15 13 12 11 14 18 19 22 22 26 28 30 31 35 44 60 82 103 117 122 122 123 125 123 121 120 122 124 126 123 113 94 68 49 38 30 25 22 20 22 19 21 21 22 23 23 23 23 24 26 29 32 34 37 37 38 41 45 47 47 47 43 41 40 41 41 38 32 27 24 21 19 20 18 17 27 64 80 71 43 17 25 24 21 18 16 18 22 23 24 25 27 32 37 38 34 32 31 30 25 19 13 12 11 12 12 12 14 13 13 12 12 8 9 7 10 11 10 10 10 13 17 18 17 11 9 11 15 20 17 17 16 14 15 11 16 18 32 36 32 36 22 23 12 8 6 6 5 6 7 7 6 6 6 7 7 7 5 6 9 13 17 18 15 12 13 14 15 12 14 17 23 27 27 24 20 21 31 47 58 59 50 41 39 33 54 105 138 126 69 19 5 5 3 4 4 7 5 8 5 6 5 6 5 9 7 12 8 10 7 8 8 9 10 8 7 6 12 11 15 12 15 16 15 14 13 11 9 6 6 4 4 3 4 5 8 9 9 8 8 7 10 9 8 8 5 8 8 10 7 7 6 8 8 8 9 7 10 10 10 7 7 7 6 6 5 5 5 4 5 5 7 6 6 6 6 6 5 5 6 3 0 
0 3 6 7 8 9 9 9 8 8 7 7 7 7 6 4 4 4 5 6 6 7 6 7 7 7 9 9 9 9 8 6 6 5 7 8 8 10 11 8 7 4 5 8 9 10 8 7 7 6 5 4 3 5 5 6 6 4 4 5 7 9 9 9 7 6 6 5 7 7 7 5 5 4 6 5 6 5 6 5 6 5 4 3 4 5 5 5 4 5 6 7 6 9 7 10 6 8 5 4 7 6 11 10 10 7 6 4 6 7 7 6 6 4 4 6 10 14 17 41 111 149 136 73 17 7 7 7 12 14 18 17 16 18 19 21 24 27 30 32 34 34 30 47 77 100 95 56 23 13 28 39 45 45 36 46 40 42 36 30 28 20 17 11 13 13 14 11 10 9 10 12 14 13 12 7 6 6 7 6 7 8 8 9 7 7 7 7 6 6 5 6 4 4 6 6 7 8 7 6 5 6 9 10 11 11 10 11 12 14 16 16 16 16 16 18 20 23 28 30 29 24 18 15 13 15 18 20 20 20 18 17 15 16 17 23 23 26 22 25 28 30 32 38 51 73 94 107 107 98 87 77 69 64 62 65 72 85 100 112 115 107 87 64 44 32 28 24 25 27 26 25 24 25 25 24 24 25 27 28 28 27 24 23 22 24 27 29 34 35 40 40 41 40 41 41 42 39 34 30 25 20 18 16 17 25 65 81 77 45 18 24 23 21 16 13 14 17 19 19 19 20 24 28 30 30 30 29 29 26 22 17 15 12 11 12 12 12 12 12 12 10 7 6 8 10 11 9 9 8 9 14 14 13 11 8 11 9 13 14 18 16 15 12 12 19 22 26 33 25 35 22 22 12 8 7 8 5 5 5 5 5 6 7 7 8 7 6 7 8 13 17 16 16 10 12 11 14 13 14 17 20 21 19 17 20 29 44 57 59 50 35 28 31 28 60 107 137 117 57 14 4 5 3 4 5 5 5 6 4 4 3 3 6 9 9 9 7 8 6 9 7 9 7 7 5 6 10 11 12 11 14 16 17 15 14 9 8 7 6 4 3 3 5 6 8 9 12 11 9 10 9 11 6 7 5 7 7 8 7 8 7 8 8 8 7 8 9 10 10 9 7 6 7 8 7 5 4 5 5 5 7 6 7 5 5 6 6 7 6 3 0 
0 4 7 6 8 10 9 8 7 8 8 8 8 8 7 6 6 7 8 7 7 5 5 4 5 6 7 9 11 13 12 10 8 5 6 8 9 9 8 8 8 7 6 7 9 10 10 8 7 6 7 7 5 6 4 5 5 5 5 4 6 9 10 10 9 8 6 4 6 5 6 5 6 5 6 5 5 5 4 5 5 5 4 5 5 6 7 7 6 6 4 7 7 13 10 13 9 11 7 7 9 7 8 5 7 5 7 7 6 6 6 5 5 3 4 7 11 14 17 44 108 143 128 68 20 10 12 10 13 16 20 20 19 20 19 20 21 25 29 31 33 34 35 68 89 99 72 31 12 14 33 42 45 42 32 45 42 46 40 25 22 16 16 12 11 9 10 8 10 10 12 11 15 12 11 7 5 5 6 6 7 10 8 8 6 6 7 6 5 6 7 6 7 7 7 6 5 5 5 5 7 8 11 11 9 8 8 8 9 10 12 12 12 13 17 18 21 24 28 30 28 21 15 12 11 18 22 24 23 22 20 18 14 13 16 24 28 32 28 26 29 32 35 41 54 73 89 90 76 53 36 27 23 22 21 23 28 39 56 74 86 95 93 83 59 37 31 29 30 31 27 24 22 21 21 20 20 21 23 23 21 17 12 9 11 14 18 18 22 23 27 30 32 32 33 33 36 37 35 34 30 25 20 17 18 24 69 84 85 51 22 27 25 24 18 13 12 15 14 17 17 18 21 23 27 28 29 26 25 25 23 22 20 18 16 13 13 11 10 8 8 9 9 9 11 10 10 8 9 12 15 16 16 13 10 9 10 9 9 10 16 16 15 13 13 18 18 19 30 24 31 25 22 17 11 7 8 4 5 4 5 5 7 9 10 12 10 8 9 9 12 14 14 16 10 10 9 11 12 13 15 15 13 11 13 25 39 52 56 49 34 21 19 29 28 67 110 136 106 46 9 4 5 4 5 5 4 5 5 4 3 3 4 7 8 10 9 9 8 6 10 7 10 5 6 4 5 8 10 11 12 11 14 16 16 14 13 9 9 7 5 3 4 7 7 8 8 10 11 12 14 10 14 6 8 6 8 9 8 5 5 6 7 8 7 7 9 10 15 13 11 8 9 8 7 5 6 6 7 6 7 7 7 7 5 4 4 3 3 3 3 0 
0 4 8 7 7 9 10 10 8 7 7 6 6 7 6 6 5 5 7 8 8 5 4 3 4 6 7 10 10 11 9 7 6 5 4 5 6 9 13 12 9 7 7 10 12 10 9 6 5 5 6 7 6 6 4 5 6 6 6 5 7 8 10 11 8 8 7 7 7 6 8 6 7 6 6 7 6 7 4 5 5 6 4 4 4 5 7 7 7 6 6 7 6 8 8 11 10 12 10 8 8 7 7 5 7 6 9 7 6 5 4 4 5 4 6 9 13 13 13 42 104 139 125 66 21 10 11 11 16 21 22 23 21 19 18 18 21 26 29 31 33 31 43 79 95 90 49 17 10 17 38 42 43 33 24 34 38 35 34 17 27 21 20 13 9 8 7 6 8 10 13 10 12 12 11 7 6 5 8 8 11 12 9 8 6 6 6 6 6 7 8 7 8 7 7 6 6 6 6 7 9 12 13 11 8 8 8 9 8 9 9 10 11 14 19 21 24 27 30 29 23 15 12 10 14 22 27 28 25 22 19 16 12 10 12 20 32 38 36 29 27 29 30 35 45 55 58 50 40 34 32 33 34 36 37 39 41 43 46 48 55 71 80 84 70 44 30 23 24 24 22 18 17 16 17 15 14 16 18 17 14 9 7 8 21 34 48 52 52 50 44 38 31 24 24 25 30 34 35 36 35 31 26 20 20 25 76 90 95 58 28 31 28 27 20 13 10 12 11 13 16 15 17 16 20 25 28 26 25 24 22 22 21 19 19 16 17 16 15 12 10 11 12 14 16 14 12 10 11 12 13 12 12 12 9 10 9 8 8 9 18 18 17 18 18 23 24 20 26 26 28 31 22 20 14 9 9 6 5 4 3 4 5 6 6 7 7 9 11 11 11 13 12 15 10 8 7 8 11 13 14 13 11 12 20 35 46 49 44 32 22 14 19 32 33 77 115 134 96 36 7 4 6 4 5 5 5 4 5 3 4 4 6 9 11 11 7 8 7 9 10 7 7 3 4 4 5 7 9 9 8 10 12 11 15 9 13 8 13 9 9 6 7 6 6 6 7 9 11 10 13 9 13 9 10 9 9 7 6 5 6 7 8 10 9 7 8 10 14 13 11 9 8 7 8 6 8 7 10 7 10 7 8 6 6 4 5 4 5 3 2 0 
0 6 11 8 8 7 7 6 5 5 7 6 8 8 8 7 6 6 6 6 6 6 6 6 7 8 7 8 8 10 8 8 7 7 8 9 10 9 11 11 11 10 9 11 11 9 10 6 6 6 8 9 8 7 7 6 8 8 9 7 7 8 8 10 11 13 10 8 5 5 6 7 8 8 8 8 7 7 5 6 4 6 5 8 8 7 8 8 9 8 6 8 9 11 11 11 13 12 13 11 12 10 9 6 6 7 10 11 9 7 4 6 5 4 4 9 12 13 14 43 106 141 127 69 21 11 10 12 16 22 22 22 20 18 17 20 24 29 31 31 33 28 58 85 96 76 30 12 10 21 39 40 36 22 19 25 35 29 39 21 34 23 22 13 7 7 6 6 8 9 10 11 12 12 10 9 7 5 8 9 12 11 9 7 5 5 7 7 7 7 7 7 6 6 5 6 6 8 8 11 13 15 14 9 7 9 9 9 9 9 10 11 13 16 22 25 29 33 32 27 21 12 9 11 23 30 34 30 25 21 17 11 6 5 8 17 34 44 45 35 26 26 27 27 30 37 41 42 39 34 34 36 42 49 54 57 59 61 60 54 49 59 79 83 73 49 30 22 20 18 16 13 15 11 13 11 14 16 15 14 10 13 23 42 67 85 96 98 100 102 98 88 73 52 34 22 21 25 30 32 34 34 30 26 25 30 86 96 102 60 31 30 29 30 25 16 10 9 10 11 15 14 15 12 16 21 25 25 24 22 19 19 17 16 15 12 14 16 18 17 15 14 13 14 16 16 15 11 11 11 13 12 12 13 10 12 10 9 8 7 13 18 16 18 22 22 29 20 24 29 25 31 25 22 16 11 8 5 4 3 3 5 6 8 8 8 10 10 12 12 10 13 12 16 12 10 9 10 13 14 14 13 13 17 27 39 43 38 28 19 16 15 25 37 41 87 119 131 88 29 7 5 6 4 6 6 6 5 6 5 5 5 8 8 10 8 7 8 6 9 8 7 6 4 5 6 7 8 8 12 10 9 9 7 12 8 13 10 14 10 11 7 10 10 10 7 6 7 9 8 11 11 12 10 9 9 7 7 6 4 6 7 10 9 9 7 7 8 10 11 11 10 9 8 7 5 8 7 10 6 9 6 7 5 6 7 7 6 5 5 3 0 
0 7 13 9 10 9 10 9 7 4 5 5 8 7 8 7 6 5 4 7 9 8 9 7 9 8 8 8 7 7 5 5 6 8 8 7 7 9 12 10 11 13 14 13 11 7 7 5 5 6 7 10 10 9 10 10 12 10 11 8 6 7 7 9 9 10 9 9 7 6 7 8 12 10 12 9 10 10 8 7 4 8 7 8 7 7 9 8 8 10 8 11 8 8 9 8 14 11 15 10 12 8 7 6 6 9 11 15 11 9 5 6 5 6 6 11 12 15 14 41 108 144 132 74 21 12 8 13 17 24 23 21 17 16 18 23 26 31 30 29 32 28 70 87 93 62 20 13 10 22 37 37 32 16 18 19 35 26 34 20 31 26 23 13 9 10 6 6 7 10 13 13 12 10 7 5 5 6 7 8 10 9 8 7 7 7 6 6 6 6 5 5 4 4 4 5 6 8 8 12 14 15 13 8 8 10 10 12 11 12 14 15 17 18 23 28 33 34 30 24 16 10 11 21 33 39 38 29 24 19 13 7 4 4 6 9 29 46 51 44 30 26 25 20 18 25 31 37 37 39 46 54 61 65 69 70 69 68 64 60 58 59 68 69 62 43 27 16 11 10 10 9 12 11 15 12 13 12 12 13 18 38 57 78 94 100 102 99 100 103 106 107 103 91 71 47 29 21 25 28 32 34 35 31 29 37 94 99 105 58 37 30 26 29 27 22 13 8 9 12 14 15 13 11 12 16 21 23 24 23 22 21 19 17 13 10 12 14 17 19 19 17 13 13 14 15 15 11 11 9 10 10 10 10 8 9 9 9 10 9 12 15 13 15 25 23 34 24 24 28 25 26 28 20 21 11 8 6 5 3 3 5 6 8 7 7 10 11 16 14 11 11 9 13 11 11 12 14 15 15 14 15 18 23 29 36 37 33 25 20 18 20 32 42 50 94 123 129 82 27 10 7 8 5 5 5 6 7 8 6 5 5 6 7 8 6 5 5 6 8 8 6 5 5 5 6 6 7 8 10 10 8 7 6 10 10 11 10 11 11 11 10 13 12 9 7 6 6 9 7 10 9 11 11 10 11 9 8 8 7 8 8 11 12 9 8 6 9 10 11 10 8 9 7 7 6 8 8 8 6 7 6 7 7 8 9 8 9 6 8 4 0 
0 6 12 9 10 9 10 10 10 9 11 12 12 10 8 7 7 7 5 7 10 10 12 9 12 13 10 9 7 7 5 5 5 8 9 10 8 9 10 13 15 13 16 13 11 8 6 5 3 6 9 14 12 12 10 11 12 11 10 9 6 6 6 8 11 10 11 9 8 8 10 9 14 9 12 8 10 8 8 8 7 9 8 10 11 9 10 11 10 13 8 14 11 13 11 9 14 12 19 13 16 12 10 7 5 8 10 15 11 11 5 6 6 6 5 10 10 15 14 40 108 145 137 79 23 13 7 14 19 25 23 19 17 17 20 25 28 32 29 27 29 34 78 90 88 50 16 13 8 19 32 35 32 18 22 25 44 35 38 28 28 24 19 14 9 12 9 10 9 12 15 15 13 9 6 6 6 6 7 7 7 6 5 5 6 6 6 6 5 4 3 4 4 3 3 3 5 8 9 12 14 14 12 7 8 10 12 13 13 15 17 18 18 19 24 29 33 30 26 19 14 12 18 31 42 44 35 25 19 14 10 5 5 5 7 7 23 41 52 51 39 29 24 16 15 21 29 37 40 44 50 57 62 62 61 61 62 60 55 51 52 55 57 56 51 35 23 13 9 8 8 8 10 8 9 11 14 15 16 22 41 60 73 89 101 105 100 89 90 97 105 109 107 103 92 72 47 26 22 22 26 30 34 33 31 46 96 98 102 51 41 30 24 28 29 27 19 9 8 11 13 14 13 11 11 13 17 21 23 24 23 23 22 20 17 14 12 11 12 13 15 14 12 10 10 11 14 10 11 11 11 11 9 9 7 8 7 8 7 8 9 12 11 10 21 24 32 28 22 24 27 23 33 20 22 11 9 6 5 4 5 9 12 14 12 9 12 10 15 13 14 14 10 11 11 13 15 16 16 15 15 17 21 23 24 29 32 34 33 30 23 25 37 46 57 98 125 129 79 29 10 9 7 5 7 7 9 9 10 10 8 7 7 7 6 5 6 6 9 9 8 7 5 6 6 9 9 7 9 9 11 8 7 7 7 7 8 9 11 10 8 11 13 18 15 10 7 7 9 7 11 9 10 9 7 9 7 8 9 9 10 8 8 7 5 6 5 6 6 7 8 8 9 6 6 5 4 4 4 5 6 7 7 7 8 9 9 9 8 9 6 0 
0 4 7 7 9 10 10 9 10 9 10 10 11 9 8 8 8 9 8 9 13 12 12 10 11 13 11 15 11 10 7 5 5 6 6 7 6 7 7 9 11 12 15 12 12 9 8 7 4 7 9 11 12 12 12 14 13 12 10 8 7 8 9 10 12 10 13 11 11 10 10 11 13 10 10 7 9 9 9 9 6 9 8 8 7 8 9 11 11 13 10 13 9 9 8 9 13 13 17 13 15 10 10 7 6 7 9 12 10 10 6 8 7 7 6 10 9 13 11 35 104 143 139 83 27 13 9 14 20 24 21 19 18 20 23 26 29 31 27 24 22 41 81 91 79 39 13 14 8 16 28 36 35 26 22 33 46 40 34 20 22 23 17 12 8 10 7 9 11 15 16 15 11 6 3 5 7 9 9 8 7 6 5 5 6 5 4 3 3 4 4 4 6 6 6 4 4 5 6 9 11 11 9 7 9 10 12 12 12 15 17 19 19 22 26 30 29 23 19 13 15 19 30 41 45 39 27 19 14 9 5 3 4 5 6 5 15 32 47 53 49 42 35 25 20 23 29 35 39 45 47 50 48 47 46 47 46 45 39 38 39 43 44 41 36 27 21 13 9 8 6 7 8 7 9 10 11 12 23 38 53 66 74 78 71 58 45 35 34 37 44 59 79 96 97 82 59 35 22 16 18 24 31 34 34 55 93 92 90 46 44 37 28 26 30 31 25 16 11 11 11 11 12 14 15 15 15 17 19 21 22 23 24 23 21 19 18 16 12 10 11 12 13 13 13 11 11 9 13 13 12 12 6 5 3 4 4 10 8 9 7 8 8 7 17 26 28 32 23 24 30 23 30 22 19 13 9 8 10 9 10 15 18 23 21 16 17 12 16 14 13 11 7 8 10 12 15 15 14 12 14 18 21 20 21 27 34 46 49 47 31 30 38 49 61 102 128 130 77 31 10 11 7 6 6 6 8 8 11 10 10 9 10 8 8 6 6 6 6 7 6 7 5 6 6 7 7 7 9 9 11 8 7 6 8 8 7 9 8 10 9 12 15 18 16 12 9 8 8 7 10 9 12 9 9 10 8 9 8 8 9 7 8 7 7 8 8 8 7 6 6 5 6 7 6 5 5 5 5 5 6 7 7 7 8 9 10 8 11 11 8 0 
0 4 6 8 7 8 8 9 10 11 11 10 11 9 8 8 8 10 9 8 12 11 12 9 9 12 13 15 14 12 11 5 5 5 6 7 6 7 10 13 12 10 10 12 11 11 8 10 8 8 9 9 10 8 8 10 11 11 9 9 10 10 10 12 15 12 16 14 14 13 10 10 8 6 6 5 6 8 7 10 6 9 6 8 8 8 9 11 12 12 10 9 8 8 6 7 12 12 14 11 12 11 9 8 7 6 7 8 7 7 7 8 7 8 8 9 8 10 10 34 99 139 137 82 29 12 10 13 19 22 20 19 20 22 26 28 29 29 23 20 18 50 81 89 68 30 12 14 8 15 27 37 37 32 21 38 44 48 39 23 21 17 14 12 9 7 7 9 10 13 14 13 9 5 6 8 10 12 11 8 7 5 4 5 5 6 4 4 3 5 5 7 9 7 6 4 5 7 8 10 12 11 10 8 9 11 11 10 10 15 17 21 21 25 28 28 22 14 11 12 21 30 39 43 39 29 19 13 8 7 4 3 5 7 7 7 11 22 35 46 51 49 42 35 30 30 32 35 39 43 41 40 32 31 28 26 21 20 16 19 19 23 26 28 26 20 16 14 11 10 6 6 7 7 7 9 13 21 35 48 59 63 51 42 38 38 35 33 32 33 33 36 41 56 68 74 64 44 29 16 13 19 27 32 32 52 82 85 72 42 39 40 32 26 30 31 29 22 15 12 13 9 10 12 14 14 14 16 17 17 15 16 17 18 20 21 22 21 17 12 9 11 13 14 15 16 16 14 14 13 11 10 7 7 4 5 4 10 8 10 8 8 9 6 10 23 24 31 25 25 29 26 24 24 16 15 10 12 13 13 13 18 21 27 24 20 19 14 14 14 13 14 11 11 12 13 13 12 10 11 16 20 21 21 24 29 36 52 60 62 41 34 39 52 63 105 131 129 75 26 9 9 7 7 8 8 10 9 12 11 14 11 13 10 10 8 6 8 7 7 6 5 5 5 6 6 7 6 7 6 9 7 7 5 5 7 6 10 8 11 7 10 16 18 22 13 10 7 8 8 9 10 11 8 9 9 10 10 11 10 11 8 7 5 5 6 6 6 4 3 3 5 5 5 4 5 4 4 5 5 7 8 7 6 7 8 9 8 9 9 7 0 
0 4 8 8 8 8 7 7 9 10 7 8 6 9 9 11 9 8 8 7 10 10 14 11 12 12 14 14 20 13 15 8 7 5 6 6 6 7 8 8 8 8 9 11 10 13 9 12 11 11 9 7 7 8 11 13 13 12 11 9 9 9 9 11 14 12 16 14 15 15 10 13 12 8 7 5 5 8 7 11 7 8 6 6 7 8 10 11 11 10 9 9 7 7 7 8 10 10 14 14 12 10 10 11 9 8 6 6 6 7 8 11 12 12 10 9 8 7 8 34 96 136 134 81 31 12 12 12 19 20 20 19 20 22 27 29 31 31 26 26 27 59 82 83 54 21 10 12 9 16 27 33 35 30 22 33 38 46 39 29 21 21 16 11 10 7 7 6 8 11 12 10 8 7 7 9 12 11 12 9 8 6 4 5 5 6 5 4 4 4 5 8 10 13 11 8 7 8 9 11 12 11 11 10 11 12 11 11 12 17 20 23 24 27 27 23 15 10 11 19 30 39 43 39 30 20 13 9 7 7 6 5 5 7 8 9 10 13 22 31 42 48 46 43 36 34 32 33 33 33 28 25 20 19 17 16 13 11 9 11 11 15 17 19 18 14 12 15 13 12 6 7 8 9 8 8 11 21 36 47 48 40 38 36 29 23 19 21 22 21 21 29 35 44 45 51 52 43 33 18 13 15 29 38 45 59 78 83 64 45 33 38 35 28 30 30 29 26 20 16 15 10 11 12 13 12 13 14 17 17 15 14 14 14 15 16 20 22 21 18 13 12 12 14 14 15 15 15 14 13 10 11 10 10 7 6 6 10 9 12 8 7 8 6 8 20 25 28 29 25 28 28 19 23 16 17 12 15 15 16 15 18 20 28 24 20 20 14 15 13 10 11 9 12 13 14 12 10 10 14 21 23 24 24 29 35 34 49 64 72 51 41 41 54 65 109 135 127 72 19 9 9 10 7 8 7 11 10 12 10 11 12 15 11 11 10 9 9 6 6 6 6 6 5 5 4 5 5 8 8 11 7 7 5 5 8 8 12 7 11 8 11 14 16 21 12 11 7 7 8 11 12 13 11 10 9 11 10 9 8 8 5 5 5 7 10 10 7 5 4 3 4 3 6 6 7 6 5 6 5 5 5 5 6 8 10 9 8 9 9 8 0 
0 6 10 10 11 9 10 8 9 10 6 7 3 7 9 12 12 10 7 6 9 9 13 11 11 9 12 9 17 12 16 8 7 5 7 6 7 7 9 10 10 9 10 10 10 10 10 13 12 13 10 8 7 8 8 9 12 11 12 9 9 8 7 8 10 8 12 11 11 11 9 11 11 9 7 6 7 9 8 9 6 6 8 8 11 12 13 14 10 11 8 10 7 8 8 8 11 10 10 9 9 11 9 14 10 12 7 6 5 6 8 9 9 9 10 8 9 10 13 37 96 133 132 78 31 11 13 12 19 20 21 19 19 21 25 28 29 29 28 27 36 65 79 72 42 15 8 9 9 18 30 32 34 27 22 27 35 49 42 39 22 22 15 10 9 8 8 6 6 7 6 6 6 10 10 12 13 10 12 7 7 6 6 6 6 6 6 5 4 4 4 7 10 13 12 11 10 12 13 14 12 11 9 9 11 12 12 12 15 21 24 26 26 26 23 18 11 11 19 31 40 42 40 31 22 15 9 7 9 10 8 8 6 8 10 11 12 10 13 17 27 35 37 39 34 32 31 31 29 28 25 24 21 19 21 17 18 17 17 15 11 12 15 18 17 14 11 15 13 15 11 10 10 9 10 10 13 22 33 39 42 45 43 36 25 17 13 14 14 16 17 24 26 32 33 39 46 46 41 31 26 28 42 48 51 57 75 85 66 46 27 29 32 30 32 31 30 29 26 21 17 12 12 11 12 12 13 15 18 19 17 15 14 13 11 10 12 18 20 20 17 13 11 12 11 14 15 15 14 13 11 12 11 11 8 7 6 9 9 11 9 7 8 8 9 17 26 24 30 22 26 23 18 17 18 16 16 15 15 15 13 17 16 22 16 17 18 14 17 14 11 15 13 15 14 13 11 11 13 20 26 25 29 30 37 37 29 41 62 77 60 49 45 55 69 111 138 125 68 14 7 8 11 9 11 9 11 12 12 11 9 9 10 10 11 8 8 8 7 7 5 5 5 5 4 5 5 5 7 7 9 7 6 4 4 6 7 9 7 8 5 9 14 14 15 11 9 9 12 12 12 13 12 11 9 11 11 13 13 11 9 5 5 6 7 8 7 6 6 5 6 5 5 4 5 5 6 5 5 4 5 6 6 7 8 10 11 8 9 8 6 0 
0 8 10 11 11 8 10 7 9 10 8 7 3 7 11 12 12 10 7 7 7 10 12 13 12 10 10 8 13 10 13 10 8 5 8 7 7 7 7 8 7 7 8 7 8 8 10 12 13 12 11 9 9 9 10 10 12 11 10 9 6 8 8 9 9 6 7 9 9 9 12 14 15 11 8 5 4 6 8 9 8 7 8 8 11 11 14 13 10 9 8 10 9 10 9 9 9 11 12 12 9 11 8 14 11 12 8 7 6 6 8 10 13 14 11 7 7 9 12 37 95 130 128 75 31 11 14 12 19 21 22 19 17 19 24 27 28 28 29 31 44 62 68 58 31 14 8 8 8 18 29 29 27 25 24 30 33 47 43 45 25 22 14 8 10 9 12 9 9 8 10 12 15 20 18 16 12 9 11 7 9 7 8 7 8 7 7 7 5 5 4 7 11 14 14 13 13 13 12 12 12 13 14 14 14 13 15 16 19 24 26 27 26 23 17 12 12 20 31 39 42 38 32 23 16 11 6 7 9 10 8 8 6 9 10 12 12 10 11 12 17 23 25 27 23 22 21 23 22 25 20 20 18 17 17 22 27 27 23 18 16 12 14 17 18 18 12 13 11 13 11 11 12 11 13 14 21 30 41 47 49 48 40 33 23 16 13 13 11 11 10 16 20 30 38 50 60 63 63 56 48 52 57 57 54 54 73 89 76 53 31 22 27 31 34 33 30 28 28 24 17 11 10 10 12 11 11 13 16 19 20 19 17 16 13 11 9 12 16 17 15 12 9 10 7 8 8 12 11 12 10 11 10 10 10 9 9 11 13 11 13 7 7 10 11 15 24 20 29 18 25 19 22 15 22 14 16 11 12 12 11 15 15 19 12 11 12 12 16 18 15 18 14 14 11 10 10 12 17 24 27 26 32 37 42 36 24 33 58 79 66 56 50 56 74 112 140 124 66 14 8 9 12 11 9 9 13 14 13 11 7 9 8 8 9 10 10 9 7 7 5 6 5 7 5 6 5 6 7 7 9 6 6 5 5 7 9 10 7 6 6 8 9 11 11 10 8 8 10 10 13 12 10 11 8 12 10 12 9 8 6 4 4 5 7 10 9 8 6 6 7 5 6 5 7 6 7 6 6 5 5 6 6 7 8 9 10 9 11 10 8 0 
0 6 9 11 9 10 9 7 8 9 8 8 5 6 9 12 14 11 7 7 6 9 8 12 10 11 9 8 10 10 10 8 7 8 9 9 9 8 6 7 7 8 9 8 7 8 9 10 13 13 17 12 12 8 9 10 9 10 9 10 7 8 8 8 8 9 7 8 8 8 9 9 10 8 7 5 5 6 7 8 9 9 10 10 11 10 13 11 12 12 12 11 9 7 6 7 6 8 10 11 13 13 11 12 12 10 8 6 6 7 7 8 9 9 7 7 7 10 13 37 95 128 125 72 29 14 15 14 20 22 23 19 15 17 22 26 24 23 26 30 42 52 54 44 24 13 8 8 9 19 29 29 26 30 25 35 33 46 39 33 20 22 16 14 15 13 18 17 20 14 12 14 18 22 20 15 10 8 8 7 9 9 10 10 8 10 8 9 6 8 7 9 11 12 13 11 11 12 12 12 14 16 17 16 18 19 21 22 24 26 26 25 22 17 12 13 21 33 41 41 38 31 26 20 13 8 6 9 9 9 8 7 6 9 8 11 10 11 12 13 15 20 21 22 18 17 19 22 18 22 22 23 16 15 17 26 27 30 28 26 26 25 24 23 21 21 19 19 16 17 16 16 19 23 31 38 44 49 52 51 48 46 41 37 29 28 27 22 14 10 9 14 19 26 34 46 57 63 67 69 74 84 77 63 49 47 69 90 84 59 35 18 22 28 32 33 29 27 28 26 19 12 10 10 11 11 12 12 14 16 18 20 19 17 14 11 9 10 11 12 10 8 7 7 6 6 6 8 9 10 8 7 6 6 7 8 10 11 14 10 13 7 10 14 13 17 24 23 27 20 23 18 23 14 19 12 13 10 8 9 11 14 14 14 10 8 10 11 18 21 23 23 18 15 9 9 11 14 19 25 24 26 33 42 45 35 20 26 53 78 69 62 54 57 78 112 142 124 67 16 7 8 10 12 8 10 10 11 12 10 7 8 6 9 9 8 7 6 7 6 5 6 6 8 6 8 6 6 7 6 8 7 8 5 5 5 5 6 6 5 4 6 8 9 7 7 7 9 11 10 10 10 9 12 9 14 9 13 10 10 6 5 5 7 5 9 6 8 7 7 8 6 7 5 5 6 7 7 8 7 7 8 8 7 6 7 11 11 14 10 8 0 
0 5 7 9 9 10 8 6 7 8 9 10 10 10 10 9 9 8 7 7 7 8 7 12 12 13 11 8 9 9 11 10 8 9 9 11 9 8 5 5 6 7 7 8 7 9 8 9 11 13 16 15 13 9 9 10 10 11 10 10 8 7 8 10 11 13 10 10 8 9 10 11 10 9 7 5 4 5 7 8 9 8 9 9 9 8 9 8 9 10 10 12 10 9 7 6 6 7 9 10 12 12 11 10 11 8 8 6 7 8 8 10 11 12 8 6 6 9 13 37 99 127 122 69 26 17 14 15 21 23 23 18 14 16 20 24 22 19 22 28 36 40 40 32 21 13 8 7 7 16 24 24 24 27 25 35 31 44 41 37 24 22 16 18 16 20 19 21 24 21 17 17 22 27 22 14 8 6 7 7 9 11 11 13 11 14 9 10 7 9 9 9 11 9 9 7 9 10 12 15 17 17 18 16 20 23 27 27 27 27 25 23 18 13 11 18 30 40 40 32 29 28 26 19 10 6 6 8 9 8 5 6 7 12 11 13 10 10 11 12 14 18 20 21 19 17 14 13 16 23 23 26 25 20 22 26 24 23 23 24 25 26 28 27 26 21 21 23 26 29 32 35 39 44 51 57 58 56 50 46 43 42 33 28 28 31 30 26 21 15 14 15 19 27 39 50 60 65 76 95 105 104 81 53 36 41 63 86 86 61 39 17 19 22 29 31 28 25 26 27 21 13 9 8 9 10 9 7 8 11 14 18 19 17 14 11 10 11 12 13 11 9 8 7 7 8 8 8 8 8 7 5 5 5 6 7 9 11 12 11 12 10 12 14 12 15 16 25 24 24 20 21 22 16 14 11 7 7 5 6 10 12 14 12 9 8 8 10 21 25 31 28 20 15 9 8 11 17 25 29 29 32 38 45 44 33 19 23 49 77 69 67 56 58 80 112 144 125 68 17 7 7 8 10 7 7 7 9 10 9 9 12 9 12 10 11 9 6 7 7 7 8 8 10 7 7 6 6 8 7 8 6 6 5 6 6 6 7 5 5 4 6 6 10 12 13 8 8 6 9 9 8 7 11 12 15 12 13 10 9 7 7 5 9 6 11 6 8 5 6 7 6 6 7 5 6 6 9 10 11 11 9 8 6 7 7 9 10 11 10 7 0 
0 6 9 10 10 10 9 6 7 8 11 12 12 10 9 8 8 6 6 6 7 7 7 9 9 10 11 9 11 8 10 7 8 9 8 8 7 8 7 6 6 6 8 7 6 6 6 9 10 15 18 17 12 10 10 11 10 9 8 8 7 6 7 10 11 13 10 10 9 10 10 8 8 7 8 8 9 10 11 9 11 10 10 8 7 7 6 7 9 12 11 10 8 9 7 6 5 5 8 11 12 12 9 8 9 8 9 6 8 8 8 9 8 8 6 5 7 9 15 40 105 131 121 66 22 19 15 19 21 24 22 18 14 14 18 21 20 18 20 26 30 29 29 25 20 13 8 7 8 16 21 23 26 28 26 30 32 46 42 32 21 23 21 29 21 27 22 34 33 25 18 14 16 19 15 11 9 7 9 11 12 12 11 13 13 13 10 9 7 8 8 8 9 8 7 5 9 11 13 14 16 16 17 17 22 26 28 27 27 26 23 19 14 10 13 25 39 43 35 24 25 28 27 21 9 7 7 8 10 8 6 6 8 15 13 15 9 9 8 9 11 15 19 24 26 28 28 26 22 24 30 36 36 39 31 24 21 16 19 21 30 32 33 26 23 22 23 26 27 31 36 40 44 47 50 53 54 50 40 33 26 26 27 29 27 28 31 24 18 14 19 25 29 31 36 41 50 63 82 101 110 102 75 53 37 43 60 81 83 61 42 18 19 19 24 28 27 25 25 27 25 16 10 8 10 10 9 6 4 7 10 15 17 16 12 11 12 13 16 15 15 13 10 8 9 11 11 10 8 6 6 6 6 5 6 7 8 10 11 12 11 13 13 14 11 13 12 26 22 25 20 21 19 17 9 10 5 6 5 9 12 14 16 13 11 9 8 7 19 23 30 25 18 12 8 7 15 25 38 45 46 47 49 49 44 32 18 22 48 77 68 69 56 59 80 111 145 126 68 18 6 6 6 7 6 6 5 6 6 8 9 10 8 10 9 10 9 7 8 7 7 7 7 10 9 8 9 7 11 8 11 7 6 6 7 8 9 6 4 4 3 5 9 10 11 10 10 9 9 9 8 8 8 11 11 13 11 10 9 7 5 6 6 9 7 10 6 8 5 6 5 6 6 7 6 8 9 12 10 9 9 8 10 7 9 9 9 14 11 12 6 0 
0 7 12 11 12 9 8 5 6 7 10 13 15 12 11 9 10 10 9 7 7 7 7 9 9 9 9 8 9 8 10 9 8 8 8 7 8 10 9 8 7 6 8 7 7 8 8 10 10 15 13 13 11 9 11 11 11 10 8 7 6 6 7 9 11 11 8 7 7 7 9 7 10 8 9 8 9 9 9 8 9 7 9 8 9 9 9 7 7 7 8 9 9 10 8 7 7 7 7 7 6 7 6 7 8 8 10 8 9 8 8 8 7 8 6 5 8 11 17 44 111 136 122 61 19 18 14 21 21 25 23 20 15 13 14 18 18 17 20 24 26 20 19 19 20 16 10 7 6 14 18 20 24 25 24 25 37 50 48 37 21 19 15 21 17 23 17 26 28 22 15 12 16 20 17 15 14 11 14 14 15 14 13 11 13 12 10 10 8 9 8 8 9 9 8 9 11 12 13 14 15 15 15 17 22 26 27 27 26 23 18 14 11 12 19 33 42 40 31 24 30 33 26 19 9 9 8 10 11 9 6 7 11 17 18 19 10 9 5 7 8 12 15 20 24 27 26 25 24 28 27 36 32 34 29 25 19 16 19 21 20 20 26 25 24 22 19 25 31 38 42 42 43 45 47 47 43 34 23 20 20 23 23 23 23 25 25 22 21 17 19 20 24 26 31 37 46 63 85 102 101 82 55 37 32 43 56 74 78 59 39 20 20 19 21 24 25 25 24 28 28 21 13 9 11 11 9 6 6 7 9 12 15 16 14 12 13 13 16 15 17 16 13 10 9 10 11 10 8 8 7 6 7 5 6 6 6 6 8 11 13 14 11 11 8 9 10 19 20 20 20 20 17 19 9 11 6 9 6 8 12 14 15 12 11 11 12 9 19 19 25 18 13 8 8 9 24 36 54 62 68 67 63 56 45 33 21 24 50 78 68 70 57 60 81 112 147 128 69 21 8 7 8 7 7 6 5 5 6 7 9 12 11 11 10 10 9 8 10 9 8 8 7 8 7 6 9 8 15 9 10 6 6 6 8 9 9 7 5 5 5 5 8 11 17 12 12 9 11 9 8 6 7 11 13 14 12 10 9 6 5 6 7 8 7 8 8 7 6 5 4 4 5 6 6 10 11 15 13 12 9 7 11 8 10 10 8 11 8 12 6 0 
0 8 13 11 12 9 8 5 6 10 10 12 10 8 8 9 9 9 9 8 7 7 6 6 5 6 6 6 7 7 8 9 10 10 9 7 8 8 8 8 8 8 8 8 7 7 8 9 11 13 14 11 9 8 9 10 11 9 6 6 6 7 7 8 8 8 8 8 8 8 8 6 7 6 7 7 8 10 11 10 11 12 12 9 10 9 9 7 6 6 6 6 6 8 7 9 8 8 8 6 5 4 4 4 7 7 8 8 7 6 6 6 6 6 5 6 8 12 18 49 118 140 122 57 16 16 16 21 23 25 25 22 18 13 11 14 15 16 19 21 22 15 12 14 18 19 14 11 8 15 18 21 23 23 20 26 44 50 50 29 16 14 15 17 17 16 18 24 25 20 15 13 15 18 18 17 18 13 18 16 17 13 11 10 10 11 10 12 11 12 11 12 11 10 9 10 12 13 12 13 15 18 20 22 24 24 23 22 19 17 13 13 10 17 24 38 44 39 30 25 25 24 20 15 9 9 11 16 20 19 13 9 11 16 19 19 12 13 8 8 6 6 9 14 20 25 26 27 27 31 25 29 27 35 33 31 27 26 23 25 24 21 18 22 29 32 29 25 24 26 29 27 23 21 20 19 18 18 17 18 21 28 34 34 32 31 28 22 18 16 22 22 23 25 29 37 51 71 87 89 74 51 33 25 28 35 47 67 75 62 40 25 21 21 19 19 22 23 23 27 30 26 19 14 14 14 12 7 8 9 12 14 16 17 17 15 16 13 14 13 16 16 14 11 9 8 11 10 9 9 7 7 8 6 7 6 7 9 11 12 11 13 12 11 8 8 12 13 20 16 17 18 15 18 11 13 10 9 7 9 14 16 18 14 15 12 15 9 18 17 20 13 9 5 7 12 33 45 61 65 71 73 68 58 47 35 24 26 52 79 69 71 57 60 81 114 148 131 71 24 9 8 6 6 7 6 6 4 6 9 9 11 7 7 7 7 10 9 9 8 6 6 4 5 5 5 9 8 10 9 8 5 5 7 12 15 13 11 6 4 4 6 10 9 12 9 12 11 12 11 9 6 8 10 10 11 10 8 7 4 3 6 8 10 10 8 8 6 5 4 4 4 4 4 5 9 11 12 10 8 8 9 11 11 11 10 8 11 9 12 6 0 
0 6 9 9 9 9 8 7 8 10 11 12 10 11 9 9 11 11 10 7 6 8 11 12 9 8 6 5 7 7 8 9 10 10 9 7 8 8 9 8 7 10 9 11 11 9 9 9 12 12 10 8 6 6 10 10 9 8 7 7 7 8 8 9 11 10 9 8 7 7 6 6 6 5 6 5 5 7 10 11 12 9 9 9 9 10 9 8 7 6 6 6 5 8 7 9 8 8 8 6 7 5 6 5 6 6 8 7 7 7 6 7 8 8 7 7 8 12 20 54 122 142 121 53 14 14 17 20 24 25 28 26 22 17 13 13 13 14 17 20 21 15 10 11 16 19 16 14 9 16 19 19 19 19 17 28 49 49 50 19 16 11 11 11 13 11 12 16 18 17 15 14 17 21 20 20 20 12 15 13 16 11 9 9 8 12 12 14 14 15 15 14 12 10 10 11 12 13 14 15 19 22 23 23 23 20 19 19 17 16 10 14 10 20 30 46 47 41 31 26 26 21 17 11 9 10 14 18 22 20 15 11 12 15 18 16 13 13 12 10 8 6 4 6 10 14 17 21 23 26 24 19 13 21 25 35 34 29 33 30 26 20 14 18 25 33 36 37 35 29 22 15 13 17 21 23 24 26 28 34 36 36 35 35 34 32 28 23 19 17 19 18 18 20 25 38 57 74 80 72 55 41 34 29 29 33 46 66 79 70 47 30 25 24 18 15 18 20 21 24 28 27 22 17 15 13 10 7 8 10 12 15 17 18 18 17 17 15 14 12 14 16 16 13 11 8 10 11 11 11 8 9 8 7 7 6 7 7 8 9 10 11 10 10 10 10 14 12 16 14 15 17 13 13 10 10 11 9 8 7 14 17 19 13 18 13 18 10 18 16 20 13 10 7 10 21 38 48 55 55 55 58 57 51 42 32 24 26 52 78 70 72 58 59 81 116 150 134 73 27 13 12 9 9 8 6 7 4 7 10 10 13 10 10 7 5 9 8 9 9 9 7 5 4 5 5 6 9 10 9 7 5 5 6 8 10 11 9 8 8 7 6 8 9 14 12 14 14 11 8 7 6 8 10 10 10 9 7 8 6 6 7 8 8 9 7 8 7 5 4 3 4 3 3 4 8 13 13 12 8 8 10 9 12 9 10 7 8 8 10 8 0 
0 3 4 6 9 11 10 10 9 10 9 10 11 11 9 8 7 7 6 6 8 10 12 12 12 11 10 9 9 8 9 9 10 9 8 7 7 6 5 8 6 12 10 14 13 11 10 7 8 9 9 9 8 8 9 8 9 8 7 9 9 11 9 8 8 10 11 12 10 10 9 9 8 6 6 5 5 6 8 9 10 10 9 8 8 8 7 8 8 8 8 7 6 8 7 8 8 8 9 6 7 7 8 9 10 9 8 8 7 8 6 8 8 8 8 6 7 10 20 58 126 145 122 52 16 12 18 17 22 22 29 29 26 22 17 14 11 11 15 20 22 18 14 11 15 18 16 17 11 17 18 20 21 22 18 29 48 44 44 17 17 12 13 12 12 10 11 16 19 17 16 15 17 21 20 21 15 14 13 12 12 11 7 10 8 13 13 14 15 15 16 14 12 9 9 11 13 14 15 17 21 23 22 21 19 16 16 16 14 13 10 12 16 31 42 52 46 36 26 21 19 15 15 13 10 10 17 24 30 27 19 14 11 11 13 11 14 13 16 13 9 5 5 9 13 15 17 18 20 21 18 12 9 17 26 41 41 33 40 36 37 24 13 18 25 36 38 40 40 31 21 11 10 13 14 14 14 19 27 34 36 40 39 39 33 29 22 16 15 16 19 20 23 29 39 55 68 73 67 55 45 38 32 25 26 31 45 66 84 80 56 34 27 29 22 16 15 19 19 21 24 25 24 20 15 13 11 9 7 8 11 14 17 18 17 17 16 16 14 13 14 16 17 15 14 11 13 14 14 12 8 7 6 6 6 5 6 9 10 9 8 14 17 16 13 11 15 13 14 12 13 12 11 8 8 8 12 9 10 12 19 18 18 16 21 16 19 10 20 17 25 17 16 12 18 31 42 46 41 36 37 37 36 34 31 26 22 26 51 75 70 71 59 57 79 118 152 135 73 26 12 12 7 7 6 5 6 5 7 10 10 13 9 9 8 7 9 8 11 9 9 8 6 6 6 5 6 7 7 7 6 5 6 7 9 10 10 8 7 5 5 6 9 8 13 13 17 13 10 8 7 7 8 9 9 8 9 9 9 8 6 7 8 9 9 9 7 6 5 4 4 4 4 4 5 6 8 7 9 6 9 11 11 14 8 10 7 8 8 8 4 0 
0 3 4 7 9 13 12 12 8 9 9 10 11 11 9 7 7 7 7 8 11 13 13 12 12 11 11 11 11 10 11 7 7 5 4 5 5 7 6 8 6 13 11 15 15 11 10 6 7 8 8 9 8 10 9 8 5 5 6 9 9 11 9 9 9 12 10 11 8 9 8 8 8 8 8 6 8 7 9 10 8 7 6 7 9 9 8 7 9 9 11 8 9 8 8 9 9 8 8 6 6 7 9 10 11 10 10 10 8 9 6 8 6 8 7 7 9 10 20 59 130 148 124 53 15 11 17 14 19 18 27 31 31 29 23 19 13 10 14 19 22 22 17 15 12 17 13 15 12 18 17 19 20 23 23 35 46 44 40 16 16 13 14 14 13 11 11 14 19 17 15 14 18 22 17 17 14 16 13 14 11 10 6 10 10 14 14 14 15 13 16 11 11 9 9 10 12 15 18 22 25 25 23 19 15 12 13 15 16 15 11 19 31 44 52 51 40 30 21 19 19 21 21 17 12 10 15 19 22 20 14 13 10 11 11 8 10 11 15 9 7 4 4 10 14 16 18 20 19 19 14 11 11 18 29 40 45 36 41 38 40 30 22 24 23 30 34 40 41 33 22 13 11 14 16 15 18 23 33 37 37 36 27 28 18 18 13 11 11 14 23 32 42 51 63 72 75 70 58 49 42 39 35 30 31 34 45 66 84 84 63 43 30 30 26 18 15 17 18 18 20 21 23 20 14 11 8 9 6 6 7 10 14 16 14 13 13 14 14 13 13 15 17 15 15 13 15 16 15 13 8 6 6 6 6 5 6 8 8 8 10 13 15 17 18 14 16 12 12 11 15 10 10 4 7 8 9 9 11 13 17 17 21 21 24 21 18 11 24 21 33 24 27 21 32 41 46 42 32 27 24 21 22 22 22 21 20 25 46 69 66 67 58 53 76 118 153 135 72 23 11 12 8 7 8 6 6 5 6 8 10 12 12 11 9 10 9 10 11 10 9 8 7 7 7 7 7 11 11 12 7 6 5 6 6 5 5 5 6 7 7 6 7 8 11 12 14 11 8 6 5 9 9 8 8 7 12 13 11 11 9 8 8 9 9 8 7 6 4 4 4 4 4 5 6 7 10 7 9 5 10 11 12 12 9 10 8 8 8 10 7 0 
0 4 5 9 9 15 13 12 8 7 7 9 10 10 8 8 7 6 9 8 10 10 9 9 8 9 12 11 12 9 9 7 5 3 4 5 6 7 5 7 7 10 10 13 13 12 10 5 5 5 6 9 11 13 10 9 7 6 6 8 9 10 9 9 7 10 9 12 8 9 8 9 9 8 9 6 7 7 8 7 5 5 5 8 10 9 8 7 11 10 14 11 12 10 9 9 11 12 10 7 6 9 10 12 12 10 10 9 7 8 6 8 6 6 6 6 9 9 18 58 131 152 125 56 14 15 17 16 16 14 21 29 34 36 32 25 17 12 15 18 23 27 23 22 12 15 11 16 16 19 19 18 28 29 33 42 45 42 34 17 19 15 17 16 15 11 11 14 19 17 16 17 20 23 19 17 14 16 16 17 14 13 10 11 10 12 12 11 13 10 14 8 11 9 10 11 13 15 19 23 26 26 23 20 16 14 16 21 21 17 15 25 40 53 52 40 29 21 18 19 18 20 21 20 17 13 19 22 21 19 13 15 10 8 5 6 9 11 17 16 14 9 9 12 16 19 22 24 20 20 13 15 15 21 31 37 38 31 34 35 38 33 29 25 23 26 30 38 40 34 22 17 14 15 16 13 14 21 28 27 24 20 17 25 15 15 6 8 11 22 36 50 64 73 81 82 75 64 47 39 36 35 32 25 26 32 44 62 81 86 67 44 32 31 31 22 15 16 18 18 17 19 22 22 16 11 8 10 7 7 6 8 12 13 12 10 10 11 11 10 10 12 15 14 15 12 14 16 16 13 8 4 4 3 4 4 4 6 7 8 11 17 25 23 20 18 16 11 12 8 13 9 10 7 8 11 11 15 13 17 20 18 20 21 25 22 16 14 27 26 41 34 41 32 47 53 57 47 30 24 20 14 16 17 20 21 21 24 41 61 60 64 55 47 72 115 154 136 71 21 9 9 6 5 5 5 6 6 6 7 8 9 10 12 10 12 9 11 8 9 8 8 7 8 6 7 6 10 8 9 6 6 7 9 7 6 4 4 4 4 4 6 7 8 8 10 11 9 5 5 5 9 7 7 6 6 9 11 12 11 9 9 9 8 8 7 5 4 5 4 4 4 6 7 7 7 7 6 8 6 10 11 13 11 10 8 7 8 7 7 3 0 
0 4 6 9 9 12 11 10 9 9 8 9 8 9 9 9 11 9 11 9 11 10 7 6 7 7 10 7 10 8 9 8 5 4 5 5 6 6 6 6 7 8 9 11 12 11 9 5 5 6 8 10 9 10 10 9 9 9 11 11 11 10 9 7 6 7 7 9 7 8 8 8 8 7 8 8 9 8 7 7 6 8 10 10 10 10 9 8 12 10 15 11 14 10 11 10 13 13 10 9 7 10 11 10 9 8 8 7 6 6 7 8 9 8 8 8 11 10 14 56 129 155 126 59 16 18 19 18 17 13 15 23 33 41 40 34 25 16 16 15 22 27 25 21 13 10 10 14 20 21 23 15 25 26 35 43 45 44 33 18 19 14 19 17 17 10 9 12 17 18 17 18 19 23 19 16 15 17 17 17 14 9 7 8 8 10 9 9 12 8 10 7 11 12 12 13 15 19 23 28 29 27 22 19 15 15 19 23 28 22 24 36 51 55 44 26 21 22 24 22 20 19 23 22 19 16 14 16 17 17 11 11 8 9 6 5 10 12 15 14 11 9 9 12 15 17 17 23 20 20 12 18 20 25 29 29 29 27 23 25 28 28 32 26 26 27 37 43 43 36 23 23 17 15 15 18 17 21 22 21 20 19 19 24 16 16 12 20 31 48 61 74 84 88 87 76 60 47 33 30 29 26 24 16 19 29 44 61 78 87 74 48 33 29 34 29 17 15 17 17 18 19 22 25 19 11 8 8 7 6 5 5 8 10 10 10 10 10 11 10 9 8 12 12 14 10 11 13 14 13 9 5 5 5 5 5 5 6 7 7 12 13 16 18 19 16 14 11 11 7 12 10 10 13 12 16 15 15 15 17 16 16 24 25 28 24 17 16 32 30 49 45 55 45 54 59 67 58 41 30 22 17 19 21 23 23 20 20 34 53 55 60 53 43 72 113 156 135 70 19 8 8 7 6 7 6 6 5 5 5 7 11 10 12 10 13 8 11 8 11 7 8 7 6 7 7 8 12 12 12 7 5 5 7 6 5 4 4 5 5 5 6 6 7 6 7 7 8 5 6 5 9 9 8 6 7 12 15 15 11 10 9 10 11 9 6 4 4 5 4 5 5 7 9 8 10 7 6 6 7 9 12 10 10 8 6 8 7 6 7 4 0 
0 4 8 10 10 10 11 11 12 11 10 9 10 9 10 8 9 8 9 8 7 7 7 8 8 7 10 6 8 6 9 7 7 5 7 7 8 5 6 6 6 6 7 7 12 10 11 7 6 5 8 12 17 14 11 9 11 10 11 9 10 9 9 7 7 7 7 7 6 6 7 7 7 7 6 7 7 8 10 9 11 12 12 12 9 7 7 8 13 11 14 11 14 11 12 12 12 12 10 11 9 9 9 9 10 8 6 4 3 4 5 7 8 9 10 9 10 11 11 54 127 156 130 62 23 21 23 20 20 15 12 17 29 41 46 44 34 21 20 16 22 27 29 24 16 9 10 12 22 20 25 13 22 20 27 39 40 43 31 19 17 13 17 16 14 9 9 12 18 19 20 17 17 17 18 18 17 15 17 19 18 15 11 9 7 8 7 8 8 7 7 7 10 11 14 19 21 25 28 33 29 26 19 18 17 22 24 30 30 28 34 48 58 52 38 20 19 22 27 21 23 15 19 21 18 17 13 14 12 12 13 14 11 8 6 7 11 13 17 17 16 15 16 13 12 13 15 18 16 15 10 20 22 27 27 21 21 19 14 15 16 19 24 21 20 20 39 46 46 39 28 29 24 20 14 20 20 27 26 22 19 16 18 20 18 21 26 40 58 74 83 86 89 85 74 58 46 39 32 30 31 26 27 17 19 26 41 58 74 85 78 55 38 32 37 35 22 15 17 17 19 18 22 27 23 15 9 6 7 5 5 4 4 6 9 10 10 11 12 12 9 8 11 12 14 10 9 10 13 13 11 9 8 8 8 8 9 9 10 9 13 13 19 17 18 17 18 15 13 8 11 12 12 16 15 17 19 16 18 16 17 22 22 25 22 20 20 21 36 32 52 54 67 57 55 57 71 70 60 48 36 28 27 27 26 23 17 15 26 46 51 56 52 39 72 114 156 133 68 18 9 8 7 5 4 4 5 4 4 5 5 7 8 9 8 9 7 8 6 7 7 6 6 6 7 8 8 9 8 7 6 5 7 10 10 10 9 8 6 4 4 6 7 7 6 7 7 8 5 6 7 8 8 7 6 7 8 10 11 11 10 9 8 7 6 5 3 3 5 5 8 8 9 11 7 9 6 7 6 7 8 9 9 8 7 6 5 5 6 5 3 0 
0 4 8 9 8 10 9 12 11 10 10 8 13 11 12 8 9 9 9 8 7 7 8 9 12 12 15 10 10 6 9 7 9 7 10 8 9 8 8 8 6 6 7 7 9 9 11 10 9 7 9 10 13 13 14 11 12 11 12 11 11 9 8 7 6 6 5 6 5 7 8 7 7 6 7 8 9 8 7 7 10 12 14 11 7 6 7 8 11 10 14 12 11 11 9 9 10 10 10 9 9 10 9 9 9 8 7 5 5 5 5 8 10 13 12 12 12 11 11 51 125 156 137 69 33 24 28 20 24 19 14 13 21 36 46 48 40 30 29 28 32 33 32 25 18 10 12 10 21 18 23 12 18 17 22 41 40 50 35 28 21 18 18 16 12 7 7 10 18 21 22 17 15 15 20 19 20 19 20 24 18 15 8 8 9 9 8 9 7 7 5 6 9 12 18 22 25 29 30 35 28 21 13 16 17 25 20 27 27 42 51 59 58 44 32 20 24 27 34 24 20 14 17 20 18 15 9 13 17 17 13 9 9 9 9 12 13 15 16 16 20 21 18 14 12 9 11 12 12 13 13 19 21 21 18 14 17 17 16 12 10 16 18 16 16 19 33 44 48 41 32 29 25 23 14 21 24 29 29 27 28 25 26 28 30 36 48 65 83 91 90 82 77 66 53 40 33 32 30 25 28 25 26 18 20 27 41 58 72 82 81 62 43 34 36 38 27 19 18 17 19 19 23 29 27 19 10 5 6 4 4 3 3 5 7 9 10 12 13 13 11 9 10 12 13 10 8 8 11 13 13 11 10 8 8 9 11 13 12 10 9 10 11 11 12 18 16 19 14 11 11 12 12 16 17 17 22 16 19 19 17 27 25 27 27 23 21 24 33 32 46 57 74 65 55 49 63 72 71 65 55 44 37 31 27 21 14 10 20 41 49 53 51 36 73 116 154 128 63 15 9 9 8 8 7 7 7 6 4 4 5 5 7 7 8 8 6 7 8 8 9 8 9 9 8 9 8 8 9 8 7 7 8 8 8 8 8 8 7 6 5 7 8 8 6 6 6 9 6 8 8 8 10 8 6 8 10 14 14 11 8 7 8 7 6 5 4 4 5 5 9 10 10 13 8 10 6 7 8 9 10 9 10 10 8 6 4 6 5 5 3 0 
0 6 8 10 8 10 8 12 9 10 8 8 13 11 12 7 6 6 7 6 6 6 8 9 13 14 16 12 10 8 9 8 10 7 10 9 10 10 9 10 9 8 9 7 8 10 11 12 10 10 9 13 16 17 15 15 13 11 10 8 7 8 6 6 6 7 6 8 7 7 6 6 7 8 8 9 9 9 8 8 11 11 12 9 9 6 6 7 10 10 11 13 11 9 8 9 9 9 9 9 9 9 9 9 9 8 7 6 6 6 6 7 10 12 13 10 9 8 11 42 118 153 143 76 39 25 30 20 25 24 21 16 20 31 41 47 45 42 45 47 48 42 34 23 19 11 14 8 19 17 23 16 17 19 17 41 38 53 32 30 25 23 20 16 10 6 7 10 17 21 21 20 12 13 16 17 21 24 23 31 20 23 13 13 12 12 10 10 7 7 6 8 11 14 18 22 26 30 33 35 27 20 13 16 18 26 23 34 40 59 62 61 49 35 30 20 25 24 29 27 23 16 16 16 15 11 10 10 11 12 12 12 14 18 16 17 16 18 14 17 18 24 23 17 10 7 9 11 12 14 14 15 15 15 11 12 17 17 17 13 15 15 16 14 15 15 21 35 42 40 37 33 27 23 15 18 23 27 31 31 34 36 42 49 58 66 76 84 89 87 79 65 57 45 36 29 26 27 25 20 23 21 23 17 20 29 43 57 67 75 81 72 51 40 33 37 29 22 19 18 19 19 23 28 28 21 12 6 5 5 5 3 3 4 5 8 8 10 11 13 13 12 11 11 10 8 5 5 7 10 12 12 12 10 9 8 12 15 13 11 7 8 9 13 12 19 18 26 17 15 12 13 13 16 18 16 20 16 20 20 20 23 29 26 26 24 24 37 37 34 38 55 76 75 55 42 47 62 70 72 67 58 47 36 28 20 13 10 18 38 47 51 49 33 74 119 152 123 56 13 9 8 7 5 5 6 7 6 5 4 4 5 7 7 7 7 6 8 7 6 8 7 8 8 8 8 7 7 6 7 8 9 10 10 11 12 13 13 11 8 6 7 8 9 8 7 5 7 5 9 8 10 7 8 8 9 9 10 10 9 10 8 6 5 5 5 5 4 5 7 9 12 11 12 9 9 8 10 11 12 11 11 11 11 9 7 5 6 5 6 2 0 
0 6 8 9 8 12 11 11 9 10 10 10 13 10 11 7 7 8 9 10 9 8 8 9 13 14 15 11 9 7 8 9 10 7 9 9 9 10 10 10 8 8 9 9 9 9 9 11 9 11 12 14 12 13 13 13 12 9 9 8 8 8 7 7 6 7 7 9 9 10 7 7 7 10 10 11 10 8 8 8 9 9 11 11 10 7 6 4 5 8 9 10 8 7 7 8 10 10 9 10 9 9 8 8 7 6 5 6 7 7 8 9 10 11 10 9 7 6 9 32 106 147 146 84 43 27 30 23 24 28 27 21 18 24 32 41 45 50 56 59 56 46 34 23 18 12 15 8 18 18 23 23 17 25 23 51 40 53 32 36 33 31 22 16 10 10 11 12 14 18 18 18 13 15 15 17 19 25 24 34 19 21 12 13 13 14 13 11 8 6 6 7 11 15 20 23 26 32 33 32 27 18 14 14 17 25 34 47 60 69 64 51 34 24 23 18 26 22 25 21 20 16 16 14 15 12 17 19 22 20 15 20 22 28 25 28 20 23 18 23 21 26 19 15 11 7 7 8 13 15 16 13 10 8 8 15 22 23 23 17 22 22 21 15 15 18 24 34 42 40 34 28 25 22 16 15 19 22 27 35 43 51 62 75 87 95 96 90 82 70 58 45 38 33 29 27 27 27 23 20 20 18 22 20 21 30 44 57 64 67 77 76 55 41 27 32 26 24 19 18 18 19 25 29 28 23 14 8 6 5 4 3 4 5 5 7 8 9 11 12 13 12 11 11 10 9 6 4 5 7 10 11 10 9 7 6 10 13 13 11 8 7 8 8 10 17 18 19 14 14 13 14 15 14 15 16 17 16 19 18 24 22 29 29 26 30 24 36 38 36 31 47 72 85 65 46 35 46 57 64 65 60 49 37 28 22 17 13 20 37 45 49 45 32 76 121 150 117 50 10 7 7 7 6 8 7 8 6 4 4 5 5 7 6 7 6 5 6 6 8 10 11 12 9 9 6 8 7 6 7 9 11 12 11 10 10 11 13 12 10 8 9 10 10 8 5 5 6 5 10 8 11 7 8 7 7 10 12 12 11 9 7 7 7 7 7 6 5 5 7 7 10 9 10 11 9 9 12 11 17 11 15 11 14 10 8 7 7 6 5 2 0 
0 6 7 7 8 11 13 12 12 10 12 9 14 10 11 7 7 8 11 10 11 9 7 7 8 9 10 8 7 7 8 9 9 7 7 8 9 10 9 9 10 11 10 10 9 10 8 8 10 11 11 11 10 10 12 14 12 9 8 9 9 10 8 8 5 5 7 10 10 12 7 9 6 10 10 12 10 9 8 8 9 9 9 10 12 10 7 5 5 5 6 8 7 7 7 8 10 9 8 7 7 10 9 8 6 4 5 6 7 8 8 9 8 10 8 8 7 6 7 23 90 139 146 92 44 28 30 28 24 29 30 25 20 19 25 33 41 47 52 51 47 39 30 21 17 14 17 11 22 22 27 31 23 33 30 52 40 44 19 29 30 34 25 18 9 8 9 10 11 15 18 18 17 14 12 14 16 25 24 29 20 22 14 12 14 14 13 12 11 12 13 14 19 21 24 26 29 32 31 29 24 16 16 14 23 38 52 65 72 67 52 32 19 18 20 17 22 17 22 19 22 18 23 14 16 15 19 18 18 17 15 23 27 40 33 29 22 21 17 20 19 25 19 15 11 7 8 11 17 17 16 9 6 6 10 19 28 32 29 24 30 29 22 17 16 20 24 27 32 36 34 32 30 23 17 14 13 17 25 38 49 60 73 85 96 98 95 84 68 52 39 32 27 30 32 31 28 23 17 14 14 15 21 19 21 28 42 55 62 63 73 77 61 47 28 29 25 24 18 17 16 18 26 29 28 23 15 9 6 5 4 3 3 4 5 5 7 8 10 11 13 12 11 11 10 11 9 9 8 7 8 8 8 8 6 5 8 11 12 10 7 7 8 9 13 14 16 16 14 12 12 14 14 12 13 14 12 12 15 17 18 22 20 32 25 27 30 40 45 37 25 37 62 85 78 54 35 33 42 49 54 54 46 36 27 23 20 15 20 34 43 46 41 31 77 125 148 110 44 8 6 6 6 6 8 8 7 5 5 4 6 5 9 6 9 8 8 9 7 9 8 8 9 6 7 5 7 6 7 7 10 11 12 11 12 14 15 16 16 14 11 10 10 10 10 7 5 5 6 9 10 13 9 9 7 7 7 8 8 8 8 7 10 9 10 9 6 7 6 7 8 9 9 8 10 9 11 12 10 15 12 17 11 12 8 8 7 7 7 6 3 0 
0 7 8 9 8 12 13 11 11 10 13 9 13 10 10 6 7 9 14 12 14 9 8 5 6 6 7 6 5 6 7 8 8 7 6 8 8 10 9 10 9 12 10 13 11 12 11 7 8 9 13 11 9 8 7 7 7 8 6 9 7 10 8 8 7 7 7 9 9 13 8 12 7 10 9 11 10 9 11 12 12 10 10 11 11 10 10 7 7 6 6 7 7 7 9 10 10 7 7 9 7 7 6 7 7 6 6 6 7 8 7 8 6 7 7 9 9 9 9 15 75 130 144 102 44 30 30 30 24 25 28 26 20 18 20 24 29 33 34 31 31 28 27 23 21 17 17 12 21 23 26 30 29 33 40 52 44 40 16 27 28 31 22 14 10 13 14 14 13 11 18 17 20 14 13 15 18 24 23 24 18 15 13 8 12 12 15 17 13 11 10 13 21 24 30 30 30 29 28 28 24 21 22 18 34 52 67 75 66 53 33 16 16 18 22 24 22 21 15 12 19 19 27 20 24 20 22 23 23 20 18 26 33 42 35 31 23 21 19 23 20 26 22 17 11 6 7 10 14 16 16 11 9 9 15 27 35 35 30 31 35 30 22 19 19 24 30 36 43 43 37 33 31 27 21 19 13 15 25 40 53 64 76 82 85 81 72 64 48 37 25 22 27 31 33 29 25 19 15 14 14 15 22 19 20 20 33 48 58 58 67 76 67 51 33 28 27 23 17 16 16 18 25 29 28 23 16 11 7 6 4 3 5 6 6 5 7 6 8 10 12 12 13 12 12 12 9 10 8 8 8 9 8 8 7 7 7 9 10 11 11 10 8 10 12 14 14 10 8 8 10 11 11 10 10 9 10 12 10 12 13 17 15 25 24 24 33 37 46 37 21 26 48 79 89 70 44 28 30 37 43 46 42 35 28 23 22 18 19 31 37 43 37 32 79 130 146 105 39 6 7 7 7 8 9 9 7 5 5 4 6 5 9 7 8 8 8 8 6 9 9 9 8 5 6 5 6 6 5 6 9 10 12 12 13 14 15 14 13 13 13 11 9 7 8 6 6 5 6 9 11 11 10 8 5 5 7 8 10 9 9 7 10 10 12 13 10 9 9 7 11 8 9 8 8 9 9 10 11 13 14 15 13 10 7 7 8 9 8 8 4 0 
0 6 8 10 7 10 10 10 9 8 9 10 11 9 7 5 7 9 12 10 11 6 6 3 3 4 5 6 6 6 6 7 6 6 7 8 7 9 7 11 11 14 10 11 10 11 11 11 10 9 7 8 5 6 6 9 6 7 6 9 7 8 9 8 8 7 7 10 8 12 8 11 7 7 8 10 12 11 9 9 10 11 10 10 10 12 11 11 10 10 8 6 6 6 8 9 9 10 9 9 7 6 5 7 8 8 7 7 7 7 8 7 6 7 8 10 12 13 10 11 62 120 141 110 47 34 34 34 29 22 26 25 21 20 21 22 19 17 16 15 19 22 26 24 21 17 17 14 16 20 22 25 26 27 47 52 50 43 26 33 29 27 20 16 9 8 8 12 15 17 24 21 23 17 15 18 20 22 20 21 23 18 14 7 12 12 16 14 14 15 17 20 26 29 34 31 28 24 24 27 30 29 23 23 53 65 74 63 44 36 21 12 15 17 21 24 23 24 15 16 16 20 24 23 23 22 22 21 20 19 19 20 24 30 30 26 17 16 13 19 26 33 26 20 15 11 13 18 21 24 23 21 19 19 22 34 40 37 37 34 37 30 20 18 20 21 26 25 30 30 32 31 36 40 31 27 17 21 35 50 63 66 68 63 59 51 42 44 33 32 32 31 34 37 38 31 24 17 13 9 11 17 27 23 20 17 27 42 54 55 60 71 74 58 45 30 32 27 21 16 15 17 22 28 28 23 16 11 7 5 4 4 4 5 5 5 4 4 6 9 13 14 16 17 16 17 13 15 12 11 8 9 10 10 9 9 8 8 8 10 10 11 8 13 14 17 15 9 9 6 7 7 7 6 8 10 12 10 10 11 14 17 20 24 24 23 36 38 47 35 20 19 33 67 91 84 55 29 21 30 35 40 39 34 29 25 23 20 16 26 30 38 31 33 82 135 145 101 33 7 7 7 7 8 10 11 8 7 6 6 7 7 9 9 9 10 9 8 7 9 8 8 5 4 4 4 3 4 4 6 8 9 10 12 11 14 12 12 12 10 10 10 10 9 8 6 6 6 7 9 11 13 13 9 7 5 4 6 7 6 7 7 10 10 11 10 9 8 10 7 11 8 9 8 7 8 8 9 9 12 14 17 13 12 7 7 8 10 11 12 7 0 
0 5 8 9 7 9 6 6 5 6 7 8 9 9 7 5 6 9 10 10 10 8 9 7 6 5 6 7 7 8 9 7 7 6 7 7 6 7 7 10 10 11 11 10 10 12 10 10 9 9 7 8 5 6 3 5 4 6 6 9 9 7 8 8 8 7 6 8 7 9 8 10 11 8 9 8 12 11 14 14 12 12 9 12 11 12 14 13 11 9 7 7 7 7 7 8 8 11 11 10 9 6 7 7 8 8 7 8 9 10 11 9 8 8 8 12 10 14 10 11 56 113 137 115 53 31 36 35 34 24 24 26 24 25 25 21 15 11 14 15 18 20 22 21 19 17 16 14 12 14 14 19 21 23 44 52 58 49 35 35 28 25 15 13 10 12 13 18 18 20 22 21 21 18 17 23 23 24 19 16 15 13 12 9 11 13 18 17 16 12 14 18 25 30 33 28 23 19 21 30 36 32 31 37 62 69 64 46 31 33 28 20 16 15 19 22 25 27 18 18 13 19 21 29 27 25 22 23 23 19 19 21 24 25 22 20 18 17 16 20 23 25 24 21 15 14 14 17 17 18 19 24 28 37 42 46 39 30 34 33 37 28 18 16 19 18 26 28 40 32 30 27 32 42 39 37 27 32 50 66 73 66 61 48 40 30 21 25 20 25 31 36 40 39 32 25 21 16 13 10 13 16 21 22 20 17 22 35 50 56 60 69 78 65 54 32 31 27 23 19 16 17 21 27 29 25 17 11 7 6 5 6 8 9 7 6 4 4 6 8 13 14 15 17 17 17 12 13 12 13 10 10 12 11 11 10 9 8 8 10 11 14 9 14 14 16 15 8 8 6 6 7 7 7 8 9 15 15 16 14 15 17 19 25 25 25 35 40 44 32 19 15 22 54 87 94 68 37 19 28 31 36 36 33 30 28 27 24 16 23 22 32 25 36 91 143 143 94 28 8 7 9 8 9 8 8 7 8 7 7 5 6 7 9 8 9 10 9 6 8 7 8 5 5 3 4 4 5 5 6 6 9 10 14 12 13 11 9 9 8 9 10 8 8 7 8 7 7 8 11 12 12 11 9 7 4 5 6 6 7 6 7 7 9 10 10 10 10 10 8 9 6 8 9 10 11 9 9 11 16 13 19 11 14 7 9 8 12 13 12 7 0 
0 4 7 8 8 8 7 8 6 7 7 8 7 6 5 6 7 9 9 8 7 8 8 8 8 8 6 7 8 8 8 6 8 7 9 7 7 6 7 8 10 10 13 14 13 10 10 10 9 8 7 8 5 6 5 6 6 6 8 8 8 7 7 7 8 8 7 8 8 8 8 9 9 9 11 9 14 12 12 10 10 15 10 10 9 11 12 12 10 8 5 4 3 4 5 7 9 10 13 12 12 10 11 9 9 9 7 8 9 10 11 10 9 8 8 10 7 10 10 11 50 106 132 116 60 29 37 37 40 32 25 23 26 27 29 25 20 15 17 18 17 18 18 18 18 19 20 18 13 13 14 17 15 20 42 53 63 53 46 43 28 19 14 15 11 9 9 15 19 23 19 16 19 23 25 31 26 29 21 21 18 16 10 11 11 14 13 11 12 10 15 21 30 34 32 25 20 16 21 31 40 34 38 43 66 69 49 31 21 29 30 26 20 15 16 23 28 27 24 22 16 16 17 21 23 26 24 25 27 28 23 20 18 15 14 15 15 17 17 21 25 29 27 20 17 18 18 21 24 23 25 30 38 42 45 41 32 28 31 33 39 31 23 17 17 18 22 23 25 22 19 21 28 41 41 41 38 44 63 74 71 58 47 37 31 23 19 19 18 30 36 39 36 31 26 23 18 14 13 11 12 15 22 23 21 20 24 34 47 55 62 69 84 71 60 33 28 29 27 23 15 17 23 31 35 31 22 13 7 7 7 7 7 8 6 7 7 7 8 7 12 12 15 17 19 17 16 13 13 12 12 11 14 14 13 11 11 10 10 11 10 11 7 13 14 13 12 7 7 8 10 11 12 10 10 11 15 15 20 17 22 25 33 33 26 27 34 42 41 31 19 14 15 43 80 99 80 47 22 27 29 33 33 32 31 30 30 28 19 18 16 22 19 42 105 150 138 83 21 9 6 6 6 7 8 7 7 7 7 7 6 7 7 9 8 8 8 7 8 9 9 9 7 7 5 5 5 4 6 6 7 9 10 13 13 12 10 7 7 6 7 10 10 13 10 10 8 10 8 11 10 11 10 9 9 6 5 5 6 7 7 7 8 7 7 7 6 7 8 10 8 6 7 10 12 13 13 11 10 11 9 15 11 18 10 12 8 12 13 14 9 0 
0 3 7 7 9 9 10 11 9 9 6 6 6 7 6 7 7 8 8 7 7 8 9 9 8 8 8 8 7 8 9 8 9 9 12 8 8 6 8 8 11 13 14 13 12 10 7 6 7 7 6 7 6 6 6 6 7 8 8 8 8 8 7 7 6 5 6 6 6 6 5 8 9 9 10 9 12 11 14 16 16 14 12 10 9 11 10 11 7 5 4 4 4 5 6 6 9 10 12 12 12 12 10 10 8 7 8 9 11 11 12 9 8 6 8 9 10 10 9 12 44 100 127 116 66 29 28 35 40 39 33 22 24 28 31 27 23 19 21 21 17 15 14 14 16 21 25 23 16 10 13 17 15 19 40 51 65 52 41 31 21 15 13 12 11 11 11 16 17 17 15 12 21 27 30 32 25 31 22 20 13 11 10 13 13 14 16 12 12 10 18 23 36 37 35 26 18 14 22 30 37 32 44 53 69 59 34 22 22 32 33 29 21 18 18 23 26 25 25 21 19 16 16 19 22 21 23 27 26 23 27 19 20 16 15 16 16 18 23 23 26 21 23 21 19 15 19 17 18 14 19 28 44 52 52 43 33 24 25 27 25 23 20 16 14 17 23 27 25 21 15 17 19 31 35 33 37 43 62 69 61 45 28 25 24 26 30 34 35 39 36 34 28 23 21 19 17 19 14 14 16 16 18 18 22 20 20 25 38 51 64 74 91 76 61 27 22 28 27 27 15 16 24 33 40 39 29 18 11 9 8 8 8 9 6 7 7 7 8 6 10 10 14 17 21 17 15 9 15 12 12 12 14 13 11 11 13 13 14 12 11 10 7 9 10 10 7 6 5 10 12 16 17 13 11 9 14 17 22 17 22 22 29 30 24 26 32 41 38 28 19 14 12 34 72 100 89 56 28 25 27 29 29 29 29 30 33 31 24 15 13 13 18 54 121 154 127 66 13 8 8 8 8 9 9 9 8 7 7 6 4 5 7 9 8 9 9 9 10 8 10 9 8 7 6 6 7 6 9 8 10 12 15 16 15 12 12 11 10 8 8 11 9 13 11 15 10 13 9 14 9 9 7 7 8 5 5 5 5 6 8 7 9 6 8 6 7 7 9 9 9 6 7 10 14 15 14 10 9 9 7 11 11 15 9 10 8 11 11 11 6 0 
0 3 7 5 7 8 10 11 10 9 6 6 4 7 5 7 6 6 6 5 6 6 7 8 9 9 8 7 6 6 6 6 8 8 9 7 7 6 6 7 8 10 14 18 15 10 8 7 6 7 5 7 7 7 8 7 8 8 8 7 6 7 7 7 7 6 6 6 6 5 4 5 6 8 9 8 10 9 11 11 12 16 14 12 10 10 10 9 8 8 6 6 5 4 5 6 9 11 11 14 11 14 11 10 9 7 7 7 10 9 13 10 9 6 7 8 9 9 7 11 32 89 121 119 76 35 22 31 37 40 34 25 23 29 31 26 23 20 23 23 19 17 17 17 21 26 29 24 18 10 15 17 19 23 42 46 59 45 41 30 16 12 11 13 13 11 11 12 16 15 11 12 26 29 32 32 26 37 26 25 16 11 11 12 15 17 16 11 11 9 19 28 43 37 37 23 20 18 26 30 35 35 49 60 64 51 33 21 19 21 24 23 18 17 16 20 21 21 23 22 22 17 16 21 22 22 23 24 31 24 26 17 20 14 15 14 17 20 30 25 30 23 23 18 17 12 17 17 22 19 25 34 44 48 42 32 26 21 21 26 31 38 30 21 19 24 32 29 25 16 13 14 18 20 28 24 32 35 52 58 46 33 20 25 26 24 29 33 35 39 39 32 27 22 18 17 16 15 14 15 16 15 20 19 18 18 17 24 33 43 60 79 101 88 65 25 15 25 28 29 18 17 24 34 43 46 38 27 17 13 10 9 7 7 5 7 9 9 8 6 9 10 13 19 26 27 22 11 10 10 12 15 16 15 11 9 12 13 16 14 12 8 6 7 8 6 4 5 5 12 14 21 21 16 14 9 12 12 17 18 22 27 30 28 20 22 31 39 35 26 18 15 11 28 65 98 95 63 31 20 23 25 26 27 28 30 35 34 29 15 13 10 23 69 133 151 113 48 9 9 8 9 10 11 11 10 9 7 5 5 4 6 7 10 9 9 8 8 10 8 9 7 7 7 6 6 7 7 9 9 11 15 18 19 16 13 11 9 9 7 8 10 11 17 11 16 10 14 11 12 9 7 6 6 8 6 5 4 6 7 10 8 10 6 8 6 6 6 9 10 12 9 9 8 11 12 12 10 9 5 4 7 9 13 13 10 8 9 11 12 7 0 
0 3 7 5 6 8 10 11 9 8 5 6 4 5 4 6 4 4 4 4 5 5 5 5 5 7 7 6 6 6 6 6 6 7 6 6 5 4 6 7 10 12 12 10 9 8 6 5 5 6 5 7 7 8 8 7 8 7 6 6 6 6 7 7 6 5 5 4 5 5 4 3 4 5 7 7 10 8 11 12 14 18 13 13 11 9 9 8 9 8 8 7 5 4 6 6 8 9 9 11 9 10 10 9 8 7 7 6 9 8 12 12 10 8 6 8 10 9 8 8 21 72 112 123 89 44 20 19 26 37 37 32 30 31 30 22 19 19 22 24 23 22 20 18 20 25 26 20 13 5 11 15 21 23 41 41 57 41 37 23 14 10 11 12 13 10 14 13 14 13 11 16 30 30 31 30 23 40 25 25 14 8 11 14 17 18 15 18 17 21 29 37 47 36 40 23 26 23 29 29 33 36 49 59 53 37 23 19 20 21 21 17 17 17 20 22 21 16 16 17 17 21 21 21 21 21 22 19 22 20 23 18 22 19 23 17 18 21 29 28 28 20 23 21 19 15 18 19 22 21 23 34 38 41 33 29 23 18 18 18 20 21 18 17 16 24 34 33 29 17 14 11 19 18 24 16 21 21 36 49 42 33 21 24 27 27 35 42 49 40 37 27 28 23 28 23 21 20 21 18 19 18 19 16 13 13 10 19 26 35 52 78 104 100 70 36 17 28 32 29 26 15 21 29 38 46 40 31 21 16 13 11 8 8 6 7 9 8 8 6 8 11 14 26 34 36 28 17 12 9 9 13 16 16 12 11 14 14 17 15 13 9 7 6 6 5 5 7 6 11 13 20 18 15 14 9 14 14 18 21 21 25 23 19 15 21 31 36 31 23 16 12 9 23 58 94 96 66 31 16 19 21 24 26 28 31 37 38 33 18 13 11 33 86 140 142 96 32 5 10 9 11 10 11 12 10 8 5 5 4 4 6 8 12 11 11 12 10 12 8 7 5 5 5 6 5 6 8 10 12 13 15 17 15 12 10 12 11 11 7 7 8 8 12 9 13 9 12 13 11 11 7 9 9 8 5 5 4 6 5 9 7 9 6 7 7 6 6 6 8 10 9 8 7 8 9 11 8 8 6 5 6 8 10 9 7 8 9 9 10 5 0 
0 4 8 6 7 7 7 9 7 7 6 7 6 6 4 4 4 4 3 5 6 8 8 9 8 6 5 5 7 8 9 8 5 4 3 4 5 6 6 6 6 6 10 13 13 9 6 5 5 5 5 6 7 8 7 6 5 5 6 5 6 9 9 8 8 8 7 8 7 5 4 3 4 6 6 6 7 7 8 8 9 16 14 16 11 9 8 7 7 8 8 7 5 3 4 5 8 7 8 8 9 9 8 8 8 6 7 6 10 10 12 15 11 11 6 8 10 9 8 6 11 54 101 124 103 54 22 12 17 30 36 37 38 33 29 19 15 19 21 23 23 25 26 25 25 25 21 15 10 6 10 13 17 20 38 35 51 36 38 24 15 10 12 13 15 12 15 11 12 12 11 16 29 27 28 32 25 45 29 30 20 15 18 18 16 17 17 23 20 27 37 47 47 35 35 26 34 31 34 33 36 42 54 55 44 34 24 22 16 15 15 14 12 9 12 13 14 15 18 22 26 30 31 32 29 21 22 20 20 16 17 17 20 16 21 13 17 21 25 30 24 21 17 15 15 18 18 25 24 27 27 31 31 37 31 29 22 18 25 26 33 32 27 22 19 34 39 39 33 23 17 15 20 18 21 19 18 20 38 52 44 40 25 29 28 20 25 24 33 29 36 30 38 27 26 17 19 18 18 19 19 18 16 15 10 9 11 21 24 29 40 70 104 114 82 53 19 24 32 27 31 13 17 21 30 39 37 30 21 15 14 13 12 10 8 10 11 9 8 6 8 8 10 21 35 42 37 22 11 9 9 11 14 16 15 13 9 9 13 14 13 10 7 7 8 8 6 8 7 12 13 17 18 18 17 13 16 14 18 24 29 30 22 17 15 22 30 33 29 20 14 10 8 21 54 90 95 66 29 12 14 17 23 26 29 33 41 44 37 22 14 17 46 101 142 131 80 23 6 10 8 11 10 11 13 9 7 3 4 3 3 5 6 9 10 11 10 9 10 7 7 4 4 4 6 5 7 8 8 8 10 14 21 19 14 8 8 7 9 6 6 7 8 9 7 7 6 8 11 9 11 8 8 7 7 5 5 5 5 5 7 5 7 6 6 6 5 5 5 7 8 9 9 8 6 5 8 7 12 8 8 7 6 8 9 7 8 8 9 11 6 0 
0 4 8 6 8 7 7 7 6 6 7 6 5 4 4 5 6 7 6 8 7 9 7 7 6 6 7 6 8 8 8 7 4 4 3 4 5 5 5 6 7 8 10 9 9 8 7 5 5 4 4 5 6 8 6 5 4 5 7 7 9 9 8 9 8 8 8 8 8 7 5 5 5 7 6 7 6 6 7 8 11 15 12 12 8 7 5 5 5 7 8 8 8 8 7 5 7 6 7 6 7 7 7 8 7 6 9 7 11 10 11 12 10 11 7 8 7 9 8 7 6 37 87 122 116 66 27 11 12 25 33 42 42 34 26 16 15 19 20 19 19 19 22 22 20 18 13 10 7 8 8 12 12 17 36 34 51 35 35 19 12 14 14 15 14 12 12 10 8 9 11 13 23 24 27 37 30 49 37 37 29 20 20 18 16 16 19 23 25 34 47 54 47 42 35 35 39 35 39 42 46 55 61 50 37 27 22 24 23 24 20 15 14 16 19 24 25 20 17 17 27 33 42 33 29 25 21 16 17 14 17 19 23 19 23 12 14 18 19 28 21 23 20 20 20 23 22 25 28 27 31 25 28 30 31 27 24 23 33 37 41 28 22 23 25 34 36 45 40 35 32 28 30 28 24 23 22 24 37 48 45 42 35 42 37 27 29 27 33 25 27 26 32 32 36 24 21 23 26 29 20 21 14 13 10 10 10 16 18 23 32 57 94 117 96 70 30 25 30 25 27 12 13 15 25 35 34 27 17 12 13 13 12 10 9 10 11 10 9 6 8 7 9 16 30 33 30 24 15 12 11 14 17 18 18 17 13 9 10 12 12 9 8 8 10 12 11 11 9 12 14 16 16 17 20 19 20 16 22 27 29 27 18 16 14 22 28 30 26 17 11 7 6 18 51 87 93 64 28 9 10 13 20 25 30 36 43 48 42 27 17 22 58 115 144 121 66 17 6 8 8 9 8 9 9 7 6 3 3 3 3 3 5 7 10 10 11 10 8 7 5 4 5 4 6 7 10 11 11 9 10 12 13 11 11 11 12 11 12 8 6 4 4 5 4 4 5 7 9 10 11 11 12 8 7 4 4 4 5 4 4 5 5 5 5 6 6 6 5 7 8 8 9 7 8 6 9 9 11 9 10 9 9 7 6 6 7 9 9 10 5 0 
0 4 8 8 10 8 9 7 8 9 9 9 7 7 6 8 8 8 7 8 8 13 11 12 10 9 9 7 9 10 8 7 4 3 4 4 7 7 6 5 5 6 8 10 10 8 7 6 7 6 5 6 6 7 6 5 5 5 7 7 9 11 13 10 9 8 9 10 9 6 6 6 5 6 6 7 7 6 7 5 8 9 10 9 7 5 3 3 4 5 6 7 8 8 8 6 7 7 7 6 6 6 6 7 9 8 12 9 15 10 11 9 8 8 7 10 9 9 8 7 7 23 72 115 123 82 35 15 13 23 26 36 35 29 22 14 15 17 17 14 13 14 16 17 16 13 10 8 6 10 9 13 9 14 34 33 52 36 37 25 19 20 17 14 10 9 9 7 6 8 9 10 18 21 27 41 36 52 44 42 34 25 20 18 13 13 16 19 25 31 51 56 52 49 38 42 43 37 41 43 52 58 54 42 40 26 29 24 24 17 16 19 17 15 18 20 21 19 21 20 38 34 42 34 27 23 18 14 14 13 18 21 22 17 21 13 16 16 17 22 18 20 16 16 21 21 25 22 30 25 30 23 33 28 36 25 22 31 44 56 57 44 44 28 32 34 37 39 41 41 43 36 37 35 36 33 29 31 37 38 39 31 33 36 34 32 30 35 31 30 27 33 30 28 24 21 23 28 30 32 23 21 16 14 10 8 10 15 15 18 24 44 79 110 105 78 39 20 21 20 19 9 8 11 22 34 33 25 13 11 12 13 11 9 9 10 12 9 8 6 8 7 9 12 17 24 24 21 13 12 13 15 16 18 20 17 13 8 8 12 13 10 10 9 12 14 13 11 9 12 12 16 16 21 23 18 19 18 26 29 26 22 12 12 14 22 25 26 22 16 11 6 7 18 51 85 93 64 29 8 10 12 17 23 29 37 45 51 45 31 20 28 71 128 145 110 54 13 7 7 9 8 9 10 13 9 6 3 4 4 3 3 4 5 7 7 8 6 5 5 4 4 4 5 7 7 9 9 9 10 9 14 15 16 10 7 7 7 8 7 6 4 3 4 5 4 6 6 9 9 12 9 11 6 5 4 5 5 5 4 5 5 5 6 6 7 9 9 8 6 7 7 10 7 8 6 9 9 11 9 10 9 9 6 7 6 8 10 10 11 5 0 
0 4 6 8 8 8 9 7 10 9 11 10 9 9 8 10 10 11 11 11 10 11 10 12 12 10 9 8 7 7 5 4 4 4 5 6 7 7 6 6 7 7 7 7 8 8 8 7 8 7 8 6 7 7 5 4 5 7 8 8 9 9 8 7 7 6 8 8 9 9 7 7 6 7 7 7 9 8 8 7 9 9 8 7 6 6 6 7 8 9 11 12 13 11 8 7 7 8 8 6 5 5 5 8 10 10 13 10 13 9 9 8 8 8 8 8 7 7 9 7 11 14 58 104 123 98 49 22 16 19 18 23 23 21 15 14 16 17 17 14 12 12 12 11 10 8 7 6 5 10 10 13 13 22 39 36 50 36 36 28 21 22 19 12 8 8 8 5 5 7 8 6 11 17 24 42 40 53 46 43 36 26 18 16 12 16 16 17 21 32 53 53 55 45 38 44 38 36 44 45 57 57 48 40 35 27 35 27 31 25 21 18 21 20 24 22 25 18 18 15 27 29 32 31 24 22 18 16 16 18 20 20 21 19 19 17 18 17 17 17 15 15 14 17 20 18 21 18 24 27 31 24 34 27 39 25 23 37 45 63 60 48 43 30 40 33 34 31 38 39 44 43 45 43 43 41 35 32 33 31 35 28 39 36 35 42 38 51 34 34 25 26 23 27 28 31 30 30 30 30 25 20 17 17 15 12 9 11 13 15 22 40 74 107 115 90 50 20 15 15 15 12 9 10 23 36 36 29 13 13 12 12 10 7 7 6 7 8 8 7 9 9 9 10 10 13 14 17 13 13 17 22 23 19 19 17 13 10 11 14 13 11 7 9 11 15 13 10 8 12 12 17 17 21 22 22 21 20 27 31 27 15 6 10 15 21 24 23 20 16 12 8 8 18 50 83 92 66 32 12 15 15 18 21 27 36 45 51 47 34 23 35 84 137 143 100 43 10 9 10 9 7 8 8 10 9 8 5 5 5 4 4 4 5 7 6 6 4 5 4 5 4 5 6 6 8 11 11 10 11 12 15 10 10 10 9 10 11 10 9 6 4 4 4 5 6 8 8 11 9 15 12 13 7 5 5 5 6 6 5 6 7 7 5 6 8 10 9 9 7 9 6 10 6 11 9 12 9 9 7 8 8 8 6 7 6 10 11 11 10 4 0 
0 4 5 9 6 8 7 8 11 10 14 11 11 12 10 13 10 9 8 7 9 12 14 15 15 14 11 8 7 8 6 4 5 5 6 7 7 8 6 7 6 7 5 6 6 8 8 7 9 8 10 7 8 6 6 6 7 8 10 8 8 8 9 8 6 5 6 7 7 9 8 10 5 5 7 9 9 8 8 9 9 7 6 6 5 6 7 8 10 12 12 12 10 9 5 6 6 7 6 6 4 5 4 9 11 15 16 12 12 8 7 7 7 6 7 8 8 8 8 10 12 10 40 89 119 110 64 30 19 17 14 15 14 14 11 13 15 17 17 14 13 14 12 9 8 7 8 8 8 10 10 12 18 28 43 38 44 35 39 43 39 35 22 11 8 9 9 7 6 7 6 6 8 13 22 42 42 55 43 39 28 17 14 15 13 14 11 13 19 36 53 49 52 36 34 35 35 35 40 40 52 44 35 28 25 24 25 24 27 19 18 19 24 19 22 16 18 14 16 17 22 27 28 30 25 24 18 15 13 17 17 19 16 17 16 21 20 22 21 15 13 10 13 16 17 17 15 16 17 25 23 22 28 21 24 17 19 33 42 61 58 54 44 36 32 27 30 25 29 30 35 34 36 37 37 36 33 31 33 31 35 29 30 25 22 35 40 54 40 31 22 21 21 21 26 32 34 34 31 24 18 17 18 19 18 15 12 14 18 19 30 38 66 98 119 103 67 28 12 14 15 15 9 12 25 34 34 24 12 14 13 14 12 8 7 5 7 7 8 7 8 8 9 10 9 11 12 14 13 12 15 18 18 19 17 16 11 9 13 15 13 11 6 10 11 14 12 9 6 10 12 16 13 18 18 20 19 24 29 32 26 17 8 12 20 24 25 22 19 16 12 9 9 19 50 83 94 70 39 18 17 17 18 19 26 34 45 49 47 34 25 41 94 144 139 89 30 8 8 7 8 8 9 10 11 9 8 8 8 6 5 4 6 7 6 5 4 4 4 4 4 4 5 6 6 7 6 8 9 10 10 11 8 6 5 6 7 9 7 9 5 5 5 6 7 7 8 8 10 9 12 11 12 7 5 6 7 9 7 6 7 6 6 5 7 9 12 10 10 7 8 6 9 8 13 11 14 10 9 6 6 7 6 7 7 6 10 10 10 8 3 0 
0 5 5 9 5 7 7 9 11 12 11 12 11 11 10 10 9 9 10 8 9 9 10 13 13 11 9 8 6 5 6 7 9 8 9 8 8 9 7 8 6 7 5 7 6 9 7 7 8 7 8 7 7 7 7 6 8 9 13 9 9 4 5 3 4 4 5 7 9 11 7 9 5 7 8 9 10 10 8 9 11 9 6 5 4 6 8 9 14 13 17 19 13 10 5 7 6 7 5 5 5 7 6 8 9 10 11 9 9 8 8 8 9 9 11 8 7 6 6 8 10 11 27 74 112 117 80 39 21 16 13 11 10 10 10 11 13 16 15 14 13 16 15 13 10 9 11 13 13 13 13 14 22 31 43 39 40 30 34 37 41 39 23 14 10 14 11 11 10 9 7 5 7 10 21 42 42 55 38 34 25 16 17 17 16 15 10 10 17 38 52 49 43 24 24 23 33 33 45 43 50 41 33 21 21 18 18 20 20 19 21 19 18 18 19 15 16 16 15 14 15 20 24 25 20 17 15 19 16 17 13 16 14 17 17 21 21 20 17 14 11 10 11 12 14 12 10 15 14 23 19 21 19 22 21 17 18 24 32 37 34 35 31 31 30 31 25 18 21 22 26 27 26 26 28 29 25 25 28 30 33 30 29 24 21 29 37 42 35 28 24 21 23 21 24 27 32 31 26 21 20 22 26 25 25 18 18 19 21 24 32 37 61 86 114 110 83 41 17 16 17 21 14 18 28 32 32 19 11 13 11 14 13 10 10 4 5 6 7 7 6 7 9 13 14 16 16 15 14 14 16 19 16 19 15 15 10 11 16 16 13 7 5 9 14 14 14 10 7 11 12 15 13 17 18 23 21 24 30 36 28 22 12 17 22 27 25 22 19 16 12 11 11 23 53 87 97 73 40 19 17 18 19 21 27 34 44 47 45 34 25 48 103 147 133 77 21 7 8 9 8 7 5 6 6 8 8 7 7 5 5 5 5 5 5 5 4 4 4 5 6 6 7 6 6 6 6 7 7 8 10 9 7 4 5 9 11 13 9 11 7 8 6 7 7 5 6 6 7 11 11 14 11 9 7 7 7 8 7 7 7 6 7 6 7 6 8 7 9 7 8 7 9 11 14 16 14 10 8 7 6 6 6 7 6 6 9 8 8 6 2 0 
0 4 6 8 6 5 7 7 11 11 13 11 11 9 10 8 8 6 7 6 7 9 9 12 11 12 9 7 6 6 5 7 11 12 11 9 9 7 7 6 7 8 8 8 6 7 6 7 7 7 6 6 5 7 6 8 9 8 10 9 9 5 5 5 7 7 6 7 8 9 7 8 5 5 7 8 7 7 7 10 9 8 7 6 5 6 8 7 12 12 16 14 12 9 5 6 4 5 4 4 4 5 4 5 7 10 12 10 9 8 8 9 10 11 13 12 10 7 7 8 8 8 16 60 103 119 93 47 23 16 13 12 11 9 8 8 10 13 12 12 10 15 16 16 14 13 15 16 18 17 14 11 15 28 45 44 49 34 45 55 55 47 26 18 12 20 15 14 11 8 7 6 7 8 18 40 40 54 33 30 21 13 15 18 17 15 8 6 14 37 50 50 38 23 24 16 38 32 48 46 53 43 36 21 22 13 14 19 23 22 23 26 27 24 16 14 13 13 16 17 21 24 28 27 23 19 17 17 13 12 11 12 14 16 19 19 21 18 15 13 10 11 13 12 13 12 11 16 13 20 15 16 12 12 10 12 15 19 27 28 27 27 27 27 35 30 28 29 26 24 20 21 15 17 13 16 18 26 33 37 43 35 27 19 16 19 24 29 23 20 21 27 30 27 25 22 28 27 31 32 36 38 40 33 32 25 28 24 32 35 37 37 50 66 98 108 97 58 30 19 17 21 13 22 30 33 29 15 8 10 9 13 14 13 14 8 7 6 6 6 6 7 7 11 12 15 20 22 22 17 15 14 12 16 14 16 11 12 16 16 12 5 7 7 17 15 16 11 11 14 14 15 13 15 20 22 26 25 26 30 28 23 21 24 25 28 24 23 19 14 10 11 12 28 61 95 101 75 40 19 15 16 19 24 28 35 43 45 43 33 25 53 110 150 128 66 15 5 5 7 7 9 8 8 7 6 8 7 9 7 5 4 5 6 5 5 5 5 5 5 5 6 7 7 5 4 4 4 4 4 6 5 4 3 5 8 12 11 10 9 6 8 7 8 5 4 4 5 6 10 9 14 11 10 7 6 7 7 7 5 5 6 6 7 8 7 8 7 10 9 11 8 12 15 14 15 12 13 12 10 8 8 7 6 6 5 5 5 6 4 3 0 
0 4 6 6 6 4 7 6 11 10 12 9 10 6 6 5 6 6 7 6 7 9 7 9 7 7 7 8 7 6 6 9 11 11 12 11 8 6 6 5 7 6 7 7 5 5 5 6 6 5 4 4 3 6 4 7 7 11 13 12 10 7 6 5 7 6 6 7 8 7 7 5 5 5 6 8 8 7 7 7 8 7 5 6 7 7 8 7 9 10 13 11 13 8 7 7 7 7 4 4 4 6 6 6 5 6 6 6 7 9 9 11 11 13 16 14 11 8 5 6 9 9 13 49 94 118 102 57 27 16 12 12 10 8 7 7 7 10 9 10 6 11 13 16 16 15 15 15 18 18 16 13 16 28 50 49 61 40 45 40 41 39 21 17 13 20 15 15 15 12 10 7 7 8 18 38 39 49 31 31 23 16 15 18 16 16 8 6 12 35 47 50 37 23 20 16 37 34 54 53 56 45 34 20 22 18 18 20 24 28 34 37 37 31 23 18 13 14 19 15 21 22 27 20 13 10 13 16 15 13 14 16 22 15 22 18 19 16 11 11 11 12 12 12 13 14 12 14 11 13 12 14 15 19 16 12 12 13 16 15 14 14 22 26 35 32 33 26 25 31 26 25 17 22 16 18 17 23 29 30 28 23 24 24 22 20 17 17 18 26 27 32 34 31 23 17 18 23 29 32 46 53 54 40 31 23 28 27 38 34 42 35 32 43 74 97 104 75 47 23 19 20 12 25 33 36 31 16 10 11 9 12 13 13 14 10 9 7 6 6 6 6 7 12 14 18 26 26 28 21 16 17 12 17 14 18 15 16 17 15 13 5 6 6 16 16 20 14 13 15 18 15 16 19 25 21 27 25 35 30 26 19 24 25 28 27 24 23 19 13 10 10 16 39 77 109 103 70 33 16 15 19 24 29 32 36 42 43 40 32 24 57 116 151 125 60 10 5 7 7 8 7 6 5 5 5 7 6 7 6 7 7 6 4 4 4 4 4 4 4 6 7 7 7 7 7 5 4 5 6 7 6 5 4 8 7 14 10 12 10 10 10 7 6 3 3 3 3 5 9 8 10 9 9 10 8 8 9 8 7 6 5 6 8 7 5 5 6 11 9 12 9 14 15 17 16 13 10 8 7 6 5 6 6 6 5 7 4 5 5 4 0 
0 4 6 5 6 4 7 7 9 11 11 9 8 5 6 3 5 4 6 7 8 9 7 7 6 7 8 7 7 6 6 8 10 14 12 13 14 12 9 6 6 7 7 6 5 5 6 5 7 5 5 4 3 4 4 8 9 9 8 8 8 8 8 8 9 8 6 4 5 5 5 5 4 5 4 5 5 6 8 6 6 5 4 6 7 7 8 8 8 8 9 8 10 7 8 6 6 6 5 5 4 5 5 6 6 7 8 8 5 8 9 13 12 12 15 13 11 9 8 8 8 7 10 40 82 113 107 68 33 16 11 10 9 7 5 5 6 7 7 6 4 7 9 14 15 14 12 11 13 14 15 13 13 29 53 53 64 45 54 49 41 33 19 17 14 18 17 18 13 10 8 6 6 8 19 38 36 46 32 37 27 18 13 16 16 18 10 9 13 32 44 44 37 24 22 17 33 34 56 57 54 42 28 21 24 24 22 27 31 32 34 33 35 31 23 15 14 16 18 19 24 22 21 17 15 11 14 15 12 11 12 14 19 13 19 15 18 15 12 10 10 10 10 10 10 12 12 14 14 16 15 17 17 19 17 13 10 11 14 12 11 13 17 18 25 24 25 27 26 27 22 24 21 24 23 22 18 22 27 29 30 27 22 18 16 17 14 16 15 23 28 40 44 35 30 19 15 18 29 41 53 52 47 38 29 27 30 27 40 43 48 36 29 34 52 82 104 90 66 31 20 20 14 26 35 40 32 19 11 14 13 15 14 13 13 11 10 7 7 7 7 8 8 10 10 12 26 29 36 30 26 31 22 19 14 19 19 18 16 14 12 8 7 9 16 17 17 13 12 13 15 16 21 25 30 25 30 24 32 29 26 19 26 27 28 22 21 21 17 11 8 11 24 57 98 118 98 59 24 17 19 28 34 38 37 39 41 42 39 30 24 57 120 152 122 54 8 6 7 7 7 6 6 5 5 5 5 5 6 8 7 7 7 6 5 5 4 5 5 7 7 7 8 8 7 5 4 5 6 7 7 7 5 4 9 8 12 8 9 7 10 9 8 6 4 4 5 5 5 7 6 8 7 7 7 9 9 11 9 8 5 6 7 8 8 6 5 6 11 9 13 9 15 12 15 12 12 11 12 9 7 6 6 6 7 6 6 5 7 7 4 0 
0 3 6 4 5 5 7 8 8 8 7 6 6 6 6 4 7 7 10 8 8 7 7 7 7 7 8 7 8 7 8 9 9 9 11 14 12 11 8 7 6 6 4 5 4 5 7 6 7 5 5 5 5 5 5 6 9 12 12 9 8 8 9 10 8 7 5 4 3 5 4 5 4 4 5 6 6 6 7 7 6 5 5 6 7 9 10 10 9 6 6 4 8 6 8 7 8 8 6 7 6 7 6 7 6 7 6 7 5 6 7 9 9 12 10 9 9 7 7 9 9 10 7 29 66 104 108 79 43 19 12 9 8 6 4 5 5 6 5 5 4 6 6 10 11 10 8 5 8 10 12 14 15 43 56 59 62 48 50 36 24 20 19 19 16 18 13 11 9 10 8 6 6 9 21 39 34 48 33 40 26 18 12 15 15 18 13 14 16 32 45 41 39 20 19 14 30 31 54 52 50 36 19 21 24 24 25 29 30 33 33 34 38 35 27 19 18 17 17 19 19 23 21 14 9 7 10 13 13 13 13 13 16 12 14 12 16 16 14 16 13 14 17 18 20 21 20 19 16 16 15 19 20 25 20 16 12 10 10 9 8 11 13 15 15 16 17 18 19 24 22 22 21 21 21 21 20 21 22 21 24 23 26 26 25 20 16 16 16 25 26 28 37 37 38 21 15 13 19 28 35 49 38 30 21 21 26 31 36 38 38 33 23 27 36 65 95 94 78 45 23 23 15 25 35 40 32 22 15 23 23 20 16 13 13 12 10 8 9 9 8 10 10 12 12 13 23 29 31 35 29 40 28 26 20 23 23 19 16 15 13 9 8 14 15 18 16 13 10 14 14 17 19 24 27 22 24 25 35 32 25 22 22 25 25 23 21 21 16 11 9 18 42 86 122 121 88 47 22 22 28 40 45 46 43 41 41 42 37 27 23 58 125 151 118 51 8 7 7 7 5 4 3 3 3 4 7 8 7 7 7 10 8 8 7 6 4 5 8 9 9 8 7 6 7 7 6 7 9 13 12 9 7 8 11 9 9 7 9 8 12 9 8 4 5 6 7 5 6 6 6 6 6 8 8 12 10 16 11 10 6 6 6 5 6 5 6 6 8 8 11 9 13 11 15 13 15 11 8 6 5 5 6 6 6 8 6 6 5 7 6 0 
0 3 7 5 7 7 7 8 9 8 8 5 5 7 6 7 6 7 9 7 7 5 6 6 5 5 6 6 5 6 7 8 9 9 11 12 14 15 10 8 6 6 5 5 4 7 6 6 5 4 5 5 6 5 7 9 13 10 7 5 6 10 11 10 9 8 4 5 2 6 4 6 5 6 5 5 4 6 7 7 6 5 4 4 5 7 8 8 8 5 6 4 8 7 9 7 6 7 8 8 8 9 8 8 7 6 6 5 5 5 7 10 9 9 8 9 7 7 8 9 8 9 8 23 50 91 105 90 56 26 16 12 9 6 4 5 5 6 5 6 6 7 7 8 8 9 8 6 7 10 11 16 15 43 50 60 53 47 46 33 26 25 21 20 16 17 16 13 10 8 7 6 8 13 24 38 32 50 36 46 29 18 13 13 16 17 15 15 18 32 48 42 40 20 20 12 20 24 51 45 46 27 18 19 27 30 29 26 29 29 23 21 22 20 18 16 17 18 16 16 14 15 15 12 12 10 12 16 17 15 14 13 15 15 19 21 24 26 24 25 25 27 28 28 29 30 30 30 29 29 26 25 19 21 18 19 16 14 11 10 10 12 10 10 7 6 10 11 15 17 18 18 18 17 18 18 19 19 21 20 24 26 28 23 19 14 12 12 12 18 25 30 43 43 44 33 23 17 21 34 26 29 20 22 20 23 25 31 32 33 33 27 18 23 27 47 78 91 82 56 26 25 18 30 36 37 29 20 21 26 31 25 24 17 16 13 12 9 11 12 10 14 13 15 14 14 19 30 30 43 33 51 35 32 28 29 29 22 16 14 12 10 9 16 22 26 16 13 9 12 10 16 20 28 30 26 26 26 33 33 26 22 18 23 20 19 16 16 15 12 12 32 70 118 135 111 73 35 26 30 39 51 55 53 48 43 41 40 33 23 21 62 130 151 114 47 7 8 8 6 5 4 4 3 3 5 5 6 6 7 7 9 8 10 8 8 7 7 10 12 11 9 9 8 7 5 4 8 10 12 10 10 8 8 9 9 7 4 6 8 10 8 7 6 8 8 9 7 8 6 7 6 5 6 7 12 10 13 9 8 8 6 8 8 9 8 8 6 8 8 10 10 10 8 11 10 12 12 10 11 7 7 7 7 7 8 5 6 6 7 5 0 
0 4 8 6 8 7 7 7 8 7 6 4 4 7 6 8 5 8 7 6 5 3 4 6 7 8 7 6 5 5 8 9 7 8 8 10 10 10 7 7 5 6 6 6 5 6 6 6 4 4 5 6 8 7 8 8 8 8 8 8 10 10 10 10 10 9 6 7 4 7 4 5 5 7 7 6 5 6 7 7 8 6 6 4 4 6 9 9 8 4 5 4 7 7 8 7 7 6 8 10 9 10 7 10 5 6 5 5 6 6 7 6 6 7 7 8 6 6 6 8 11 10 9 15 34 74 98 96 70 38 23 15 11 7 5 5 6 6 5 6 7 8 8 8 9 10 8 8 9 12 12 15 17 44 48 58 52 51 46 35 21 19 18 19 18 15 12 8 8 9 9 10 14 17 23 33 28 46 38 42 25 17 17 17 20 16 16 13 20 33 50 50 47 27 19 13 16 22 43 36 40 18 21 19 24 27 33 32 34 29 24 22 22 21 20 17 16 18 14 14 17 18 19 18 18 18 25 28 29 27 28 30 33 34 36 38 40 43 44 45 46 47 47 45 44 45 45 45 43 42 37 32 25 23 19 21 21 19 19 17 17 16 13 10 9 9 12 13 16 16 18 17 16 15 15 16 19 21 23 25 29 33 35 34 32 26 21 20 21 25 26 23 30 35 37 28 25 25 31 35 31 34 26 26 20 25 25 27 30 21 20 16 19 26 26 33 59 82 82 63 29 24 17 30 31 34 25 18 24 25 36 28 31 20 21 15 19 12 12 14 12 18 17 16 14 16 18 31 27 39 31 36 34 32 38 32 34 23 21 16 15 9 10 18 19 20 14 13 10 14 13 16 15 20 20 22 31 33 36 30 25 21 17 19 18 18 16 15 14 14 20 52 101 137 128 88 50 33 37 43 51 60 61 56 48 43 40 38 29 20 21 71 136 151 109 42 9 10 8 6 6 4 5 4 3 6 8 10 10 10 10 11 9 9 8 8 7 9 11 12 11 8 7 6 7 5 4 7 9 14 10 10 8 13 10 10 7 7 8 8 9 8 6 5 9 10 13 8 9 8 9 8 8 7 9 9 10 10 9 6 9 6 8 8 8 10 9 7 10 9 10 9 8 8 9 10 10 12 9 11 10 11 10 9 8 9 6 5 4 7 5 0 
0 4 9 8 10 8 9 6 6 6 6 5 5 5 6 7 5 6 5 4 3 3 5 7 6 6 6 7 7 7 6 7 7 7 6 8 7 7 5 6 5 8 5 6 5 6 6 6 4 4 5 6 7 9 8 9 8 7 8 9 13 12 13 8 9 9 8 8 7 9 7 8 9 8 8 8 5 7 8 10 11 8 8 5 6 6 7 6 7 4 5 5 7 8 7 7 5 6 7 8 7 11 6 11 5 7 4 6 6 6 8 8 8 9 9 10 7 8 9 9 11 10 10 11 23 56 86 98 84 54 32 20 13 9 7 4 6 5 5 6 7 8 7 6 8 10 9 11 9 15 16 19 24 41 44 52 47 49 43 32 24 24 23 17 16 17 16 11 8 9 10 14 19 20 20 25 24 40 37 37 24 16 14 17 22 16 16 8 14 31 46 52 42 28 17 12 10 20 35 31 33 16 20 22 31 33 35 34 36 30 27 22 22 16 13 14 15 20 20 24 26 27 28 30 34 38 43 44 44 43 43 44 47 48 48 48 49 51 53 56 58 57 54 49 48 50 52 53 50 50 47 43 38 34 33 34 35 32 28 23 22 21 21 19 18 18 21 20 22 20 21 20 19 17 16 17 21 25 29 32 33 36 38 41 40 39 36 33 30 27 25 25 29 29 33 29 27 23 28 31 30 25 22 31 27 31 23 26 35 32 34 28 26 28 25 29 44 69 73 64 33 27 26 41 35 36 19 15 21 20 35 30 35 22 29 21 24 14 11 12 14 20 18 16 13 17 19 34 34 37 35 27 30 26 44 38 46 24 24 13 12 9 11 18 25 26 17 10 8 12 12 18 16 21 24 29 32 31 30 22 18 14 12 15 17 17 15 15 15 17 31 74 125 142 112 66 37 42 50 56 61 64 61 53 45 40 37 34 27 20 27 84 142 150 102 36 8 8 6 6 6 6 7 5 6 6 8 7 9 8 9 9 9 8 6 7 7 9 10 9 8 7 6 8 8 8 9 10 10 10 8 11 8 9 7 10 7 9 8 10 8 6 6 7 11 10 11 9 10 9 9 7 8 7 10 9 10 8 9 7 8 7 8 10 9 10 10 7 11 9 12 9 8 7 7 7 8 10 11 12 12 10 9 8 7 8 6 5 3 5 4 0 
0 4 9 7 9 7 8 6 6 5 5 5 5 5 7 7 6 6 5 4 3 4 4 5 5 6 7 7 6 7 7 9 8 6 6 7 6 6 4 7 6 9 5 6 4 5 5 6 5 5 4 7 8 10 10 8 6 5 8 11 16 13 10 7 8 8 7 7 6 7 6 6 7 9 9 9 5 7 6 9 11 8 7 4 5 5 6 6 6 5 7 5 6 7 6 5 4 4 6 7 7 9 6 9 6 6 5 6 7 9 9 7 8 8 10 10 8 8 10 9 11 8 9 9 16 39 68 93 95 75 48 28 17 12 8 4 4 4 3 4 5 6 7 6 7 8 8 11 10 18 21 22 30 39 41 45 36 43 40 29 24 17 17 16 16 13 13 11 8 10 10 18 22 22 21 22 24 35 34 31 25 19 19 24 25 17 15 8 11 26 36 48 42 33 19 13 9 19 30 30 27 16 19 20 26 31 40 40 35 28 28 23 22 17 15 18 21 28 28 30 32 36 40 43 44 47 49 47 44 42 44 47 47 45 42 40 39 42 45 50 51 50 44 40 38 39 40 43 42 44 45 47 48 47 46 45 46 47 47 44 42 39 35 32 29 29 30 28 27 24 22 21 22 23 23 23 24 28 34 40 43 45 45 47 49 52 49 46 42 36 32 25 24 26 26 20 19 21 27 31 32 29 22 28 29 37 39 40 38 36 35 36 37 44 34 29 35 60 66 62 39 29 27 40 34 35 17 15 16 17 28 29 36 27 34 28 29 17 10 12 13 17 16 13 11 16 23 28 38 34 35 26 28 30 39 35 40 28 30 16 15 11 12 18 16 14 11 8 8 13 13 18 18 23 20 27 31 33 26 18 14 15 14 16 16 16 16 17 18 23 45 93 136 127 89 43 38 51 61 66 65 62 56 47 39 35 33 30 24 20 37 98 148 145 92 30 7 7 5 6 6 8 7 7 8 7 10 9 11 10 12 11 9 6 5 7 9 10 10 9 8 7 5 5 6 6 7 7 9 10 9 9 8 9 7 9 8 13 9 10 6 6 5 5 8 9 10 9 7 9 9 8 9 8 10 9 9 8 8 8 7 9 7 10 9 9 10 8 12 10 12 9 8 7 5 5 7 9 13 11 15 12 12 10 7 8 6 4 4 5 4 0 
0 4 7 7 7 8 9 8 7 5 5 5 5 5 7 7 8 6 5 4 3 5 4 5 6 5 6 6 6 7 6 7 6 6 6 6 6 5 4 7 8 9 6 6 5 5 6 6 5 5 5 6 8 10 10 8 6 5 7 9 11 10 8 5 4 5 5 6 6 8 9 9 10 9 8 7 5 6 7 8 9 8 8 6 5 5 5 4 5 4 5 6 6 6 6 5 4 4 5 4 5 5 6 6 6 5 6 5 6 7 7 6 9 10 14 13 10 8 10 9 9 6 8 8 11 26 47 79 97 94 69 41 21 13 9 5 4 4 4 5 5 4 3 3 5 8 8 10 8 16 21 22 34 39 40 40 32 40 34 23 18 18 19 15 14 14 16 13 10 12 12 20 21 21 18 20 23 29 31 23 22 19 17 18 20 17 15 8 10 18 26 39 38 32 22 12 10 17 23 28 25 18 16 20 29 34 38 36 33 33 32 36 40 31 27 30 34 39 41 45 49 54 56 56 55 52 49 42 37 35 35 35 33 31 28 27 25 28 31 35 35 35 31 30 27 28 28 29 27 27 30 36 40 42 42 44 48 53 55 55 53 53 49 45 40 38 37 36 35 31 28 25 24 25 26 27 29 33 38 44 49 51 49 48 50 54 53 50 44 38 35 31 31 27 27 25 21 19 22 26 24 23 15 20 26 30 30 34 39 47 45 43 37 40 34 30 31 50 61 56 41 35 36 44 35 35 22 15 13 16 26 29 38 28 39 36 33 19 10 12 13 14 12 11 11 13 25 25 42 34 36 29 21 21 26 33 33 25 22 15 16 17 17 22 19 18 12 6 5 10 12 17 18 21 19 28 23 25 18 10 8 10 10 12 13 14 15 20 20 28 53 100 131 119 91 52 59 67 71 70 63 56 49 40 33 30 28 25 21 24 51 112 152 137 78 21 5 3 3 6 6 9 7 9 9 8 8 7 8 7 8 7 7 5 5 8 11 12 11 9 7 7 5 4 5 6 9 9 11 10 10 12 7 6 4 7 7 12 8 10 6 6 5 7 8 9 9 9 7 8 6 7 7 7 8 8 8 7 8 8 6 8 8 9 8 8 8 8 9 10 11 12 10 9 6 5 9 11 14 10 11 9 8 6 5 7 6 5 5 7 5 0 
0 3 5 6 6 7 7 7 8 5 5 4 4 5 6 8 9 6 6 4 4 5 4 5 4 4 5 5 5 6 6 8 7 6 6 6 6 5 5 7 8 7 6 5 7 6 7 5 5 6 6 7 9 10 10 8 7 5 7 10 11 8 5 4 4 5 4 4 4 5 6 6 8 8 10 9 8 5 4 6 7 6 5 4 5 3 4 3 3 5 5 6 5 7 5 6 5 5 5 4 4 4 5 5 5 5 5 5 6 6 7 7 8 10 12 12 10 9 9 8 8 7 8 9 9 16 27 56 87 104 93 61 31 15 10 7 6 5 5 6 6 6 5 4 5 8 8 9 8 14 21 22 35 39 38 35 29 35 30 21 14 14 13 14 11 12 13 12 10 13 15 21 20 21 17 21 25 26 30 23 28 23 21 19 21 18 17 13 12 14 19 32 40 37 32 16 18 17 23 33 33 28 21 21 32 37 41 42 37 39 38 43 46 46 49 55 60 65 68 70 73 76 76 73 67 59 51 39 30 24 21 18 20 24 31 33 31 30 26 23 18 21 19 21 17 15 14 12 13 15 19 23 28 32 34 36 38 41 45 48 50 51 50 47 42 38 37 37 38 35 33 30 29 29 29 29 31 34 36 40 44 48 45 43 42 44 45 45 47 50 51 48 44 37 34 30 27 24 21 23 18 18 11 14 17 26 32 36 37 46 42 45 45 50 50 44 39 44 53 48 41 32 28 36 34 36 31 26 20 20 27 29 42 34 47 41 35 25 15 16 15 12 12 12 10 11 21 22 32 33 37 33 29 24 22 18 22 23 22 19 21 23 25 25 22 17 11 9 7 10 12 15 19 26 23 30 25 26 17 10 9 10 11 10 11 12 14 19 19 28 52 93 120 116 93 72 76 73 70 63 55 49 43 35 30 27 23 20 17 25 63 125 153 125 64 14 6 5 5 7 5 8 6 9 8 9 9 9 8 7 9 7 7 5 7 9 11 12 9 8 7 5 4 3 3 4 6 6 9 9 8 9 6 7 4 5 6 8 8 7 7 7 7 6 5 6 6 7 6 6 5 6 5 6 6 6 6 6 5 6 5 7 9 8 8 8 7 7 7 10 10 14 10 11 7 7 10 12 13 10 9 9 8 8 7 8 8 7 6 7 5 0 
0 3 6 7 6 7 6 8 6 6 6 5 4 5 5 5 5 5 6 4 4 5 4 5 4 5 5 5 5 6 6 9 8 7 8 6 6 4 6 7 9 9 7 6 7 5 7 4 5 5 6 7 8 9 8 6 5 6 7 8 7 5 4 3 5 5 4 3 3 4 7 8 9 9 8 7 7 6 7 5 7 6 8 5 5 3 3 4 4 5 5 8 6 9 7 9 5 4 4 2 2 3 4 5 5 6 6 5 4 4 4 6 7 10 11 13 10 8 7 9 8 7 6 8 7 9 13 34 68 101 109 83 46 21 12 10 9 6 6 6 5 5 4 3 5 9 11 10 8 13 20 20 31 37 39 40 40 40 38 22 17 17 15 15 14 17 15 13 12 17 17 21 20 20 17 18 24 25 29 24 27 23 19 11 15 19 19 15 13 12 16 29 43 40 36 18 22 20 29 40 48 44 37 29 37 40 45 49 47 52 56 68 78 86 89 94 98 99 99 98 95 92 89 84 76 66 56 43 33 25 18 18 30 37 45 43 42 46 44 40 26 28 32 44 44 40 36 26 19 11 12 18 27 31 33 34 36 39 43 42 41 39 36 34 32 29 29 31 34 33 33 32 32 31 28 26 26 27 27 29 30 36 33 34 28 27 29 33 42 51 59 61 58 51 45 40 38 38 32 32 21 20 13 14 13 13 13 16 27 36 42 51 48 49 44 43 45 50 57 51 47 37 29 28 37 40 43 34 23 21 32 35 46 38 45 43 37 30 18 19 19 20 20 17 15 14 17 21 24 27 32 26 24 13 14 14 17 15 14 16 23 29 36 29 21 17 10 8 7 13 14 16 19 23 23 27 26 27 20 13 8 7 8 8 10 11 14 17 17 24 44 80 107 116 107 94 84 73 64 55 48 45 41 37 31 25 19 16 17 29 72 131 151 115 50 8 5 6 6 7 5 7 6 9 7 8 7 9 7 6 9 6 8 5 8 10 12 11 9 6 5 5 4 4 5 6 7 7 8 8 8 9 7 5 4 4 6 6 7 5 7 6 9 6 7 7 7 7 6 6 5 5 5 5 4 4 4 5 4 5 4 6 7 8 9 9 10 9 9 9 10 12 11 12 10 11 14 12 11 7 7 8 8 7 6 7 8 7 6 7 5 0 
0 4 6 7 8 8 5 6 5 6 5 4 4 4 4 5 5 4 5 5 6 6 5 6 5 5 5 5 5 7 7 7 8 8 9 6 6 4 5 8 8 8 7 6 6 5 7 4 7 6 8 8 7 7 5 6 6 7 7 9 7 5 3 4 5 6 5 2 2 3 4 6 8 9 10 11 10 7 8 5 7 5 7 5 5 3 4 5 5 7 6 7 7 8 8 8 6 5 4 3 3 4 6 7 6 5 5 4 3 2 4 5 6 7 8 10 9 9 8 9 8 10 7 7 5 5 5 15 43 84 112 103 66 31 17 13 9 5 5 7 6 5 4 5 8 11 12 10 8 13 21 21 33 41 44 42 47 41 46 28 30 25 19 17 18 16 14 13 11 16 17 19 18 17 17 18 26 28 32 30 28 24 17 15 21 24 20 16 13 12 17 29 43 43 37 21 25 24 34 42 55 49 43 35 43 44 46 51 54 63 65 76 87 97 101 104 103 103 102 99 93 86 80 76 71 62 58 53 48 41 29 30 45 53 64 57 56 61 60 55 45 53 59 72 68 66 63 55 46 33 34 41 55 61 59 52 46 42 38 33 28 23 22 20 19 17 18 19 22 22 22 24 25 29 29 30 30 30 29 26 21 25 22 26 21 20 22 26 34 40 47 53 52 49 47 44 43 45 39 41 25 24 16 18 17 14 13 13 25 32 48 54 56 61 52 46 41 49 62 59 52 34 28 21 36 41 57 47 39 30 32 35 46 40 38 40 35 32 21 21 21 24 25 25 21 18 17 18 18 19 29 25 29 17 17 16 17 16 13 12 20 26 32 29 23 21 15 12 11 13 18 20 26 27 31 29 29 28 20 16 8 8 6 7 9 11 13 16 17 23 36 62 89 107 108 98 82 68 56 49 45 43 40 36 29 21 18 18 20 30 75 133 148 107 41 7 7 8 8 7 5 5 6 8 8 10 7 7 7 6 9 6 10 9 14 11 11 8 8 5 4 4 4 5 6 6 7 6 5 6 6 6 7 8 7 6 6 5 5 4 7 6 10 6 8 5 7 5 5 5 5 5 5 5 4 5 5 6 4 4 3 5 5 9 8 12 11 11 11 9 9 10 7 9 9 9 11 9 8 6 8 9 10 8 8 8 8 7 5 6 4 0 
0 4 8 9 8 7 6 6 5 7 7 6 6 5 5 4 4 5 6 7 7 6 6 5 5 6 5 7 6 8 7 9 10 7 9 6 7 6 6 9 9 10 7 5 4 4 5 3 5 4 6 5 5 5 6 5 5 6 7 7 7 5 4 5 6 6 5 3 3 4 4 6 6 7 8 7 9 6 7 4 6 5 7 6 6 5 4 6 5 8 7 7 7 8 11 8 8 4 4 3 3 4 5 7 6 7 6 5 4 2 3 4 6 7 7 8 7 8 8 10 9 9 6 5 4 4 4 7 23 62 103 114 89 50 26 16 9 4 5 7 7 6 5 6 9 12 12 9 9 15 22 21 32 42 49 51 57 44 53 42 43 38 30 24 24 21 20 14 13 13 15 16 15 14 15 18 27 31 33 33 28 25 15 17 20 23 17 12 11 11 17 28 43 46 38 26 24 25 35 43 54 48 40 34 38 40 43 48 53 63 69 76 81 82 83 82 78 77 73 67 61 56 51 52 54 49 53 59 60 56 39 40 61 68 76 62 60 68 77 76 73 82 87 98 91 90 92 91 79 64 62 72 86 88 81 73 67 63 60 54 44 31 19 10 8 9 14 17 21 23 23 25 22 25 27 33 34 31 29 27 23 22 19 22 21 22 23 21 22 25 31 38 43 42 41 41 44 51 51 53 40 33 21 22 15 15 12 13 22 25 40 56 57 56 42 43 39 48 57 57 54 35 29 18 31 38 56 39 38 24 34 33 38 34 30 37 35 35 23 21 22 26 24 22 21 20 18 15 14 13 21 19 22 18 18 16 14 14 11 15 23 30 28 25 23 20 17 17 16 17 21 20 28 28 35 31 30 27 21 19 10 9 6 7 9 12 14 18 22 25 32 47 65 82 89 86 74 60 49 43 42 40 37 31 24 20 19 23 22 27 75 133 146 104 36 6 6 8 7 7 7 7 8 8 9 9 9 8 8 7 8 7 9 8 9 8 8 7 6 5 4 5 6 8 9 7 7 6 6 6 6 9 7 7 7 7 7 6 6 4 5 5 8 6 9 5 6 4 5 4 4 5 6 6 6 5 6 6 5 6 5 7 6 9 7 13 11 13 11 8 7 7 5 7 9 12 12 7 6 5 9 9 11 8 8 8 7 5 4 5 3 0 
0 4 8 6 7 6 5 5 6 7 6 5 7 5 5 5 6 8 7 8 8 6 6 5 6 7 6 8 6 9 6 7 8 8 10 6 7 7 7 10 9 9 6 4 3 3 4 4 5 5 5 4 4 3 4 5 7 7 7 6 6 5 5 6 6 5 4 3 3 4 3 5 5 7 7 6 8 5 6 4 5 6 5 7 6 7 5 7 5 6 5 6 6 5 7 6 8 5 6 3 3 5 7 10 7 6 4 5 5 3 4 3 4 4 5 8 7 8 6 8 7 6 7 7 6 5 4 4 9 39 84 112 107 73 38 21 11 5 6 7 7 6 6 8 11 14 13 11 13 19 24 22 31 43 47 45 45 43 57 49 47 52 35 31 23 16 12 11 14 10 13 11 12 11 14 17 25 30 30 35 28 27 18 19 21 22 14 8 9 11 16 25 39 47 39 28 24 22 29 34 34 31 25 26 30 37 40 48 57 68 83 93 94 76 58 45 37 33 30 26 24 22 22 31 37 38 49 65 75 71 53 50 73 76 80 61 55 63 76 82 92 101 101 99 85 85 95 107 102 96 92 96 98 90 79 74 72 70 70 68 63 50 33 16 11 16 24 26 26 26 24 25 23 32 33 36 35 34 31 27 23 20 18 18 21 28 33 33 24 15 14 15 20 22 25 27 34 44 53 55 49 43 32 28 24 23 16 17 21 26 32 45 46 56 41 43 40 51 54 56 50 34 29 22 25 29 43 39 50 34 42 33 30 24 22 36 37 36 22 19 18 20 20 17 17 17 17 15 14 12 15 18 18 19 21 23 19 15 12 20 22 24 21 23 26 32 27 23 17 17 19 16 25 23 30 31 28 26 21 15 12 9 9 11 13 15 16 21 27 32 34 37 44 55 65 69 66 57 46 40 37 35 30 22 17 21 22 26 20 23 77 135 146 102 32 7 8 7 7 6 5 6 7 8 12 9 12 8 9 9 7 7 6 10 13 12 9 8 8 7 5 6 7 7 7 6 6 5 5 6 7 9 11 10 10 9 10 8 6 5 5 6 9 8 10 7 6 3 4 4 5 6 8 8 9 7 7 7 5 7 6 10 7 9 7 10 9 10 8 6 5 5 4 7 7 8 9 6 6 5 9 9 8 7 7 7 8 7 5 4 2 0 
0 5 9 6 7 4 5 6 6 6 7 6 7 6 5 6 6 9 10 9 10 6 7 5 6 9 7 10 6 8 7 7 7 5 6 4 6 8 10 11 9 6 6 3 3 3 4 4 4 4 4 4 4 4 5 6 6 8 9 9 6 6 6 7 6 4 4 4 4 3 3 5 5 5 5 4 5 4 5 5 5 6 6 9 7 9 7 7 5 8 7 6 5 6 7 6 7 7 8 6 5 6 6 7 6 6 5 6 6 5 6 6 7 8 8 7 5 6 5 5 4 5 5 5 5 6 6 6 7 20 60 99 113 95 55 26 12 6 6 7 7 6 7 9 13 15 14 14 18 24 27 22 32 45 48 44 39 42 58 57 56 51 39 40 23 17 11 8 10 8 12 8 9 9 13 14 19 26 26 33 30 27 21 17 18 16 11 5 9 11 15 22 34 46 42 33 23 18 23 24 25 22 16 21 21 31 35 47 59 72 92 106 110 95 65 32 11 5 5 5 6 7 10 25 37 43 54 73 83 76 53 50 76 80 81 62 53 58 69 77 94 98 93 79 61 61 71 94 98 104 99 93 84 68 60 61 65 67 70 72 76 70 51 37 29 37 43 43 41 37 34 35 32 39 41 45 37 30 27 31 32 29 27 25 31 34 35 30 24 16 14 15 18 15 14 15 24 31 39 47 51 52 49 40 33 29 28 29 30 33 39 51 47 51 44 44 39 42 38 36 30 34 30 30 22 28 33 35 37 35 34 27 21 17 19 36 39 36 21 16 16 16 15 15 15 11 13 12 14 13 13 16 19 20 18 15 14 11 16 27 33 32 22 23 25 31 29 25 17 15 17 14 20 24 26 29 23 20 20 14 15 10 14 16 17 18 18 24 33 40 39 32 28 31 38 44 48 45 39 33 29 25 20 15 15 22 25 25 18 24 85 140 147 98 28 6 6 6 7 6 7 7 7 8 11 9 14 10 11 9 5 6 4 6 6 7 7 6 6 5 6 6 6 7 8 7 7 8 6 8 10 10 12 9 11 10 11 10 9 5 4 5 7 8 9 6 5 4 4 5 5 7 8 8 8 7 6 5 5 8 7 11 8 11 9 9 10 7 6 4 4 4 4 5 7 10 9 7 7 6 7 7 7 7 8 9 8 6 4 5 2 0 
0 4 7 5 6 4 4 5 6 6 6 6 6 6 5 5 6 7 7 7 7 5 7 5 8 10 8 9 7 8 7 6 5 6 5 4 4 6 7 7 8 6 6 4 5 5 5 4 5 5 5 4 3 4 4 6 6 8 8 8 7 7 6 7 8 6 5 4 4 4 3 4 5 5 6 3 4 3 5 5 5 7 5 7 8 7 6 6 7 7 8 5 5 3 4 5 8 7 7 6 5 6 7 8 6 5 6 6 7 6 8 7 9 7 7 8 7 6 6 4 4 4 5 7 8 8 8 7 8 11 35 78 108 111 78 38 17 9 7 6 5 6 7 10 13 15 15 16 20 25 28 26 39 48 45 34 30 46 57 54 46 42 45 38 22 14 8 8 10 8 10 8 10 10 15 16 17 22 24 31 32 27 22 13 14 14 14 8 10 10 14 19 31 42 41 34 23 19 21 22 24 21 19 26 24 36 38 50 61 76 94 116 132 132 111 72 34 12 7 6 7 5 9 29 44 48 59 78 86 77 48 44 70 75 72 50 37 43 56 64 82 79 72 56 42 41 46 68 77 93 88 75 61 45 45 51 56 59 62 65 78 85 74 70 57 66 64 58 51 45 40 38 37 46 48 42 32 20 22 25 30 30 27 25 32 35 40 35 27 17 13 11 15 13 16 16 23 28 29 33 41 48 54 52 49 45 41 37 35 34 35 46 45 44 36 37 40 38 33 30 26 40 33 39 21 26 24 32 32 36 35 32 20 14 21 35 38 30 17 12 15 19 19 18 16 11 12 10 12 14 15 15 16 15 19 17 20 14 18 23 28 30 24 19 24 26 23 19 15 15 19 19 20 17 19 21 19 17 20 14 14 10 14 17 20 20 21 28 39 48 46 34 24 20 26 30 33 32 28 24 23 21 21 18 20 26 24 23 17 32 98 147 146 90 25 7 7 5 6 6 8 9 8 9 9 8 13 10 11 9 5 6 4 7 9 10 9 7 7 5 7 7 6 6 6 6 6 8 7 8 8 8 9 9 10 12 13 10 9 6 4 5 7 8 8 5 5 4 4 5 6 7 7 8 6 5 4 5 5 6 6 9 9 10 11 9 10 6 5 3 3 3 4 5 6 7 7 7 8 6 9 6 6 5 5 6 7 6 5 5 2 0 
0 5 8 5 5 5 5 5 4 5 5 6 7 7 6 5 6 5 5 5 5 5 5 4 6 7 8 7 7 7 7 8 6 5 3 2 3 5 6 7 5 5 5 5 7 7 8 8 7 6 5 4 5 4 4 5 5 7 9 9 7 7 7 8 7 6 6 6 5 5 3 4 7 5 8 4 5 3 4 7 8 7 7 5 6 6 7 6 7 7 8 6 6 5 7 9 10 11 11 9 9 9 7 5 6 4 6 4 7 6 9 7 11 11 8 7 6 6 6 4 4 3 4 4 5 6 9 9 11 10 17 54 94 118 98 55 22 10 7 6 6 8 9 11 14 15 16 16 20 27 34 37 52 55 49 31 29 48 54 51 36 36 34 31 25 17 12 10 11 8 9 9 10 10 13 14 15 19 23 29 31 27 21 13 12 12 15 11 12 11 14 20 29 37 39 35 27 27 24 28 24 28 21 30 22 30 31 43 49 60 71 92 119 142 146 122 80 39 16 8 5 4 9 31 48 51 62 81 87 77 40 34 59 66 65 43 26 28 39 44 62 57 53 37 27 25 25 40 51 66 62 52 42 32 35 40 44 49 51 55 72 88 88 94 78 82 70 61 56 50 46 45 44 53 60 53 44 29 33 38 39 35 31 30 36 34 32 24 22 18 19 21 28 25 27 24 29 34 37 37 41 49 56 58 56 54 51 46 42 38 37 47 46 41 29 24 30 29 28 24 25 36 29 36 21 29 25 30 27 30 25 22 16 16 24 34 33 23 14 13 14 16 19 24 22 14 10 8 11 16 17 18 19 14 16 12 17 12 16 21 29 28 25 22 17 19 17 17 13 17 21 22 24 20 22 18 16 17 17 16 14 12 14 18 21 21 22 29 42 55 53 39 26 19 21 22 22 23 22 23 26 25 26 26 27 27 22 22 15 46 111 155 143 80 21 6 6 5 7 9 9 10 7 7 7 7 10 10 11 9 6 6 6 6 6 6 7 5 7 6 7 5 4 5 6 7 7 8 7 8 8 7 6 8 10 10 12 9 9 5 3 5 5 6 5 6 5 5 4 4 6 7 7 5 5 4 4 4 4 5 6 7 10 10 13 9 9 6 7 5 5 3 3 4 5 6 7 5 7 6 7 5 6 7 9 8 6 4 4 5 3 0 
0 4 8 7 6 7 5 6 4 4 5 4 5 5 5 6 5 5 4 5 4 4 5 5 7 8 8 6 7 6 7 6 4 5 4 3 3 3 3 4 5 6 5 5 6 6 8 9 11 10 9 6 4 4 5 5 7 7 6 6 6 6 6 8 9 10 8 7 6 6 5 5 7 6 8 5 5 3 5 6 8 7 6 5 7 7 6 5 7 8 8 7 5 7 8 12 12 11 10 8 9 8 8 5 6 4 6 5 9 7 9 7 9 8 8 6 7 8 8 5 5 4 5 7 9 9 10 10 11 9 9 30 73 112 113 78 35 14 10 8 8 10 11 12 14 15 15 16 22 32 42 50 69 64 55 27 34 49 50 43 23 25 28 30 22 18 16 16 13 10 8 11 9 11 13 15 15 18 21 22 24 23 21 16 11 9 15 14 14 12 13 21 29 34 35 36 34 37 30 34 29 38 23 30 22 31 28 32 32 40 43 51 74 107 140 146 124 84 42 18 7 4 8 30 51 53 64 82 87 74 32 21 47 58 61 41 23 21 28 29 43 37 36 24 16 16 15 24 33 43 43 36 31 27 29 31 32 36 39 43 60 79 88 97 80 78 62 56 55 54 52 50 48 52 65 58 55 42 43 44 40 35 30 29 41 42 40 28 21 23 24 24 26 30 38 37 39 37 42 46 51 58 65 68 67 63 60 54 48 44 39 43 39 35 26 18 24 24 31 29 32 31 23 26 23 29 25 27 19 29 22 29 17 22 30 37 34 23 16 16 15 16 15 19 18 15 9 9 13 17 19 19 20 17 19 14 17 12 14 12 18 26 25 26 16 18 12 14 14 22 30 32 28 21 26 19 17 17 16 17 12 9 11 16 22 22 23 29 43 57 55 41 29 27 30 29 21 18 20 24 28 30 32 32 31 26 21 22 19 65 124 159 136 67 20 8 8 7 8 10 10 10 9 8 6 6 7 10 9 9 6 6 8 6 7 5 5 5 7 7 6 5 4 5 4 7 6 8 9 8 8 7 7 7 10 10 12 8 10 8 6 5 4 5 5 6 6 6 5 5 6 7 6 5 3 2 3 4 4 6 5 8 9 11 10 8 8 6 6 4 4 3 3 4 5 5 7 5 6 5 5 6 6 6 5 4 4 5 5 5 3 0 
0 5 7 7 6 9 6 6 4 3 4 5 7 7 7 7 6 7 5 5 5 4 4 4 6 9 9 9 6 6 6 6 5 5 4 3 3 3 4 4 4 4 5 3 4 5 8 10 11 9 6 5 4 4 4 7 7 6 7 5 6 6 7 7 7 8 7 8 8 6 5 6 7 8 9 6 5 3 5 7 10 8 6 7 7 8 8 7 5 6 4 6 4 7 8 13 13 10 8 9 9 10 9 7 8 4 5 4 8 7 8 6 9 8 7 5 7 8 7 6 4 4 5 6 7 7 8 9 8 8 7 14 51 99 118 101 56 24 15 11 11 11 12 11 12 14 16 18 27 40 49 63 83 73 59 26 34 44 47 34 23 19 22 22 21 21 19 19 13 10 9 14 12 10 9 9 11 14 20 20 21 19 20 19 14 9 13 16 17 16 13 20 25 28 28 35 36 38 31 30 26 27 16 23 18 28 23 26 22 30 32 32 40 61 104 136 144 127 88 50 22 9 8 28 53 58 66 81 83 73 35 17 40 55 62 41 20 13 20 20 33 32 29 20 11 13 14 16 21 22 24 22 18 16 16 18 20 25 28 33 48 63 74 80 64 60 48 48 50 51 51 50 49 54 69 64 71 55 53 46 36 31 26 24 40 42 45 33 27 32 32 33 30 36 46 45 44 38 42 51 60 73 83 89 92 91 86 77 67 58 51 52 51 46 36 23 24 23 37 41 44 35 25 25 21 27 22 29 21 39 25 29 15 24 37 42 37 22 17 17 14 11 12 16 18 15 10 10 18 22 25 20 22 21 20 16 16 14 13 14 14 23 22 29 17 21 13 14 13 19 22 25 31 24 33 24 25 23 20 20 12 10 13 20 27 26 25 28 40 55 54 46 37 35 37 36 27 23 23 29 31 30 27 28 27 24 25 21 27 78 137 157 121 51 18 8 10 6 9 9 10 9 6 8 5 5 5 8 7 8 5 6 7 6 6 3 2 6 8 10 6 4 3 5 5 8 7 9 8 9 11 9 11 8 10 7 10 6 9 7 8 7 6 4 3 4 6 5 4 5 5 8 5 5 5 7 9 7 4 6 5 10 7 8 7 7 8 7 7 7 5 5 4 3 4 6 7 6 6 5 5 6 8 10 8 6 5 5 6 5 3 0 
0 3 6 7 7 10 9 7 5 3 4 3 4 4 6 7 7 7 8 8 6 4 5 6 9 13 11 10 5 6 4 3 3 3 3 2 2 2 3 4 5 4 4 3 4 3 6 9 11 10 8 6 5 5 5 7 8 7 7 4 6 5 5 6 6 8 9 8 7 7 6 7 7 8 7 5 5 2 4 6 7 6 6 7 10 12 7 7 5 7 5 5 4 6 8 10 10 9 7 8 8 11 9 9 7 5 5 4 7 6 8 5 7 6 7 6 7 9 8 7 4 4 4 5 7 8 8 8 7 6 6 9 27 77 109 115 81 41 21 13 11 10 10 10 11 17 21 25 35 49 56 75 92 83 64 27 29 41 46 36 29 19 24 24 24 24 20 19 14 10 8 11 12 12 11 10 12 14 20 19 17 13 19 21 18 12 9 15 16 16 11 16 19 22 23 30 32 34 28 23 20 22 15 19 19 25 20 22 16 28 30 29 31 31 58 95 129 142 128 99 65 37 21 30 54 62 66 75 76 72 40 24 45 65 74 55 32 18 21 20 30 32 29 23 11 12 14 13 15 13 15 14 12 10 8 9 11 15 18 23 37 47 56 57 46 43 36 38 42 43 45 46 47 53 68 66 79 60 58 44 33 30 28 28 45 45 50 36 33 39 36 33 24 38 51 52 41 30 39 63 75 84 86 91 97 102 103 102 97 89 78 72 66 60 48 33 25 24 42 52 53 40 22 25 21 32 19 26 20 33 28 31 22 32 43 47 39 23 15 15 12 10 9 13 15 13 15 14 22 22 25 25 22 22 18 17 15 21 15 15 9 20 20 32 18 23 15 17 17 23 30 30 29 29 31 26 24 27 23 24 13 10 15 23 31 27 24 24 37 50 51 47 40 37 39 38 30 27 25 30 29 24 20 21 22 25 26 23 42 95 148 147 100 34 15 9 9 6 8 8 8 9 6 9 4 5 3 6 6 9 5 5 5 6 5 4 3 5 6 7 6 4 3 5 5 7 7 10 10 10 14 12 15 10 12 9 9 7 11 9 11 8 6 4 4 6 8 8 8 7 7 8 5 6 6 7 8 7 6 6 5 9 7 8 8 7 8 9 8 6 6 5 4 4 4 6 8 7 6 4 5 7 8 8 6 5 5 6 6 6 3 0 
0 3 5 5 7 8 6 5 5 4 4 4 6 8 8 7 7 7 7 7 6 5 4 6 7 10 10 11 6 5 4 5 4 3 2 2 2 2 3 3 3 3 3 3 3 3 5 7 7 6 6 5 4 6 6 6 7 4 5 4 5 5 4 3 5 6 8 8 8 8 5 8 5 6 5 5 5 3 4 5 5 4 4 8 9 9 7 6 5 5 4 4 3 4 6 10 9 7 5 7 7 11 10 12 8 4 3 2 5 5 6 6 7 5 6 6 6 10 7 7 4 3 4 5 6 6 6 5 6 5 7 10 18 56 92 113 103 67 39 23 17 13 11 14 16 23 29 35 45 59 64 84 105 97 76 32 23 30 38 34 32 22 21 21 21 22 21 19 14 11 10 12 11 10 9 9 9 12 21 23 26 20 23 23 19 15 9 14 15 15 11 12 15 18 21 23 25 29 21 23 14 16 13 17 22 25 23 25 21 29 31 26 23 16 29 52 86 119 133 129 109 82 57 49 60 61 63 67 74 82 62 52 74 106 112 83 45 25 38 53 72 68 48 28 11 10 12 11 13 11 14 13 13 7 6 7 9 12 15 19 31 35 42 38 34 32 28 31 35 35 36 37 38 45 61 61 70 51 48 36 32 32 28 29 46 45 52 39 40 43 37 29 21 41 52 53 41 23 35 61 74 80 70 70 79 88 96 100 100 98 93 89 81 70 59 43 32 30 48 62 57 47 26 27 19 23 15 23 23 32 29 28 24 42 49 50 36 20 14 13 10 10 9 11 13 12 17 16 26 29 26 30 22 22 15 16 19 22 21 20 15 19 15 23 15 20 13 13 19 22 31 32 28 30 24 32 24 36 32 31 17 12 18 27 33 26 22 21 33 43 44 41 35 32 36 37 32 27 24 29 28 24 19 19 24 30 27 26 50 111 152 133 77 21 12 10 10 8 9 9 8 8 7 8 5 5 4 7 7 8 7 8 7 7 5 4 3 5 7 8 6 4 3 5 7 9 9 9 8 9 11 12 13 11 9 7 8 6 8 8 11 9 7 4 4 5 7 7 7 6 6 8 8 9 8 10 12 9 7 6 6 7 7 6 6 8 7 8 7 6 6 4 5 3 4 5 6 6 6 6 6 7 9 10 9 9 9 9 6 5 2 0 
0 2 5 4 7 7 7 6 4 4 3 5 5 8 9 10 7 7 7 8 8 6 5 6 7 9 8 7 5 5 5 6 6 4 3 2 2 3 4 4 4 3 3 3 3 3 3 5 6 6 5 6 6 8 7 6 5 4 5 4 5 4 4 3 3 6 8 10 8 7 5 7 5 6 4 4 4 4 4 4 5 5 5 7 8 7 5 3 5 5 5 5 4 4 5 7 8 7 6 6 6 8 8 8 7 5 3 3 4 5 5 5 5 5 6 6 5 7 5 6 4 3 3 5 5 5 6 4 7 5 10 10 14 29 65 95 108 91 64 40 27 21 18 20 24 30 37 44 54 66 68 86 115 111 92 40 25 27 36 34 32 23 20 19 21 21 21 22 14 13 8 9 9 9 9 9 8 11 18 22 25 20 19 23 18 18 11 12 13 12 10 11 16 19 21 22 20 27 18 25 12 17 18 23 27 24 21 20 19 24 27 21 18 10 15 27 46 76 105 124 128 118 99 83 81 62 62 71 94 112 113 118 127 158 164 149 116 98 122 142 162 155 132 95 60 48 49 55 56 46 31 18 14 13 14 12 12 13 12 17 26 26 33 27 28 26 22 21 24 26 27 31 34 41 52 49 54 39 35 25 22 24 22 28 45 45 50 36 38 37 30 24 23 42 53 49 34 18 47 73 80 69 41 34 42 50 60 69 76 80 82 80 72 63 58 49 44 45 58 67 56 39 24 23 22 20 19 21 23 29 27 31 36 54 56 49 30 15 11 8 8 8 8 11 10 10 18 18 24 26 24 28 20 19 16 15 20 22 31 22 19 17 16 19 14 14 13 15 28 30 42 32 25 26 18 26 25 37 36 32 19 13 21 30 34 24 18 17 27 35 36 32 25 23 30 34 30 27 24 33 33 28 22 24 32 34 29 32 64 128 150 118 57 12 10 8 7 9 8 11 7 10 7 7 6 5 5 5 8 9 11 9 7 7 5 6 5 6 5 5 6 5 5 6 7 8 8 9 9 10 9 12 10 9 9 7 7 6 8 9 10 9 7 5 5 6 8 8 9 6 8 9 8 8 8 7 9 7 8 6 5 5 7 8 9 8 7 7 6 6 6 4 5 4 5 7 7 8 7 6 7 6 7 8 9 11 10 10 6 7 3 0 
0 2 6 6 8 6 5 7 5 7 4 5 6 8 9 8 7 7 7 7 6 5 5 5 4 5 6 5 4 5 7 9 8 6 4 3 3 4 4 4 3 3 3 3 4 5 5 5 5 6 6 6 8 8 8 7 4 4 5 5 5 3 3 4 6 8 8 8 7 9 6 7 4 3 2 4 4 3 4 3 3 3 5 6 6 5 4 3 4 5 5 5 4 4 6 7 8 6 5 4 4 5 6 7 5 4 2 3 3 5 5 6 5 5 5 5 5 5 5 5 3 3 3 4 5 5 6 4 7 6 11 9 14 15 36 65 95 101 88 63 43 34 29 29 32 39 47 53 60 67 66 84 129 133 115 55 28 26 33 32 30 21 18 17 20 20 18 19 14 14 8 8 6 6 6 7 7 8 13 17 22 24 21 25 19 18 11 9 9 11 11 12 18 19 21 20 16 26 22 30 19 25 25 28 27 21 18 19 18 18 19 15 14 7 8 14 22 36 60 86 108 117 115 104 95 79 73 64 83 105 122 133 134 167 183 196 189 179 189 189 201 197 199 186 168 158 157 156 151 128 85 45 17 13 13 14 15 16 15 19 22 19 24 20 23 22 19 18 22 22 21 25 26 37 45 39 37 20 20 18 22 21 21 25 41 42 49 36 37 32 22 18 29 48 56 44 26 13 48 76 84 60 23 9 10 13 19 28 38 46 51 52 49 46 48 48 54 63 69 68 50 31 21 21 26 25 29 26 32 35 31 33 51 66 65 45 23 14 14 9 7 8 7 9 10 12 19 22 22 23 20 22 24 20 19 17 20 19 26 23 24 16 15 12 13 11 11 10 25 31 48 38 27 23 16 23 24 32 35 28 19 14 25 33 34 23 18 17 25 28 26 23 19 20 27 33 26 26 25 37 35 32 32 39 42 36 27 34 82 140 145 101 39 8 9 9 11 13 9 10 7 10 8 9 6 6 6 6 8 8 10 12 11 9 6 6 6 7 6 6 6 5 5 5 7 10 11 10 8 7 8 8 8 6 6 6 9 8 8 9 11 9 9 9 7 6 8 6 7 4 6 7 10 7 7 5 8 6 7 5 5 4 7 7 9 7 6 6 4 4 4 4 5 4 4 5 5 6 7 6 8 7 8 10 11 16 11 11 7 8 4 0 
0 3 7 8 8 9 7 8 6 7 4 5 6 7 12 9 9 7 7 9 9 7 5 4 3 4 5 4 5 6 8 9 8 5 4 3 3 5 5 6 3 3 3 3 4 3 3 5 6 6 7 8 8 10 9 7 6 5 6 6 5 4 4 4 4 5 6 7 6 7 6 7 4 4 4 5 5 4 4 3 4 4 5 4 4 4 3 3 4 5 6 6 5 4 5 5 6 5 4 3 3 3 4 5 5 6 4 4 3 5 4 5 4 5 5 4 3 2 3 3 3 4 4 6 7 6 6 4 7 6 10 8 10 8 15 34 67 92 100 87 67 52 44 42 43 45 49 53 58 63 56 82 136 146 132 65 36 33 34 30 24 17 16 18 20 20 19 14 13 11 8 6 5 5 5 6 5 7 7 12 14 21 17 22 19 19 14 9 10 10 13 14 20 22 25 21 17 23 22 26 23 26 28 30 25 19 16 15 14 14 14 11 11 8 7 11 13 18 27 45 66 85 98 103 96 88 94 108 134 147 156 155 140 145 148 166 177 181 178 170 174 177 191 200 200 200 201 198 203 197 176 144 100 84 75 65 54 41 28 24 27 30 31 25 21 18 14 12 16 20 22 27 27 37 39 31 28 14 15 8 10 13 15 20 37 37 49 32 34 25 17 20 39 59 59 40 20 19 55 80 83 53 20 7 5 5 4 5 7 11 17 22 25 26 36 47 64 79 78 67 42 26 22 26 30 32 31 31 40 41 35 43 63 74 66 36 19 15 15 12 9 9 8 12 17 17 26 24 23 17 16 18 23 24 29 21 24 21 24 23 22 15 17 12 15 10 13 13 24 29 31 29 22 24 16 23 25 29 29 21 13 16 28 35 35 26 20 21 25 25 22 21 20 22 27 30 21 25 26 38 39 42 43 47 43 33 27 48 104 146 135 81 27 7 7 7 10 9 9 8 7 8 7 8 9 9 9 7 8 8 8 11 8 8 7 7 7 7 5 5 5 5 6 6 7 9 11 10 10 8 8 7 7 7 7 8 10 8 9 6 7 8 8 9 8 7 6 4 5 3 6 6 8 5 5 3 5 5 6 4 4 4 6 9 9 10 7 5 4 4 3 4 4 4 5 6 8 8 10 7 8 7 8 11 11 13 9 12 8 9 5 0 
0 4 7 10 9 7 8 8 8 9 5 5 5 7 11 9 8 6 5 5 4 4 4 3 2 3 4 5 5 6 8 8 8 5 5 3 4 5 4 4 3 3 3 4 5 7 7 6 6 8 6 9 8 9 9 5 7 6 7 7 6 5 5 5 6 6 5 5 6 6 6 5 4 4 4 5 5 5 5 3 4 2 2 2 3 3 3 5 5 6 6 6 4 5 6 7 6 5 4 3 3 3 3 4 3 3 3 3 4 5 5 5 4 3 3 3 4 4 3 3 2 3 3 4 5 5 6 5 7 7 11 10 10 7 7 16 38 67 86 91 84 72 62 55 49 48 51 54 56 57 43 81 139 158 145 63 42 39 36 31 24 17 15 18 20 20 17 12 10 8 7 6 6 7 6 7 6 8 7 9 10 19 17 25 19 19 13 7 13 12 13 12 14 18 22 20 18 18 20 24 27 29 29 26 19 14 11 13 16 15 15 12 9 8 9 12 11 13 14 24 36 51 64 75 80 80 81 89 107 128 147 149 137 134 146 176 188 182 154 114 90 112 160 202 219 219 210 200 200 194 185 186 179 180 179 173 164 149 135 128 127 124 120 104 81 60 43 32 27 26 26 26 24 40 50 51 42 23 15 12 14 17 16 23 39 40 46 29 32 21 22 35 58 67 56 33 19 30 65 82 75 41 14 5 4 4 3 3 4 4 4 7 12 16 28 44 68 88 85 65 39 27 25 30 31 33 31 36 41 45 43 63 74 79 56 27 15 15 15 14 12 9 11 16 26 24 38 24 29 14 14 14 24 24 37 28 31 21 21 17 14 11 12 12 14 11 12 12 20 27 32 37 27 27 18 19 24 26 23 17 13 21 31 39 38 30 26 27 26 24 22 24 25 25 24 23 16 24 27 40 44 49 51 51 40 28 28 68 123 145 118 59 16 6 6 8 12 10 8 4 5 7 7 7 6 6 6 6 6 7 7 9 9 10 9 7 7 7 5 7 7 7 7 6 6 8 10 10 10 7 6 7 5 6 6 10 12 10 9 6 5 7 9 12 9 6 5 3 3 2 4 6 7 5 4 3 4 4 5 4 4 3 6 8 9 8 8 7 5 4 3 3 3 3 4 5 6 6 10 10 11 9 8 9 10 13 9 10 7 9 4 0 
0 5 8 10 10 7 8 6 6 8 5 6 5 10 10 11 8 7 6 6 5 3 3 3 3 3 4 5 6 7 9 7 5 3 3 4 4 4 4 4 3 2 3 4 5 6 6 7 6 6 6 8 9 8 10 6 7 6 6 6 6 6 5 5 4 4 4 4 5 5 5 3 3 5 6 9 7 7 7 4 4 2 2 2 3 3 3 4 6 7 7 5 5 6 7 7 5 4 3 3 3 3 2 3 2 3 4 4 4 4 4 4 3 3 3 3 3 3 3 3 2 4 4 6 7 6 7 5 8 7 10 11 9 11 7 11 18 42 61 76 83 82 77 70 64 61 61 61 59 53 37 79 134 154 139 63 47 40 41 32 20 16 17 18 24 25 19 15 11 7 5 5 5 9 6 9 8 9 9 11 11 20 17 25 21 22 20 12 14 14 14 14 13 18 23 21 20 19 21 24 25 26 24 18 13 10 9 9 12 14 14 14 11 11 11 12 10 9 7 14 20 30 38 45 50 58 72 87 100 108 113 116 116 114 112 119 128 131 114 92 84 97 123 150 166 171 164 151 153 183 205 209 191 174 172 178 184 186 184 185 189 187 187 181 176 161 144 129 117 104 92 81 78 95 108 117 109 94 74 54 38 31 37 59 78 89 72 43 29 19 38 62 85 79 56 31 27 47 74 78 61 27 9 5 4 3 3 4 5 6 7 10 14 21 28 44 69 92 91 66 39 27 26 27 25 26 28 33 39 44 49 70 78 75 41 21 16 19 23 19 16 11 14 17 29 24 36 23 31 16 19 14 23 22 38 31 39 28 25 17 11 9 8 13 16 19 20 18 22 22 26 28 31 26 21 24 29 29 22 17 18 26 35 41 43 38 33 31 28 25 25 27 27 23 18 17 13 21 26 39 48 53 51 44 31 24 40 92 136 137 93 36 10 6 7 8 9 7 6 4 5 5 5 5 7 8 8 7 7 7 7 8 8 7 7 6 5 6 5 7 7 7 6 6 6 6 8 8 9 8 6 5 5 7 8 10 12 10 7 5 4 6 7 8 10 6 6 2 2 2 3 7 8 8 5 3 3 5 6 5 4 4 6 7 9 10 9 8 5 4 4 3 3 3 4 4 7 8 11 11 11 9 7 9 7 10 7 9 6 7 4 0 
0 7 9 9 8 5 6 6 7 8 6 6 5 8 9 13 9 7 4 4 4 4 4 5 6 6 5 4 5 6 7 6 6 5 5 5 4 3 3 3 3 2 3 3 5 7 8 7 6 6 6 7 8 7 8 8 7 6 6 5 4 5 6 8 6 6 5 5 5 5 5 5 6 7 6 8 8 8 9 6 6 3 4 3 4 4 4 5 5 6 7 6 6 6 6 7 5 4 3 2 2 3 3 3 2 4 4 5 5 5 5 5 4 4 3 3 4 4 4 4 4 5 6 6 6 6 8 6 8 8 10 14 10 12 8 11 10 17 32 48 60 70 75 74 71 66 63 58 48 37 27 64 122 141 120 57 47 43 42 32 20 18 20 22 27 29 26 19 13 9 7 7 6 12 7 11 8 10 13 14 14 21 21 25 23 25 24 18 15 14 13 11 13 23 28 24 22 17 22 24 24 23 19 15 10 8 8 9 13 15 13 13 11 15 15 14 10 7 6 11 14 21 28 32 35 35 38 44 54 65 75 85 97 106 110 110 112 117 120 115 116 118 125 128 126 121 118 115 111 115 132 163 191 205 213 215 217 217 216 213 207 199 191 179 178 182 184 185 182 176 167 159 157 166 163 161 149 143 138 127 114 104 108 123 122 130 108 92 61 46 80 106 119 97 62 37 39 61 77 68 42 15 5 4 2 2 3 6 10 13 13 16 20 26 32 46 71 96 95 67 40 26 26 25 20 20 24 36 46 45 65 75 78 61 28 17 17 18 19 17 14 12 14 16 24 20 29 21 27 19 21 18 25 30 44 36 48 29 26 14 8 7 9 15 20 27 29 26 25 22 30 29 34 25 24 27 32 30 24 21 25 31 38 44 47 42 37 32 29 27 27 28 24 17 11 12 13 18 24 33 42 42 38 31 24 29 60 114 141 123 69 23 11 7 9 8 12 9 7 6 8 7 6 3 4 4 5 4 7 7 8 8 7 7 6 5 6 7 7 9 8 8 7 6 6 6 7 7 7 6 5 6 6 7 8 10 11 9 7 5 5 5 8 7 9 6 7 3 3 2 4 6 8 7 6 3 3 5 6 6 5 6 6 7 8 10 8 9 5 5 5 5 5 4 5 5 7 6 9 9 10 7 6 9 9 13 8 9 6 8 3 0 
0 7 10 9 7 5 5 5 5 5 6 6 6 7 6 9 8 9 6 4 4 4 6 7 9 7 6 4 4 7 7 6 6 6 7 6 5 3 4 4 4 3 2 3 4 6 7 8 7 6 6 6 8 9 7 7 5 5 3 3 3 4 4 6 6 7 5 6 5 7 7 8 7 8 8 8 8 7 7 7 6 4 4 3 3 3 3 4 5 5 6 5 6 7 6 6 4 3 4 4 3 3 2 3 2 4 4 6 6 6 5 6 6 6 5 4 4 3 4 5 5 6 6 6 6 6 6 6 7 9 8 10 9 10 11 11 11 12 15 23 34 45 53 56 57 53 49 45 36 25 20 56 110 124 102 49 31 41 38 33 23 20 25 27 30 30 30 25 17 11 8 6 5 10 8 12 9 12 16 15 14 18 21 25 28 32 31 26 15 13 17 22 30 33 32 23 26 23 38 31 27 20 16 14 11 7 6 6 8 10 12 15 12 18 15 16 9 6 7 7 9 14 20 23 28 28 28 24 19 17 21 29 42 51 58 62 71 84 97 104 113 112 111 103 97 95 99 103 108 112 110 99 86 79 91 109 130 145 155 164 165 156 155 170 185 198 201 194 178 165 159 162 165 169 159 150 140 141 149 150 147 142 142 142 134 142 129 133 121 119 136 137 130 96 68 59 64 72 71 52 24 7 3 4 5 11 21 31 37 35 29 25 26 29 38 51 74 96 91 63 34 22 22 22 13 20 22 33 43 50 75 73 71 43 18 14 18 19 20 18 12 12 10 13 14 13 19 20 27 22 24 29 27 32 48 42 50 33 36 19 14 9 13 20 30 36 36 28 25 21 22 30 32 27 29 31 36 29 25 25 33 34 37 40 45 43 37 32 30 30 29 26 20 13 9 11 13 17 21 24 27 25 25 22 27 41 83 131 138 103 45 11 7 6 9 8 9 8 7 8 10 8 7 5 5 5 6 5 8 7 8 8 6 5 4 4 5 6 5 6 5 6 5 6 6 6 6 7 6 6 4 6 5 9 9 11 9 8 6 7 7 8 7 6 11 7 9 4 4 2 4 5 10 8 7 4 4 6 6 6 6 5 5 6 7 9 8 8 6 6 6 7 7 5 6 5 6 5 8 8 9 9 8 9 9 10 7 8 5 8 4 0 
0 7 12 7 6 4 5 5 7 6 6 7 6 6 5 10 10 8 6 5 5 6 8 9 13 9 7 4 5 5 5 5 7 6 9 7 8 6 5 4 4 4 3 3 4 6 7 8 9 8 9 8 10 7 9 7 5 4 2 4 4 4 5 7 8 10 7 7 6 8 9 11 8 8 7 6 7 8 9 10 7 6 6 5 5 4 4 3 3 3 6 6 5 6 5 5 5 4 4 4 4 4 4 4 3 6 5 7 6 6 6 7 8 7 7 5 6 5 4 5 5 7 7 6 6 7 8 10 6 9 7 7 7 9 11 10 8 10 9 12 15 20 32 34 38 36 32 24 14 7 11 51 100 113 89 44 24 42 40 38 30 24 27 28 36 37 34 27 18 12 9 6 4 7 9 12 12 15 20 19 19 16 24 27 33 38 36 33 24 21 24 28 34 38 42 27 24 22 31 28 24 17 14 16 14 11 9 9 11 9 8 11 12 23 19 17 11 7 9 10 10 10 15 18 22 24 28 27 24 18 16 17 21 24 22 19 21 31 49 62 72 66 53 38 38 42 54 61 65 66 66 72 85 92 98 99 99 97 92 86 80 81 81 85 94 112 130 143 149 154 155 160 160 149 121 95 83 97 120 136 142 144 145 136 116 110 109 127 133 143 145 128 105 75 65 66 69 65 55 38 25 26 38 51 65 79 91 96 91 75 56 39 34 32 45 61 82 95 82 56 29 21 22 28 25 26 27 41 43 56 76 69 58 27 13 11 12 14 13 14 10 11 8 11 10 13 16 20 25 30 30 32 37 47 58 48 47 29 29 18 19 13 16 22 31 41 47 38 25 19 18 28 29 35 33 37 35 26 25 29 36 32 31 32 38 37 33 29 28 29 28 23 16 10 8 10 13 15 16 16 14 13 18 22 35 58 107 142 126 79 26 8 8 6 6 7 8 9 7 8 11 9 8 5 4 5 5 4 6 6 7 6 5 4 3 4 6 8 8 7 5 5 5 5 5 5 7 7 5 6 3 8 5 10 7 10 7 8 5 9 7 11 10 9 10 8 10 7 7 5 6 5 7 6 8 6 6 6 7 7 7 5 6 4 4 6 7 7 7 7 8 7 6 6 7 7 8 5 6 6 6 5 7 8 11 10 8 8 5 6 3 0 
0 7 12 7 5 4 4 5 5 4 6 7 7 7 5 8 10 9 8 5 5 6 8 9 12 8 8 5 6 7 8 6 7 7 11 8 9 7 6 6 4 4 3 3 3 4 5 8 9 11 11 9 14 8 11 6 6 5 3 4 5 5 5 5 7 8 7 7 7 9 8 9 6 7 7 6 5 5 7 8 8 9 6 6 6 5 4 3 4 3 5 5 5 5 4 5 4 4 4 4 4 4 4 5 4 5 4 5 6 6 6 6 7 8 8 6 7 5 5 5 5 5 6 5 6 7 7 9 7 8 6 5 5 7 9 10 8 11 10 13 11 9 10 11 13 11 8 7 6 6 10 47 95 115 91 46 25 33 36 36 28 23 29 31 31 31 28 22 16 11 9 7 5 7 8 10 12 20 27 24 20 13 27 29 36 38 37 35 29 24 25 31 40 44 37 23 23 26 27 29 18 16 17 20 17 14 11 9 10 8 9 12 11 15 17 17 15 10 11 13 13 12 13 15 19 21 20 21 23 22 22 22 22 23 20 17 13 13 17 21 25 25 25 19 17 13 19 24 30 33 33 32 37 45 56 67 76 80 83 86 88 99 105 110 107 101 94 86 75 70 73 84 93 96 92 87 88 103 127 153 171 181 181 167 146 133 143 171 185 191 180 151 121 102 104 110 117 117 116 107 110 122 139 154 164 171 171 161 144 117 89 60 42 39 55 73 90 88 68 44 20 18 28 35 36 33 23 27 33 57 68 59 40 15 8 10 9 13 11 11 9 10 10 11 9 10 14 21 22 30 29 36 36 36 47 45 45 36 37 28 25 19 17 22 27 32 35 35 29 18 18 31 30 42 34 43 34 26 27 34 38 29 24 21 28 30 28 25 25 26 24 20 14 9 8 9 12 15 15 11 8 11 21 27 46 84 130 142 105 52 12 4 3 4 5 6 8 7 7 9 9 8 7 5 5 5 4 4 4 5 5 4 4 3 3 5 6 6 5 5 5 6 6 6 6 8 8 7 4 6 4 9 5 9 7 9 5 7 5 8 7 11 9 9 7 7 7 8 9 7 6 5 5 6 7 5 7 6 8 6 7 4 3 3 3 5 6 6 7 6 8 8 6 7 6 8 7 6 5 6 7 6 7 6 7 6 6 6 5 5 2 0 
0 5 8 5 5 5 4 5 6 6 7 7 6 6 6 7 10 8 8 6 7 7 9 8 11 9 7 8 7 9 6 6 6 5 9 11 14 13 9 8 9 8 6 4 3 5 6 10 9 10 10 9 14 8 13 7 8 6 5 8 9 8 7 6 8 7 7 8 7 10 8 9 5 5 5 7 9 8 10 10 11 9 9 8 9 9 6 4 3 3 3 4 3 3 4 4 4 4 3 3 4 5 6 6 6 6 7 6 6 5 5 5 6 7 7 7 7 5 5 4 4 5 5 4 5 7 9 9 8 6 4 4 4 7 10 10 8 9 9 10 9 8 7 7 7 7 7 7 5 5 5 39 91 120 99 58 28 34 39 39 29 26 23 26 30 32 29 21 15 12 10 10 7 7 6 11 10 23 29 32 27 19 32 32 39 33 32 32 32 36 36 34 31 32 31 27 23 21 20 18 14 14 14 18 16 13 11 10 11 9 7 10 16 16 19 17 18 15 15 16 17 14 12 11 15 17 17 18 18 21 21 21 21 20 18 16 14 13 13 15 19 21 20 18 17 15 17 18 18 14 15 20 28 36 43 48 55 64 70 80 86 97 102 109 112 117 122 128 133 135 135 135 138 145 153 160 167 175 184 191 194 195 196 196 193 186 183 192 209 221 213 191 175 169 173 178 184 185 187 189 195 203 211 216 215 207 192 175 160 138 114 83 51 48 67 85 92 74 50 33 18 20 30 39 44 43 33 28 33 49 54 45 26 10 7 9 8 10 8 10 11 10 11 12 12 14 14 19 20 34 28 37 34 48 51 47 35 28 29 29 29 22 17 20 21 30 37 33 32 22 21 31 28 42 38 46 36 31 31 39 38 25 16 12 18 22 22 21 21 21 20 17 13 10 7 8 11 14 14 13 11 15 24 34 63 112 143 131 79 28 6 4 3 3 4 4 4 7 5 10 7 8 4 4 4 4 3 2 2 3 3 4 4 4 6 6 6 6 6 7 6 8 7 7 7 9 8 8 4 6 4 9 6 9 8 8 8 8 7 7 7 11 12 14 9 9 8 8 11 9 7 4 3 5 7 6 8 6 8 7 7 6 5 4 5 7 6 6 7 6 6 5 5 7 6 9 7 8 6 6 6 5 6 5 6 6 6 5 4 3 1 0 
0 5 7 4 3 4 4 6 6 8 8 8 6 5 6 6 8 7 7 7 6 5 6 6 8 10 7 12 7 12 7 6 5 4 9 10 12 11 11 8 8 7 5 3 3 3 4 7 7 9 9 8 12 8 13 8 10 8 8 8 8 7 7 7 7 7 6 6 7 9 8 7 5 5 7 7 8 6 7 7 9 9 10 10 10 10 9 6 4 3 3 3 3 3 3 4 3 3 3 2 4 6 7 7 7 5 7 4 6 5 5 4 4 4 6 6 7 7 5 5 4 5 4 4 4 5 6 6 6 4 3 3 4 7 7 9 8 10 9 10 7 7 5 6 6 5 4 7 6 8 6 37 89 120 104 64 26 31 31 31 23 19 19 27 27 21 19 16 13 10 10 11 10 10 7 8 9 27 30 34 26 24 33 32 34 25 27 30 31 27 20 19 24 31 29 22 24 21 23 14 11 12 14 14 13 10 10 10 10 11 9 10 13 12 15 16 20 19 17 17 18 18 17 16 21 21 20 15 14 15 16 15 13 12 11 9 7 8 8 11 14 19 22 22 21 20 20 20 20 18 15 16 21 30 39 48 57 67 76 89 98 104 107 112 115 122 129 136 144 150 155 160 168 177 185 192 197 201 204 207 208 207 205 204 203 204 206 208 207 206 206 207 208 206 203 201 203 207 212 214 214 211 204 193 180 165 148 134 129 130 123 98 66 64 81 92 87 61 37 22 11 17 31 45 51 39 30 25 35 42 43 31 13 9 9 10 10 10 10 8 10 14 17 16 13 12 14 18 16 32 24 38 30 35 37 44 39 37 39 37 38 29 25 22 19 19 21 27 27 24 27 31 27 36 44 51 43 38 38 44 39 24 14 9 12 16 17 18 16 15 15 14 13 10 9 9 12 13 12 12 11 20 29 49 89 136 142 112 52 15 5 4 3 3 5 6 5 9 6 11 6 7 4 5 5 4 4 3 3 3 2 3 5 5 9 7 8 5 4 7 7 10 8 10 9 12 9 7 3 6 5 8 6 7 7 6 8 6 8 7 6 7 7 7 6 7 7 8 9 8 7 4 4 6 6 6 5 6 6 6 6 6 5 5 6 7 7 6 5 6 6 6 5 6 8 11 8 7 5 6 6 5 5 6 9 8 6 4 3 3 2 0 
0 4 6 4 4 5 6 6 7 9 8 7 6 4 5 4 7 8 10 7 6 5 6 7 9 11 7 13 7 12 6 5 4 3 7 10 14 12 11 10 14 11 8 4 3 4 7 8 6 6 4 5 7 6 10 8 11 8 9 10 10 8 7 7 8 8 7 8 10 8 9 6 8 5 7 8 12 10 10 8 8 9 8 9 11 11 9 7 4 3 2 2 2 2 3 3 3 3 3 3 4 6 7 8 8 7 8 6 6 5 5 5 4 4 4 5 5 7 4 6 4 5 4 3 2 3 4 5 6 4 3 2 4 6 8 12 9 11 7 9 5 7 7 8 7 6 4 7 6 8 6 34 87 114 101 54 24 32 31 31 24 19 18 18 16 19 18 19 18 13 11 11 10 9 7 8 10 21 25 29 21 29 32 32 29 21 23 24 27 27 23 17 19 22 28 27 29 23 20 15 9 9 10 10 9 6 7 11 10 12 9 11 12 15 16 16 19 19 18 17 17 20 20 22 22 19 17 11 12 11 12 10 10 9 10 9 9 9 7 9 12 14 16 16 19 21 24 27 28 27 26 25 28 35 44 52 57 63 71 81 88 90 89 93 99 107 112 117 125 133 141 147 152 156 158 160 161 159 156 153 149 146 143 142 145 150 157 163 167 170 172 175 179 180 179 176 174 171 167 163 155 142 125 107 90 76 68 69 86 110 121 105 86 81 95 93 75 44 25 15 11 20 27 31 34 34 31 27 35 37 33 20 11 12 10 11 10 9 9 12 15 16 17 17 18 16 21 24 18 31 24 41 43 54 56 44 32 24 26 27 33 27 28 25 23 20 20 26 27 29 27 28 25 32 49 56 48 42 42 48 41 24 14 8 9 13 14 16 14 12 13 12 13 11 11 11 12 11 10 10 13 21 37 71 116 148 126 83 26 11 6 4 3 3 3 5 4 8 6 9 6 6 5 5 6 6 6 6 5 5 4 3 6 7 11 8 9 6 5 8 8 10 9 10 9 9 6 6 3 6 5 8 6 8 9 8 11 8 10 7 7 8 11 13 11 10 7 8 9 7 5 4 5 8 6 8 5 6 5 5 5 6 5 6 7 8 7 6 5 5 4 5 4 8 10 12 11 10 8 8 6 5 6 7 9 8 6 4 3 3 2 0 
0 4 8 4 4 4 5 6 9 12 11 8 5 4 5 4 7 7 9 7 6 4 6 6 9 9 8 11 7 10 5 4 3 3 6 9 11 10 11 8 9 7 5 3 2 3 5 6 5 4 3 5 5 6 8 9 11 9 9 7 7 6 7 8 10 8 9 8 9 7 8 6 8 6 8 6 7 7 7 7 6 8 10 8 8 9 8 9 5 4 2 3 3 3 4 3 4 3 4 4 4 6 7 7 7 6 5 6 6 8 7 7 5 5 4 5 4 6 4 5 4 5 5 4 4 4 4 5 5 4 4 3 4 7 8 9 8 10 7 8 6 7 7 10 8 7 4 5 6 9 8 36 89 111 96 48 22 23 26 27 23 22 23 23 18 19 19 20 19 16 12 10 10 10 10 10 16 19 22 18 17 24 29 30 26 22 26 29 26 18 15 11 17 19 27 27 27 30 25 17 10 8 8 9 7 7 8 11 11 11 9 10 10 14 14 15 17 16 17 15 16 20 19 22 20 20 17 9 10 9 10 8 9 9 11 11 11 11 9 10 12 12 12 12 17 23 29 34 36 35 34 34 35 40 45 48 49 50 53 55 57 57 57 59 62 64 66 70 76 84 92 97 99 97 93 88 83 76 69 62 58 56 55 56 59 62 65 67 70 72 76 80 86 90 91 87 79 71 63 57 50 46 39 33 24 22 27 38 61 91 111 109 108 99 103 88 62 35 19 15 14 25 30 38 35 31 27 31 36 32 25 15 12 14 13 11 10 14 15 20 21 24 24 20 18 22 24 24 18 26 25 42 40 43 39 35 28 21 26 26 28 27 27 23 20 15 17 23 27 35 33 30 27 38 56 59 49 43 44 49 42 27 17 10 8 13 13 14 14 10 12 11 12 12 12 11 11 7 6 9 14 27 55 102 140 142 99 53 14 9 6 5 3 5 5 8 6 7 6 6 6 4 6 5 7 6 7 8 7 6 3 3 6 6 10 7 8 6 6 8 8 8 9 7 7 7 5 5 4 8 6 7 5 5 6 5 7 6 8 6 7 5 7 7 7 8 7 7 8 8 7 6 6 9 6 8 4 5 5 5 5 6 4 5 6 7 7 5 5 4 5 4 4 9 10 15 12 11 9 7 6 4 7 9 14 12 9 6 4 5 2 0 
0 4 7 4 5 6 5 8 8 11 9 8 7 5 6 5 9 11 11 8 4 5 7 8 11 10 9 9 8 8 5 4 4 4 5 10 11 10 9 7 8 7 5 3 2 4 6 7 5 4 4 4 6 6 7 7 7 7 7 6 6 6 6 6 7 6 10 8 9 7 5 6 7 8 8 9 11 12 8 7 6 6 6 6 7 7 6 6 4 4 3 4 5 5 5 4 5 4 5 4 4 6 6 7 7 6 5 5 4 6 7 9 8 6 5 4 5 6 6 5 4 4 5 5 5 5 4 4 4 4 4 4 4 5 7 7 8 6 7 8 8 9 8 11 8 8 6 6 6 6 6 36 89 111 97 49 27 27 31 29 36 34 34 30 27 21 19 20 22 18 16 14 13 12 12 11 19 15 21 10 17 19 29 32 28 28 27 29 26 20 19 20 24 24 25 25 24 25 26 21 16 12 12 11 10 8 10 10 10 10 9 8 10 11 13 12 15 13 15 14 13 18 15 18 16 13 11 10 11 9 9 7 10 10 12 12 12 13 12 11 13 10 12 12 19 28 36 41 42 41 41 43 45 46 43 39 35 35 32 31 27 27 31 33 32 26 22 21 22 23 26 29 32 33 33 34 36 35 33 29 28 27 27 28 30 32 32 29 28 27 27 28 29 31 33 35 34 29 25 25 26 32 30 26 20 17 20 31 51 75 95 105 113 106 100 76 53 34 21 18 19 27 29 32 28 21 26 31 33 27 19 12 15 13 15 12 11 12 15 22 31 30 27 25 24 24 24 23 16 21 23 39 41 49 38 27 18 18 18 18 20 22 24 24 18 18 26 33 35 36 31 24 32 46 65 62 48 41 44 48 42 30 20 14 10 15 16 14 16 10 13 12 13 14 12 10 10 6 7 11 19 41 83 130 147 120 67 24 8 8 7 5 4 5 6 6 7 6 5 5 7 4 7 5 7 7 9 9 8 8 5 4 5 4 7 5 5 6 8 9 13 10 9 8 7 6 4 5 5 8 6 7 5 6 7 6 7 6 8 7 8 7 8 11 9 9 8 8 10 8 7 6 6 7 6 7 6 5 5 5 4 4 3 4 5 5 5 4 4 4 4 4 5 10 11 17 12 11 9 7 8 4 5 6 8 9 9 7 5 5 3 0 
0 4 6 4 5 6 5 10 9 15 11 9 8 6 8 5 8 8 8 7 6 5 6 9 9 8 10 8 8 6 6 4 4 5 8 11 10 11 7 7 6 4 3 2 3 4 5 7 5 4 5 5 8 6 7 7 7 5 5 4 5 6 6 6 6 5 7 7 7 6 5 7 7 7 7 7 6 8 8 7 5 6 6 6 5 4 5 5 4 3 4 4 5 6 7 5 6 4 5 4 5 6 6 6 5 5 4 5 5 7 9 9 9 6 5 4 5 6 5 5 4 4 6 7 8 6 5 5 4 5 4 3 4 5 7 7 6 5 8 9 12 10 10 8 9 7 7 6 7 7 7 40 93 117 105 58 35 32 32 27 32 32 38 35 31 24 20 16 19 18 17 16 16 15 13 13 19 16 20 10 16 15 25 33 34 35 35 30 29 21 23 28 30 29 25 21 21 22 22 21 17 16 16 13 15 10 14 11 9 6 7 8 9 9 12 11 13 10 11 12 14 16 14 13 13 13 13 11 11 9 9 9 12 13 12 10 9 10 10 10 14 12 16 17 22 30 34 37 35 32 33 35 35 33 30 23 16 17 18 19 14 12 15 16 22 19 20 20 21 23 25 25 27 30 33 37 39 39 35 30 24 21 22 23 24 22 20 16 15 16 17 19 21 28 33 33 28 26 25 26 26 32 31 28 20 15 16 26 43 60 78 92 97 92 74 51 40 29 25 18 20 30 37 35 35 27 28 30 31 23 14 9 13 11 12 8 11 12 18 25 34 31 30 20 21 21 23 21 16 21 26 35 35 30 25 23 15 17 17 18 20 19 22 18 17 18 29 34 41 32 33 20 39 57 74 64 47 41 45 46 40 31 22 17 14 18 19 14 18 11 14 13 12 14 12 9 9 7 10 18 34 70 117 147 133 86 36 11 7 6 7 6 6 7 8 8 6 5 4 3 5 4 6 4 5 6 8 9 8 5 4 4 5 4 5 4 4 5 8 8 10 8 10 8 7 7 5 6 6 8 7 6 4 4 4 3 5 5 6 7 6 7 6 9 7 9 8 8 10 9 7 6 6 6 7 6 6 4 5 6 6 6 3 4 6 9 8 6 5 4 4 4 4 7 8 11 10 9 7 6 7 6 7 8 10 10 8 6 6 5 3 0 
0 4 5 4 4 6 6 9 9 11 11 10 14 8 10 6 8 10 10 8 7 7 8 8 11 9 10 7 8 7 7 6 6 5 7 10 10 8 6 5 5 5 5 3 3 5 6 7 5 5 5 5 7 5 5 4 4 4 4 3 5 5 6 5 5 5 6 6 5 6 5 6 7 6 7 8 10 10 8 6 5 6 5 5 4 3 4 4 5 5 5 6 8 7 7 6 6 4 5 4 5 7 7 8 7 5 4 3 3 5 7 7 8 5 5 4 5 8 5 6 4 6 8 7 8 7 5 4 4 3 4 4 4 5 6 7 6 6 8 11 15 11 11 7 7 7 7 6 7 8 8 45 96 122 105 67 43 44 36 32 32 31 36 38 32 25 16 13 15 15 16 19 19 18 13 16 16 18 16 12 14 13 22 37 42 41 43 33 38 29 30 32 33 31 24 17 13 19 17 21 17 20 20 16 18 12 16 10 9 8 8 11 11 9 8 9 12 10 11 10 15 17 17 14 13 11 13 11 14 9 7 8 11 11 11 10 11 12 14 15 16 15 20 22 25 33 38 41 35 29 29 27 26 22 18 16 16 17 16 19 18 17 19 19 23 19 20 20 23 26 30 31 33 32 32 32 32 32 30 29 27 25 24 23 22 21 18 13 9 10 12 16 19 23 26 28 28 28 27 29 32 36 34 30 22 17 15 24 37 49 63 68 67 65 46 38 38 32 30 24 23 25 33 32 31 24 25 30 29 20 11 8 9 10 13 14 12 12 15 23 29 30 29 23 26 24 23 22 16 16 20 29 39 40 29 22 17 20 19 24 25 21 21 16 18 20 37 37 51 30 31 20 52 73 85 69 49 44 48 45 39 31 23 20 17 20 20 14 17 13 13 13 10 13 12 10 8 10 18 32 62 107 142 141 101 50 14 5 7 6 6 6 6 9 7 8 4 4 4 4 5 5 5 5 5 7 8 9 9 9 7 6 5 4 3 3 2 4 6 9 11 9 10 8 8 6 4 4 4 5 5 6 5 5 6 4 5 5 6 8 7 8 6 8 7 8 8 9 8 8 6 5 4 4 7 7 7 5 5 5 6 5 3 6 6 9 7 8 5 5 4 4 5 7 10 11 10 6 5 6 7 6 5 5 6 8 10 9 8 7 5 0 
0 5 7 6 6 7 8 8 10 10 13 10 14 9 11 7 8 6 7 6 8 6 7 8 9 9 10 9 8 10 7 7 4 4 7 7 8 7 5 5 6 6 6 5 5 6 7 6 5 4 4 4 5 4 4 4 4 4 2 3 5 5 6 5 5 4 5 5 5 5 7 8 7 4 5 5 6 8 7 8 6 5 6 6 5 4 4 5 7 7 9 8 7 6 7 5 5 3 4 4 5 6 7 8 7 5 5 4 4 5 6 6 5 4 3 4 4 6 4 7 5 7 8 10 10 8 7 5 5 3 5 4 4 6 7 9 6 6 7 8 12 11 10 6 5 5 4 5 7 10 14 51 97 123 98 71 45 53 41 28 22 19 25 27 26 22 15 14 13 14 15 17 16 18 13 17 12 18 11 11 10 13 23 39 47 40 46 36 47 34 31 32 39 35 27 24 18 21 16 17 13 14 14 15 17 15 19 12 10 9 9 11 9 8 6 7 11 11 12 9 17 18 20 21 16 17 19 16 15 9 9 11 12 13 11 10 14 15 15 16 18 18 22 24 30 36 39 41 37 28 24 20 18 15 16 19 18 16 18 21 22 21 21 22 26 24 23 22 25 29 33 36 37 38 39 40 40 38 37 35 34 33 33 31 28 25 23 22 20 24 24 28 27 30 32 34 32 30 28 27 26 28 27 25 21 18 15 17 27 39 49 49 46 42 28 29 30 32 31 26 25 27 32 28 27 27 25 30 26 19 13 10 9 10 12 15 15 15 15 19 24 25 25 26 27 29 24 26 20 21 25 29 33 32 35 27 18 18 16 22 21 19 17 16 22 30 48 46 43 28 25 26 68 91 92 71 45 47 50 47 40 32 25 23 19 20 18 14 14 12 11 12 10 13 10 10 10 15 26 52 94 135 144 115 65 24 8 7 7 5 5 6 6 9 8 7 3 4 4 4 5 5 6 6 4 8 7 12 9 9 7 6 6 5 5 4 3 4 3 5 5 6 9 9 8 7 4 3 4 5 6 5 4 4 4 4 4 5 5 6 5 6 6 7 6 6 5 6 5 7 4 5 5 6 6 5 5 4 6 7 8 6 5 8 7 13 8 10 6 6 5 4 4 4 6 6 6 5 4 4 6 8 9 9 7 7 6 8 9 9 5 0 
0 6 10 7 7 6 6 7 7 9 10 11 12 9 11 7 9 8 8 6 7 7 8 8 9 8 6 7 7 10 7 7 3 3 4 6 7 6 5 5 6 6 7 6 7 6 7 5 5 4 3 3 2 3 3 3 4 4 4 4 5 5 7 6 8 8 6 6 5 7 7 6 6 7 8 9 9 8 8 7 7 8 8 7 5 4 6 7 9 10 10 10 7 7 5 5 5 4 4 4 4 7 9 9 9 6 5 4 5 6 6 6 4 3 3 5 5 8 7 8 6 8 9 11 11 9 9 8 8 4 4 4 4 7 6 7 6 5 5 7 9 9 8 7 6 6 5 6 8 10 21 60 99 119 86 68 46 55 43 32 32 27 27 27 27 24 18 16 15 13 13 14 16 16 12 15 12 14 10 10 11 19 28 36 44 37 45 36 40 33 37 32 31 27 31 25 28 27 22 14 9 12 13 13 15 16 18 13 11 11 12 17 13 11 7 6 9 11 14 10 19 18 24 21 19 23 20 19 16 11 8 10 10 11 10 12 14 18 21 21 19 17 21 24 27 31 37 40 38 31 27 26 30 32 30 28 24 19 17 17 21 23 26 26 26 22 19 19 22 26 29 30 31 32 32 31 30 30 30 31 33 34 35 34 35 36 36 36 36 38 35 32 26 29 28 30 26 25 23 21 18 19 20 23 23 19 14 11 21 29 36 36 31 30 28 32 34 34 31 26 25 24 29 26 23 27 26 31 25 24 20 15 11 11 15 17 16 15 19 18 21 19 27 31 30 34 27 27 19 14 16 19 34 37 33 32 19 21 17 25 25 26 17 20 26 34 40 48 40 34 28 42 91 109 100 69 41 47 50 49 43 35 28 26 20 19 15 13 10 10 10 12 8 9 10 12 15 21 41 81 125 144 125 77 34 13 10 8 7 6 5 6 7 9 8 5 4 3 6 6 7 8 6 9 5 8 7 10 9 11 8 7 6 6 7 6 4 4 3 5 5 6 6 6 6 7 5 4 4 5 5 5 6 5 4 4 5 5 5 4 4 4 4 4 4 4 4 5 5 7 5 6 5 6 8 10 9 8 7 6 7 4 4 8 7 13 7 8 6 4 5 3 4 5 6 7 7 5 5 5 6 7 7 8 7 9 9 12 10 13 7 0 
0 7 11 8 8 7 6 7 6 10 8 10 8 8 11 11 11 8 6 5 6 6 9 8 8 8 8 9 9 12 9 8 4 3 4 4 5 5 5 4 6 5 6 6 8 7 8 5 6 4 3 2 2 3 3 3 5 5 6 5 6 6 8 7 7 5 5 5 5 6 8 10 10 7 8 7 8 7 7 8 8 7 7 7 6 5 6 6 9 10 10 11 7 7 5 5 6 5 5 4 5 8 8 9 8 7 7 4 5 6 6 5 5 4 4 5 4 6 5 9 6 8 7 8 9 9 10 9 8 6 4 5 5 6 6 7 6 6 5 6 7 8 6 5 4 5 5 7 9 14 31 70 102 108 73 56 39 47 40 33 32 28 29 29 29 34 36 31 26 18 16 12 17 16 15 14 13 12 15 10 18 23 32 31 36 32 39 36 35 31 26 28 30 29 32 28 38 31 28 18 10 12 11 12 14 15 16 13 12 13 11 14 9 11 8 8 10 11 13 11 18 17 24 18 24 23 25 24 16 12 8 11 11 13 10 15 15 24 23 21 22 23 23 24 24 26 30 35 36 32 31 32 38 38 33 28 25 22 20 18 22 27 30 31 28 24 22 24 27 30 30 30 30 30 31 28 29 32 33 35 35 37 37 38 38 38 37 36 35 35 33 27 20 21 23 25 23 22 21 19 18 18 26 31 25 19 17 19 23 24 25 26 25 28 32 35 36 35 31 27 32 40 41 34 24 26 26 32 29 32 28 25 19 15 17 15 18 15 20 15 18 18 26 35 33 33 27 20 18 17 18 18 21 33 30 38 20 20 16 25 22 29 17 24 28 41 48 42 32 24 22 52 108 119 106 58 38 43 49 52 47 40 33 29 21 17 12 10 7 6 9 11 11 11 14 16 20 35 68 116 143 131 89 41 20 13 15 11 9 6 4 6 7 8 9 5 5 3 7 7 9 9 7 10 7 8 8 8 8 8 6 7 5 5 6 5 4 4 3 4 5 5 5 6 6 6 5 5 6 6 6 5 3 3 3 3 3 3 3 3 3 3 4 4 4 4 4 3 4 5 5 6 6 8 7 7 7 9 11 10 8 5 4 7 6 9 5 6 5 5 5 3 4 3 4 5 6 5 6 4 6 9 9 8 6 5 5 9 9 11 6 0 
0 6 8 8 8 7 7 6 6 8 7 7 5 8 10 12 13 10 9 6 7 7 8 8 7 7 6 7 7 8 7 6 3 2 4 5 6 6 5 5 7 7 7 6 7 6 8 5 6 3 3 3 2 3 3 4 7 7 9 7 8 7 8 8 9 8 6 4 6 7 7 7 8 9 12 10 8 9 9 9 7 7 7 7 6 6 9 7 9 8 10 9 8 8 7 8 9 7 8 5 5 7 7 11 8 7 6 5 6 6 7 6 5 4 5 7 8 10 9 10 6 7 6 8 9 9 11 11 9 6 5 4 4 5 6 7 6 6 5 6 6 7 6 5 4 5 5 7 9 14 43 80 102 93 57 42 30 35 31 36 42 35 28 26 37 38 38 33 31 23 18 14 20 19 18 14 16 12 17 9 26 25 36 27 29 35 40 38 28 30 29 27 20 22 26 29 36 30 30 20 13 15 12 14 10 14 13 11 10 11 11 15 10 14 10 11 10 11 12 13 16 16 23 20 25 21 23 18 14 12 8 11 12 16 10 13 14 19 23 26 24 22 20 20 19 17 20 26 29 30 34 34 42 41 35 31 30 32 30 29 31 35 36 36 35 33 32 33 34 36 33 31 28 27 28 27 30 32 36 37 37 39 42 43 42 40 36 32 30 28 23 17 14 21 31 30 27 21 25 20 23 26 30 30 24 18 18 21 24 22 17 19 21 26 33 35 35 30 24 22 28 37 44 38 26 22 23 26 24 28 30 25 19 13 13 12 13 15 20 15 16 18 25 36 34 27 21 21 19 19 18 17 16 26 26 34 25 20 19 28 24 36 20 30 26 31 33 35 33 29 23 69 117 122 103 45 37 38 45 51 50 45 38 32 21 15 9 9 6 6 9 9 10 12 17 19 30 60 105 142 139 100 52 19 11 14 15 15 12 9 5 6 6 7 6 5 5 5 8 8 9 10 11 11 8 6 6 5 6 5 5 5 5 5 7 6 5 5 4 5 5 5 5 4 4 6 7 6 7 6 6 5 4 4 3 3 4 5 4 3 2 2 3 5 7 6 6 5 5 5 5 7 7 7 8 9 11 10 10 9 7 3 3 4 5 6 4 4 4 5 4 4 3 3 4 5 7 4 5 3 5 6 7 6 7 6 6 7 8 9 6 0 
0 6 8 8 7 6 5 6 8 9 8 5 4 9 12 17 12 12 9 9 8 8 8 7 6 6 6 7 6 7 7 6 6 6 6 6 5 4 5 6 7 7 7 6 7 6 9 5 8 4 4 4 3 3 4 5 7 8 10 7 8 7 7 7 6 5 5 5 5 6 7 8 9 7 7 7 6 7 7 8 8 7 6 7 7 7 6 5 7 7 9 7 7 7 6 7 9 8 8 6 6 8 6 8 6 6 4 5 5 7 7 6 6 4 4 5 4 7 7 9 9 8 8 7 7 7 9 9 9 6 5 4 4 4 6 7 9 8 8 9 9 7 5 3 3 4 5 6 10 16 56 89 103 83 44 31 23 28 30 32 29 23 22 24 34 38 50 43 35 26 23 20 21 21 21 17 15 12 21 12 27 24 33 24 22 31 36 43 36 35 30 25 16 23 31 35 36 32 30 28 23 22 14 15 9 11 8 8 10 11 10 12 10 13 13 13 11 12 11 12 14 16 19 17 17 17 21 18 17 13 9 12 13 15 12 12 16 22 31 25 22 24 25 21 19 14 18 21 28 31 36 35 38 34 28 31 31 39 37 38 33 35 37 38 40 41 39 38 36 37 35 33 32 32 35 34 35 33 39 36 37 37 41 42 39 34 26 19 13 11 9 10 12 16 25 26 29 18 26 19 29 33 49 46 30 18 19 26 29 22 17 16 18 25 33 33 31 26 24 24 43 46 58 37 28 21 20 19 18 24 28 27 25 22 18 16 14 21 26 23 18 20 23 29 27 29 23 21 20 20 26 28 24 25 28 32 31 23 21 27 23 33 21 29 20 29 33 37 38 38 32 93 124 131 101 40 37 34 40 48 50 49 43 37 25 17 11 9 6 6 8 8 10 16 21 28 53 98 138 148 115 63 23 10 9 15 13 14 10 7 5 5 5 7 6 5 4 5 7 8 8 10 9 9 9 6 6 5 6 5 5 4 4 3 4 4 6 7 5 5 6 7 6 5 5 6 5 5 7 6 6 4 3 4 4 5 4 3 2 2 3 3 5 6 8 7 6 4 5 5 6 6 8 7 8 7 7 9 10 9 7 4 5 5 5 4 4 5 5 6 4 4 3 3 3 4 5 3 4 2 4 5 7 5 9 6 7 6 6 6 4 0 
0 5 7 7 9 8 7 7 7 9 7 7 5 9 10 13 10 12 7 10 8 7 7 5 5 5 5 5 5 5 5 5 4 5 5 5 4 4 5 6 8 10 9 8 8 5 9 5 7 5 5 4 5 5 5 7 7 8 9 6 8 6 6 6 6 6 5 5 5 7 7 6 7 7 7 6 5 7 7 9 7 6 6 6 7 8 8 8 7 8 7 9 8 8 9 10 11 8 7 5 5 6 7 7 6 4 3 5 5 6 6 6 4 3 3 5 5 8 9 8 8 8 10 11 9 10 9 8 8 6 6 5 4 3 5 6 7 6 6 6 6 6 6 5 7 7 7 5 8 21 69 96 100 67 31 21 19 25 27 27 23 17 16 18 26 31 30 30 36 37 32 25 22 22 23 22 19 15 16 12 21 25 33 30 30 38 41 42 43 47 36 26 15 18 24 27 28 29 28 25 22 18 12 12 8 9 7 7 7 8 10 11 14 13 16 13 12 12 10 11 14 17 20 21 17 15 12 11 10 8 10 12 18 20 21 20 22 25 27 24 21 21 21 22 22 16 21 19 25 29 34 34 33 31 26 31 27 40 34 40 37 38 35 34 37 39 39 38 34 34 33 31 29 29 34 34 33 24 26 23 28 28 32 32 29 27 24 23 20 17 13 14 18 30 44 38 34 20 25 17 28 29 37 32 23 15 15 17 21 21 18 16 16 23 28 28 24 17 18 19 43 35 50 26 29 20 18 14 11 15 16 23 20 21 15 22 25 28 29 26 23 21 23 33 29 25 23 21 22 26 33 38 30 31 30 36 31 26 19 22 22 27 20 25 15 19 28 35 44 45 42 114 133 141 96 46 42 31 35 42 47 50 46 41 31 23 16 13 12 12 11 11 13 20 28 48 88 133 149 124 72 28 8 6 8 10 12 12 10 9 7 6 4 6 3 5 4 5 8 9 8 10 9 10 8 6 7 6 6 6 5 3 4 3 3 4 5 5 4 5 3 5 6 7 6 6 6 5 5 5 5 4 4 4 5 6 5 5 3 3 3 4 6 8 11 10 9 7 6 5 7 7 9 6 7 6 6 8 7 7 7 4 6 7 7 6 4 5 6 6 6 4 3 3 3 4 5 4 3 1 2 3 7 7 9 6 7 6 5 6 3 0 
0 6 9 7 6 5 6 8 7 13 7 9 7 10 13 11 10 7 7 8 9 10 9 6 5 4 4 4 4 6 5 8 6 6 6 5 5 6 8 9 8 7 8 7 7 6 7 6 7 6 8 6 6 7 5 7 6 7 7 6 6 6 6 6 5 5 3 5 4 6 7 7 8 6 6 5 5 5 6 7 8 7 8 8 9 8 6 7 6 8 7 7 7 7 7 7 8 7 6 5 5 5 6 6 5 4 4 5 5 6 5 5 4 3 3 4 5 7 8 9 11 12 13 17 12 11 7 8 7 6 6 4 4 4 5 7 7 7 7 7 8 6 5 6 8 9 9 7 9 33 78 98 93 58 37 32 31 32 31 29 20 16 17 21 21 29 35 50 49 47 39 31 20 19 21 23 22 19 18 16 20 27 33 32 27 23 31 38 41 39 32 27 20 22 28 30 32 25 29 27 22 17 11 8 8 7 7 8 8 7 10 9 16 11 16 11 12 10 9 10 13 16 19 17 14 13 14 15 15 11 12 9 20 22 24 20 21 25 27 21 17 23 25 30 21 20 23 22 25 26 28 27 27 29 26 28 19 31 31 42 44 42 35 28 28 31 34 34 31 28 23 20 17 20 29 31 30 18 15 14 19 20 20 19 19 23 27 28 24 23 23 28 34 40 43 40 34 21 21 17 23 32 37 37 27 18 15 15 14 15 16 16 18 24 29 29 21 17 22 23 44 34 44 20 25 20 18 12 11 12 13 21 21 31 27 33 32 35 44 34 33 27 27 28 28 29 23 23 18 29 35 53 37 41 31 38 29 26 15 19 20 23 23 25 21 20 28 32 39 52 63 139 147 152 96 57 50 33 31 35 40 46 46 43 36 30 25 19 15 14 14 16 20 27 47 85 127 146 127 82 36 13 8 8 9 10 9 7 9 7 8 7 5 6 3 5 4 5 7 8 8 9 8 9 9 7 6 7 7 8 7 5 3 4 3 4 5 5 5 6 6 7 5 6 6 6 6 5 5 6 6 4 4 5 9 9 7 5 2 2 3 4 5 6 8 10 10 8 6 6 8 7 8 5 6 6 8 9 8 7 6 5 8 10 10 9 7 8 9 7 7 4 4 3 3 3 4 3 3 1 2 3 6 7 10 8 7 5 4 6 3 0 
0 4 7 8 9 10 8 7 6 10 6 10 7 9 8 7 6 4 6 6 10 9 9 7 5 5 6 6 4 9 6 9 5 6 4 4 5 7 7 7 8 8 9 8 8 7 6 6 8 6 6 5 6 6 6 6 6 7 6 6 7 7 6 6 5 5 3 3 3 5 5 7 8 9 10 6 6 4 6 7 8 8 8 7 6 7 8 9 7 7 6 7 8 7 8 9 9 6 4 3 4 5 7 7 6 4 4 4 3 4 5 7 6 5 4 5 5 6 7 7 10 12 13 16 12 12 8 6 6 6 6 5 4 4 5 6 8 6 7 4 7 6 8 8 9 11 9 8 12 46 86 98 80 44 29 30 31 33 27 26 18 20 22 27 20 24 29 44 56 62 49 38 20 19 21 25 26 23 19 22 25 28 32 32 34 32 30 30 36 38 33 27 22 23 26 23 28 23 21 20 17 13 10 6 7 7 9 8 9 7 9 8 15 10 16 10 11 8 6 7 11 13 18 18 18 17 16 13 11 8 11 8 21 24 33 30 29 24 25 21 27 28 25 27 18 20 19 21 26 25 26 25 29 28 25 26 18 23 30 46 55 55 41 30 21 22 25 27 29 34 28 26 20 23 32 35 37 29 24 20 18 15 13 13 20 24 27 29 26 23 24 28 33 39 40 36 25 18 16 18 20 23 21 21 19 18 15 13 12 12 14 15 16 19 22 25 23 18 20 24 37 31 32 21 18 16 17 12 15 13 14 17 15 21 24 43 51 55 49 37 34 24 25 29 24 27 18 22 16 34 33 48 34 38 30 37 28 26 20 20 22 21 21 19 20 22 23 27 33 42 76 151 158 153 95 68 62 41 31 30 33 39 42 43 39 32 28 23 19 18 18 21 28 48 84 125 145 128 85 39 13 8 9 11 12 9 10 7 10 7 10 6 6 5 5 5 5 6 9 9 9 8 7 7 7 6 6 7 7 9 6 7 4 5 3 4 6 8 8 7 7 7 6 6 6 6 5 5 5 5 4 4 5 6 8 8 7 5 4 6 8 10 11 11 12 14 12 10 6 5 6 7 8 5 5 4 6 7 7 7 7 7 9 9 12 9 8 8 10 8 9 6 6 4 4 3 6 4 5 2 2 5 7 9 9 8 7 6 4 5 2 0 
0 5 7 6 6 7 8 9 7 8 5 8 6 10 8 7 6 5 6 8 11 10 10 6 6 6 6 7 5 10 8 11 7 8 7 9 7 9 9 9 8 7 7 8 7 8 6 7 7 8 9 6 6 6 6 7 6 6 6 6 7 7 10 8 6 4 2 3 3 5 6 9 10 9 12 7 8 5 5 7 7 8 8 7 6 7 7 7 7 6 7 6 6 5 7 7 7 7 6 4 5 5 6 6 7 5 5 6 5 5 5 5 6 7 7 8 7 6 7 7 9 10 13 14 13 11 6 6 4 5 5 4 4 4 7 7 9 5 7 5 8 6 6 5 6 9 10 10 20 59 91 93 63 34 28 33 29 27 23 26 22 25 21 22 19 23 39 58 70 67 51 48 26 23 20 25 28 29 26 30 33 33 32 29 25 25 27 29 28 26 21 25 25 27 30 28 31 26 21 22 16 12 9 8 11 11 13 10 10 8 10 9 12 9 12 12 10 8 5 6 10 11 13 14 15 14 15 16 20 18 13 9 16 19 23 18 21 20 27 22 27 30 38 34 25 22 22 25 31 25 25 18 19 20 22 23 21 26 29 49 65 70 53 33 22 23 24 28 30 34 27 27 16 19 34 49 51 45 28 29 24 24 20 16 17 23 26 26 24 23 28 31 34 34 27 23 21 25 26 27 27 25 25 21 17 19 18 16 14 13 15 15 14 17 22 24 26 23 27 31 34 30 24 17 17 18 17 13 18 13 16 19 21 29 34 49 51 65 55 44 31 23 27 30 22 22 15 21 19 31 30 38 28 27 29 29 27 26 24 27 28 21 20 19 20 26 20 23 26 35 94 153 163 136 86 71 73 52 34 28 28 32 34 37 37 34 31 28 25 23 24 32 53 88 124 143 130 89 44 15 10 9 12 13 15 9 8 6 9 9 9 6 6 5 5 6 6 8 10 12 11 9 7 7 6 6 4 6 6 9 7 7 5 6 5 7 7 7 8 9 11 8 7 4 6 5 5 4 4 6 7 6 5 7 9 9 6 5 5 7 7 8 8 8 9 12 13 11 6 5 5 7 7 6 6 5 6 7 7 6 6 6 9 9 13 11 9 9 10 10 11 7 8 4 5 4 6 5 5 4 4 6 7 9 9 7 7 5 5 5 3 0 
0 3 7 8 10 11 9 7 5 6 5 7 6 8 8 7 6 5 7 8 10 9 7 5 6 7 7 7 7 8 8 8 6 7 6 6 6 6 6 5 5 7 6 8 6 8 6 9 9 9 6 4 4 6 6 8 7 6 7 7 11 9 10 7 6 4 3 3 3 4 5 7 10 10 10 7 7 5 4 5 6 6 5 4 4 5 6 7 7 5 5 6 7 5 5 6 6 5 6 5 7 4 7 6 7 6 7 6 6 7 7 8 9 8 8 6 6 4 4 6 8 9 10 9 10 8 6 6 5 4 4 3 3 4 5 6 7 5 6 5 6 7 7 5 7 8 9 10 29 69 95 86 50 22 18 22 21 20 18 24 23 26 22 18 17 19 33 48 56 66 48 50 30 23 18 20 23 26 26 31 33 32 29 25 26 29 28 28 24 26 24 30 25 24 28 31 35 28 21 19 17 16 12 12 14 11 13 14 16 13 11 10 9 8 9 12 11 11 9 11 13 12 10 13 15 14 17 16 17 17 14 13 12 14 17 16 17 17 20 26 37 40 37 28 23 20 20 21 26 22 26 21 19 20 19 23 24 25 24 39 49 50 46 33 29 26 25 20 21 34 31 33 32 37 46 59 59 79 47 43 26 21 20 22 20 28 26 23 19 15 20 22 26 21 17 16 24 28 27 23 21 19 16 13 10 14 15 17 16 13 12 13 12 14 19 20 27 26 31 33 30 25 23 17 17 14 18 16 18 18 20 19 19 30 34 53 50 54 43 34 21 19 22 24 20 18 15 19 19 29 25 28 20 17 24 26 29 33 41 44 34 21 14 15 19 31 26 26 29 39 108 152 164 111 71 66 81 66 44 30 25 27 30 33 35 36 35 34 31 32 41 63 97 128 141 127 89 46 16 8 10 9 15 13 14 9 7 8 10 10 8 6 5 5 5 7 7 9 10 10 10 8 7 4 4 4 4 5 5 6 5 7 5 7 7 8 9 12 12 10 10 8 9 6 7 5 6 5 7 7 5 4 5 6 6 6 5 5 7 9 11 13 12 12 10 12 11 10 6 6 6 7 7 6 5 5 5 4 4 6 7 9 7 9 9 10 10 11 9 10 12 9 9 6 6 6 5 7 6 7 6 7 7 7 9 8 9 5 5 4 2 0 
0 4 6 6 7 7 8 8 7 7 5 8 8 10 10 9 8 8 10 12 11 8 7 6 7 7 7 7 6 7 7 7 7 7 9 7 6 5 5 5 5 6 5 8 5 8 6 8 7 8 6 5 4 7 7 10 9 9 8 5 6 7 8 9 6 4 2 3 4 5 6 7 8 8 8 6 5 4 3 4 5 4 5 4 4 6 6 6 5 6 8 7 6 4 4 7 8 8 8 5 6 4 6 6 7 7 7 9 9 7 7 6 8 7 11 7 7 5 5 7 6 7 9 10 9 8 6 7 5 5 3 2 2 3 4 5 5 3 4 5 6 8 6 5 5 6 9 10 39 77 98 78 41 15 15 14 16 14 16 24 23 25 16 13 19 18 32 48 51 65 49 50 38 27 23 17 19 20 22 27 28 30 28 21 24 26 31 29 22 17 17 23 22 23 24 27 31 27 24 18 16 16 16 15 15 16 18 15 14 11 9 8 6 6 8 11 11 14 14 16 16 13 12 14 17 17 14 14 19 24 18 13 8 9 9 11 12 17 20 26 28 30 33 33 28 22 18 18 20 22 21 21 18 17 15 23 22 20 15 22 37 47 43 28 32 28 29 27 25 33 34 35 35 38 52 70 60 65 42 40 32 34 29 24 20 30 33 31 29 20 22 19 21 16 21 25 32 32 31 25 17 16 11 12 9 13 15 17 16 12 12 16 14 15 19 19 24 25 30 30 28 23 22 20 26 21 22 19 19 18 22 29 32 48 40 53 47 60 56 44 30 25 24 24 17 13 13 22 20 27 19 21 12 17 22 30 30 39 39 42 32 20 9 14 23 32 36 34 32 42 119 153 158 89 49 55 82 79 59 38 26 24 26 30 34 36 37 39 44 56 79 109 134 139 121 84 44 21 10 10 10 8 11 11 11 7 6 7 9 9 7 7 7 8 8 10 11 10 10 10 12 9 9 6 5 4 4 4 5 6 6 6 5 7 5 7 7 7 7 7 8 7 6 5 6 6 8 7 8 7 8 6 5 5 5 6 5 4 6 7 7 9 7 8 7 10 9 10 6 6 6 7 7 7 7 6 6 4 5 6 6 8 5 9 8 11 8 8 8 12 11 11 10 9 6 9 5 8 6 9 8 9 8 10 11 8 8 6 6 5 2 0 
0 3 7 6 8 8 7 6 6 7 6 8 8 11 10 10 9 10 11 10 9 8 7 8 7 8 6 7 5 8 5 5 4 4 4 3 3 3 3 4 4 5 4 6 4 6 5 8 7 8 5 3 3 6 6 9 7 8 8 10 11 10 8 6 4 3 2 3 4 4 5 8 9 7 6 6 5 4 3 3 3 4 5 4 5 5 5 6 6 5 6 7 8 7 5 6 7 7 7 8 8 7 6 6 6 6 7 8 8 7 8 7 10 8 8 6 7 5 5 7 7 10 7 8 7 7 6 6 6 5 4 3 3 3 3 3 3 3 4 6 6 8 5 6 4 7 9 12 46 83 98 72 35 10 16 12 20 16 20 25 22 25 16 13 23 19 31 41 47 56 49 42 38 26 20 13 15 17 18 19 18 22 26 21 21 21 30 28 25 22 31 36 31 23 24 25 32 29 23 17 16 18 19 21 17 14 15 14 15 13 10 8 6 5 7 10 12 16 17 21 21 16 15 16 19 20 16 16 13 16 17 17 14 13 10 12 11 16 20 21 28 35 38 34 25 21 13 15 15 16 16 21 18 19 14 16 15 14 9 13 21 29 32 30 23 25 23 22 19 33 39 40 50 52 66 55 58 50 46 36 35 27 26 27 35 38 47 35 34 18 19 18 19 16 28 33 43 35 26 18 14 13 10 11 8 11 12 15 15 12 12 11 16 17 18 17 17 20 22 21 22 22 31 33 36 25 24 16 19 21 28 32 40 59 47 56 39 46 40 33 28 22 21 19 14 14 17 23 20 20 16 19 14 19 20 33 33 42 41 43 29 18 11 17 31 37 39 30 34 57 134 159 145 71 27 39 71 84 78 55 35 26 22 26 32 39 47 58 73 96 120 138 136 112 74 37 15 9 6 8 7 8 9 7 7 6 7 8 9 8 8 7 6 6 6 7 8 8 8 9 11 11 13 9 7 5 4 5 5 5 5 6 5 6 5 7 8 9 10 7 5 6 5 7 7 7 8 7 10 8 6 4 3 4 4 6 7 7 7 7 7 10 9 11 7 7 7 8 7 8 7 7 6 5 6 5 5 3 5 6 7 8 6 8 6 8 8 10 10 11 12 13 9 11 6 10 5 9 7 11 9 11 8 8 8 8 8 6 5 5 3 0 
0 3 7 5 6 5 6 6 5 7 6 7 7 9 8 10 8 9 10 11 8 9 7 8 7 8 7 7 6 6 5 6 5 4 4 3 2 3 3 5 4 5 4 4 4 4 4 5 5 5 3 3 3 5 5 9 10 12 9 9 8 9 8 5 4 2 3 2 3 3 5 6 7 6 6 5 4 4 2 3 4 5 6 6 7 8 9 9 7 7 7 7 7 6 6 8 8 8 7 7 7 7 6 6 5 5 6 6 6 6 5 5 6 7 7 6 6 6 7 8 6 8 7 9 8 7 9 7 7 4 4 3 3 3 3 4 4 3 5 6 6 7 5 6 4 5 7 15 53 88 98 66 31 12 20 12 24 19 25 27 21 23 16 18 29 26 31 32 43 46 48 36 38 31 27 18 16 14 16 16 19 19 26 19 21 18 25 26 30 25 29 28 33 27 25 21 22 22 20 15 12 18 19 21 15 13 13 10 9 7 6 5 5 6 7 11 13 15 17 20 20 19 16 17 19 21 19 18 18 18 18 17 18 20 19 21 20 21 23 23 25 23 26 27 22 22 14 17 14 17 18 18 16 18 16 15 14 11 13 24 35 47 42 33 25 23 23 26 28 36 40 36 49 47 61 46 48 38 47 40 41 35 37 34 46 43 57 36 39 31 28 22 18 13 26 38 46 39 30 19 16 12 12 12 9 9 13 13 12 9 10 11 20 17 18 15 13 13 14 14 18 26 32 39 36 30 24 17 18 21 28 36 45 53 49 57 49 62 62 47 36 25 20 19 18 23 24 21 19 18 17 15 15 19 22 30 29 31 32 27 21 18 15 20 34 37 50 34 37 81 141 158 125 52 14 21 52 76 91 82 65 51 43 44 50 59 73 88 106 123 130 121 95 61 30 14 8 9 9 9 9 7 7 6 4 5 7 8 8 7 6 6 8 9 9 9 9 9 7 7 9 9 11 7 8 5 5 6 6 6 6 5 5 5 4 5 7 9 7 6 4 5 5 7 6 8 10 11 11 8 6 4 3 3 4 6 6 6 5 6 4 8 6 9 8 10 9 9 8 7 5 6 7 8 8 6 7 6 7 7 7 8 8 8 9 7 8 7 8 10 11 11 8 9 6 8 6 9 8 12 10 11 9 10 11 11 10 9 6 5 2 0 
0 4 7 6 7 7 5 4 5 6 6 7 6 8 6 6 6 9 8 9 6 7 7 6 6 6 7 6 6 5 6 5 6 4 4 3 2 3 3 5 4 4 4 4 3 3 4 4 6 5 5 4 4 5 6 7 8 10 10 11 12 12 8 5 2 2 2 2 3 3 5 9 10 8 7 7 7 6 4 3 4 5 7 7 7 7 8 8 7 7 6 7 9 9 6 8 6 7 6 7 8 8 7 6 5 4 4 4 4 4 5 7 8 7 5 6 6 6 6 7 7 8 7 7 7 6 6 6 7 6 6 5 4 4 5 5 6 4 6 5 6 5 4 4 3 5 7 18 61 92 95 62 32 20 30 19 30 27 31 29 19 17 13 15 27 30 34 33 42 43 51 41 42 36 30 21 22 19 25 17 20 15 23 17 21 17 22 27 33 35 43 32 34 31 30 30 23 20 19 16 14 21 19 22 16 10 10 6 7 6 8 5 6 7 8 10 11 12 14 16 17 20 16 15 15 18 17 17 17 14 14 18 23 26 27 26 23 30 24 22 26 26 34 32 21 20 16 19 17 16 13 13 14 15 16 16 17 12 24 36 42 47 45 35 33 19 23 27 34 42 49 42 47 51 52 43 41 39 60 54 56 37 35 45 51 46 46 32 40 33 38 26 22 11 19 35 41 39 35 23 23 14 12 12 12 9 12 12 12 13 14 14 17 16 20 15 12 9 11 14 20 32 33 48 35 33 23 17 16 27 30 38 47 46 47 43 44 44 38 28 22 15 14 21 23 35 30 30 22 18 21 21 22 23 22 27 30 30 26 21 21 19 22 20 32 30 34 29 42 104 147 153 98 31 11 10 29 51 76 87 87 80 76 78 83 90 100 108 113 111 99 77 48 21 8 6 6 8 8 9 9 7 7 5 4 5 7 8 7 5 6 5 6 5 5 6 5 6 7 8 11 10 11 8 7 5 7 6 7 6 5 4 5 6 5 6 6 7 6 5 4 6 7 8 9 10 10 10 9 6 4 3 2 3 3 5 6 7 6 6 5 8 7 11 10 11 10 10 10 8 6 5 5 7 6 6 8 8 8 8 8 9 10 8 9 5 7 9 12 11 9 8 7 5 6 7 7 9 8 11 9 10 8 8 7 8 7 6 4 6 3 0 
0 3 7 8 7 5 5 3 4 4 6 6 7 6 6 5 6 6 7 7 6 6 5 3 4 5 6 5 4 3 5 4 5 4 4 4 3 3 3 4 3 3 3 4 5 4 4 3 4 3 4 3 4 4 6 9 11 9 8 9 9 10 7 5 3 3 3 3 3 3 4 7 8 8 8 7 7 6 4 3 5 5 7 7 8 8 7 7 8 7 7 7 7 7 6 7 5 7 6 7 7 6 7 6 6 6 5 4 3 3 5 6 6 6 5 4 5 6 7 8 7 7 7 7 7 7 7 8 7 6 4 3 3 4 5 6 8 5 6 4 5 4 4 4 3 4 6 22 67 94 90 56 33 26 36 25 33 33 30 27 17 14 15 17 29 33 35 33 42 46 50 47 49 48 39 28 27 20 31 20 24 18 18 17 22 18 21 33 37 39 35 22 29 30 30 32 21 18 15 15 13 17 16 20 17 12 9 7 8 7 8 6 8 11 11 12 10 10 10 15 16 20 18 17 15 13 12 14 13 14 14 17 24 31 33 34 23 23 20 18 20 16 20 18 24 23 23 21 17 18 16 16 11 15 17 17 17 17 38 46 66 65 57 41 35 28 28 29 36 37 39 44 43 49 43 39 46 48 75 60 57 47 37 46 42 41 31 23 34 35 51 32 25 13 14 24 38 37 37 26 25 21 18 17 11 9 7 8 9 12 12 14 18 20 21 19 14 10 10 13 17 31 27 36 24 27 22 24 22 26 30 36 40 33 43 35 39 39 37 31 25 17 17 34 35 51 33 31 20 21 22 26 22 22 23 27 26 23 25 20 30 23 27 19 24 27 30 30 51 126 153 141 71 17 9 6 11 29 53 72 83 85 86 88 92 96 96 93 85 72 54 29 13 6 6 7 8 9 10 13 12 10 10 6 6 5 7 8 9 5 5 3 5 6 7 7 6 6 6 5 7 6 8 6 5 4 6 6 7 5 5 5 5 6 6 6 8 9 8 6 5 5 7 7 9 10 12 12 10 7 4 2 2 3 4 5 5 5 4 6 4 7 6 11 12 13 13 11 13 7 6 5 8 11 8 8 8 9 9 11 10 11 12 9 9 5 8 7 8 7 8 5 6 5 7 6 7 8 7 8 7 8 7 9 9 8 8 6 5 6 3 0 
0 5 7 8 9 6 6 3 5 6 6 6 8 8 7 4 6 5 9 7 8 6 4 2 3 4 6 6 5 5 5 5 6 6 7 6 5 5 4 4 4 4 4 5 5 4 5 4 5 4 6 6 7 6 6 7 9 10 8 8 8 8 7 6 4 4 3 3 3 3 4 7 9 10 9 8 8 6 5 4 4 4 5 5 5 5 5 6 6 7 8 8 9 10 7 8 7 7 6 5 5 6 7 6 8 5 6 3 4 5 6 7 7 6 7 5 5 4 5 7 8 8 7 8 7 6 4 6 7 8 6 5 4 3 4 5 7 7 6 4 4 5 5 5 5 4 5 28 72 95 84 48 32 31 40 30 34 35 32 29 18 11 14 18 27 30 34 33 43 50 51 50 49 55 45 32 31 26 40 27 27 20 16 19 22 23 26 37 43 42 33 19 25 30 31 32 24 24 19 16 13 13 13 14 12 12 8 8 6 6 8 9 10 14 13 13 9 8 9 11 12 15 15 15 13 10 8 11 10 12 13 17 22 29 28 30 24 21 19 15 17 14 22 21 21 23 24 20 18 17 13 14 10 16 16 21 16 16 36 45 72 53 54 48 37 36 32 30 36 37 36 33 32 44 44 47 57 66 84 85 64 64 47 51 36 25 21 14 27 29 37 31 27 19 17 20 30 27 31 23 22 21 17 16 12 11 8 7 8 12 15 21 20 22 20 20 15 12 10 13 15 28 28 37 27 30 30 35 39 32 35 36 40 35 34 24 27 21 24 26 27 21 16 31 39 59 49 41 29 28 21 24 26 32 39 38 43 33 38 29 41 31 29 16 16 19 24 25 63 137 156 132 54 11 8 7 6 9 23 39 55 64 71 72 72 69 64 55 43 26 17 12 9 7 5 5 7 9 10 10 9 9 9 7 7 5 8 6 6 4 4 3 3 4 4 5 6 6 7 7 8 7 7 6 5 6 5 6 5 5 4 5 5 6 5 5 6 6 6 5 5 5 5 5 8 9 13 13 10 6 3 2 3 4 4 5 4 6 5 7 6 8 7 9 9 10 12 11 11 8 6 6 7 8 8 8 7 8 8 11 10 12 10 8 8 5 7 10 12 8 5 4 6 6 8 9 10 8 7 6 6 7 7 7 7 6 5 4 5 6 4 0 
0 5 8 8 8 5 5 4 5 4 5 6 7 7 6 5 6 5 7 5 6 5 4 3 3 5 6 7 6 5 6 4 6 4 6 7 7 5 4 3 4 4 4 5 6 5 6 4 6 5 5 5 4 5 6 7 8 8 8 8 7 9 6 6 4 6 5 5 4 2 4 5 8 8 8 8 7 6 4 3 3 3 4 5 5 5 4 4 6 9 8 8 7 9 8 9 8 9 8 6 5 5 7 7 9 6 9 5 5 4 5 5 5 4 4 3 3 3 5 7 9 10 10 8 6 5 5 5 6 6 5 3 3 4 5 7 7 7 5 5 5 5 7 5 5 5 5 34 79 97 80 43 31 33 40 32 37 39 34 32 22 19 21 28 33 31 28 28 37 50 51 54 53 54 50 37 34 31 37 29 26 24 20 20 21 26 30 40 49 43 36 21 26 28 26 27 25 26 21 16 10 9 7 10 10 11 8 10 7 7 8 11 12 18 15 15 11 9 11 12 12 14 14 14 12 10 6 8 7 12 11 14 15 23 25 27 22 18 16 14 16 15 17 18 22 26 21 18 13 15 16 19 15 17 18 19 16 15 28 31 55 48 61 44 47 45 35 37 32 24 24 30 31 38 34 37 58 70 81 80 68 72 49 44 30 23 26 20 21 20 27 29 24 22 15 20 24 22 23 20 22 23 21 17 15 9 7 9 11 14 13 18 19 23 22 20 16 12 9 10 11 21 22 26 23 24 36 39 45 38 36 36 34 34 24 19 21 23 31 32 28 26 26 41 48 58 55 49 33 28 28 25 26 27 43 47 61 37 42 32 46 35 33 19 15 17 25 24 78 140 156 122 44 11 9 6 7 9 12 16 22 27 32 32 34 29 25 16 12 9 10 8 7 5 4 6 6 7 7 7 6 8 8 8 8 6 7 6 7 6 5 5 4 4 4 5 5 6 6 5 6 6 7 5 5 5 5 5 6 5 5 6 6 7 7 8 8 7 7 5 4 3 3 3 5 8 11 10 11 6 5 2 2 4 4 5 4 6 6 7 7 8 8 8 7 9 9 13 10 11 6 8 9 12 9 7 6 6 6 10 9 10 9 8 6 6 6 8 8 8 8 7 7 9 9 8 9 8 9 8 9 9 7 8 7 5 4 5 6 8 5 0 
0 5 7 5 5 5 6 4 5 5 5 5 5 7 7 5 5 3 4 4 5 5 4 4 4 5 5 5 7 5 7 3 6 4 6 6 6 5 4 4 4 4 4 3 4 4 6 4 7 6 7 7 7 8 6 7 9 10 9 8 8 7 5 5 3 4 3 3 3 2 4 6 10 10 9 6 4 4 4 5 5 4 4 5 5 6 6 5 5 6 6 8 7 11 10 12 12 11 9 5 4 4 6 6 8 6 6 5 6 7 7 5 5 5 5 4 3 3 4 5 9 8 8 5 6 4 4 4 5 5 4 3 3 3 3 5 6 8 5 5 5 5 6 4 4 4 5 42 86 101 79 39 31 33 40 37 34 39 36 41 28 25 22 34 34 33 23 25 27 43 45 44 48 45 49 39 35 34 34 34 29 25 28 26 23 23 27 33 48 43 45 40 41 41 27 24 24 30 26 20 10 10 6 7 6 9 9 9 8 7 6 10 12 16 16 20 20 17 13 12 12 11 11 10 9 8 7 9 7 11 10 13 11 15 16 20 19 18 16 15 17 19 22 20 21 22 21 19 14 17 17 18 19 25 29 27 25 18 22 24 43 38 57 42 42 43 45 50 37 29 25 28 29 36 38 38 58 68 94 77 68 60 51 42 28 25 26 20 17 14 15 23 28 36 24 24 22 20 18 16 18 17 16 13 14 13 11 10 10 11 12 17 19 22 19 15 16 16 17 16 13 18 24 30 36 26 38 42 45 38 29 37 32 31 18 13 18 25 33 33 31 31 30 40 45 70 61 57 40 25 26 26 33 38 55 53 66 53 54 38 51 36 34 20 22 20 29 28 91 143 153 108 33 9 9 8 8 8 11 12 12 10 9 8 7 5 8 6 9 7 9 9 8 6 4 5 5 5 5 4 4 6 6 8 7 7 8 6 7 7 8 6 6 4 5 5 5 5 5 5 5 5 5 4 7 5 7 6 6 4 5 5 8 8 8 6 7 6 5 3 4 3 2 2 3 6 9 10 11 5 5 2 2 3 4 4 6 5 9 7 11 8 9 6 6 7 7 9 6 10 7 10 7 8 7 7 5 6 6 8 7 7 6 6 5 6 6 10 8 9 8 10 12 10 10 10 10 8 11 9 11 9 10 8 6 7 8 8 7 9 5 0 
0 3 5 4 4 4 4 4 6 4 4 3 4 5 4 4 3 2 2 2 2 3 3 5 4 6 8 8 9 6 7 4 5 4 5 5 5 5 4 5 5 5 3 3 4 4 5 5 8 6 8 6 5 6 5 5 7 7 9 7 8 7 6 5 4 5 5 4 4 3 4 5 6 6 6 4 4 4 5 4 5 4 5 5 6 7 5 4 4 4 5 6 7 10 9 10 9 9 8 5 4 4 6 6 6 6 6 6 5 6 6 5 5 4 5 5 4 5 4 6 7 7 7 5 4 4 4 5 4 4 2 1 2 3 5 6 5 7 5 6 6 5 5 3 4 5 10 53 94 104 77 37 33 35 39 36 34 45 39 43 30 27 24 41 37 35 23 25 27 37 46 41 43 33 36 33 30 32 31 28 29 25 32 26 24 23 24 25 41 50 53 57 47 48 30 23 20 29 29 29 22 20 14 11 8 8 9 8 8 7 7 9 10 13 16 18 18 18 15 11 11 9 7 7 9 11 11 12 10 11 8 7 7 9 12 15 19 19 17 18 18 20 17 14 19 22 23 21 17 17 17 19 21 24 26 25 29 22 27 15 33 31 47 41 40 40 39 43 36 28 23 29 32 33 26 21 44 59 74 68 67 63 57 41 30 26 29 21 18 14 17 26 24 25 21 23 20 17 18 16 17 13 11 12 11 10 10 12 14 15 12 12 13 17 19 18 21 20 21 17 15 20 27 25 25 22 36 43 43 41 25 25 25 23 16 10 15 24 31 28 27 28 38 48 41 68 61 55 42 31 42 43 40 34 41 44 49 45 45 37 40 34 40 26 30 23 30 40 108 147 144 87 27 12 10 8 9 9 9 10 9 10 9 9 8 7 9 6 8 6 9 8 6 5 4 5 5 5 4 3 3 5 5 7 6 7 7 6 9 7 11 7 8 5 7 5 8 5 5 4 5 6 5 5 5 6 6 6 7 6 6 6 10 9 10 8 8 6 5 3 3 3 4 3 4 5 7 8 7 4 4 1 2 2 4 4 8 7 12 7 13 8 13 6 6 6 8 10 7 10 7 9 7 8 7 6 5 5 5 6 7 5 6 4 4 4 5 8 11 14 14 14 13 13 11 8 8 7 11 11 17 13 13 8 8 6 6 6 6 8 5 0 
0 3 4 2 3 4 6 6 5 4 5 4 4 5 6 5 3 2 2 1 2 3 4 6 6 8 7 7 7 6 6 4 4 3 3 3 3 6 5 8 5 6 3 3 3 4 7 7 8 6 5 5 6 7 6 8 9 8 9 7 9 7 7 6 6 6 5 4 4 4 4 6 8 8 7 4 5 6 8 9 7 5 5 5 6 7 5 3 2 2 3 4 6 7 7 8 7 7 6 4 3 3 4 5 6 6 5 6 5 8 7 6 6 4 6 5 5 6 4 5 4 4 3 3 3 4 4 3 3 2 1 1 2 3 4 4 5 6 5 4 6 5 5 3 4 5 17 65 101 105 72 35 33 35 36 31 29 36 36 38 25 22 23 31 32 33 29 24 28 29 51 40 38 27 25 27 24 29 33 32 34 23 31 27 27 23 18 16 31 51 62 83 66 56 40 30 34 37 32 27 23 19 18 18 15 10 11 9 12 15 14 14 13 12 14 21 22 19 16 11 13 12 10 9 11 12 12 12 11 10 8 6 6 7 9 9 16 16 18 17 15 18 18 16 19 22 29 28 22 18 16 15 19 23 28 29 35 25 37 21 40 35 51 41 32 37 47 51 42 29 25 29 33 31 30 26 37 50 58 56 45 41 37 33 29 21 20 15 17 17 21 27 34 35 29 26 20 15 16 16 18 15 8 8 9 11 13 16 13 11 9 9 12 15 16 21 27 30 32 22 21 27 31 31 25 24 29 51 46 47 30 26 22 18 18 18 20 30 38 35 33 30 36 36 36 46 55 47 51 38 46 42 37 33 24 28 35 49 44 43 35 34 36 26 28 25 30 63 125 151 130 65 17 9 8 7 8 9 9 8 7 7 6 6 6 6 7 8 8 9 9 9 6 5 4 6 7 6 4 3 3 4 5 6 5 7 6 6 10 7 13 7 9 6 8 6 8 5 5 4 4 5 5 4 4 5 7 9 8 6 6 8 10 9 9 7 9 8 7 5 4 4 4 4 4 5 6 7 5 4 3 2 3 3 4 5 8 7 11 9 13 8 11 7 9 9 9 9 7 9 7 8 6 5 4 4 5 7 8 6 8 6 7 3 3 3 5 7 9 13 14 18 17 16 13 10 8 6 8 7 12 10 13 8 8 8 10 9 8 7 4 0 
0 2 4 3 4 4 5 5 6 6 5 5 4 3 4 3 2 2 2 1 2 3 5 6 7 11 11 12 10 9 7 7 7 4 4 3 3 7 6 10 6 6 4 3 3 5 6 7 7 7 5 4 5 5 7 8 9 8 7 6 6 6 8 7 10 8 8 6 5 6 5 5 4 4 5 5 6 7 8 8 7 7 6 7 8 8 7 5 3 3 3 4 5 6 7 5 5 5 5 5 4 4 3 4 5 5 4 6 5 8 6 6 5 4 6 5 5 5 3 4 3 3 3 3 4 5 7 6 5 4 3 2 2 3 5 6 6 5 5 4 7 5 6 3 4 7 26 78 109 105 64 32 31 36 32 25 23 33 37 32 21 20 23 30 32 25 25 24 33 27 44 36 33 22 14 20 20 28 41 36 32 20 24 24 20 21 18 18 27 47 53 63 53 47 47 30 34 33 41 34 34 29 28 24 20 11 11 12 17 22 23 20 16 13 14 15 17 15 14 13 12 13 11 14 14 17 17 14 12 10 7 7 8 8 9 7 16 18 23 18 14 13 10 10 16 18 22 20 20 16 14 11 15 16 16 15 23 21 34 23 39 34 42 37 35 36 34 37 36 27 28 22 27 23 31 29 36 42 45 46 41 42 38 34 31 32 29 20 18 23 34 42 40 35 27 22 19 14 14 16 18 14 8 6 8 16 22 26 24 18 14 11 11 16 20 26 30 30 32 21 26 30 31 27 16 21 33 66 53 57 29 24 17 20 22 24 24 35 36 37 35 30 39 31 39 34 50 39 57 46 55 47 34 30 21 28 31 47 39 44 31 36 35 33 28 32 38 96 137 148 104 41 13 10 9 8 7 6 5 5 6 5 6 6 7 8 8 10 10 14 11 11 6 5 5 6 8 6 5 3 3 4 4 4 4 7 6 6 8 6 9 5 7 5 7 6 6 5 4 3 3 4 4 5 5 5 5 6 7 7 8 8 10 10 9 8 8 7 6 5 5 6 6 5 5 5 6 7 4 3 2 2 2 3 4 6 6 8 9 9 10 9 10 7 9 8 9 9 7 8 9 7 7 4 4 4 5 6 6 7 8 7 7 4 3 3 4 7 10 15 14 17 15 14 13 8 9 5 6 6 10 10 11 8 8 5 6 4 4 5 3 0 
0 2 4 4 5 6 6 7 7 7 6 5 6 6 7 5 4 2 2 1 2 2 5 7 9 11 10 11 8 9 6 6 6 5 4 4 3 7 6 10 8 7 4 5 4 8 9 12 9 6 4 3 4 6 8 10 13 12 10 9 8 9 8 7 10 8 9 8 5 6 4 6 7 7 6 5 7 9 10 9 7 6 6 6 5 5 5 5 6 6 5 6 5 5 4 4 6 5 6 5 4 4 2 4 4 5 5 6 5 7 6 5 5 4 5 5 4 4 3 3 3 4 4 4 5 4 5 5 4 3 2 2 2 3 4 5 6 5 5 4 7 5 7 4 5 7 36 90 115 104 55 28 29 37 29 24 19 30 33 27 18 19 22 26 22 21 26 19 24 25 38 34 33 26 18 19 22 33 43 39 34 21 17 20 18 22 17 19 25 41 46 57 54 41 47 33 50 41 43 32 26 20 23 23 21 14 16 16 21 27 31 26 29 23 23 17 16 13 12 12 11 16 13 17 14 15 16 15 13 11 7 9 7 9 10 11 19 21 22 17 14 10 13 11 14 19 26 23 18 15 16 17 14 15 17 16 18 17 25 22 28 30 33 38 27 32 36 40 38 36 33 26 29 25 33 40 48 52 47 39 33 29 23 30 31 37 38 32 26 26 34 44 45 37 34 19 18 10 10 14 17 14 9 6 13 22 27 30 25 19 16 16 17 20 23 31 40 32 30 22 29 36 38 28 15 19 31 57 51 61 31 35 26 24 28 33 34 55 45 55 46 43 44 28 31 23 39 38 54 44 49 37 29 27 24 30 42 56 47 42 27 35 29 30 24 30 55 118 146 137 76 24 11 10 7 5 6 7 5 4 4 3 5 5 6 6 8 12 10 13 11 13 7 6 5 6 7 5 6 4 5 6 5 5 5 6 7 6 7 7 8 6 7 6 6 7 6 6 4 3 4 4 5 5 5 5 6 6 7 7 7 8 9 8 7 6 6 6 6 5 6 6 5 5 4 5 6 6 5 3 2 3 3 5 4 6 6 8 7 10 10 9 8 6 8 8 10 10 8 8 7 6 6 3 4 3 4 7 6 7 7 9 8 7 6 5 6 7 8 10 11 13 14 13 15 8 10 5 6 3 5 7 9 8 8 7 8 7 7 7 4 0 
0 2 4 4 5 5 5 7 8 8 10 6 7 5 5 6 6 4 3 1 2 3 5 7 7 10 8 10 8 10 8 8 6 6 3 3 3 5 6 7 6 6 4 5 5 7 7 8 7 7 4 3 3 4 9 9 13 10 9 7 6 6 6 7 7 8 7 7 7 5 5 6 6 6 6 6 7 7 7 8 11 10 9 7 7 7 8 7 6 6 6 5 4 4 4 4 6 6 8 7 5 4 2 3 3 4 3 5 5 6 5 5 6 5 4 4 4 4 3 3 5 6 7 6 5 7 7 8 6 5 3 2 2 3 4 6 6 6 5 4 5 5 6 5 6 12 52 101 119 98 44 23 25 35 29 24 24 27 28 25 16 22 27 29 27 18 22 18 22 21 27 32 31 26 21 23 19 35 40 43 35 29 22 22 14 16 19 25 27 35 33 37 39 30 39 26 31 36 42 38 33 23 23 21 19 15 16 19 21 26 25 25 24 20 23 19 17 15 17 15 11 13 15 18 19 18 14 12 10 10 6 12 9 13 9 12 13 19 20 18 14 10 11 9 14 16 19 17 16 18 17 18 19 17 17 13 14 14 19 20 20 25 26 39 38 45 38 42 37 41 39 41 39 36 38 47 53 54 52 37 26 24 19 25 39 49 56 40 36 32 43 50 49 33 34 20 21 11 10 13 15 13 11 10 16 27 33 39 32 28 25 21 20 23 24 27 28 30 23 26 28 33 34 30 22 25 32 45 40 41 25 33 33 31 27 32 34 55 45 64 46 46 37 26 31 23 28 30 37 36 35 31 28 33 35 49 65 58 55 38 26 31 27 36 33 34 79 129 152 117 50 11 10 9 10 8 5 4 3 3 4 5 5 6 6 9 9 12 13 15 12 11 7 6 4 5 5 4 6 5 4 6 5 5 6 6 8 7 7 6 6 6 6 8 6 7 5 5 5 4 4 5 6 7 8 5 6 4 5 6 7 7 8 8 8 5 6 6 7 5 6 6 6 5 4 5 6 6 5 4 3 4 4 5 5 7 7 8 8 8 9 7 7 5 8 7 8 6 6 7 7 7 6 4 3 3 4 5 5 7 6 11 8 9 7 6 9 7 9 9 11 10 12 9 11 7 10 5 6 3 5 7 9 8 7 6 6 5 5 5 3 0 
0 2 3 3 4 6 6 9 10 8 9 6 7 8 7 8 5 4 3 2 3 4 6 8 8 9 7 8 6 7 5 6 4 5 4 4 3 4 5 7 7 7 5 6 6 8 9 10 9 7 5 4 4 5 8 8 13 13 14 11 8 8 9 7 7 7 7 7 5 4 4 4 5 6 6 5 6 6 7 9 10 10 9 7 4 4 5 7 8 9 8 6 5 4 5 6 8 7 7 5 4 3 3 4 5 5 5 5 5 4 5 4 7 6 5 4 3 3 4 4 6 6 7 7 6 7 5 8 7 6 5 3 4 4 4 5 8 9 7 6 5 5 5 7 6 23 70 114 118 83 32 18 22 31 31 25 26 32 33 29 20 24 28 29 25 18 18 14 16 18 20 28 24 28 21 28 19 38 31 35 35 33 28 19 11 15 19 26 29 34 36 35 41 33 34 29 27 32 37 33 28 18 15 14 16 18 17 20 20 22 18 23 24 31 29 22 22 16 18 15 15 12 13 12 12 13 14 14 10 12 7 13 9 14 13 20 22 25 18 14 12 10 11 11 20 23 27 20 16 18 22 22 22 19 25 15 17 13 21 17 16 20 29 41 40 42 37 43 38 46 45 43 47 39 41 47 54 60 48 38 27 21 25 23 36 40 58 42 34 24 29 31 33 27 28 19 17 10 8 8 10 11 13 15 20 24 23 24 24 25 27 26 26 22 18 29 23 30 19 22 28 36 35 36 30 25 24 31 30 27 23 35 44 53 45 34 34 48 49 59 50 49 40 22 22 23 28 31 32 28 27 37 34 44 37 45 60 53 52 30 27 26 25 33 30 41 98 143 149 97 32 7 9 8 8 7 6 6 3 4 4 4 5 6 5 6 8 10 9 10 9 10 7 5 4 4 4 4 5 5 6 8 6 5 5 6 8 6 6 6 7 9 7 8 6 8 6 6 6 5 5 6 6 7 8 6 6 5 5 6 5 5 7 5 6 5 6 6 8 6 7 7 8 6 5 5 7 6 6 4 3 3 4 5 6 7 7 6 8 8 10 7 6 6 6 6 6 6 5 5 4 5 4 3 3 3 4 4 4 6 6 9 8 10 9 7 9 8 12 8 11 8 10 8 10 8 9 6 6 4 5 6 8 8 8 8 7 6 7 7 5 0 
0 2 3 4 3 6 5 7 7 8 9 9 7 8 5 8 6 6 3 3 3 4 5 6 7 7 6 6 5 6 4 5 4 4 3 3 3 4 4 6 5 6 6 6 6 5 5 6 7 6 5 4 5 6 9 7 10 11 11 9 9 6 7 6 6 5 6 7 6 5 3 3 5 6 7 7 8 8 9 10 13 12 9 5 4 5 5 6 5 6 7 6 5 5 6 6 7 6 7 5 6 5 6 5 5 4 5 4 4 4 4 4 6 6 5 4 3 3 4 4 6 8 8 8 7 10 8 9 7 8 7 6 7 5 7 5 7 7 7 5 4 4 5 6 8 47 97 130 113 61 20 15 20 29 28 24 27 32 36 35 27 29 37 36 28 19 16 16 16 18 20 24 24 32 24 31 21 33 29 37 42 35 34 20 16 16 22 26 30 29 36 36 42 36 35 31 23 22 30 31 26 16 12 18 24 28 26 22 16 18 14 17 16 19 22 23 24 20 26 18 17 10 11 12 12 11 9 10 9 11 7 10 8 10 12 14 16 17 18 18 16 11 13 10 21 23 29 23 21 24 23 23 27 18 25 13 17 12 21 19 23 26 39 46 52 47 45 40 32 35 41 42 48 37 42 42 50 60 53 39 25 18 22 18 30 31 37 32 30 28 30 28 27 23 22 21 17 14 13 12 11 15 20 20 20 18 22 24 25 23 25 20 19 17 12 21 18 25 22 23 28 33 36 42 38 38 28 23 20 20 14 25 38 47 47 49 41 41 45 44 51 34 30 18 18 21 22 22 21 19 26 29 38 38 39 41 49 44 43 26 26 22 27 33 29 64 115 155 138 77 22 8 6 6 8 9 8 6 5 5 5 6 6 6 6 6 7 9 10 10 8 6 5 5 4 4 3 4 5 5 6 6 5 5 5 6 8 9 8 7 6 6 6 8 7 8 8 7 7 7 6 8 7 7 7 5 5 4 5 5 5 7 7 6 7 5 7 8 10 8 7 7 7 8 7 6 7 4 5 5 5 4 4 4 7 7 8 8 7 8 8 9 6 7 5 5 3 3 3 4 4 4 4 4 3 3 3 3 4 5 5 6 7 7 6 6 8 7 13 9 14 8 9 7 6 6 6 6 5 5 6 8 8 7 7 7 8 6 7 6 4 0 
0 4 4 5 3 5 4 6 6 6 5 5 5 7 5 6 4 6 6 6 6 7 7 10 10 9 7 5 3 3 3 3 3 4 5 4 3 4 4 7 6 7 7 5 5 5 6 6 6 5 5 4 6 6 9 9 11 11 15 10 8 7 8 9 9 8 7 6 4 4 4 4 4 5 6 7 7 7 8 8 10 8 10 7 6 4 4 4 5 6 6 6 6 6 9 8 8 5 5 5 5 5 7 7 8 5 5 4 3 3 3 4 5 6 5 4 3 3 3 4 5 6 6 6 6 7 6 9 8 11 10 9 11 7 8 7 11 11 11 7 7 6 6 7 16 82 128 151 107 47 15 14 19 28 28 24 27 33 45 44 45 38 37 36 29 20 13 12 14 17 20 22 26 27 22 23 21 30 30 37 40 34 30 17 17 22 24 28 28 27 36 38 39 40 36 37 26 23 23 24 20 13 12 21 26 31 25 27 20 19 14 18 16 23 21 21 23 17 23 18 20 11 8 5 5 9 12 16 17 18 16 13 11 11 15 17 22 20 15 12 13 10 14 11 22 21 24 19 18 21 22 22 21 19 24 16 17 14 20 23 24 26 40 41 52 35 35 34 41 45 43 40 37 28 36 33 42 36 32 25 21 17 19 16 21 25 26 25 20 21 24 21 18 18 18 17 16 15 16 15 19 21 23 22 20 16 17 16 18 18 21 20 20 16 11 20 21 23 21 19 26 29 31 46 42 38 27 31 31 26 18 24 37 62 61 65 50 47 42 32 37 25 22 18 21 26 29 30 24 18 25 22 46 33 41 30 37 40 40 27 28 24 25 30 28 88 136 164 122 54 15 8 6 5 6 7 8 7 5 5 5 6 7 6 7 6 6 6 6 6 6 7 6 5 5 5 5 4 5 5 7 6 5 4 4 5 7 7 6 6 6 5 4 4 5 6 7 7 6 8 7 8 6 6 5 5 6 5 6 5 5 7 7 8 6 4 5 6 7 8 7 10 8 9 9 7 8 5 6 5 4 4 4 4 7 6 6 5 5 7 6 7 5 7 6 7 6 5 4 4 5 6 5 4 4 3 3 2 3 5 8 7 8 7 6 4 6 8 14 10 15 11 9 5 5 8 9 10 9 7 7 7 8 8 7 7 7 7 8 9 6 0 
0 2 3 4 4 4 4 3 4 5 6 7 6 5 4 5 5 5 5 4 5 5 6 8 9 9 6 4 3 2 2 2 2 2 3 3 4 5 5 6 7 6 6 4 4 3 5 6 8 8 6 4 6 8 12 11 10 10 9 10 9 8 6 6 5 5 6 5 5 5 5 4 5 6 6 7 7 8 7 7 7 6 6 5 5 4 4 4 4 5 6 6 7 6 7 7 6 5 5 5 6 7 8 6 6 4 4 5 5 6 5 6 6 6 5 4 3 2 2 3 5 7 7 6 6 6 6 7 6 7 8 7 8 7 8 6 8 7 7 5 6 6 7 10 33 122 157 169 99 45 18 16 18 26 29 25 28 26 48 48 56 45 43 38 28 20 14 14 14 16 21 28 29 31 29 24 22 27 36 43 43 34 23 20 19 34 31 35 24 21 30 39 41 54 52 53 34 25 22 28 27 18 17 23 33 43 28 22 14 17 18 22 17 21 21 22 22 16 19 16 16 10 8 7 8 11 12 13 13 13 14 12 12 10 12 11 12 12 13 12 12 8 11 10 17 17 20 18 19 19 21 18 18 22 19 22 17 16 17 19 23 23 34 34 41 34 37 31 31 36 36 31 27 23 36 37 44 43 41 38 30 20 16 14 15 16 14 18 19 25 26 23 20 16 14 14 20 18 24 20 25 26 26 22 16 15 15 21 24 26 21 20 15 17 15 21 29 30 31 28 30 35 32 42 42 49 42 30 29 26 25 32 36 54 59 78 65 54 37 24 23 27 30 29 28 32 34 30 17 13 17 16 37 32 37 33 35 38 32 28 30 23 25 24 42 120 160 156 97 29 10 8 6 6 7 8 9 10 9 8 7 8 7 7 5 5 5 6 7 6 7 7 6 6 6 5 5 5 6 6 7 7 6 4 4 6 9 10 10 8 5 4 3 3 5 7 8 9 6 8 6 7 4 5 5 5 5 5 7 5 7 6 7 7 6 5 4 5 6 6 6 7 7 8 9 8 7 5 5 8 6 5 3 4 7 6 6 5 4 5 6 9 8 8 5 4 4 5 5 7 6 6 5 4 5 4 4 3 4 4 6 6 8 7 5 5 5 6 8 10 10 8 8 6 6 6 7 7 9 6 9 8 9 9 6 8 6 8 7 9 4 0 
0 4 6 4 4 4 5 4 4 3 3 3 4 4 4 4 5 6 6 6 6 6 7 8 8 6 4 3 2 1 1 2 3 4 4 4 3 3 4 6 7 6 5 3 4 3 4 6 6 8 7 5 6 7 11 10 10 9 8 8 7 8 7 9 9 8 6 6 6 6 5 6 5 5 5 5 6 8 7 6 5 5 7 8 7 5 3 4 4 6 6 5 6 8 9 8 7 5 4 5 8 7 9 7 7 5 4 4 4 5 6 7 7 7 6 4 4 4 4 4 4 5 5 5 4 3 2 4 7 7 7 6 6 6 6 6 7 7 7 6 7 6 8 11 59 154 175 175 85 50 26 22 19 25 30 25 33 22 48 49 63 48 40 31 28 25 18 16 12 21 23 28 28 30 21 16 20 20 37 46 45 33 18 17 22 40 34 37 27 30 36 42 46 47 46 48 43 34 26 26 26 24 25 28 28 30 24 21 18 19 19 18 18 17 16 18 18 14 16 14 13 12 8 9 11 13 15 18 22 21 22 16 14 11 11 11 10 9 8 7 8 8 10 9 12 13 13 10 13 13 16 14 15 23 24 33 27 29 25 22 24 22 26 33 32 32 31 35 46 51 51 44 32 25 29 36 34 38 30 29 26 23 16 11 12 19 18 20 18 22 25 22 18 18 19 23 26 21 24 21 25 25 20 16 13 14 15 18 19 21 19 21 18 18 20 19 27 26 30 29 28 25 24 41 42 44 36 32 38 32 30 35 40 60 59 71 55 52 35 25 23 19 21 25 36 47 50 44 27 16 19 21 31 39 39 45 35 36 34 26 30 27 32 29 69 133 160 130 67 16 10 10 8 6 7 7 8 8 7 8 8 10 8 9 6 6 6 5 5 5 7 7 8 6 6 6 7 5 5 6 7 6 6 5 4 6 8 7 8 6 6 4 3 2 4 6 6 7 6 9 8 9 6 5 4 4 5 6 6 6 7 5 7 7 7 6 5 6 5 6 5 6 7 8 8 8 7 7 5 6 4 5 4 5 6 5 5 4 5 5 5 6 5 6 6 7 7 7 7 8 9 8 7 5 6 4 4 3 4 6 8 9 9 8 5 5 5 8 8 9 10 10 8 5 5 8 12 12 12 8 8 7 8 8 6 6 5 7 6 8 4 0 
0 1 3 3 5 6 6 6 6 5 5 4 5 6 4 5 3 4 3 3 3 4 4 6 8 8 7 4 3 2 3 3 3 3 3 3 4 5 5 6 7 6 4 3 3 5 6 7 8 9 8 6 7 8 12 11 11 7 8 8 9 9 8 7 6 7 6 8 6 9 8 8 6 5 5 4 4 5 6 6 5 4 4 5 5 5 4 5 6 7 7 8 7 8 8 10 6 6 4 8 9 11 9 8 5 5 6 7 7 7 8 8 10 8 7 5 4 3 3 4 5 6 6 5 3 2 2 3 4 4 5 5 5 7 7 9 9 9 8 6 5 6 12 17 95 175 182 161 66 55 34 27 20 24 30 24 34 18 41 46 63 52 37 25 23 24 20 23 14 21 27 36 35 28 25 20 25 18 35 44 49 41 25 23 26 32 32 39 31 29 32 37 44 49 64 65 52 38 29 29 31 28 26 29 32 31 23 19 15 18 20 15 18 17 21 22 21 16 16 14 12 13 9 10 11 11 15 12 14 12 15 13 12 8 6 7 7 9 9 9 7 7 7 9 12 12 12 8 8 7 9 12 13 21 27 37 35 33 27 24 24 23 27 33 37 45 49 46 41 40 44 44 34 39 35 48 34 34 33 36 30 24 23 25 27 29 28 25 22 17 19 22 16 21 20 27 29 26 21 22 18 18 14 12 13 13 15 18 20 21 21 18 16 15 19 21 33 30 31 30 29 29 29 37 41 46 43 39 34 34 38 39 43 56 51 65 43 39 24 18 24 24 31 30 42 58 63 57 36 26 25 28 30 35 36 42 45 39 37 28 32 30 26 41 96 145 150 99 36 10 10 8 10 8 10 10 8 10 10 11 9 11 9 8 5 4 4 5 6 7 7 7 7 6 7 5 5 6 7 6 8 6 6 5 4 5 6 7 9 7 7 5 5 4 4 6 7 7 5 7 5 6 4 4 4 4 5 5 6 6 6 5 5 5 5 5 5 5 4 4 4 5 7 8 9 8 7 7 5 6 4 5 3 5 5 5 5 4 5 4 5 7 7 7 7 6 7 6 9 10 10 9 7 5 6 3 5 4 5 6 7 8 9 9 6 6 5 6 5 7 8 8 7 6 8 8 7 8 8 8 5 5 5 5 5 5 5 6 6 8 5 0 
0 3 3 4 4 6 7 7 6 5 5 4 4 5 5 7 5 5 5 4 3 4 6 7 7 7 6 5 4 3 3 3 5 5 5 3 3 3 4 7 8 7 5 4 5 5 5 6 7 7 8 6 7 7 8 7 7 7 7 8 7 8 9 9 9 10 9 10 7 8 7 9 8 7 5 5 5 8 9 8 6 6 7 6 7 5 5 5 6 5 5 6 8 10 8 10 6 7 6 12 10 15 9 9 5 5 6 7 7 9 10 11 11 8 7 6 4 6 6 6 4 4 4 4 4 3 3 3 4 5 6 5 6 7 9 10 10 9 8 6 5 6 15 29 129 188 185 137 52 57 40 30 22 22 30 24 30 16 32 41 58 54 39 24 20 24 25 27 23 27 28 31 28 21 21 16 20 16 28 37 45 44 30 23 20 26 30 30 32 40 42 42 46 61 58 62 55 50 39 30 30 34 32 27 27 22 17 20 18 20 16 10 12 15 15 15 18 14 15 11 11 12 9 10 10 9 14 14 24 21 22 17 17 16 14 12 10 10 10 10 7 7 8 11 16 16 18 13 12 11 12 14 12 19 24 31 36 36 32 27 25 25 28 26 27 29 32 38 38 42 39 43 36 40 32 33 31 27 25 21 24 31 31 29 24 24 28 26 22 16 13 20 17 28 26 31 25 29 21 23 14 12 11 10 12 15 15 16 12 12 13 13 14 14 20 20 21 20 25 29 26 24 31 36 42 42 35 33 38 35 38 31 34 44 43 44 29 32 29 29 28 20 18 23 41 70 69 73 42 40 33 30 36 36 42 40 38 28 30 27 32 38 33 74 119 147 122 63 17 9 11 8 9 7 7 7 8 8 8 9 8 9 8 6 6 4 5 5 5 5 6 6 5 5 6 6 7 7 8 9 8 6 5 4 4 6 8 8 8 6 6 6 5 7 7 8 7 6 6 8 7 8 6 5 4 4 4 6 8 8 7 6 4 4 5 4 4 4 4 5 5 7 9 10 8 7 8 8 6 7 3 5 4 7 7 7 6 4 6 4 5 5 5 6 7 6 8 8 10 11 11 10 9 5 7 3 6 5 6 7 7 8 8 8 7 7 6 7 6 8 7 7 8 6 6 7 8 11 8 8 4 5 5 4 6 6 6 6 5 6 3 0 
0 1 2 4 4 8 7 8 9 6 8 5 5 5 4 5 5 4 4 4 5 5 5 6 8 9 7 5 4 4 4 4 4 4 5 5 6 7 7 9 8 9 6 5 6 7 9 7 7 6 8 7 7 5 5 6 6 6 6 7 7 10 8 9 8 10 9 8 7 7 8 10 8 7 5 4 3 4 6 7 7 6 5 4 6 4 7 5 6 5 6 7 7 8 8 9 6 6 6 12 11 16 8 8 4 5 7 10 9 10 9 10 8 6 5 4 4 4 4 5 5 6 5 5 5 4 4 5 5 7 7 7 7 8 10 12 14 16 15 13 10 11 20 53 158 198 180 110 46 59 45 30 22 20 29 24 26 14 22 35 50 56 44 26 23 20 34 31 34 26 26 29 28 24 20 17 22 15 19 31 40 44 34 26 18 20 22 26 33 33 30 34 42 55 62 75 59 51 37 29 25 26 29 30 28 24 22 22 18 22 21 18 15 15 17 20 21 16 17 10 11 9 8 6 7 5 10 11 19 17 19 16 17 18 18 16 15 16 17 17 11 9 9 12 18 21 26 21 18 14 14 20 21 22 21 24 29 30 32 31 29 27 29 31 32 36 37 39 32 38 43 46 48 52 51 39 27 14 16 18 23 30 32 41 39 38 35 27 22 18 14 23 21 29 27 27 21 29 22 23 12 8 8 8 11 17 16 18 10 10 11 13 14 12 15 20 21 23 19 23 27 37 46 44 44 35 35 35 40 39 37 27 25 31 37 32 31 30 32 33 30 23 18 27 35 69 64 84 53 45 41 36 39 30 31 32 37 34 41 34 35 35 41 97 131 141 92 32 9 7 8 6 7 7 8 7 9 7 9 7 7 6 6 5 6 4 5 4 6 7 8 7 6 5 6 6 7 8 8 9 8 7 4 4 4 6 8 9 10 7 6 7 5 10 8 10 8 7 7 8 6 6 4 5 5 5 4 7 8 11 9 8 6 6 5 5 4 4 4 4 6 7 8 8 8 8 8 9 6 7 3 4 4 5 6 5 6 4 5 4 5 5 6 7 9 9 10 10 10 11 10 8 9 6 8 5 7 7 8 10 9 8 6 6 6 7 6 8 8 9 11 9 7 6 6 7 6 7 6 6 6 6 6 7 8 8 8 7 8 9 6 0 
0 2 3 4 4 7 6 7 6 6 7 6 6 5 6 6 5 5 4 4 4 6 9 10 9 8 8 7 5 4 3 3 4 4 5 5 7 8 8 10 8 9 6 6 6 6 6 6 7 6 7 7 6 6 5 4 5 5 5 7 6 9 8 12 9 9 9 7 6 4 7 8 8 8 6 5 4 5 6 7 6 6 6 5 6 4 7 4 4 3 4 6 8 9 8 8 7 6 7 10 9 11 6 6 5 7 9 10 9 12 13 13 10 6 5 4 6 8 9 8 7 5 7 6 8 8 7 7 6 8 10 9 8 8 9 11 13 15 14 14 14 17 20 78 174 206 167 89 47 62 50 29 20 19 28 25 23 14 14 31 46 58 52 32 29 22 39 39 46 30 27 20 21 21 15 12 16 14 21 28 33 38 29 22 14 15 22 27 28 30 34 35 42 56 75 71 53 48 38 37 35 30 29 23 20 16 15 16 19 25 27 25 22 16 11 13 15 15 14 8 11 7 9 6 9 5 9 13 18 19 17 16 17 21 21 19 17 16 15 14 11 9 10 13 20 23 27 26 25 25 27 30 29 27 26 29 35 40 39 32 27 26 27 28 28 31 27 27 27 28 30 30 34 38 43 40 34 21 19 20 24 38 38 39 26 23 23 24 25 24 22 25 25 24 21 20 22 28 24 22 12 8 8 9 11 19 20 20 13 13 14 17 17 17 18 17 16 21 25 35 33 39 47 47 43 38 43 40 42 45 39 35 21 24 26 23 32 33 40 34 28 24 19 31 31 64 58 72 57 43 35 29 35 35 39 33 33 24 38 31 43 34 57 114 141 128 69 20 8 7 6 6 6 5 5 4 8 7 10 6 4 4 4 4 5 5 6 6 5 5 6 6 5 7 7 9 8 9 8 10 8 6 5 4 5 8 13 13 10 7 4 5 6 10 9 11 8 8 6 9 7 8 6 7 6 6 6 8 11 13 11 11 7 9 6 7 5 5 5 5 8 10 13 10 8 8 7 10 6 7 3 4 5 7 9 7 6 4 4 5 5 5 4 5 6 7 9 9 10 10 9 9 8 8 8 6 6 6 7 8 8 7 6 7 8 9 8 8 8 9 6 6 7 7 6 6 6 6 7 6 7 7 7 9 9 9 10 7 9 6 5 0 
0 2 3 4 3 6 6 8 6 7 7 7 7 5 5 6 6 4 3 3 5 6 6 6 6 6 4 5 4 5 4 3 4 3 6 7 9 10 8 10 7 8 5 5 6 8 9 9 8 8 7 7 5 6 5 5 6 6 6 8 6 9 8 8 8 7 7 6 4 4 6 6 9 6 7 5 5 4 6 9 10 9 9 7 9 6 7 6 7 6 5 7 7 9 7 7 6 5 6 7 7 7 4 5 6 8 10 10 10 8 8 7 6 5 5 4 5 7 9 9 10 7 10 9 11 12 11 11 11 11 12 14 16 18 19 21 22 22 21 21 22 25 26 109 183 207 147 69 49 64 55 30 17 17 27 28 22 15 11 27 43 56 56 36 28 25 35 44 48 33 26 15 19 19 16 14 18 18 25 33 35 36 27 19 16 18 25 25 26 25 26 30 39 44 51 52 50 46 32 32 31 26 29 21 23 20 18 19 19 24 32 35 26 17 9 13 14 14 14 11 12 8 10 7 9 6 8 11 12 14 9 10 10 14 15 14 15 15 20 21 20 16 14 15 20 24 27 28 28 28 30 31 31 30 30 35 42 49 52 50 44 40 41 46 52 54 48 38 31 34 36 36 37 43 47 41 33 27 23 24 25 27 24 29 26 27 24 24 24 23 23 21 21 20 19 19 20 23 21 16 9 7 7 8 13 19 24 21 18 13 15 19 23 22 17 14 20 20 34 36 47 59 59 53 47 40 40 43 47 55 40 40 18 22 20 21 32 37 43 40 28 23 23 36 31 49 46 54 50 45 33 31 33 36 31 30 30 26 41 38 48 41 84 131 144 106 45 10 4 5 5 5 5 5 6 4 8 6 8 5 4 4 4 6 5 6 6 6 6 8 8 8 7 9 8 12 7 10 7 8 9 8 8 5 7 9 12 13 10 7 5 5 6 7 9 7 7 7 6 12 7 10 7 7 7 6 6 8 12 15 12 13 8 12 8 10 7 6 4 4 6 7 8 8 6 7 6 8 4 5 2 3 4 5 5 4 5 4 4 6 5 5 4 5 6 9 12 11 12 9 8 7 6 9 7 7 7 7 10 11 10 7 6 7 8 8 8 9 7 7 6 7 7 8 10 8 7 7 8 8 8 8 8 9 10 8 11 7 11 7 7 0 
0 3 4 4 4 6 6 6 5 4 5 6 6 5 6 6 7 5 3 3 3 5 7 8 6 6 5 7 6 5 4 3 3 3 5 6 8 8 6 7 6 6 5 4 4 4 5 7 9 8 7 5 4 6 6 6 7 8 7 8 6 8 9 10 7 5 4 4 3 4 5 4 6 6 7 5 4 4 6 7 8 9 11 10 11 9 8 6 5 6 5 9 7 10 6 8 7 6 5 5 4 4 4 5 8 10 11 8 8 8 10 9 10 10 10 9 9 11 14 14 17 15 17 16 18 19 19 20 20 22 23 25 28 29 30 32 31 31 30 29 29 29 37 131 192 202 123 48 48 64 60 34 17 16 24 28 22 17 12 23 40 52 58 40 25 24 32 52 54 38 28 13 18 16 15 12 14 19 28 37 37 38 33 28 30 20 27 28 27 23 31 30 35 36 49 62 49 41 36 36 31 22 22 15 18 16 17 18 19 25 36 39 30 19 6 7 9 12 10 12 13 10 9 7 8 8 8 9 9 9 7 9 8 9 12 15 18 19 22 22 21 18 18 19 20 21 21 21 23 26 27 25 24 25 28 32 38 42 41 37 35 33 34 40 47 52 53 49 43 40 38 36 36 33 34 38 31 28 22 19 22 27 36 36 33 25 20 24 29 30 28 22 21 19 18 23 22 21 15 9 9 8 8 7 17 18 29 22 20 14 15 17 21 21 20 17 25 24 45 45 63 54 54 50 47 48 55 52 55 63 49 46 25 27 25 27 29 34 33 32 29 30 36 44 38 38 32 39 36 37 38 39 32 37 37 46 33 34 36 46 50 68 112 140 131 80 28 8 5 5 5 6 5 4 4 3 6 7 9 7 5 5 4 6 5 5 6 6 6 7 7 7 7 9 8 13 8 12 8 9 8 7 8 5 7 7 10 10 8 6 6 5 6 4 7 4 5 6 5 11 7 10 8 6 7 4 6 8 9 11 9 11 8 10 8 10 9 8 6 6 7 11 11 10 8 8 6 7 4 4 2 3 4 6 6 5 4 4 5 6 5 5 4 4 6 7 9 9 11 9 8 7 7 9 8 7 5 5 8 8 9 7 7 9 12 11 8 8 7 7 6 5 8 8 9 6 8 7 9 10 10 10 8 8 9 7 9 7 10 6 5 0 
0 4 7 5 3 3 4 5 5 4 5 5 6 5 6 6 6 4 3 2 3 4 4 4 4 4 2 5 5 6 5 3 3 3 4 5 5 6 6 6 6 5 4 4 4 5 6 7 10 8 7 4 4 5 5 7 7 11 9 8 6 7 7 7 6 5 5 7 7 5 4 5 7 7 7 5 4 4 6 9 11 10 11 12 11 10 8 7 9 8 7 9 7 9 5 6 5 6 5 5 4 4 3 6 9 9 8 7 8 10 10 12 15 18 19 18 20 21 24 25 28 28 28 27 28 30 32 35 36 37 38 40 43 45 45 46 45 44 40 36 32 26 55 151 203 191 101 31 46 63 64 40 18 14 22 28 23 18 13 18 36 49 60 47 26 20 28 42 44 35 23 13 19 20 24 26 22 23 24 34 37 38 33 25 28 21 30 29 30 25 32 28 31 26 29 35 45 51 41 31 25 19 22 16 19 19 23 22 25 24 31 30 27 18 14 12 11 12 13 16 14 12 9 10 10 11 9 8 7 8 7 8 9 13 17 22 24 26 28 27 23 20 18 20 21 19 17 17 19 19 16 12 10 14 18 25 29 34 37 36 31 29 34 46 56 62 55 44 36 35 37 41 45 48 46 40 32 27 23 20 19 16 23 28 33 29 28 28 28 28 26 23 21 20 20 22 20 16 11 10 13 13 12 9 18 17 30 23 22 14 14 15 20 19 19 17 27 30 44 39 50 48 47 49 45 47 56 56 69 56 54 36 28 29 33 33 25 30 37 34 39 30 34 38 36 34 20 20 26 31 33 36 44 48 38 44 26 37 32 47 57 100 129 140 106 52 15 6 6 6 7 6 5 4 4 5 6 6 5 4 5 6 5 5 5 5 6 5 6 7 7 7 9 11 10 14 7 10 6 8 8 9 8 5 6 6 8 9 8 8 7 6 6 4 7 5 5 6 5 10 7 9 7 6 5 3 4 6 7 9 8 9 8 9 9 10 11 8 6 5 5 8 8 7 5 4 4 5 3 3 2 3 4 4 3 3 5 5 8 8 7 7 6 6 7 9 10 11 9 7 7 6 6 6 6 6 7 7 9 8 7 6 8 7 8 9 9 8 8 9 8 9 11 11 11 6 7 7 11 10 9 10 7 9 7 7 9 8 10 8 6 0 
0 4 8 6 5 4 3 3 3 3 4 5 5 5 5 5 5 5 4 3 2 3 4 4 3 3 2 5 4 6 5 4 5 3 3 3 4 5 6 6 5 4 3 3 3 2 3 5 8 7 7 3 3 4 4 7 8 11 9 9 7 8 9 9 6 5 5 6 6 6 6 6 7 6 7 4 3 4 4 5 5 8 8 11 11 10 8 6 6 5 5 6 7 8 7 7 6 6 5 5 5 5 5 7 10 13 14 14 15 18 19 23 25 28 31 32 35 35 37 40 43 44 44 42 43 45 48 50 51 52 51 51 50 49 48 48 47 47 43 39 33 24 74 167 211 178 80 19 41 61 68 46 20 12 19 28 26 21 16 15 30 49 64 62 40 25 28 40 41 34 19 16 17 21 27 33 27 23 15 28 36 38 37 29 30 24 34 33 33 29 30 28 30 26 37 47 57 48 42 30 22 15 20 15 19 21 28 26 31 25 33 31 32 23 20 16 14 12 11 12 12 12 8 12 12 14 11 10 7 9 10 16 16 21 23 27 28 29 29 27 22 18 18 20 20 19 15 14 13 11 9 7 9 13 11 13 13 15 16 14 15 15 16 26 32 38 38 42 39 38 37 40 41 42 45 45 39 30 27 28 29 30 35 37 42 33 30 24 26 30 31 33 31 24 24 21 17 12 11 10 14 14 15 14 20 20 30 24 24 16 12 9 13 15 19 18 27 33 39 44 41 38 34 40 42 64 67 75 85 60 61 34 40 33 32 29 21 19 33 33 42 32 38 40 36 30 25 20 18 24 40 47 62 59 55 50 34 34 27 42 72 118 138 125 69 23 6 6 6 6 9 6 7 3 4 5 6 7 8 9 8 7 7 5 5 3 6 5 7 7 6 7 6 10 10 12 8 11 7 7 5 5 5 4 4 4 5 5 6 8 8 6 6 6 8 7 5 6 4 8 6 8 6 6 4 4 3 5 5 6 7 8 7 8 7 9 9 9 7 8 7 8 8 8 7 8 7 6 4 4 4 3 4 6 5 5 5 6 7 9 7 8 7 9 7 9 7 9 9 9 8 8 8 8 7 6 7 5 8 7 7 6 7 9 10 9 7 9 9 14 13 12 13 9 8 4 6 6 9 9 9 10 7 8 6 7 7 7 8 7 4 0 
0 6 11 6 6 5 6 6 6 5 4 5 5 6 5 4 4 3 4 3 3 4 4 4 3 4 2 4 3 6 5 5 5 4 3 3 3 4 6 8 8 7 5 4 3 3 3 5 7 7 6 4 3 3 4 6 8 11 11 11 8 9 7 7 6 5 7 7 8 8 6 5 7 5 7 4 3 3 3 5 4 6 6 8 8 8 7 6 6 6 6 6 8 8 9 7 8 7 6 6 6 7 8 10 13 16 18 21 25 32 37 43 45 46 48 50 53 53 53 53 54 54 52 52 52 53 53 53 52 51 49 47 45 43 41 40 37 37 36 38 29 25 92 181 213 161 61 13 36 58 70 53 25 13 17 26 28 22 18 18 27 48 62 68 51 33 28 35 37 29 17 17 17 26 35 40 32 23 13 21 33 33 34 26 26 29 38 38 40 35 31 29 24 24 29 37 48 42 39 20 19 15 20 16 21 26 34 34 38 26 26 20 19 20 23 18 14 12 13 15 14 11 10 15 15 19 15 15 13 15 18 21 22 25 26 25 23 25 25 24 20 17 16 17 17 17 13 11 9 7 7 6 7 10 9 13 15 15 18 12 14 12 13 27 32 35 27 19 18 21 21 27 35 41 44 43 40 36 32 29 28 27 31 30 37 31 31 24 24 27 28 28 26 25 22 18 17 14 15 13 15 16 16 16 19 21 28 23 21 15 15 15 15 16 20 20 30 38 34 31 16 16 24 35 46 74 72 98 86 74 71 52 56 44 42 33 24 15 25 26 32 30 30 27 34 28 29 25 25 32 32 42 65 62 73 40 32 28 24 44 83 121 123 87 35 11 5 5 6 6 9 6 6 3 4 5 5 7 7 7 6 7 6 5 6 6 7 5 5 5 3 5 5 10 9 11 7 8 6 6 5 5 4 3 2 3 4 6 7 7 7 5 6 7 10 10 6 6 6 7 6 6 5 5 4 4 3 5 4 5 6 7 6 8 7 10 9 10 6 8 5 6 6 5 4 5 5 6 5 4 3 3 4 5 5 5 5 9 9 8 8 8 8 8 6 10 7 11 9 11 10 10 7 7 6 5 9 6 8 5 6 6 7 7 7 7 6 10 10 13 12 12 13 8 9 5 6 8 8 8 8 8 8 7 6 7 8 8 9 7 5 0 
0 5 10 7 8 6 6 5 6 6 7 6 7 7 5 5 5 5 6 5 6 6 6 6 4 4 3 4 3 5 5 6 6 5 4 3 3 5 8 9 8 6 4 3 3 3 3 4 6 5 6 4 4 3 5 5 8 10 11 11 9 9 6 6 6 5 5 5 6 7 7 6 7 6 7 5 4 4 4 4 3 5 6 9 11 11 10 6 6 5 5 6 9 9 12 9 10 8 7 8 9 11 13 16 22 27 33 37 42 49 54 58 58 56 54 54 55 54 52 50 49 48 47 47 46 45 42 39 36 34 33 31 28 26 26 25 25 26 29 34 27 34 114 194 210 142 43 11 30 55 70 58 30 15 15 24 28 22 20 21 27 46 60 73 63 40 30 28 34 31 21 15 14 22 33 37 31 23 13 21 33 32 33 28 30 36 37 43 41 33 32 32 25 27 32 36 38 33 30 24 27 19 20 20 21 25 31 32 33 25 20 19 21 24 23 20 16 14 14 13 12 11 11 15 17 23 20 20 19 20 23 24 23 24 21 18 15 18 20 23 18 14 14 15 14 15 12 11 9 6 6 6 10 12 11 14 15 15 16 10 13 13 15 23 24 27 25 24 22 22 20 20 19 19 26 35 37 37 34 33 31 30 30 26 27 25 25 25 21 25 27 28 26 21 17 14 13 12 14 15 17 19 19 19 18 18 20 18 17 16 15 15 14 16 18 20 30 38 35 32 22 19 25 31 52 74 82 108 86 88 79 64 59 44 43 38 29 19 30 41 37 30 31 28 39 36 44 48 43 42 40 54 70 63 60 37 30 29 27 62 92 117 100 57 19 6 5 4 5 5 6 5 5 5 5 5 5 8 8 11 10 10 6 7 6 6 6 5 4 5 3 4 4 9 8 11 7 9 7 6 4 4 5 5 5 4 3 5 5 6 6 6 7 9 9 9 7 5 5 6 5 4 5 5 5 5 4 7 7 10 9 8 6 6 6 8 7 11 7 9 4 6 5 6 5 8 6 8 6 6 4 3 4 5 5 5 5 6 7 6 7 7 7 8 8 12 10 14 11 15 11 13 8 7 7 6 9 9 10 10 8 8 7 7 7 7 6 9 10 11 13 10 11 8 9 7 8 6 8 9 9 11 7 7 5 6 7 7 8 5 5 0 
0 7 13 9 10 8 10 9 10 7 9 7 8 6 6 5 7 7 8 7 7 7 6 5 4 3 2 3 2 5 5 5 6 5 5 4 5 6 7 7 8 7 5 4 4 4 5 6 8 6 7 5 6 4 5 6 8 10 10 11 10 8 7 7 7 5 7 7 7 8 6 6 6 7 9 7 6 5 4 4 3 6 6 8 10 10 9 6 6 5 6 7 11 9 12 9 13 13 14 14 16 21 25 31 38 43 48 52 56 58 58 57 54 49 45 43 42 40 38 35 33 31 30 30 29 27 23 20 17 15 14 14 12 12 11 14 15 17 26 34 30 48 137 202 201 119 28 10 25 51 69 63 37 18 14 22 28 23 22 22 27 39 50 65 64 44 32 27 35 31 25 17 14 20 26 30 28 22 18 24 28 30 33 32 34 40 40 43 34 37 30 29 29 30 35 38 39 34 30 26 24 20 18 19 17 22 26 34 31 26 17 16 15 16 14 14 12 12 14 16 17 16 13 15 18 24 24 22 19 20 24 25 23 22 18 15 12 19 20 22 16 12 13 13 12 15 13 12 9 6 6 6 7 9 8 13 13 16 15 11 14 12 13 19 22 22 15 18 16 19 19 21 24 20 17 17 21 24 25 24 24 29 28 23 19 18 21 25 22 27 22 21 21 17 17 11 10 10 16 19 25 24 24 20 17 18 15 13 13 15 15 18 13 19 21 25 38 37 39 34 26 28 33 42 64 68 80 83 82 85 82 77 82 67 63 56 44 38 38 53 48 41 37 29 39 41 54 58 58 51 58 46 55 58 54 43 30 36 39 86 105 114 76 32 12 6 7 4 5 4 4 4 5 5 4 3 3 6 7 9 8 8 7 10 9 10 7 5 3 3 3 3 2 5 5 7 5 6 6 6 6 6 6 5 4 4 5 6 6 6 5 5 6 8 8 8 7 6 6 5 5 4 5 4 5 4 5 8 9 10 8 8 5 4 5 8 8 10 7 8 5 6 4 6 4 7 5 9 6 6 4 3 4 5 5 5 6 6 7 5 6 6 8 8 8 11 10 13 10 12 10 11 8 7 5 5 8 12 11 12 8 8 6 6 6 6 8 9 11 8 8 7 9 9 8 8 7 7 9 8 9 9 7 9 8 9 9 7 8 6 6 0 
0 5 10 8 9 8 7 7 10 9 10 7 7 5 4 6 8 8 8 7 9 8 9 6 5 3 3 3 2 5 4 5 3 4 5 5 4 6 8 8 7 4 3 3 4 5 7 7 7 6 7 5 5 5 5 6 8 10 12 10 9 8 7 6 5 6 5 6 6 8 6 7 8 9 10 11 9 8 5 5 4 6 6 9 9 9 10 6 7 4 7 7 11 11 13 12 16 19 23 28 34 39 44 48 51 53 54 55 54 50 45 40 36 31 27 24 22 20 19 17 14 13 12 12 10 8 6 5 4 3 3 3 2 3 2 8 10 16 27 34 31 61 157 206 190 96 17 9 19 47 67 66 42 20 13 19 28 24 25 21 24 31 42 59 64 47 31 20 26 29 26 19 16 18 22 26 28 24 27 25 30 29 27 31 36 38 34 34 32 41 34 39 33 27 36 33 35 35 35 41 36 24 15 14 13 15 15 26 23 24 17 19 19 18 15 13 11 14 18 19 18 16 14 15 17 20 21 17 16 16 18 16 14 14 15 14 15 23 25 24 14 10 8 9 10 12 12 15 13 12 10 7 8 11 10 13 11 13 11 11 13 13 17 20 20 21 17 23 21 24 24 22 24 17 16 17 18 17 17 17 19 20 22 17 13 11 17 21 22 26 22 22 18 15 14 10 9 10 20 26 35 30 24 20 13 10 10 11 13 18 21 23 19 16 17 25 47 38 50 41 43 57 51 59 69 59 69 58 66 59 67 63 63 69 80 73 51 54 55 75 59 50 47 37 41 38 55 55 63 45 61 51 69 45 52 36 35 41 62 116 123 107 57 20 9 5 6 4 6 4 4 5 6 5 5 4 4 6 9 11 12 12 10 10 8 9 5 5 4 4 4 4 3 5 6 7 7 7 8 7 7 7 7 8 9 7 6 6 6 7 6 6 6 7 6 7 6 6 6 5 5 4 5 5 7 5 7 9 10 12 11 8 5 4 3 6 8 10 9 6 4 5 4 7 6 11 7 11 7 7 5 4 5 4 6 6 6 5 5 4 6 6 8 10 10 12 13 11 8 8 8 9 8 5 5 5 7 11 11 13 11 9 6 5 5 7 8 9 8 8 8 8 8 8 7 7 6 6 6 6 7 7 6 6 6 7 8 7 9 7 6 0 
0 5 9 9 8 7 7 8 7 6 7 6 5 5 4 6 8 8 10 6 8 5 6 5 5 4 3 2 2 4 5 6 5 7 6 8 6 7 6 5 4 5 5 6 6 7 7 8 9 7 6 6 7 6 5 7 8 10 12 11 12 10 8 8 5 6 4 7 6 8 6 6 7 12 14 14 11 12 7 7 6 7 6 5 5 6 6 4 6 4 6 8 11 12 14 16 22 28 35 41 46 50 52 54 55 54 50 45 39 30 22 16 12 9 7 6 5 5 5 4 3 3 2 2 1 2 2 2 2 2 2 2 2 2 3 12 14 21 28 32 30 79 173 207 175 73 12 8 15 41 66 68 48 23 12 16 27 25 28 17 19 23 35 53 61 50 35 22 20 26 25 22 19 16 19 23 33 31 42 28 33 29 28 29 28 30 33 35 39 48 48 46 36 34 42 46 47 45 39 39 38 30 24 17 13 13 19 23 21 25 21 21 20 14 15 15 15 22 22 20 19 18 17 14 16 18 21 15 12 11 12 15 15 13 18 17 23 24 25 22 13 10 8 9 9 14 14 15 12 12 11 9 7 10 9 11 9 12 15 14 12 11 12 14 17 20 18 20 20 20 21 19 23 22 23 19 15 12 15 19 24 25 29 19 14 9 13 17 20 21 20 22 16 16 13 12 10 10 20 28 38 38 27 19 12 9 11 10 14 18 21 23 20 19 24 29 55 43 61 47 51 60 57 71 68 57 49 34 50 39 46 54 59 78 68 73 47 54 61 87 84 64 56 51 47 35 48 42 46 35 56 44 63 36 56 34 44 53 94 135 130 93 41 13 9 6 7 5 6 6 7 7 7 7 4 3 3 5 7 9 10 12 10 13 8 9 6 6 5 5 4 4 2 3 6 8 9 7 7 6 9 7 9 6 5 5 5 7 9 10 9 7 5 5 5 5 6 5 6 6 7 6 5 5 6 5 7 7 9 8 8 5 5 2 3 4 6 7 7 7 7 7 6 8 7 13 9 12 7 8 5 5 6 5 6 5 7 4 5 4 6 6 8 8 10 9 9 11 7 6 7 7 11 6 5 4 7 9 10 9 9 8 7 6 6 9 7 12 7 9 6 7 9 11 8 8 6 6 5 6 6 5 6 7 9 9 8 6 7 8 4 0 
0 4 6 5 5 6 6 7 9 9 9 7 7 4 4 4 8 6 9 6 8 7 8 7 6 6 5 4 3 4 4 5 6 9 8 8 5 6 8 9 7 7 5 7 8 10 8 8 7 6 6 5 7 6 5 7 9 12 12 10 11 8 6 5 2 4 4 6 4 6 6 9 10 11 10 12 10 9 7 6 5 4 5 5 4 4 4 5 5 5 7 9 12 15 20 25 32 38 44 48 50 50 48 45 41 35 29 24 18 12 6 3 2 1 1 0 1 1 2 2 1 1 1 1 1 1 2 2 3 3 3 2 2 3 7 15 16 22 25 30 30 95 184 204 159 53 10 7 11 36 64 70 53 26 12 15 26 25 27 15 13 17 28 48 61 55 40 23 15 16 19 21 19 18 18 19 32 30 42 29 31 30 29 31 26 26 31 32 35 44 49 44 35 33 31 47 45 50 46 39 36 31 25 19 16 14 18 20 21 19 19 18 17 13 12 11 13 19 20 18 17 16 19 16 18 18 19 16 14 16 15 14 14 14 19 20 25 25 24 22 15 14 10 11 9 14 15 19 18 18 15 12 8 10 10 12 8 10 10 13 14 13 12 14 17 22 28 32 30 25 23 22 23 27 32 31 25 17 12 16 21 23 21 18 14 11 13 15 17 20 18 20 14 15 14 16 12 14 20 26 29 27 21 16 11 10 15 14 18 23 27 37 33 30 28 42 70 58 68 45 56 58 54 58 55 50 53 38 39 27 38 45 41 69 50 55 33 40 51 64 70 71 75 63 55 37 34 35 41 39 51 43 58 34 50 32 42 67 106 127 109 65 27 10 10 5 6 6 6 8 8 10 9 8 6 5 6 8 9 10 10 13 11 10 8 8 5 6 4 6 5 5 5 6 8 8 9 9 10 9 9 7 10 5 7 5 4 7 8 9 9 7 7 5 5 5 6 6 7 6 6 6 5 5 6 6 8 7 9 7 9 6 6 3 3 4 5 6 5 6 5 6 7 8 11 13 10 12 7 7 5 5 4 5 7 8 10 6 6 4 6 7 9 7 7 10 11 11 7 6 7 6 8 5 5 5 7 8 8 8 10 9 8 6 5 11 7 12 6 8 7 9 7 7 6 6 6 6 6 5 6 5 6 6 6 6 6 7 7 7 6 0 
0 4 7 6 4 5 6 6 6 6 8 7 7 5 5 5 7 5 7 4 5 4 5 6 8 8 7 5 4 4 5 7 8 11 11 10 8 8 7 8 5 6 6 8 8 8 6 6 8 8 8 7 7 6 6 7 8 9 11 9 10 7 5 3 2 4 4 6 5 7 7 7 8 9 10 9 9 8 8 6 6 6 5 4 4 5 9 10 10 11 13 15 17 21 28 35 42 45 46 45 41 36 31 27 23 18 13 8 4 2 1 1 1 1 1 0 0 1 1 1 1 1 1 1 2 2 2 1 2 3 4 3 4 6 13 17 18 25 27 31 34 109 191 199 142 39 10 7 8 30 59 70 57 30 13 12 24 26 26 15 11 15 23 40 54 54 43 26 16 13 16 19 17 18 14 18 30 30 35 25 25 28 33 39 33 33 32 36 44 50 47 39 32 30 28 46 39 41 30 35 32 33 32 31 27 20 20 19 22 20 19 14 11 11 13 13 18 22 21 15 13 15 22 25 29 28 22 20 17 17 17 19 20 18 19 23 25 25 19 18 13 14 11 14 13 16 13 15 15 18 15 12 9 12 17 23 21 20 16 16 13 17 18 17 17 21 28 31 36 36 31 26 23 25 32 34 29 25 20 22 22 22 20 21 16 17 18 19 17 23 19 21 17 19 20 23 16 17 16 19 25 24 21 19 12 9 14 16 22 26 25 37 30 36 42 57 66 59 66 43 50 39 41 38 48 51 51 37 40 32 37 39 33 47 31 33 24 27 42 58 69 62 78 72 61 47 31 34 31 28 37 36 40 30 39 36 49 83 106 111 75 34 14 9 9 6 7 8 8 9 8 9 9 8 6 5 6 7 7 7 7 9 11 10 8 6 6 7 6 7 4 5 4 6 9 11 11 10 7 7 8 6 9 4 5 2 3 6 8 10 11 9 10 8 6 6 5 5 5 6 6 6 5 4 5 6 6 6 7 6 8 7 6 4 5 5 5 4 4 9 10 11 9 9 10 9 11 8 7 7 6 6 5 5 6 6 7 6 5 4 5 6 6 7 7 10 12 12 12 8 9 6 7 5 5 6 8 10 9 9 9 7 7 6 6 10 7 12 8 8 6 7 7 10 9 9 7 5 6 6 8 7 6 6 7 8 7 7 8 8 4 0 
0 4 6 5 3 5 4 6 8 8 11 8 8 5 4 4 4 4 6 5 6 6 7 8 8 8 8 6 6 5 5 8 9 12 11 9 6 7 8 10 8 6 6 7 7 7 5 5 5 6 7 7 7 5 5 7 10 8 10 6 7 5 4 2 2 4 4 5 5 6 6 8 10 8 8 6 7 5 6 5 5 4 4 4 5 8 10 11 12 14 18 21 24 28 34 40 42 41 37 32 25 19 14 11 9 6 3 2 1 1 1 1 1 1 1 1 1 1 1 1 1 0 1 1 2 2 2 2 3 4 4 3 8 14 19 20 18 22 25 31 38 119 194 192 128 30 11 8 7 26 54 69 59 33 13 10 22 26 25 18 10 13 20 32 48 53 47 31 20 15 13 16 14 16 15 16 17 22 26 22 20 24 36 43 41 39 34 41 35 37 36 41 32 29 27 31 32 42 34 33 31 36 36 38 32 26 20 17 22 19 18 13 8 7 7 8 11 13 15 13 13 14 20 26 30 27 19 17 18 22 24 22 21 22 18 25 21 21 16 16 14 15 18 20 18 18 19 20 17 15 14 10 7 13 20 28 28 26 22 21 22 24 23 19 17 16 25 27 32 36 35 33 30 31 39 44 38 34 23 21 19 16 15 17 16 19 16 18 14 19 21 24 22 22 24 22 19 18 13 16 13 16 16 17 16 17 21 22 29 28 28 43 43 63 53 54 61 55 65 49 61 42 39 33 39 51 62 62 47 40 39 35 33 30 20 21 22 29 35 40 62 61 89 84 69 56 33 36 38 36 41 35 33 34 35 47 66 93 91 74 34 12 8 7 6 6 6 6 7 7 7 7 8 8 6 6 6 7 7 6 7 7 7 7 6 6 6 6 5 6 4 6 6 9 11 10 9 9 8 9 8 6 8 4 5 3 3 5 6 7 8 8 10 9 7 6 5 5 5 5 4 4 4 4 4 5 8 9 9 7 7 8 6 5 6 6 6 4 5 8 9 11 10 9 10 6 8 5 7 5 6 5 4 5 6 8 8 7 5 6 5 8 7 8 7 10 11 10 11 7 10 5 6 4 5 7 7 10 10 9 10 7 7 5 5 8 7 11 7 8 7 7 6 7 6 8 6 6 6 6 7 7 8 7 6 6 7 8 7 10 5 0 
0 5 8 6 4 5 3 4 6 5 8 6 6 5 4 4 4 4 5 5 5 4 4 5 6 7 7 6 6 5 5 7 9 11 11 8 6 6 9 8 7 6 6 6 5 4 3 4 5 8 12 11 9 6 7 6 8 7 9 6 6 4 4 3 4 3 5 5 6 6 6 7 6 9 9 9 8 7 8 10 10 9 7 7 9 10 13 15 15 17 22 25 27 31 36 39 38 33 27 21 15 11 8 5 3 2 1 2 2 3 2 2 1 1 1 1 1 1 1 1 1 0 0 1 1 2 2 2 2 3 6 11 16 22 22 20 13 22 26 33 42 127 195 188 121 26 12 9 6 21 50 67 62 37 15 8 19 27 25 23 11 15 16 25 38 45 44 32 23 20 17 19 18 19 15 15 14 17 17 21 22 26 35 42 44 43 39 46 38 41 28 29 31 30 23 25 22 23 26 33 36 40 34 49 35 32 20 17 22 21 19 15 10 8 8 10 9 11 12 12 12 14 21 24 30 23 16 13 15 17 20 21 21 24 21 25 23 19 17 20 27 25 21 18 17 15 13 14 16 13 11 10 8 18 24 33 31 25 23 19 21 21 27 20 17 13 17 21 30 39 39 36 27 31 28 41 34 39 29 24 17 11 12 16 16 17 12 13 14 19 25 28 30 25 34 30 28 21 15 19 13 15 18 20 20 18 18 19 30 28 30 38 35 49 50 50 51 38 57 48 51 48 43 41 41 58 51 61 50 46 35 23 24 23 29 32 30 46 43 46 55 58 84 90 69 58 33 30 35 23 38 32 35 29 43 69 85 96 74 48 17 7 7 5 5 4 6 9 10 8 6 5 5 6 4 5 4 5 4 4 4 5 6 5 4 5 6 8 9 7 5 6 6 9 10 10 8 7 5 4 5 4 6 3 4 4 4 5 7 6 7 8 9 9 8 5 4 3 3 4 5 6 5 4 5 6 7 7 7 8 7 6 5 5 6 6 7 6 6 10 12 11 11 7 8 4 6 4 5 6 8 7 7 6 6 5 6 7 7 7 5 7 5 8 6 10 11 10 12 8 11 7 7 6 5 8 8 9 10 8 10 6 6 4 4 5 5 8 6 6 4 4 5 7 7 9 8 7 7 7 9 7 6 5 6 7 8 11 7 12 5 0 
0 4 6 5 3 3 2 4 5 5 7 4 5 5 5 3 3 3 6 7 7 6 5 6 7 7 7 6 5 5 5 6 8 10 9 7 5 5 8 8 7 7 7 7 5 4 3 4 4 7 9 11 11 9 7 5 7 6 7 6 7 6 6 4 5 3 4 3 5 4 4 5 5 9 9 10 7 9 9 13 11 11 8 6 8 11 13 12 14 18 22 24 26 29 32 32 27 21 16 12 8 5 3 2 2 2 1 2 2 2 2 1 1 1 1 1 1 1 1 1 0 0 0 1 1 1 1 1 3 7 12 19 24 24 20 18 10 20 25 33 40 127 195 189 120 24 12 10 5 17 44 65 66 43 20 8 16 27 27 28 14 16 16 22 34 41 41 32 24 25 20 19 15 20 19 19 13 18 24 27 25 22 28 35 39 35 37 45 42 40 31 39 44 37 27 23 19 25 33 37 39 49 35 55 33 32 21 18 18 22 21 17 13 11 11 14 13 13 11 13 14 16 20 20 23 14 11 11 16 21 23 21 20 22 24 22 20 15 18 18 20 21 23 20 16 14 12 12 11 10 10 13 14 26 27 28 27 23 23 19 21 19 22 16 15 11 15 19 23 29 33 42 39 43 32 43 36 39 28 17 10 7 12 18 17 15 9 9 11 15 24 25 31 24 33 28 36 24 18 16 14 15 17 17 22 24 27 27 26 24 32 35 44 52 50 37 40 31 45 52 54 55 53 51 43 58 45 68 50 46 28 17 22 23 26 36 38 65 47 59 50 70 81 95 69 55 33 33 43 30 53 34 38 32 61 88 98 86 51 28 11 7 5 5 5 5 6 7 7 6 5 5 4 5 4 5 4 4 4 5 6 5 5 4 3 4 7 8 8 6 5 5 8 11 12 11 8 5 5 5 5 4 4 3 3 5 6 7 7 7 7 6 8 8 7 5 4 3 3 3 3 4 3 5 5 6 8 10 11 9 7 5 4 4 5 5 6 7 7 10 8 9 9 8 9 6 5 4 5 6 6 6 6 5 6 6 7 6 5 5 4 7 5 9 8 9 11 9 11 9 11 9 8 9 8 7 6 6 8 7 7 5 5 3 4 4 5 6 5 5 4 5 5 8 8 8 7 6 8 7 7 5 5 4 5 7 7 9 7 12 5 0 
0 4 6 4 3 3 3 4 5 5 5 4 4 4 5 5 6 5 6 7 7 6 5 6 7 7 6 4 4 4 6 7 8 9 7 6 4 5 7 8 8 8 9 7 6 4 4 4 4 9 13 18 16 11 8 7 6 6 6 5 6 7 9 6 5 3 4 3 5 4 4 5 4 8 7 9 6 9 10 18 18 17 14 12 11 12 14 15 17 19 22 23 22 24 27 26 22 17 11 7 5 3 2 2 2 2 2 3 4 4 3 2 1 0 0 0 0 1 1 1 2 2 3 2 2 1 1 2 6 14 23 28 26 22 16 12 8 18 27 30 35 123 195 196 126 25 11 10 4 14 38 62 68 49 26 11 15 28 28 30 18 16 18 21 33 40 39 30 22 21 21 27 23 27 17 17 13 18 19 23 29 29 33 27 26 27 35 47 43 39 27 28 31 29 25 22 23 30 43 51 45 46 35 50 38 36 24 22 19 19 17 17 14 13 13 15 12 12 10 11 12 18 21 20 17 12 9 9 10 13 16 18 21 21 27 25 23 14 16 21 28 27 19 15 12 10 8 10 12 14 16 18 20 25 26 22 18 14 18 15 15 11 13 12 13 15 23 26 29 33 35 41 44 47 41 41 42 46 43 28 16 11 13 17 16 13 12 15 19 22 27 26 32 26 35 28 33 27 25 17 18 18 21 20 25 24 28 23 25 25 36 39 40 35 43 34 38 38 40 40 37 52 60 64 54 53 40 64 46 52 28 17 19 24 32 43 39 54 40 54 36 53 57 64 47 37 26 31 38 31 50 35 46 44 76 97 94 64 32 16 8 8 7 7 5 5 6 8 9 9 6 5 4 4 5 4 5 4 6 5 7 6 5 4 4 5 9 10 9 6 5 4 6 8 9 7 6 4 3 4 4 4 3 3 4 7 7 8 7 6 7 6 7 6 5 4 3 3 3 5 6 7 5 5 5 6 7 7 8 7 6 4 3 4 5 6 7 7 8 8 6 6 6 7 7 7 5 4 5 6 9 8 7 6 6 7 6 6 5 5 3 5 5 7 8 8 11 8 10 10 9 9 10 9 8 7 7 6 6 6 5 4 4 3 5 4 4 4 3 3 3 4 5 7 7 9 7 6 9 7 8 5 4 4 3 6 7 9 7 9 5 0 
0 3 5 5 4 4 5 6 8 8 7 5 5 6 7 7 7 7 8 8 7 6 6 8 8 8 6 4 4 4 5 5 6 7 6 5 5 7 7 7 8 7 10 7 7 5 5 4 5 7 9 11 11 12 8 6 5 5 5 5 7 8 8 8 7 4 6 5 7 5 5 4 3 6 5 6 5 8 10 15 17 17 16 11 11 11 13 14 17 21 25 24 22 23 26 24 19 13 8 6 4 3 2 2 1 2 2 2 3 3 2 2 1 0 0 0 0 1 2 3 3 3 3 3 3 3 4 8 17 27 32 30 23 18 12 12 9 15 28 28 30 115 193 201 133 28 10 10 5 11 34 57 69 55 32 15 14 27 31 30 22 15 18 20 31 40 41 32 23 20 22 24 22 23 18 18 15 19 22 25 25 21 24 25 29 31 31 48 40 44 36 47 53 49 40 32 31 34 40 47 41 40 39 42 39 33 27 30 26 28 21 18 12 13 12 16 13 17 13 14 17 26 31 33 28 23 17 17 15 15 17 15 16 19 21 18 17 12 14 15 15 16 16 15 17 16 14 13 13 16 17 19 24 26 24 20 18 18 20 16 14 14 15 15 16 18 20 27 28 28 27 31 38 37 30 27 32 38 39 31 25 21 28 35 34 29 21 19 18 17 17 20 30 24 30 29 28 30 20 20 20 23 24 23 26 24 39 24 30 27 34 37 33 33 37 34 39 36 37 44 37 61 61 70 56 55 46 68 54 57 36 26 31 26 28 31 39 51 45 41 32 33 38 40 31 25 24 36 40 43 47 41 57 70 95 97 75 37 15 7 6 6 7 8 8 8 6 6 5 5 6 6 4 3 5 4 8 6 9 7 9 8 8 6 5 8 8 9 7 5 3 3 5 8 10 8 6 5 4 5 6 6 5 5 4 7 6 7 6 6 7 6 7 7 5 6 6 7 6 6 5 6 5 7 7 7 7 6 8 7 5 4 4 5 5 6 6 7 9 8 9 8 7 10 11 9 7 4 6 4 5 6 6 6 5 6 5 5 3 2 2 4 5 6 9 8 10 9 8 7 7 7 8 9 11 7 5 5 5 6 4 5 4 4 5 4 4 4 4 4 3 5 6 9 8 8 7 6 7 7 6 3 2 4 4 7 6 6 6 8 6 0 
0 3 5 5 6 5 7 8 10 10 8 7 6 5 6 8 8 9 8 7 6 8 8 11 12 10 7 6 6 6 6 6 6 6 5 6 6 9 9 8 8 6 9 6 7 6 6 4 5 6 11 13 12 9 7 6 6 6 6 5 6 9 12 10 8 6 6 6 6 5 5 5 5 5 4 4 5 8 14 17 20 19 22 16 19 15 16 15 18 24 27 26 24 25 25 23 16 9 5 2 1 2 1 1 1 1 1 2 2 2 2 2 1 1 0 0 0 1 3 4 6 6 6 4 4 6 11 20 31 35 34 27 18 16 13 13 8 15 27 29 28 105 188 203 142 35 10 10 6 8 30 50 69 60 36 20 13 25 31 31 23 15 15 20 27 39 43 36 25 17 16 21 25 23 20 13 14 14 15 14 19 24 26 27 23 29 32 48 37 44 37 43 41 37 37 34 35 45 55 61 44 35 36 40 40 30 25 28 22 25 21 20 14 14 14 18 15 18 16 16 14 19 23 25 25 29 26 24 15 11 13 18 25 25 25 22 17 13 13 17 20 17 17 18 22 23 23 23 19 19 17 19 21 21 21 16 17 20 21 21 17 18 18 17 15 16 16 24 25 26 28 27 31 31 28 26 27 36 40 37 36 36 38 39 36 35 28 25 21 19 18 17 29 26 25 22 17 26 19 21 21 22 22 19 25 21 32 20 33 27 34 38 35 36 42 38 45 49 46 45 33 57 53 73 49 58 45 63 54 56 48 34 42 25 28 26 31 35 35 30 21 21 16 18 17 18 18 37 39 44 43 56 73 93 99 80 47 18 8 5 6 5 8 11 10 9 6 6 6 5 5 4 3 2 4 3 7 7 11 9 11 8 7 5 5 8 9 10 6 4 2 3 3 6 5 7 5 6 5 6 7 6 6 5 6 7 6 5 4 5 5 6 6 7 7 8 7 7 6 6 6 9 7 10 7 6 5 5 6 5 5 5 6 7 9 9 10 8 9 8 7 7 8 10 8 7 7 4 5 6 7 6 5 7 9 11 10 8 6 5 3 3 4 5 6 7 9 7 8 8 6 6 6 7 7 7 6 6 6 7 5 4 4 5 4 4 5 5 4 4 4 5 5 6 8 7 6 6 7 6 5 4 3 4 6 7 7 7 7 8 6 0 
0 4 8 8 8 7 8 10 10 10 7 8 7 9 7 9 8 10 7 8 6 9 9 11 9 8 9 8 8 6 5 5 7 7 6 7 8 12 11 9 7 6 7 6 6 6 5 4 4 4 5 5 6 7 5 5 6 6 6 7 6 6 9 8 11 9 9 10 7 7 5 7 7 6 7 7 12 15 16 14 14 13 19 15 23 15 16 13 18 26 29 28 26 25 23 19 12 6 4 2 1 2 1 1 0 0 0 0 1 1 1 1 1 0 0 0 0 1 4 5 8 6 5 5 7 14 23 32 36 34 30 21 16 16 13 13 10 14 25 32 29 96 182 201 153 46 10 10 7 6 26 47 68 65 41 23 10 22 29 31 23 16 11 17 21 34 42 40 30 19 12 15 19 20 20 16 17 15 16 15 15 18 22 27 30 33 34 34 31 36 37 50 52 47 43 36 46 46 45 45 35 36 30 31 31 30 25 24 23 25 28 23 22 17 20 20 20 20 16 15 18 22 25 27 26 28 28 29 22 16 13 17 26 30 32 26 19 13 14 18 22 22 22 18 21 21 23 22 19 16 13 14 17 18 19 13 17 22 26 25 20 21 21 18 15 15 12 16 21 22 20 14 14 13 13 11 12 18 24 30 32 33 37 42 39 35 26 24 15 17 17 20 23 22 18 19 16 21 23 22 26 25 27 22 22 20 27 22 34 34 44 36 28 27 38 40 50 47 43 46 37 54 46 66 40 55 45 66 60 56 54 46 49 26 24 21 26 37 33 36 21 22 18 19 17 17 19 37 41 53 53 65 83 94 80 53 25 9 7 4 4 4 6 9 9 9 6 5 4 3 4 3 2 1 2 3 8 10 13 10 12 9 10 6 5 7 8 8 6 5 4 4 4 7 6 10 6 7 5 6 6 6 8 9 8 7 5 5 6 6 6 8 8 11 8 10 10 10 9 7 6 7 7 10 7 7 5 5 5 4 4 6 7 8 9 8 8 6 7 9 10 12 11 10 10 8 6 5 5 4 4 4 5 6 7 8 8 8 7 6 5 5 5 4 5 6 8 10 11 10 7 7 5 7 8 9 6 6 6 7 7 6 5 4 3 3 4 5 5 6 5 5 5 5 6 6 6 5 5 5 5 3 4 4 8 9 10 9 10 13 9 0 
0 4 7 8 8 7 8 9 9 8 7 9 10 11 9 10 7 8 7 8 6 9 8 9 9 7 9 9 10 7 6 6 7 7 6 6 9 12 11 9 7 6 6 5 5 5 5 3 3 4 6 8 7 6 4 4 5 6 6 6 6 7 9 8 11 9 9 9 5 6 5 9 9 7 9 12 17 19 17 14 11 11 15 16 23 17 20 20 25 31 32 29 26 23 20 14 7 4 3 2 2 2 2 1 0 0 0 0 0 0 0 1 1 0 0 0 1 1 3 4 7 6 5 8 17 28 34 36 32 29 23 19 18 15 14 12 12 14 26 34 34 90 182 203 166 60 12 11 6 5 19 45 67 68 47 25 11 18 28 31 23 17 10 15 18 29 39 41 35 24 13 11 14 18 19 17 18 19 17 16 16 20 28 30 32 27 29 32 34 29 30 39 41 43 36 33 46 45 53 50 41 38 33 31 33 31 31 26 26 25 37 25 34 19 25 20 22 22 18 15 14 15 19 21 23 25 27 27 22 19 16 23 30 32 34 32 29 23 18 19 22 20 18 14 16 15 23 25 23 18 12 13 17 18 17 13 16 18 22 21 27 24 23 18 12 12 15 19 24 28 29 26 21 16 14 13 16 23 28 33 32 31 32 27 24 23 17 20 16 23 19 23 24 24 17 19 18 19 21 23 26 24 22 21 20 18 19 21 36 38 45 40 37 31 39 44 49 54 51 45 38 46 39 53 34 48 44 47 51 59 57 48 48 28 25 21 25 38 33 34 21 20 15 17 18 16 18 33 39 52 56 73 87 78 53 27 10 5 4 5 6 5 7 8 8 7 5 5 4 4 4 3 2 2 1 3 6 9 10 10 9 9 11 8 7 6 7 7 5 4 3 4 4 7 5 10 7 8 5 5 5 5 5 6 6 6 6 7 8 7 8 7 7 9 7 9 6 6 6 6 7 8 8 8 6 4 6 6 8 5 5 7 8 10 10 9 9 6 6 6 6 8 9 11 10 8 7 5 5 6 6 5 5 7 10 13 13 11 10 8 6 5 5 5 7 6 9 10 11 12 10 7 5 5 5 6 5 7 7 7 5 4 5 5 7 8 9 9 7 6 5 5 4 4 5 6 6 6 6 5 5 4 6 5 8 8 10 10 11 13 9 0 
0 5 8 7 9 10 10 10 8 6 7 7 13 11 14 9 9 7 6 5 6 7 7 5 4 3 7 8 8 6 4 6 8 7 6 6 9 11 12 9 8 5 7 4 6 4 5 3 3 3 4 4 4 4 4 4 5 5 6 7 7 6 7 6 9 7 8 9 6 7 7 10 11 13 15 18 21 19 15 12 9 10 12 16 19 21 24 27 34 34 33 28 23 18 13 7 4 3 2 2 2 2 2 1 0 0 0 0 0 0 0 1 1 0 0 0 0 1 2 3 4 6 9 18 30 37 38 30 21 21 18 18 17 13 13 8 12 15 28 36 40 78 183 207 182 76 13 12 7 5 13 41 63 70 52 26 14 15 27 32 26 18 10 14 17 27 35 39 35 26 17 11 11 14 17 16 16 17 19 20 21 21 28 29 31 26 24 20 21 25 28 36 32 32 29 37 42 43 43 31 41 37 36 24 30 31 30 26 22 23 38 31 39 20 24 19 23 24 19 14 12 18 24 24 25 22 18 16 17 17 18 22 25 27 32 32 31 31 24 22 21 20 19 12 8 11 18 21 18 14 11 13 16 19 20 19 21 24 28 21 24 21 19 13 8 10 15 24 33 38 37 33 27 21 18 15 18 21 26 27 27 21 19 16 13 10 10 18 19 23 20 21 19 18 20 18 17 21 24 25 29 28 30 35 30 26 24 23 35 38 45 37 30 27 31 39 40 40 35 32 38 40 37 42 34 38 39 45 51 62 71 59 50 30 29 20 26 27 27 30 26 28 23 19 17 14 16 33 39 56 70 80 78 53 28 11 6 5 6 5 8 5 9 5 6 4 4 4 5 6 5 4 2 2 2 4 7 12 13 11 10 13 12 11 7 6 6 6 5 4 4 5 4 8 5 10 6 8 6 5 5 5 7 9 9 7 6 7 9 7 7 6 7 8 5 6 5 5 6 7 7 7 7 6 6 5 6 5 5 3 4 7 7 10 8 7 6 5 6 7 8 10 10 8 7 6 6 5 5 4 4 4 5 7 8 8 7 7 8 7 7 7 8 6 8 6 11 9 12 12 11 11 8 6 5 7 5 6 5 6 5 4 5 5 5 6 6 7 7 7 5 5 3 3 3 4 5 6 6 5 6 5 5 4 6 7 9 11 13 13 8 0 
0 3 5 7 8 10 10 10 10 8 10 8 16 11 17 8 9 5 5 4 4 5 5 5 4 2 5 7 7 7 7 10 8 7 5 5 7 9 10 8 9 5 6 4 5 4 4 2 3 4 6 6 5 4 3 4 4 5 6 8 8 7 6 6 8 8 9 8 10 11 14 16 18 22 23 23 19 14 9 9 9 9 10 13 16 23 32 35 40 34 30 23 17 12 8 4 3 2 1 1 2 2 1 1 0 0 0 0 0 0 0 1 1 1 0 1 1 1 1 2 5 11 21 32 39 37 31 19 15 17 17 17 15 12 12 7 10 15 28 35 41 64 178 210 195 92 15 13 9 5 8 35 57 68 55 29 16 14 26 33 30 23 12 14 16 23 30 35 37 31 22 13 12 14 14 13 14 19 23 26 25 22 24 24 24 20 24 24 28 27 26 32 33 33 31 40 54 58 46 37 49 37 38 24 31 36 34 28 24 32 35 33 32 23 25 16 22 23 22 18 15 21 27 28 29 25 22 16 14 18 22 23 22 17 16 26 29 33 31 28 22 17 12 10 8 12 19 26 25 19 15 19 21 21 19 23 26 27 23 19 21 23 25 21 18 19 19 21 26 31 31 29 28 23 23 17 20 24 35 36 33 25 21 17 13 10 11 13 17 17 17 15 20 17 18 18 22 24 28 26 29 21 27 33 35 33 24 21 30 30 35 33 32 28 31 32 37 39 43 35 37 36 36 36 37 45 42 49 52 62 59 54 54 36 33 20 25 21 24 23 21 24 26 23 25 24 27 34 39 55 78 84 73 41 16 6 6 4 7 5 9 6 9 6 7 4 6 5 7 6 6 5 4 4 4 5 9 11 13 13 12 13 13 16 8 6 3 3 3 3 4 6 5 8 5 9 6 7 6 6 6 6 6 5 5 6 7 9 10 8 7 6 6 6 5 4 4 5 6 7 8 7 6 5 5 5 8 7 8 6 6 8 7 10 8 9 7 5 5 5 6 6 7 8 8 6 5 4 5 4 4 4 5 8 10 11 10 9 9 7 7 4 5 5 8 5 8 7 9 10 10 11 8 8 4 4 4 6 5 5 4 5 6 6 6 7 7 8 7 8 7 5 4 3 3 3 5 5 7 7 6 6 6 6 5 6 7 7 8 9 5 0 
0 4 5 6 7 10 11 9 10 9 10 9 13 10 13 9 11 6 5 4 5 6 5 4 5 6 8 8 7 8 6 8 8 7 6 5 6 8 9 9 8 7 7 5 4 3 4 3 3 4 5 5 5 4 3 4 4 6 7 10 11 9 6 5 7 6 10 7 12 11 14 18 26 29 27 22 14 9 8 10 11 12 15 18 26 33 43 42 42 30 24 16 11 7 4 3 2 2 1 1 1 1 1 0 0 0 0 0 0 0 0 1 1 1 1 1 1 1 1 3 10 22 33 40 40 30 23 14 16 16 16 15 14 13 12 7 7 15 26 33 36 46 161 209 203 107 19 14 10 6 4 27 51 66 58 33 18 13 21 32 33 28 16 11 14 18 25 30 33 29 21 11 11 13 12 9 8 18 26 30 28 26 20 19 18 16 21 21 23 21 23 22 18 16 24 31 40 47 43 39 37 35 39 30 33 29 25 22 20 24 27 33 28 21 20 18 23 25 23 21 15 16 19 21 27 30 32 25 19 19 23 21 17 15 13 17 26 31 30 31 24 25 16 14 11 16 23 23 19 14 13 21 24 33 29 29 29 30 23 19 21 21 21 18 17 16 17 20 25 29 30 31 34 27 29 19 18 18 24 27 29 23 21 17 15 13 14 18 23 22 19 14 15 16 20 22 28 30 37 30 29 21 30 41 42 34 26 26 28 29 29 28 40 33 41 40 42 49 39 31 30 30 36 38 37 60 47 64 50 63 58 48 44 39 38 26 26 19 14 14 18 24 34 28 35 26 31 30 40 56 81 84 66 31 11 5 6 6 8 5 7 6 7 8 8 5 7 6 8 7 6 5 4 4 6 9 10 13 15 15 13 13 11 10 7 6 4 4 4 4 4 6 5 8 5 8 6 8 7 9 11 9 7 7 6 6 7 8 10 8 8 5 5 5 5 6 6 6 7 7 8 8 7 6 6 6 7 7 8 7 7 9 9 11 9 9 7 6 6 7 8 8 8 7 6 5 6 5 6 4 5 4 5 7 8 8 8 7 8 7 7 5 6 5 5 6 6 6 7 10 9 13 9 7 6 5 5 6 5 7 6 7 6 6 5 5 5 7 7 7 6 5 4 4 3 3 5 6 8 7 7 8 6 6 5 5 6 7 7 7 3 0 
0 4 7 7 7 7 7 8 9 8 9 10 11 11 10 9 8 6 5 4 4 5 6 6 5 6 8 9 8 9 8 10 9 8 7 6 5 7 7 9 9 8 5 4 4 2 2 2 3 5 6 7 6 5 4 5 5 6 9 11 11 8 7 5 9 9 13 10 13 12 20 27 32 35 30 22 14 11 10 10 10 16 19 23 29 34 41 41 35 25 17 10 5 3 3 2 2 1 1 1 1 1 0 0 0 0 0 0 0 0 1 1 2 1 1 1 1 1 3 9 22 37 45 44 31 20 18 15 17 16 15 13 12 12 9 7 6 16 25 31 28 29 139 204 207 121 21 14 11 7 3 20 44 63 59 38 19 14 18 31 34 30 21 9 10 13 20 28 33 31 23 14 13 15 12 9 13 22 25 31 28 29 22 17 14 16 22 23 24 20 16 19 20 18 21 31 49 55 49 47 47 43 39 37 35 33 28 22 21 26 21 25 25 27 27 25 24 28 24 22 18 18 19 17 22 30 38 33 32 25 26 21 14 12 14 18 22 24 27 32 24 26 14 14 12 15 22 24 22 18 16 26 28 29 26 29 31 31 31 24 21 24 31 30 29 21 17 10 11 15 17 18 25 23 31 20 20 19 24 29 30 24 22 18 18 18 22 28 30 30 22 18 17 19 22 27 32 32 34 33 34 32 30 33 41 44 36 31 24 27 30 29 44 36 47 59 54 73 47 44 33 28 35 44 44 76 56 90 54 50 33 32 47 41 42 37 35 25 16 10 15 20 31 32 35 32 39 34 40 55 76 74 54 22 8 5 7 7 9 8 6 5 5 7 7 7 8 6 7 6 6 8 8 9 10 10 9 11 11 14 12 10 10 9 6 5 3 3 4 4 5 7 6 8 6 8 6 7 7 6 7 6 6 4 4 5 7 10 12 9 9 8 8 7 6 6 7 7 8 9 9 9 6 6 4 5 8 8 9 8 9 9 9 10 9 11 9 8 6 6 7 7 7 6 7 6 5 5 5 4 4 4 5 7 9 8 10 9 10 7 6 4 4 5 3 4 3 4 5 9 9 9 9 9 8 7 7 7 5 6 5 7 7 7 6 6 5 5 6 7 6 6 5 5 3 3 3 4 6 5 6 6 6 7 7 7 6 6 5 5 3 0 
0 6 8 8 7 7 5 6 6 6 7 7 9 8 7 8 8 7 5 6 8 8 6 4 6 8 11 10 8 7 5 6 7 8 8 7 6 7 7 9 8 10 10 7 5 3 3 4 5 5 6 6 7 6 4 5 5 7 9 11 13 9 8 6 8 10 10 10 12 16 26 34 37 35 26 21 18 16 12 10 13 20 23 28 31 34 38 33 26 19 10 5 2 2 2 1 1 1 1 1 0 0 0 0 0 0 0 0 0 0 1 2 2 2 2 2 2 4 10 22 37 47 46 35 22 19 18 20 19 15 13 11 11 11 9 9 8 16 23 29 23 21 122 199 209 131 25 13 12 10 5 15 40 62 63 44 22 14 14 24 32 29 22 8 7 10 16 25 32 32 26 19 17 18 17 13 16 23 26 30 28 31 27 22 15 16 19 19 18 15 11 12 19 20 23 21 24 30 39 38 40 41 38 43 37 40 35 44 32 24 17 24 26 29 27 30 27 27 28 22 23 18 15 13 20 30 46 39 39 26 31 22 18 14 15 23 23 26 20 23 22 24 15 13 12 15 20 21 19 17 15 17 27 32 35 26 28 25 28 24 29 22 25 25 27 22 18 13 18 22 22 22 27 27 36 26 20 21 19 23 22 20 23 22 26 22 24 33 39 48 36 27 22 25 26 28 29 33 33 36 35 36 37 35 35 32 31 36 30 27 32 28 45 44 47 68 66 89 69 50 37 32 39 51 44 70 57 85 56 52 32 22 45 41 61 46 47 30 28 17 16 16 18 24 28 28 25 25 29 47 67 65 45 16 6 5 7 8 10 8 6 4 4 6 8 8 6 7 7 8 6 7 7 7 8 9 9 9 10 13 11 8 6 5 6 6 5 6 5 5 5 6 6 8 6 8 8 8 8 10 11 8 6 4 3 4 6 8 10 10 9 8 7 6 5 5 6 7 7 8 9 11 9 9 5 7 7 9 8 7 7 7 8 8 8 10 9 9 8 7 7 6 6 7 6 6 5 6 6 7 7 9 7 6 7 7 9 7 9 6 6 5 4 5 3 4 3 4 5 5 7 8 8 8 7 8 7 6 6 6 6 6 6 6 6 8 8 8 6 6 7 6 6 7 3 3 4 6 7 5 5 7 9 10 8 8 8 7 7 6 3 0 
0 6 9 9 7 5 4 4 5 4 5 5 7 6 7 7 6 6 6 5 6 6 5 5 5 5 8 7 7 7 6 7 7 7 6 8 7 9 9 9 9 9 8 7 5 4 3 4 6 5 7 6 7 7 6 7 6 6 8 7 9 7 6 7 7 11 11 11 13 23 34 40 38 30 22 22 22 20 16 13 18 25 28 29 28 29 29 25 19 14 7 4 2 2 2 1 1 1 0 0 0 0 0 0 0 0 0 0 0 0 1 2 2 2 2 3 5 13 24 38 47 46 38 25 17 17 19 20 18 14 13 11 11 12 10 10 13 17 20 26 17 18 113 194 209 137 30 14 14 11 6 10 35 60 66 50 27 15 17 16 26 25 21 12 5 9 13 21 29 32 30 24 21 22 22 16 16 19 18 18 23 28 26 25 19 18 17 16 15 13 10 17 24 24 29 24 30 25 29 38 41 41 35 40 32 44 40 46 37 27 13 23 25 29 32 33 41 29 31 18 20 17 16 16 21 25 36 33 38 31 37 26 22 21 22 31 26 21 14 16 15 15 14 13 14 18 21 22 20 18 17 17 23 27 31 28 30 30 35 24 25 21 29 28 30 25 21 18 21 21 19 19 22 25 28 29 23 24 19 23 22 21 23 22 26 23 24 33 37 41 34 34 31 34 34 31 28 27 30 35 45 42 34 28 38 47 54 44 29 24 30 34 48 54 51 63 67 73 76 65 59 49 42 47 41 60 65 81 65 49 33 28 45 44 61 45 53 32 32 21 16 15 18 24 28 26 25 26 35 62 80 79 57 27 10 7 9 11 13 10 7 4 3 4 5 6 6 8 6 8 7 9 8 9 8 8 7 7 8 9 10 7 6 5 6 6 7 8 7 7 5 6 6 7 6 8 8 7 8 6 7 6 5 3 4 5 8 9 11 11 8 9 6 6 4 4 5 7 7 10 10 12 10 10 6 8 6 10 7 9 9 8 8 8 8 10 13 11 9 7 10 10 11 10 8 7 5 5 7 8 11 9 9 8 8 7 8 8 8 6 5 6 5 6 4 5 4 4 5 6 7 8 8 12 10 9 7 6 5 4 4 4 4 6 6 8 6 7 6 6 6 6 5 6 4 5 7 8 6 4 5 6 7 10 10 10 10 8 8 5 4 0 
0 5 10 8 8 6 5 4 3 3 3 3 4 5 6 6 8 5 6 5 8 7 6 6 6 6 7 7 7 8 5 7 7 8 7 8 9 11 9 8 9 9 10 9 6 5 5 5 6 5 6 5 6 6 6 6 6 5 6 6 7 7 6 7 6 7 6 9 20 34 45 45 37 25 21 23 26 22 16 13 22 29 29 24 23 24 25 21 16 11 5 3 2 2 2 2 1 0 0 0 0 0 0 0 0 0 0 0 0 0 2 2 3 3 4 5 12 26 41 49 46 36 25 15 12 16 19 19 17 14 12 11 10 10 9 9 15 17 19 24 16 18 107 192 209 140 35 16 16 12 5 7 30 57 68 55 31 14 16 11 19 21 20 15 6 10 10 17 25 31 31 25 22 23 24 19 16 15 12 14 18 24 31 31 24 19 16 15 15 15 13 21 25 24 29 22 26 20 20 26 26 26 23 33 28 46 45 60 39 28 13 20 28 30 35 31 39 30 39 30 33 22 17 15 18 27 33 30 30 24 34 34 34 30 24 26 24 22 14 14 12 13 12 14 13 21 21 25 24 23 19 23 21 34 27 34 27 29 30 22 23 16 20 21 23 19 19 20 28 36 37 29 24 29 30 28 26 22 23 26 23 26 24 27 25 24 19 28 32 41 39 33 38 38 39 34 32 35 41 48 45 41 35 22 38 38 48 45 42 35 39 43 44 40 48 51 72 70 74 64 60 52 43 40 32 43 50 57 54 41 32 36 36 43 45 37 37 27 29 26 17 12 14 18 25 24 21 32 56 92 114 118 92 55 24 12 11 11 11 12 8 6 3 4 5 7 6 8 7 9 7 7 6 7 7 9 9 7 10 9 9 6 5 5 8 7 8 10 10 9 7 7 7 8 6 6 6 6 10 9 12 8 6 4 5 5 8 8 11 10 9 9 6 7 4 4 5 6 6 8 8 12 11 12 8 10 6 9 7 8 8 9 9 9 8 9 10 11 11 9 11 11 14 12 10 7 5 6 8 9 11 11 13 10 8 6 7 6 6 6 6 6 5 5 4 5 5 6 5 6 6 7 7 9 9 10 8 7 6 5 4 4 3 3 4 6 7 7 6 7 6 5 4 5 5 6 8 8 8 7 6 6 9 9 9 10 11 11 13 8 5 0 
0 5 9 6 7 6 6 5 5 3 3 4 4 5 6 6 8 4 5 4 6 7 7 6 6 5 5 6 7 10 9 11 9 9 7 8 6 8 10 9 8 6 7 7 7 5 6 6 6 6 5 5 6 6 6 6 6 5 4 4 5 5 5 6 6 7 7 15 29 42 48 40 29 19 20 24 27 22 16 17 28 33 31 26 26 26 24 18 12 8 3 2 1 1 1 2 1 0 0 0 0 0 0 0 0 0 1 1 1 1 2 3 3 4 4 9 25 40 49 47 36 22 13 9 12 16 19 18 17 15 14 14 12 11 9 9 14 17 19 24 15 20 104 193 209 145 41 18 18 11 5 5 25 54 70 60 34 16 13 9 13 19 22 18 10 9 9 14 21 29 30 25 19 18 20 18 15 14 9 11 13 20 28 30 28 23 16 15 15 14 15 23 28 31 32 25 25 24 23 28 30 36 37 40 34 43 36 55 33 30 14 15 21 19 28 30 32 34 36 32 26 18 19 17 17 18 23 26 31 25 31 30 27 25 25 28 23 20 12 11 9 15 20 31 28 33 28 28 27 26 27 29 21 36 26 42 29 34 27 20 16 18 19 18 20 18 20 22 32 35 42 34 36 26 37 32 41 34 26 29 26 36 25 27 18 20 13 23 28 31 36 28 36 36 38 48 41 49 54 57 54 37 32 26 40 40 57 44 56 46 47 44 61 70 84 60 63 49 63 61 63 54 47 38 34 41 44 44 40 32 26 35 26 34 24 23 19 20 20 20 16 22 27 31 30 25 23 60 84 125 141 152 131 92 41 15 11 11 11 10 9 7 4 4 4 5 6 7 7 7 8 7 6 5 8 8 8 8 7 8 8 6 5 5 6 7 8 10 9 11 7 6 6 7 5 4 4 5 8 7 9 6 6 4 5 6 9 8 10 10 9 8 5 5 4 5 5 5 6 8 10 11 10 10 7 8 5 8 9 11 10 12 10 11 8 11 10 13 10 10 12 16 17 14 13 10 9 8 8 10 11 12 10 9 9 7 7 6 6 6 7 8 7 6 6 6 6 7 6 7 5 6 6 10 10 10 8 6 7 6 6 5 4 4 5 5 5 5 6 6 5 5 5 5 8 9 14 13 11 6 7 6 7 8 9 11 10 9 9 8 4 0 
0 6 9 8 8 6 7 4 5 4 4 3 3 4 5 6 6 6 4 4 5 7 7 6 7 4 4 6 6 10 8 9 8 10 6 7 7 9 9 7 7 5 6 6 6 6 6 7 7 6 6 7 6 6 6 6 6 5 5 5 7 7 7 7 5 6 11 26 42 50 45 31 24 22 26 28 27 19 16 20 32 34 29 23 24 22 19 13 9 6 2 2 1 1 2 2 1 1 0 0 0 0 0 0 0 1 1 1 1 1 2 3 3 5 11 25 40 47 48 36 25 13 10 7 12 16 21 19 17 16 16 16 13 9 6 6 12 16 19 25 17 23 97 195 209 154 49 17 19 11 6 4 21 50 71 65 39 17 9 9 10 19 23 21 14 9 8 11 18 27 31 26 20 16 15 14 13 15 15 13 14 19 22 23 25 22 19 16 12 12 16 19 24 27 27 26 26 31 30 36 29 28 37 39 48 51 50 55 34 32 22 24 26 22 22 24 23 37 34 46 33 26 23 20 21 18 23 25 28 29 27 27 27 22 22 21 26 21 19 16 14 22 24 34 30 32 34 26 33 26 34 33 27 33 26 42 34 40 29 25 15 14 14 16 16 15 18 20 37 41 62 44 56 34 44 31 39 31 28 31 29 39 32 30 16 16 11 21 29 34 40 34 35 44 36 55 43 57 62 59 68 48 39 33 38 31 42 35 49 45 49 49 63 63 85 69 74 44 43 38 49 39 41 37 33 30 24 20 18 23 24 28 19 18 10 14 10 13 13 16 25 39 46 48 38 31 32 87 109 146 140 160 158 129 68 25 12 12 14 11 10 8 6 5 5 6 6 6 6 6 9 7 8 7 9 9 8 10 6 10 6 6 5 5 6 6 5 8 9 11 7 7 6 6 5 3 3 5 6 7 7 6 5 4 6 6 6 7 8 10 8 6 5 4 4 4 4 5 5 7 7 8 10 9 8 7 6 7 7 9 8 12 10 14 8 11 6 10 8 10 11 12 11 13 9 9 9 9 7 8 6 10 10 10 9 8 8 7 7 6 8 8 8 6 6 6 8 8 7 5 5 5 6 6 6 6 7 6 8 6 8 5 7 4 5 5 5 4 5 6 6 5 7 8 10 11 11 11 11 9 9 7 8 8 8 9 11 13 10 10 4 0 
0 6 9 7 7 6 7 5 7 6 7 7 7 7 6 7 5 4 3 4 5 7 6 5 6 7 7 6 5 8 10 12 10 9 6 8 5 7 8 10 8 6 6 7 6 9 8 10 7 6 6 5 6 6 6 6 6 5 6 5 7 8 6 7 7 11 23 39 49 47 36 26 27 29 32 31 24 18 19 28 36 33 26 20 21 18 13 7 4 4 1 1 1 1 2 2 1 1 0 0 0 0 0 0 0 1 1 1 1 1 2 3 5 13 26 42 51 47 37 21 20 14 16 10 18 19 23 21 19 19 19 17 12 8 5 4 10 16 20 24 18 23 86 191 209 165 59 17 19 13 8 5 15 45 70 71 45 19 7 8 8 18 24 24 17 9 6 8 14 25 30 29 24 18 14 12 13 16 17 20 19 17 17 17 21 21 20 16 14 14 14 17 22 30 28 25 19 28 27 29 29 35 50 43 51 45 51 54 46 36 25 25 27 23 22 23 18 34 26 37 20 24 23 21 18 13 18 23 24 24 24 19 15 12 15 17 25 18 20 17 19 30 34 53 46 38 34 21 31 20 32 25 23 26 27 37 31 34 28 25 20 17 19 20 18 16 23 29 42 39 58 43 60 36 48 39 46 36 29 25 29 32 36 33 26 20 14 20 28 36 38 40 35 41 33 55 44 54 61 53 63 54 55 44 38 26 28 23 37 41 39 47 70 94 120 78 60 33 34 34 35 35 45 43 38 30 21 20 20 24 27 27 19 13 9 10 7 12 13 24 42 53 61 57 40 34 42 105 121 136 110 136 164 154 96 41 14 11 11 8 9 9 9 8 8 8 7 6 5 5 8 8 9 7 9 10 7 9 5 10 5 6 5 5 6 6 6 7 8 9 7 5 6 6 6 6 6 5 6 5 6 5 5 5 6 6 6 8 9 9 8 6 5 4 5 3 4 5 6 7 7 7 8 9 8 6 7 7 8 10 9 10 10 12 10 10 6 7 6 8 9 12 11 11 9 11 11 10 8 9 9 11 9 8 9 7 6 6 6 6 8 7 8 6 7 7 8 7 7 5 6 5 6 5 6 4 5 4 7 6 10 6 8 5 7 4 4 4 4 5 6 8 9 11 10 13 13 14 10 7 9 9 11 9 9 8 8 8 7 8 4 0 
0 5 10 9 9 8 6 6 7 6 6 5 5 6 5 6 6 6 4 4 4 5 4 5 6 7 7 6 4 6 7 8 7 10 6 8 6 9 8 7 6 6 5 8 6 8 7 9 6 6 5 7 9 9 8 6 8 5 7 6 7 9 9 12 12 19 33 45 49 45 37 31 35 37 36 28 20 18 25 34 36 31 22 19 17 14 8 4 2 3 1 1 1 2 2 2 1 1 0 0 0 0 0 0 1 1 1 0 0 1 1 5 14 30 44 52 48 35 21 13 16 13 16 12 21 23 25 20 17 19 19 16 10 6 4 4 11 15 20 22 18 21 74 179 209 176 74 18 19 16 11 8 11 38 67 75 53 23 6 7 7 15 22 25 20 11 5 7 10 21 26 30 28 23 18 14 12 14 16 17 16 15 11 10 14 19 20 18 15 12 10 9 12 21 26 29 24 29 26 26 20 18 27 32 45 52 56 50 44 39 40 33 29 21 23 22 19 27 22 29 26 32 28 26 20 17 17 20 26 27 28 20 16 12 13 15 19 18 20 17 19 29 30 40 32 32 29 23 28 17 24 21 23 19 25 30 30 32 27 25 23 23 31 32 31 25 29 32 36 33 45 40 55 43 49 38 36 26 27 21 25 24 32 30 29 25 22 31 30 37 39 38 42 46 36 47 42 44 54 50 73 61 60 46 47 32 38 24 24 30 32 52 69 71 80 57 47 29 22 34 24 39 39 44 39 29 20 21 23 24 25 23 19 12 9 10 8 14 18 35 55 58 64 59 46 42 53 109 120 113 75 100 153 173 132 74 27 16 15 9 8 9 11 11 11 9 7 6 6 6 8 9 10 10 9 10 7 9 6 9 6 6 6 5 7 6 7 6 8 8 7 6 5 7 7 8 8 6 7 4 6 5 5 5 6 6 7 9 9 11 7 6 4 5 6 5 6 6 9 9 9 10 10 10 9 6 8 7 11 8 11 10 13 10 13 9 10 7 7 8 9 9 8 9 7 7 9 10 10 8 7 8 9 9 8 8 6 7 6 7 7 7 9 6 6 7 8 9 7 4 5 5 6 4 4 3 5 4 7 6 8 9 9 8 8 7 5 3 3 4 6 8 10 14 10 12 8 9 9 9 11 10 12 9 10 8 10 8 9 7 4 0 
0 5 8 7 9 7 6 7 7 7 6 6 7 9 7 8 5 4 4 3 4 4 4 4 7 10 10 7 5 5 7 11 8 9 6 8 6 7 10 11 10 9 8 9 7 9 8 8 6 5 4 5 6 6 6 5 5 4 6 6 7 9 10 15 21 27 35 41 43 40 37 38 41 36 30 24 23 24 34 39 36 27 18 16 13 9 4 3 2 2 1 1 1 1 2 2 1 1 0 0 1 1 1 1 1 1 1 1 1 1 3 14 31 46 51 47 34 24 12 12 15 16 18 15 22 23 23 17 17 20 20 14 7 4 3 4 11 16 21 22 19 20 57 165 206 189 94 23 20 17 14 10 7 31 62 79 62 33 9 9 8 12 19 23 22 14 7 8 8 17 21 27 28 26 23 16 12 12 15 19 17 16 11 12 12 15 19 19 18 16 14 12 11 17 22 28 25 25 16 15 14 15 21 26 37 40 42 44 45 41 44 40 45 36 27 22 23 20 22 22 25 30 29 25 22 20 26 25 29 23 24 18 18 11 11 15 17 18 18 16 22 25 29 37 31 28 26 25 26 23 19 15 17 14 28 26 26 23 19 19 19 22 27 28 26 24 28 33 37 28 28 27 38 39 47 49 51 41 37 27 28 21 36 43 52 50 37 39 38 41 34 41 38 44 50 56 54 48 46 38 67 55 72 50 53 46 43 45 40 48 47 48 60 74 79 54 39 32 21 31 19 41 35 50 37 31 25 25 25 28 35 31 24 16 10 10 8 18 30 51 63 52 46 42 40 41 57 101 114 96 58 71 127 175 162 113 55 20 16 10 9 8 9 10 12 12 11 9 7 6 7 10 9 12 9 11 7 8 7 8 9 6 9 6 8 6 8 10 9 6 6 6 6 8 8 9 10 7 7 5 6 8 7 5 7 7 8 11 11 13 7 6 4 7 8 6 6 7 10 12 10 11 10 10 8 7 10 7 12 10 13 11 12 9 14 8 13 8 9 7 9 12 11 12 10 9 10 9 10 8 8 8 7 10 7 7 5 6 5 7 5 5 6 6 6 6 6 6 5 4 4 4 5 4 4 4 5 4 5 6 9 9 10 10 8 6 6 4 4 3 7 9 10 12 9 10 7 9 8 7 9 8 12 8 10 6 6 6 9 10 7 0 
0 4 10 10 12 8 7 7 6 7 4 4 5 8 6 9 6 7 5 3 4 5 5 6 6 7 8 8 7 6 6 7 6 8 7 7 8 8 8 7 7 7 9 9 8 7 5 6 5 4 4 5 7 7 6 5 4 5 6 8 8 12 17 21 24 28 31 37 40 38 38 36 34 31 31 26 26 29 35 35 29 21 14 12 9 5 3 3 2 2 1 1 1 1 1 1 1 1 1 1 1 2 2 2 1 1 1 2 2 6 15 32 47 53 47 34 17 14 8 10 10 10 13 12 18 21 21 17 17 20 19 12 6 3 3 3 9 14 21 24 20 21 38 146 199 201 117 31 22 18 17 11 5 23 55 80 73 45 16 11 11 12 17 22 24 19 11 8 8 14 16 22 26 27 28 22 15 12 10 12 11 11 12 12 11 13 18 19 19 13 12 11 9 16 21 30 26 25 18 15 13 16 18 20 32 36 36 31 39 38 46 37 34 29 25 21 21 18 20 20 27 27 35 23 30 24 32 34 35 34 33 23 20 11 13 14 17 20 21 19 24 23 26 23 20 20 24 31 29 29 20 15 17 14 25 23 27 19 20 21 26 31 39 46 40 33 28 31 34 33 30 29 33 38 44 45 43 38 44 39 40 35 52 52 52 44 38 52 53 53 36 36 38 51 51 47 50 45 54 52 73 52 67 57 69 91 76 82 61 58 49 54 55 59 59 52 40 37 29 28 20 35 29 43 30 35 26 26 25 30 31 28 23 16 11 10 9 24 44 59 61 42 31 34 37 38 59 91 106 84 43 47 91 155 177 150 93 43 26 22 18 13 11 10 10 11 12 13 13 12 11 11 7 10 7 9 7 6 7 7 9 7 10 7 8 7 8 10 9 8 6 7 7 7 7 7 7 6 5 6 6 7 6 6 7 9 9 11 10 10 7 5 5 7 9 7 8 10 12 14 15 14 11 8 7 8 10 8 13 11 14 13 12 10 11 10 15 11 10 8 9 10 13 11 10 8 9 9 9 8 6 8 7 10 7 10 8 9 7 8 6 7 5 5 4 6 8 7 5 4 4 3 4 4 5 5 6 5 6 6 9 11 11 10 9 10 8 6 6 6 8 8 9 10 8 6 5 6 6 8 9 8 9 7 9 7 7 10 10 12 7 0 
0 5 8 8 11 8 9 8 7 7 4 3 4 8 7 10 6 7 4 4 4 7 6 8 7 8 10 8 7 7 7 6 6 6 6 7 7 8 9 11 8 8 8 9 8 7 5 6 5 5 5 4 4 4 3 3 4 8 8 12 11 14 17 23 24 26 26 29 30 31 31 28 28 25 25 27 29 31 32 29 23 15 10 8 4 2 2 2 2 1 1 1 1 0 0 0 0 1 1 1 2 2 2 2 1 2 2 3 6 17 33 48 55 47 34 19 11 14 9 11 10 10 11 10 13 16 14 13 17 21 21 13 6 3 3 4 6 12 21 26 23 22 24 123 191 208 143 45 25 18 17 13 6 14 45 77 83 60 29 14 13 11 11 19 22 22 18 12 9 12 13 18 22 26 29 26 20 15 14 13 12 13 15 16 14 15 20 18 20 14 16 16 12 14 14 28 25 24 14 15 16 19 19 26 29 30 27 21 29 33 40 36 39 34 25 22 22 22 22 17 25 21 29 22 28 27 37 48 38 36 22 19 19 10 14 15 19 20 19 18 24 27 30 22 17 15 20 35 32 33 24 15 14 14 21 22 24 20 21 23 30 28 39 37 44 41 41 45 41 40 31 27 24 35 34 44 46 45 43 37 37 47 61 73 76 65 57 65 64 64 41 30 31 39 49 53 58 45 43 40 48 47 57 60 66 88 84 88 67 62 50 51 59 80 73 67 45 38 34 31 29 29 25 32 26 29 23 25 30 40 36 35 23 16 10 12 16 36 56 61 51 30 23 31 35 34 55 81 97 80 42 34 59 121 175 181 134 78 38 30 28 21 15 11 10 10 13 16 19 17 14 11 8 8 7 7 7 7 7 8 9 9 11 8 8 7 10 14 11 8 6 6 7 7 8 7 6 7 5 9 8 10 8 6 8 9 11 10 11 9 7 4 7 9 13 12 13 12 15 15 14 13 10 8 8 8 10 9 12 12 14 12 9 9 8 9 11 11 11 8 9 8 10 10 11 8 7 6 7 7 5 7 7 10 9 12 9 9 9 8 8 7 5 5 4 5 6 5 5 3 3 3 3 5 5 5 6 5 8 8 11 11 10 11 9 9 9 9 7 6 8 10 12 8 7 6 5 6 7 7 6 7 6 6 6 7 7 11 12 17 9 0 
0 4 10 10 11 9 8 7 8 7 7 6 6 8 7 10 6 8 5 6 5 7 7 7 7 6 9 11 10 7 6 4 5 4 5 5 6 6 5 6 5 6 7 8 8 8 5 5 5 5 5 5 4 7 7 9 10 13 12 15 14 16 20 21 21 19 18 21 24 21 17 14 17 23 29 32 29 29 28 23 18 11 5 3 1 1 2 2 1 1 1 1 0 0 0 0 0 0 1 1 1 1 1 2 2 3 3 8 18 36 49 54 46 31 20 12 10 13 11 14 11 8 8 8 11 16 16 15 18 21 22 14 7 4 4 3 4 9 17 25 25 21 19 93 181 208 168 67 27 21 17 14 8 9 35 70 89 74 44 16 14 11 9 16 20 22 18 11 8 8 10 13 18 24 30 29 25 17 13 10 12 17 18 22 15 18 23 20 21 12 18 21 18 18 12 16 14 16 11 12 16 18 22 25 26 27 20 23 31 33 32 30 27 25 20 20 21 21 23 16 21 20 28 27 24 26 27 36 31 33 21 20 17 11 16 14 17 19 19 23 24 27 26 24 16 12 17 30 34 39 26 24 20 14 16 17 19 23 25 29 41 37 56 43 57 42 36 37 43 52 44 40 34 32 25 30 28 37 40 36 32 58 67 81 68 47 49 59 59 58 38 29 34 36 38 33 38 41 42 41 51 49 54 57 77 91 86 77 59 44 44 48 62 84 79 66 42 35 35 38 34 27 22 20 20 22 23 22 30 36 34 31 19 16 13 20 30 49 61 55 39 24 25 32 32 29 47 72 89 78 44 28 37 85 151 196 173 116 58 34 34 32 27 21 16 13 14 17 20 20 17 14 11 10 9 8 6 6 5 6 6 7 7 7 9 8 10 10 9 8 7 7 8 7 6 7 5 6 6 9 8 9 8 6 8 8 9 9 9 6 6 4 6 7 12 11 15 15 16 15 14 15 10 9 8 7 8 7 11 11 13 12 12 11 9 9 11 10 10 7 9 10 12 9 8 9 9 7 5 6 6 7 7 9 9 12 10 10 12 10 12 7 6 4 5 6 8 6 5 3 4 4 5 5 5 5 4 5 8 9 11 9 7 7 7 8 9 8 9 9 8 8 8 7 6 5 5 6 5 7 7 7 7 6 7 7 10 12 10 13 6 0 
0 4 9 9 11 9 9 9 9 9 8 8 8 9 7 9 6 8 5 6 6 8 10 8 7 8 10 11 10 8 6 6 6 8 8 6 5 5 6 7 6 6 7 8 8 7 6 5 4 6 6 7 10 11 13 16 16 16 12 12 13 15 16 15 14 12 13 15 14 12 13 15 21 26 26 28 22 20 19 16 14 8 4 2 1 1 1 1 1 1 1 0 0 0 0 0 0 0 0 1 1 0 1 1 2 4 7 19 35 50 53 45 29 18 11 10 10 13 13 14 13 11 8 9 12 15 13 11 16 21 23 15 8 4 3 3 3 6 14 23 26 21 20 61 165 203 188 97 32 25 18 14 11 7 20 58 87 85 59 21 11 9 6 12 16 20 18 12 8 5 7 8 13 19 28 31 28 21 15 12 11 19 21 24 18 19 25 24 25 14 18 21 21 21 18 19 20 20 17 16 18 18 23 26 27 28 19 24 26 35 30 29 26 26 24 21 25 29 29 17 17 17 23 25 25 21 28 34 27 22 15 18 20 16 17 12 16 16 15 20 19 30 25 21 16 13 18 28 32 37 31 29 23 19 20 24 25 24 28 27 40 35 44 38 45 46 60 65 61 55 46 34 31 25 25 25 31 35 37 38 29 50 67 85 84 62 55 60 56 52 41 33 31 24 25 30 32 31 33 25 37 37 64 62 79 72 69 55 38 28 32 35 51 69 70 53 33 25 30 40 38 32 22 18 22 19 23 18 30 27 30 20 17 16 17 29 44 57 55 40 26 15 24 29 29 21 35 62 81 77 51 31 26 59 118 188 201 153 87 37 31 32 32 29 26 22 18 17 17 18 15 17 16 15 13 11 8 6 5 6 6 7 6 7 9 9 12 9 8 7 8 10 7 8 6 8 6 8 7 10 9 9 9 7 8 9 10 9 9 6 5 5 6 8 11 10 14 13 14 15 13 14 11 12 8 7 9 9 10 10 9 8 8 8 9 7 10 8 10 8 8 7 8 8 8 7 7 6 6 5 4 5 7 8 9 12 9 9 11 11 13 7 6 6 6 7 7 7 6 4 4 4 5 6 5 4 4 5 8 9 10 8 7 6 6 6 7 7 8 6 7 9 10 9 7 5 6 7 6 6 6 5 5 5 6 6 7 9 9 9 5 0 
0 4 10 10 11 11 11 14 11 14 11 13 10 10 8 7 6 9 8 7 7 6 7 7 8 8 10 11 10 10 7 8 7 7 7 7 7 6 6 5 5 5 6 6 7 7 7 8 8 9 11 12 15 16 17 17 16 16 13 11 11 11 12 11 11 11 12 14 13 14 18 17 22 23 23 25 19 18 16 14 12 7 3 2 1 1 1 1 1 1 1 0 0 0 0 0 0 0 0 1 1 1 1 1 3 6 16 32 46 49 42 25 14 10 8 10 10 12 17 19 17 13 8 9 14 16 14 11 14 19 22 15 8 4 3 2 2 5 11 20 26 23 21 38 141 199 202 130 43 28 22 15 14 7 12 43 77 91 71 34 11 12 9 11 15 17 17 11 6 3 5 6 10 17 23 28 28 23 16 14 15 22 22 21 19 17 23 24 30 24 24 25 24 21 15 13 18 22 25 24 22 21 21 26 25 28 26 30 28 42 32 34 26 29 26 28 26 29 27 19 18 18 29 27 26 21 22 24 29 28 28 28 27 23 23 17 17 17 19 24 21 22 22 23 19 16 18 23 29 32 30 32 27 26 21 30 33 35 27 27 34 42 37 30 26 33 37 50 59 64 52 41 37 30 28 24 31 35 35 34 28 42 56 72 81 80 61 59 55 52 51 44 41 37 26 33 29 30 32 28 37 43 71 67 76 55 48 40 34 32 23 26 45 57 58 47 33 24 29 32 36 30 33 23 34 25 24 12 21 16 25 19 24 21 27 42 54 56 42 25 14 13 25 27 26 15 28 52 74 77 58 39 23 39 83 161 209 189 121 55 30 32 33 35 35 31 27 22 19 17 13 15 16 17 16 14 11 10 9 8 7 6 6 6 9 8 10 7 6 6 7 9 8 9 6 7 6 8 7 10 9 11 9 9 11 9 10 9 8 5 4 5 6 6 8 7 11 13 12 12 11 15 13 12 9 10 11 9 8 7 7 7 9 9 10 9 13 9 10 7 7 10 10 8 7 6 8 7 6 5 6 4 6 6 7 10 8 11 13 12 12 9 8 9 6 9 7 10 6 5 6 5 6 5 4 3 3 5 7 10 11 8 7 4 5 4 5 5 7 8 9 10 10 8 7 6 6 7 7 7 6 6 8 7 6 7 8 7 6 5 3 0 
0 4 10 10 11 11 10 15 13 15 10 13 13 12 7 6 6 7 7 6 6 7 8 8 7 7 8 11 8 9 8 8 10 11 10 8 7 7 6 6 7 8 10 9 9 9 10 12 12 12 14 15 16 15 15 15 15 12 8 8 9 10 12 10 13 14 15 17 19 21 22 19 22 20 19 20 14 13 12 10 10 6 3 2 1 1 1 1 1 1 1 0 0 0 0 0 0 0 0 1 1 1 1 1 4 11 26 41 48 41 29 11 7 7 7 11 10 15 15 19 16 14 10 10 14 15 13 11 14 18 19 14 8 4 2 2 2 3 9 18 25 23 18 23 108 193 209 161 61 29 24 17 13 7 6 27 63 90 80 51 15 13 12 12 16 17 18 13 7 4 5 6 10 15 20 25 27 25 20 16 16 20 22 20 15 15 20 25 32 32 30 28 26 22 17 16 21 28 32 29 28 29 27 30 25 25 24 29 25 41 31 36 22 30 28 35 29 32 30 23 22 21 22 24 25 22 26 26 34 32 30 27 26 26 25 23 19 23 27 29 31 26 19 16 19 20 24 23 28 27 24 27 22 30 25 38 38 42 28 26 26 35 34 26 19 35 47 84 71 77 53 40 33 25 27 35 50 67 75 71 46 43 48 72 79 74 68 71 63 59 66 58 47 37 29 31 40 42 47 46 51 58 80 80 78 52 36 35 32 31 25 21 33 46 46 49 36 33 30 25 43 29 38 26 37 31 27 17 18 15 19 19 25 26 37 50 55 48 27 13 8 10 20 21 22 16 22 46 67 79 66 48 28 26 51 121 192 216 164 94 38 30 31 35 38 38 34 27 21 16 14 15 16 18 17 19 17 17 16 15 14 12 10 7 9 9 10 8 7 7 8 8 8 7 6 6 6 9 8 11 8 9 10 11 10 10 10 8 9 6 6 6 7 8 9 8 8 9 9 11 10 12 12 13 12 12 14 13 11 6 5 7 7 7 10 11 12 8 8 6 7 7 8 8 8 6 6 6 5 5 5 4 6 6 8 10 8 11 10 10 9 8 9 10 7 9 7 10 7 6 6 5 7 6 5 5 4 5 6 8 9 8 8 6 7 3 4 5 6 7 8 9 10 8 8 7 9 9 7 6 6 6 7 7 7 5 5 4 4 6 3 0 
0 5 10 9 10 10 11 16 13 14 12 11 11 9 8 5 7 7 10 10 9 6 6 7 9 10 8 9 7 9 7 8 7 6 7 8 10 9 8 7 7 8 11 11 10 10 11 12 12 14 15 16 15 15 14 12 13 11 11 12 11 10 10 11 18 19 20 18 17 18 20 18 21 16 16 16 14 16 14 11 9 5 2 1 1 1 1 1 1 1 1 0 0 0 0 0 0 0 1 1 1 1 1 2 7 21 37 45 41 26 14 6 6 7 11 15 13 17 14 16 14 12 11 11 12 13 13 12 14 16 16 12 8 5 3 2 2 2 7 15 23 23 18 21 75 181 210 186 89 34 25 19 13 9 5 16 48 83 87 65 27 15 17 16 16 17 19 16 10 6 6 6 9 12 16 22 27 27 24 18 17 19 18 21 15 15 16 22 31 34 35 30 27 20 15 15 20 24 31 27 27 26 25 27 21 21 19 22 24 37 33 35 21 29 31 37 40 35 36 33 30 31 24 27 27 26 32 31 36 35 31 25 24 27 26 31 26 27 25 28 25 26 26 21 19 18 26 32 30 24 20 20 17 22 20 30 30 33 28 25 31 31 36 23 20 33 37 77 61 76 51 42 44 34 43 51 69 71 64 58 51 50 47 53 83 76 76 66 60 67 68 64 64 59 64 53 64 50 76 56 54 54 71 76 56 35 20 29 35 32 33 31 33 43 38 50 34 38 28 27 42 28 38 31 38 43 35 24 17 15 16 24 27 35 46 52 49 34 16 9 8 10 16 18 21 20 21 42 60 78 74 57 37 23 29 80 158 220 203 139 67 31 29 32 36 40 39 36 31 26 22 19 18 15 13 16 19 22 22 21 20 18 16 14 13 12 12 11 9 8 7 7 9 7 8 5 6 8 8 9 10 10 9 11 13 12 12 10 12 8 8 6 9 8 9 7 7 12 11 12 11 12 13 11 9 10 14 12 10 7 5 6 6 8 9 12 11 10 9 8 8 7 8 8 8 6 6 5 5 6 6 7 7 8 9 12 10 14 9 9 8 8 11 11 10 9 9 10 9 7 6 5 4 5 5 5 6 6 8 8 10 9 11 7 7 3 3 4 6 7 10 9 10 8 8 7 8 8 9 7 8 7 9 8 6 5 5 5 4 6 3 0 
0 4 8 8 8 9 8 10 11 10 8 9 12 10 9 4 6 6 10 8 8 7 7 6 6 7 7 8 6 8 6 8 6 7 7 5 7 10 10 9 8 10 11 11 10 9 10 11 11 12 12 15 14 13 16 13 18 12 14 12 10 9 13 18 25 23 18 16 16 19 19 16 19 15 15 15 15 18 15 11 8 4 2 1 1 1 1 0 0 1 1 1 0 0 0 1 1 1 1 1 1 1 1 4 14 30 42 39 28 16 13 11 10 9 11 13 13 13 12 11 9 10 11 11 12 15 16 16 14 14 14 11 8 5 3 3 2 2 5 12 20 23 19 22 47 155 203 203 123 45 26 19 13 10 6 9 34 73 91 78 43 19 18 20 19 19 19 18 13 8 7 5 6 7 11 17 24 28 27 19 17 18 21 23 18 16 15 20 28 32 36 30 26 21 19 20 20 20 28 23 25 24 25 27 21 17 20 21 25 27 30 28 22 23 30 32 33 28 29 38 39 43 31 22 22 26 32 32 33 27 21 13 15 20 25 30 28 29 27 33 27 26 19 16 20 25 32 36 33 25 19 17 21 20 18 18 23 27 26 19 26 23 37 26 27 39 45 69 57 57 54 38 38 29 40 58 74 81 77 66 52 40 44 49 58 53 68 57 50 58 59 78 80 69 61 51 69 67 102 71 71 72 67 65 36 24 18 25 30 31 37 35 34 36 29 40 29 37 24 33 36 30 27 24 28 37 27 23 15 14 17 27 33 46 52 52 41 22 11 9 9 9 12 12 20 25 25 40 52 74 79 65 45 25 17 46 115 199 226 180 104 40 26 29 34 38 39 38 35 32 31 30 27 24 21 18 17 16 17 18 20 20 20 19 18 16 16 15 12 9 7 7 9 7 8 6 8 7 7 6 7 7 9 11 12 11 13 10 14 9 11 8 9 9 13 13 10 12 9 14 9 11 10 10 11 9 12 12 12 8 10 11 8 11 8 13 9 11 8 9 8 7 6 7 8 7 6 4 4 5 5 7 7 9 10 12 11 12 8 7 6 7 11 11 12 10 12 11 10 6 5 4 6 7 7 7 8 7 7 8 9 9 12 8 7 3 3 5 6 7 6 6 6 7 7 9 10 8 7 4 5 6 8 7 7 5 3 4 4 5 3 0 
0 5 8 8 8 7 9 8 8 7 6 6 8 8 8 5 5 6 8 9 10 7 6 6 8 10 9 7 5 7 6 8 8 7 9 9 12 12 11 10 9 8 9 10 11 10 9 7 7 7 8 10 14 13 21 15 20 12 12 10 11 11 15 17 21 20 17 14 15 17 20 19 21 20 20 20 20 20 15 10 7 3 2 1 1 0 0 0 0 0 1 1 1 1 1 2 2 2 1 1 1 1 2 8 22 36 41 33 23 15 14 13 13 14 15 14 16 10 11 7 7 10 10 11 10 14 17 16 14 15 13 11 8 6 6 4 3 2 3 8 17 23 22 24 29 120 191 213 156 64 29 21 15 12 9 7 23 59 88 88 57 28 17 21 18 19 18 19 16 10 7 5 4 5 8 13 20 27 30 22 16 14 19 21 19 15 18 22 24 22 23 21 23 22 22 22 23 21 21 20 19 15 18 23 25 23 21 18 22 24 34 35 33 28 24 29 31 34 36 42 49 54 47 39 32 32 36 43 47 33 23 15 17 21 28 29 29 29 25 25 20 24 25 23 21 27 36 40 37 28 23 16 21 14 14 9 10 12 18 19 30 31 33 27 25 34 40 48 53 42 43 39 37 40 48 67 60 64 36 38 39 47 55 57 58 57 55 44 40 38 48 69 69 79 66 60 57 56 73 62 61 64 54 57 37 28 27 28 31 34 34 36 31 26 24 33 25 27 18 32 28 30 25 30 36 40 29 24 13 15 22 33 41 53 53 45 28 13 8 12 10 11 9 8 19 30 31 37 46 68 78 70 52 31 16 24 75 161 228 214 141 60 21 22 29 35 37 37 35 32 32 33 34 31 26 21 18 15 14 14 16 17 19 20 19 18 18 17 17 14 10 9 11 13 10 7 8 5 5 4 6 7 8 9 10 11 14 11 15 8 9 8 9 10 9 8 8 14 10 16 8 10 10 10 10 7 9 8 9 9 10 9 8 10 6 11 8 10 8 9 9 10 8 7 6 7 6 5 4 6 7 8 7 7 8 11 10 11 8 7 6 7 11 12 16 11 14 11 11 7 5 4 6 7 7 7 8 8 7 7 9 10 9 7 6 4 4 5 5 8 6 7 5 7 7 8 7 7 6 5 6 7 7 7 7 5 5 4 4 4 2 0 
0 6 9 8 8 7 8 6 6 6 5 6 6 7 6 5 3 5 7 8 7 6 6 5 5 6 6 6 6 9 11 12 11 10 11 11 12 13 13 11 9 6 7 6 8 8 7 8 8 8 8 7 12 12 20 16 16 12 12 10 11 12 15 17 20 19 19 19 22 22 25 24 22 20 17 16 16 16 13 9 6 3 2 1 0 0 0 0 0 0 0 1 1 1 1 2 2 2 1 2 1 1 3 14 29 38 35 22 12 9 11 14 14 17 18 16 18 11 13 7 7 10 9 11 13 17 18 15 13 16 14 12 7 6 7 4 4 3 3 5 12 19 21 20 18 82 176 213 183 89 33 24 17 14 10 7 15 45 78 94 71 41 18 20 18 17 20 19 18 12 8 5 4 5 6 10 15 24 30 27 20 15 16 18 16 15 20 22 25 22 22 19 20 19 20 22 22 22 21 19 19 14 15 19 27 29 30 25 24 25 23 30 29 30 27 22 20 24 25 38 43 51 47 47 38 37 40 38 38 36 27 22 17 22 23 28 25 23 16 21 21 21 19 22 27 30 32 38 29 25 27 24 35 26 23 15 15 15 18 25 31 33 30 28 26 30 36 33 28 37 33 34 27 35 39 59 41 47 21 29 25 34 41 42 55 48 51 40 34 30 43 53 57 64 40 37 34 50 62 63 62 60 51 43 25 26 30 33 29 38 31 38 24 24 21 25 22 22 14 27 20 25 30 30 40 36 29 22 15 26 35 46 50 53 47 34 17 10 8 14 9 10 6 7 23 36 37 38 42 63 75 72 55 35 18 14 45 119 206 235 179 92 26 15 20 25 31 34 35 32 31 33 36 37 35 29 23 17 12 10 10 11 13 15 18 16 19 17 18 15 11 11 10 13 10 9 8 5 4 3 5 7 8 9 9 8 11 9 11 9 8 6 6 9 14 16 14 14 10 11 5 7 8 9 11 8 7 7 8 11 13 14 10 9 6 10 9 10 9 7 10 10 10 9 6 6 5 6 5 5 7 9 10 9 7 10 9 9 6 5 6 7 11 13 15 11 13 9 10 5 4 6 7 10 7 8 8 9 8 8 7 8 8 7 7 7 6 7 6 8 5 7 5 7 6 8 6 7 5 4 4 4 7 6 8 5 5 4 4 4 1 0 
0 6 10 7 9 6 8 6 5 5 4 4 4 5 4 4 3 5 5 6 6 6 6 5 6 8 9 9 10 12 13 12 11 10 12 13 14 13 11 8 9 7 8 7 11 12 9 10 8 7 8 8 13 13 14 14 15 10 9 9 11 13 15 15 17 22 23 25 28 27 29 24 19 19 19 20 21 16 12 8 4 3 2 1 0 0 0 0 0 0 0 0 0 0 1 2 2 2 1 2 2 2 5 19 33 37 28 15 11 13 13 14 14 15 17 17 18 15 14 12 9 10 8 10 15 17 18 14 14 18 15 13 7 7 8 4 4 2 3 3 8 14 19 19 19 52 156 207 202 118 42 28 20 14 11 7 9 29 63 91 85 55 24 15 19 16 19 19 18 16 10 9 7 7 8 7 11 19 26 28 24 18 14 14 11 14 20 27 30 20 19 15 17 16 18 19 22 20 18 14 17 15 15 19 26 30 32 25 18 26 22 37 30 27 20 18 23 28 25 34 33 49 44 48 44 42 42 49 49 45 31 30 22 25 24 29 25 27 26 27 23 23 23 20 22 30 28 31 25 28 33 30 30 26 24 22 17 21 18 33 35 48 40 26 25 27 25 30 24 28 26 32 26 34 34 48 35 34 25 33 28 39 47 47 59 42 51 42 27 26 21 31 38 39 32 38 43 49 50 51 52 61 48 40 35 36 30 33 27 34 27 36 22 28 26 29 25 22 14 25 22 26 33 35 52 42 35 32 30 45 50 54 51 45 35 21 9 9 7 13 8 11 7 10 28 41 41 39 39 59 72 71 56 39 21 12 25 82 169 236 213 133 46 9 12 16 22 28 32 31 30 30 32 35 35 34 32 28 23 19 15 13 14 13 14 10 12 14 18 16 13 14 15 15 12 11 11 12 9 5 4 6 6 7 6 5 8 7 9 7 6 5 6 9 10 11 12 11 9 7 5 7 8 10 10 8 7 8 9 11 11 10 8 8 6 9 9 8 8 6 10 10 12 8 7 6 5 6 5 7 10 11 11 9 7 8 8 10 8 6 8 6 10 11 12 10 10 8 9 6 4 7 7 11 7 9 7 8 6 7 6 6 6 6 8 11 10 9 5 7 5 6 3 5 5 6 5 5 5 6 8 8 9 7 9 6 8 6 5 4 2 0 
0 5 10 8 9 6 9 6 7 4 5 4 4 4 3 3 3 4 5 5 6 5 6 5 6 7 8 10 11 13 15 12 10 8 9 10 13 9 10 8 10 9 10 11 11 10 8 9 9 9 8 7 11 13 15 14 15 15 15 13 15 17 16 17 19 23 24 25 27 28 25 18 12 12 11 11 15 13 12 7 4 4 1 1 0 1 0 0 0 0 0 0 0 0 1 2 2 2 2 2 2 3 9 23 35 35 24 10 7 8 9 10 11 14 16 18 16 15 12 12 10 10 9 10 15 17 16 10 12 19 18 14 8 6 6 3 3 2 3 3 5 9 15 18 21 35 132 198 212 149 58 30 23 14 12 5 6 15 45 80 93 71 41 16 17 17 17 20 16 17 12 11 10 9 10 8 11 16 22 26 26 22 17 12 9 11 17 20 22 22 20 20 19 13 13 16 20 18 14 12 19 22 22 19 25 30 30 30 18 22 16 22 20 23 21 26 22 24 22 24 21 23 28 36 41 41 37 41 42 44 35 26 20 21 22 27 30 27 23 25 28 24 22 20 25 29 24 22 18 26 33 36 36 34 25 26 25 31 27 35 36 40 32 26 20 28 24 25 20 26 29 29 28 32 31 37 38 39 31 35 33 40 40 39 49 36 35 33 26 35 23 26 29 33 42 51 55 55 50 48 45 52 33 34 23 28 23 21 21 24 22 30 21 26 24 26 25 22 19 26 21 25 31 37 47 43 41 34 34 42 48 50 45 35 23 13 6 8 7 11 8 9 8 17 36 45 41 36 38 57 69 69 57 43 25 15 14 51 126 217 236 181 87 19 6 8 13 21 28 31 32 33 34 37 37 36 34 31 28 25 21 18 17 16 18 17 14 10 11 14 13 11 12 15 14 15 15 17 16 15 10 9 7 8 6 6 6 5 8 7 6 4 4 8 11 13 11 9 7 7 6 7 8 10 11 10 8 6 7 10 10 10 7 6 8 11 12 10 9 6 9 8 14 10 8 5 4 5 5 6 9 12 14 11 10 9 8 7 7 7 10 8 12 11 12 10 10 8 7 7 7 8 7 7 6 8 7 10 7 8 5 6 7 10 11 12 10 9 6 7 5 7 5 4 5 3 5 5 6 6 7 6 7 6 9 7 9 6 7 6 3 0 
0 5 7 6 7 7 9 6 7 4 6 5 5 4 3 3 4 4 6 4 5 4 6 4 6 6 8 10 12 14 15 11 11 10 12 13 16 12 10 7 9 11 10 11 13 14 12 11 9 9 12 15 23 19 18 16 17 18 19 18 20 19 17 18 17 20 21 20 23 23 22 16 10 12 18 20 25 16 13 6 4 4 1 1 0 1 0 0 0 0 0 0 0 0 1 2 3 3 2 2 3 5 11 24 33 32 23 10 8 9 13 12 12 10 13 15 14 13 11 12 13 11 11 10 15 16 16 12 12 17 19 16 10 6 4 2 2 2 2 2 3 7 12 21 22 31 100 189 215 177 81 34 25 16 13 8 5 7 28 65 93 85 56 21 13 17 15 21 17 20 14 11 9 9 9 10 11 14 16 20 23 23 20 13 10 8 13 17 17 18 17 18 16 13 16 21 24 22 18 15 21 22 21 17 19 28 28 29 22 20 18 19 17 19 16 23 23 30 20 15 16 15 22 22 32 30 37 38 41 39 39 34 28 20 21 31 35 38 36 30 30 29 25 19 21 22 22 21 20 28 34 34 30 28 26 37 44 49 44 40 38 42 32 27 16 22 22 26 24 25 31 30 27 26 30 36 37 39 39 38 32 32 35 40 45 39 33 35 32 31 20 21 30 39 52 56 66 67 52 42 43 53 44 45 25 27 18 16 18 20 22 23 19 26 26 25 22 18 19 25 25 26 26 34 40 37 41 32 35 38 45 46 40 29 19 11 6 7 6 8 9 9 14 27 44 47 39 32 37 54 65 67 57 45 30 19 11 28 84 179 240 221 137 48 8 4 8 14 21 25 28 31 34 37 37 36 34 33 31 29 27 26 24 22 20 20 17 13 9 10 11 13 12 13 12 16 18 24 22 22 18 16 13 12 11 12 11 10 11 11 11 8 5 7 7 8 6 6 6 6 6 7 7 9 9 9 10 11 11 10 6 6 6 7 8 12 13 11 9 7 8 9 10 8 8 6 4 4 4 6 8 11 12 11 10 9 10 9 10 9 12 9 10 10 10 10 8 8 7 8 7 9 10 9 8 8 6 9 6 9 5 7 8 9 9 11 9 8 6 8 6 6 4 3 4 3 4 3 6 7 9 10 10 10 10 9 10 8 8 7 4 0 
0 3 5 6 7 6 9 7 8 6 7 7 7 5 4 4 6 5 6 3 4 4 4 5 6 5 6 6 8 9 9 10 10 11 11 13 13 13 13 10 10 12 14 18 16 15 11 10 9 10 14 19 26 23 22 16 17 18 20 20 21 20 17 18 17 16 16 15 22 20 17 11 10 13 15 14 18 13 13 7 5 4 1 1 0 1 0 0 0 0 0 0 0 0 1 2 4 3 2 3 4 7 13 24 32 29 21 8 7 7 10 10 13 10 13 11 11 10 10 12 13 14 13 12 14 17 16 16 13 14 18 17 12 7 3 2 1 2 2 3 2 5 9 23 20 35 65 170 210 197 111 40 27 18 14 10 6 4 14 45 83 95 74 39 13 17 15 22 19 18 14 9 8 11 10 15 13 16 16 17 20 22 22 16 11 6 7 10 11 13 13 16 15 15 15 21 24 23 19 16 21 24 29 24 20 24 24 27 20 17 19 18 17 16 15 24 21 19 14 13 15 16 21 25 30 25 30 29 39 37 33 25 23 24 21 29 32 33 29 28 29 28 23 23 21 22 20 15 17 26 32 36 29 28 25 46 50 72 46 49 28 40 28 25 14 17 17 19 25 23 28 27 25 27 30 39 49 42 37 30 28 25 30 40 36 36 37 40 40 33 26 22 32 33 44 51 56 46 37 36 42 48 42 38 24 27 21 21 19 19 21 25 24 25 21 21 19 19 18 18 19 22 30 34 44 46 43 27 25 25 36 40 35 26 16 11 6 5 7 5 9 7 17 34 51 48 37 26 36 50 61 64 58 48 34 22 13 13 50 128 218 245 189 94 22 4 6 7 12 14 17 22 26 32 35 35 34 33 32 30 28 29 27 26 23 25 23 20 12 11 8 9 8 13 15 19 17 21 19 23 21 20 17 16 16 16 17 17 18 19 20 18 16 16 14 13 10 9 9 10 9 9 9 11 12 12 9 9 9 8 7 5 6 7 9 11 11 9 8 6 8 9 9 9 8 7 6 6 5 5 7 8 9 10 10 8 6 5 9 11 13 12 10 11 10 12 11 10 7 8 9 11 9 8 8 7 6 9 7 8 6 8 11 11 10 8 7 7 6 8 6 7 4 3 3 2 3 3 6 6 7 7 6 7 8 10 10 10 9 10 6 0 
0 4 6 6 7 6 8 6 6 6 8 7 7 4 4 4 5 4 5 4 4 5 6 8 8 8 6 5 7 10 9 11 13 19 17 18 17 15 13 10 12 13 12 14 13 17 15 14 15 16 20 25 27 26 22 18 15 16 17 17 17 17 16 17 15 14 16 16 20 17 15 13 14 17 18 15 17 11 9 4 4 3 1 1 1 1 0 0 0 0 0 0 0 0 1 2 4 3 2 3 4 8 14 25 31 26 17 6 5 5 9 10 13 9 12 12 14 11 9 12 12 18 14 15 11 17 16 18 14 12 16 18 15 10 3 2 1 2 1 3 2 5 7 22 19 32 39 141 199 209 140 52 28 20 16 11 8 4 7 27 65 94 87 54 19 13 16 21 22 16 13 7 5 10 10 14 14 15 16 17 19 22 23 20 14 9 10 11 11 11 12 17 16 14 15 20 24 25 22 19 20 21 23 27 22 27 18 23 22 23 25 20 16 15 16 19 20 20 16 13 16 20 32 35 33 27 24 22 26 25 30 28 25 27 27 33 34 32 28 32 31 40 27 23 19 16 18 23 25 30 27 31 27 27 24 53 57 89 50 52 24 32 23 22 15 21 21 20 25 22 21 17 15 19 25 29 33 29 26 17 15 16 24 33 43 47 38 37 32 30 21 20 26 35 41 40 37 32 32 33 40 52 48 40 30 29 25 25 21 21 19 21 21 20 17 15 15 16 18 19 22 25 31 34 39 38 35 27 23 22 35 37 31 22 9 8 6 5 6 6 11 8 21 41 55 50 35 23 33 45 58 63 59 49 38 25 16 9 26 79 174 242 227 145 52 9 6 5 5 6 8 12 16 22 28 32 33 33 32 28 24 26 25 25 20 23 23 23 18 14 11 11 11 10 14 17 16 18 16 20 19 19 19 16 15 15 17 19 20 22 24 26 26 26 25 22 18 16 15 15 12 9 8 9 8 7 7 10 11 9 8 5 9 9 12 12 11 9 8 5 8 7 9 8 9 11 8 7 4 5 6 6 7 8 8 9 8 7 8 12 11 11 10 11 12 11 10 10 8 9 9 11 12 9 10 8 9 10 8 8 7 9 10 9 8 7 8 8 8 9 7 7 6 5 4 3 3 3 4 5 6 6 6 7 10 12 11 10 7 8 4 0 
0 4 6 7 6 4 7 5 7 5 8 8 9 8 6 5 6 7 8 10 10 9 7 8 8 8 6 8 7 8 6 9 12 16 15 13 10 12 13 12 10 12 13 17 14 16 19 21 24 22 24 25 22 20 15 13 12 12 12 12 12 13 15 17 15 14 15 18 19 18 13 12 16 15 15 9 8 6 6 4 3 2 1 1 1 2 1 0 0 0 0 0 0 0 1 2 3 3 2 2 3 6 15 27 33 28 17 6 6 9 14 15 16 13 13 11 11 11 11 13 11 17 12 16 10 18 20 22 15 11 14 17 17 11 4 3 2 2 1 3 2 5 8 18 20 24 23 107 186 212 167 70 32 22 16 12 8 5 4 14 45 83 95 72 36 14 15 16 19 14 12 7 5 9 11 11 12 14 16 16 16 20 24 24 16 10 11 14 14 16 15 16 16 13 14 14 17 18 19 18 18 24 24 32 21 25 15 20 23 29 36 33 25 18 16 21 22 19 14 14 17 23 34 33 37 26 21 21 25 27 24 19 19 22 24 26 27 33 29 36 29 34 25 22 18 20 22 27 25 26 24 22 21 20 18 38 40 58 42 39 25 26 24 26 20 23 23 26 21 19 14 11 10 12 17 23 25 24 17 12 10 9 18 23 30 35 39 48 37 28 19 23 28 28 28 24 28 29 36 37 46 50 43 41 31 29 27 25 20 21 22 22 21 19 18 16 21 17 20 14 21 32 37 38 36 40 33 26 22 25 38 34 25 15 5 6 5 5 6 5 8 7 24 48 58 52 32 23 30 40 55 63 61 52 41 29 19 8 11 41 120 214 246 192 93 22 5 5 3 3 3 5 7 12 18 24 28 32 33 30 24 23 24 24 19 21 22 23 18 14 14 16 15 16 17 16 15 14 10 10 12 12 14 11 11 12 14 16 18 21 25 28 29 31 32 31 29 26 24 23 22 19 16 14 14 13 12 13 12 10 8 5 11 9 13 10 11 8 7 7 9 8 10 7 9 12 10 11 8 7 6 5 6 7 7 7 6 8 6 11 9 11 11 10 13 11 14 13 10 9 10 10 10 9 11 8 10 9 10 9 9 10 10 10 8 7 8 9 9 8 7 5 6 5 5 4 4 3 3 3 4 4 6 7 9 10 10 9 7 7 4 0 
0 7 11 10 8 6 7 5 6 4 7 9 12 13 13 11 9 8 9 10 11 11 13 14 13 12 9 9 9 10 8 11 17 20 19 13 12 12 12 12 10 13 15 18 19 21 23 23 25 21 20 17 14 12 11 12 13 12 12 10 8 12 15 17 15 16 13 18 17 18 16 12 19 16 15 8 5 4 3 1 1 1 1 1 1 2 1 0 0 0 0 0 0 0 1 2 3 2 1 1 2 5 15 27 32 26 16 11 13 15 18 18 18 14 11 10 12 12 10 10 11 14 11 15 11 17 16 18 14 11 14 17 17 12 6 4 3 2 2 3 2 4 9 14 17 16 15 74 169 209 187 95 40 25 18 12 8 5 3 7 28 67 92 85 53 23 14 14 16 12 10 8 6 7 7 9 11 13 18 16 17 21 28 26 21 15 19 23 22 20 18 18 15 12 9 10 12 15 18 19 18 23 24 35 24 23 13 17 20 27 30 29 24 20 21 21 20 18 14 15 14 22 35 35 36 20 19 20 23 24 22 21 19 23 23 26 27 29 28 37 37 37 28 21 15 18 19 24 25 20 23 23 26 25 19 27 32 40 32 23 19 21 20 22 23 30 24 24 19 18 13 9 8 12 10 16 19 23 21 14 13 16 19 25 28 34 35 31 27 23 22 21 28 29 37 25 31 28 32 40 45 46 47 39 37 32 31 25 23 17 17 17 21 17 16 18 22 18 21 16 31 33 36 33 25 31 22 27 23 28 34 29 20 12 4 7 7 7 6 7 8 12 30 55 58 52 30 24 27 34 50 62 62 54 45 33 22 11 6 19 73 171 244 226 141 45 6 5 3 3 2 3 4 7 11 15 19 24 29 28 24 21 20 22 19 18 19 19 19 18 17 17 15 19 18 19 16 12 10 9 8 7 7 5 5 5 6 8 11 14 17 20 22 24 26 28 29 30 30 29 30 28 27 27 25 22 19 17 15 13 11 7 12 10 17 11 12 9 8 6 7 7 9 8 9 10 9 8 8 7 7 5 5 6 5 8 6 9 7 9 8 9 11 12 13 9 11 10 11 11 10 9 9 8 9 9 11 10 10 8 8 8 8 6 6 9 8 9 8 7 9 9 9 7 5 3 4 3 4 3 5 7 8 8 10 10 10 7 5 6 4 0 
0 7 11 10 8 5 9 11 12 10 10 11 17 17 19 15 13 12 13 13 17 14 12 10 10 10 10 10 10 10 9 14 19 18 17 9 11 11 13 13 12 13 14 18 19 24 23 25 22 17 17 12 9 7 7 10 12 12 10 10 10 16 16 19 15 15 15 16 17 15 14 11 13 15 13 8 4 3 3 1 1 2 1 1 1 1 0 0 0 0 0 0 0 0 1 1 3 1 1 0 1 4 13 24 29 26 19 17 19 18 20 20 20 18 15 13 13 14 14 14 10 12 10 12 13 18 17 17 14 12 15 17 18 13 7 5 4 3 2 2 1 2 8 12 14 13 13 51 149 202 199 122 51 29 20 12 10 6 3 4 15 48 80 92 70 37 18 12 14 13 11 8 8 6 7 10 13 14 17 13 13 17 28 29 30 20 23 24 26 22 17 16 10 11 9 10 11 12 15 17 18 22 21 23 18 16 13 19 20 28 28 31 29 25 23 24 24 22 15 15 15 21 27 25 25 15 17 19 30 33 30 22 15 18 19 24 26 29 35 35 31 26 19 18 21 25 24 23 24 19 19 17 21 21 17 15 10 12 15 17 18 21 23 24 27 28 26 24 20 18 15 13 13 18 16 26 27 34 32 28 24 24 24 23 20 24 27 32 34 23 20 20 26 24 26 20 28 30 35 43 45 48 52 36 40 25 31 22 28 19 23 14 14 18 25 26 23 20 18 17 32 31 39 34 28 29 22 27 24 30 30 25 17 9 5 7 7 9 10 8 7 14 38 61 58 48 26 24 26 30 44 57 61 57 49 39 24 12 4 9 42 124 222 245 186 82 15 4 3 3 1 2 3 4 7 9 11 16 23 27 25 21 18 20 22 20 18 17 18 19 18 16 14 17 17 17 13 9 9 9 9 8 6 5 5 5 5 6 8 10 11 11 11 10 13 18 21 24 26 28 29 31 33 35 35 34 31 29 27 24 22 18 20 16 17 13 12 10 10 10 11 9 8 7 7 7 9 8 10 8 7 6 6 7 5 6 5 7 8 8 8 10 11 11 10 8 9 9 11 8 7 7 7 8 8 8 7 7 8 9 8 6 6 6 6 8 7 7 7 5 6 6 8 6 5 3 6 5 5 4 6 8 10 9 10 10 8 6 6 6 4 0 
0 9 17 15 11 10 11 13 13 12 11 14 16 20 18 17 15 12 13 10 12 13 16 13 11 10 9 10 9 9 10 13 17 16 14 9 13 14 16 14 12 13 13 18 18 21 17 15 13 12 14 11 9 8 8 12 12 13 11 12 14 22 21 23 18 18 21 19 25 23 19 16 13 15 10 8 4 3 3 1 2 2 2 1 1 0 0 0 0 0 0 0 0 0 1 1 4 1 2 1 1 4 12 22 25 24 19 18 20 18 17 14 14 12 11 11 14 17 17 15 10 10 9 13 14 15 15 13 15 16 17 17 16 13 8 6 4 3 1 1 0 1 6 10 13 13 13 29 121 188 207 150 65 35 24 14 12 6 5 4 10 31 65 92 86 54 25 11 11 9 9 8 6 4 8 12 15 16 17 15 15 16 26 27 27 20 24 24 25 21 15 11 8 9 11 13 13 15 20 22 21 19 24 25 23 16 14 20 20 22 16 20 20 23 22 22 19 21 18 21 17 22 23 23 22 14 16 16 21 21 21 18 21 24 21 23 22 25 30 29 35 30 26 29 30 30 26 23 23 26 30 34 43 37 30 19 15 13 13 10 17 17 20 19 33 32 33 25 20 18 20 19 20 26 25 40 47 61 52 46 36 33 28 22 19 25 25 30 25 22 23 19 20 23 22 24 24 28 29 37 40 40 39 30 34 27 36 25 39 23 28 20 24 28 25 26 25 24 23 26 32 31 34 32 31 31 26 24 27 29 27 21 14 9 6 6 8 9 10 10 11 22 50 66 60 42 25 26 26 26 37 50 58 58 51 42 26 13 4 6 21 79 182 247 222 129 36 5 2 2 1 1 1 2 2 4 5 9 18 24 26 22 18 19 21 22 22 19 18 19 17 14 10 14 17 16 12 8 9 9 10 8 6 4 4 5 6 7 6 7 7 6 5 3 5 8 12 15 17 20 22 26 28 32 35 34 34 34 36 36 33 30 28 27 25 20 15 13 11 11 11 12 12 11 9 7 6 5 7 7 7 6 7 8 7 5 6 8 9 12 11 9 10 11 9 5 5 5 7 7 8 6 6 7 6 6 5 7 6 10 7 8 4 5 6 8 7 6 5 5 7 7 10 6 7 4 6 5 6 5 8 10 11 10 8 9 9 10 7 8 6 0 
0 9 14 13 11 12 12 17 18 19 14 14 11 15 11 13 13 11 11 9 12 13 14 11 10 8 9 11 11 10 11 13 15 14 12 12 14 15 14 13 12 12 10 11 13 14 12 10 10 11 12 12 14 16 15 17 17 17 16 16 19 23 22 21 18 19 21 19 21 19 17 12 10 11 8 9 6 5 5 2 2 2 2 1 0 0 0 0 0 0 0 0 0 0 1 1 3 1 2 1 1 4 9 19 23 22 19 15 15 11 9 8 12 14 15 15 16 19 20 18 17 16 13 14 15 15 14 12 17 17 17 16 15 13 10 6 4 3 1 0 0 0 4 7 12 14 15 19 94 173 207 176 86 41 27 17 15 7 6 4 6 17 49 84 95 71 38 11 10 8 10 10 9 8 10 14 15 17 13 15 12 16 20 23 23 20 18 17 17 16 13 11 9 11 13 14 15 15 16 16 16 16 18 16 16 10 12 16 20 23 21 23 21 20 20 21 22 25 25 28 26 24 19 22 24 18 18 13 21 26 32 29 28 27 30 31 28 24 28 25 27 22 25 30 34 37 32 29 28 26 33 32 35 30 26 17 14 10 16 17 26 25 36 40 50 44 45 37 38 37 33 31 33 35 33 39 47 53 48 43 34 33 28 22 21 29 28 34 29 26 22 20 19 19 15 18 20 22 23 26 31 33 29 26 23 29 30 26 38 23 33 17 21 24 23 26 24 24 33 32 35 32 26 28 29 27 26 24 26 23 20 15 10 10 7 7 7 11 16 14 14 32 60 68 62 35 27 28 27 24 32 43 54 60 54 45 28 12 4 6 12 45 133 229 246 178 73 11 3 1 1 1 1 1 1 3 3 5 11 18 23 22 19 20 23 24 23 20 19 19 17 16 11 15 20 23 22 17 14 11 12 9 7 5 6 7 9 9 9 9 8 7 5 4 3 4 4 6 9 12 12 15 16 21 23 24 27 31 37 41 41 38 34 34 34 32 28 23 19 18 19 20 19 16 12 9 8 9 8 7 6 7 8 9 7 6 6 7 9 10 11 11 9 7 6 4 4 4 4 6 6 6 7 7 7 4 3 7 8 12 9 10 8 7 7 7 7 7 5 5 6 5 9 5 7 5 7 6 6 4 6 6 8 7 7 12 10 12 7 10 4 0 
0 8 14 16 13 14 11 17 15 16 14 13 11 12 8 9 9 9 9 7 8 11 13 13 11 10 10 11 13 14 15 16 16 14 13 12 13 13 11 11 10 11 11 11 10 10 10 10 10 12 16 21 23 24 24 24 22 19 17 16 18 22 22 22 19 21 22 26 26 23 21 14 11 11 7 7 6 5 6 2 2 2 2 1 0 0 0 0 0 0 0 0 0 0 1 1 3 1 2 1 1 3 5 16 21 20 18 10 10 7 6 7 8 11 12 12 13 15 18 15 13 11 11 14 14 14 13 14 16 18 17 16 15 13 11 7 5 3 1 0 0 0 2 6 12 15 17 16 59 153 201 198 117 50 30 19 17 9 7 4 5 8 34 71 96 86 52 19 9 9 9 8 7 6 9 12 12 15 12 16 12 15 13 16 15 15 13 10 10 12 12 13 12 13 15 16 16 14 21 25 20 16 18 19 20 11 12 13 19 21 23 23 21 17 18 19 25 31 34 34 25 22 15 18 24 21 21 11 15 18 22 27 36 35 39 30 29 24 22 21 23 20 23 30 32 35 28 26 33 29 38 38 40 35 30 22 27 24 28 24 27 24 34 42 51 51 51 49 49 45 41 38 36 32 35 37 50 47 45 36 32 33 30 29 30 32 32 35 31 30 27 25 25 24 23 22 22 19 21 22 22 25 20 20 17 30 26 26 31 26 40 23 28 23 19 20 25 30 37 38 37 29 30 31 36 35 29 24 23 18 16 13 9 11 7 7 7 11 16 15 17 43 67 70 62 33 33 30 26 22 29 39 52 61 56 46 28 12 4 6 7 21 85 193 251 219 121 29 4 1 1 1 1 1 1 2 2 3 8 15 20 22 21 24 28 29 28 24 22 22 22 19 15 17 21 26 26 23 18 14 13 11 10 7 7 9 11 11 10 9 8 7 5 5 4 6 4 5 5 7 7 9 7 8 9 12 16 21 27 32 34 34 32 32 33 35 34 32 29 28 27 27 25 20 15 12 12 14 14 13 11 11 10 10 8 6 6 7 10 11 10 10 9 8 7 5 4 3 2 5 6 9 9 7 7 4 5 8 9 11 11 11 9 8 8 7 7 6 6 7 9 10 14 10 12 7 7 6 5 4 6 8 10 9 9 12 11 15 8 9 4 0 
0 6 12 12 12 14 10 14 13 15 13 10 9 8 6 7 7 7 7 6 8 10 12 11 11 11 12 13 15 17 19 18 18 14 15 13 14 11 10 8 10 10 13 17 18 20 18 18 20 23 25 25 25 25 24 22 20 17 16 15 15 17 15 16 14 15 13 17 17 17 14 12 11 10 8 9 9 8 7 3 2 2 2 1 0 0 0 0 0 0 0 0 0 0 0 1 2 1 2 1 1 3 3 13 19 19 18 7 7 4 4 8 9 12 12 12 12 13 15 16 16 15 13 11 15 16 17 13 14 17 17 17 15 12 11 10 7 3 1 0 0 0 1 3 9 14 18 18 36 125 191 212 153 67 33 22 20 12 8 4 5 5 20 53 86 96 71 37 13 9 9 11 11 12 10 11 10 12 12 14 15 13 10 10 12 13 14 10 8 8 13 14 17 14 17 13 13 14 14 15 12 12 15 14 16 11 10 12 18 21 25 20 17 15 13 19 23 28 29 34 25 22 19 22 28 24 22 17 19 23 31 33 40 35 44 32 32 25 22 22 21 18 17 22 19 23 20 17 23 22 29 30 29 26 25 23 28 24 25 24 27 29 43 52 53 47 44 47 46 42 36 36 37 34 37 35 39 30 28 21 20 25 26 28 29 30 33 35 32 32 30 27 30 29 31 29 28 33 28 26 25 27 23 24 21 31 26 23 25 24 33 23 21 15 18 18 22 33 34 42 39 33 33 30 35 35 32 25 19 14 13 13 11 11 7 8 9 13 16 14 19 50 71 69 57 33 38 32 25 21 26 38 51 59 56 46 29 13 5 5 6 9 48 145 234 245 171 67 12 1 1 1 1 1 0 1 1 2 6 11 15 19 20 24 28 31 31 29 28 27 27 24 21 18 20 25 28 25 21 17 16 15 13 10 9 9 9 10 11 10 8 7 4 6 4 5 5 7 8 9 9 9 8 6 4 6 8 11 15 18 22 22 24 23 25 28 31 33 35 36 37 36 33 29 25 24 25 26 24 21 18 16 15 13 12 11 13 11 9 8 9 9 8 6 5 5 4 3 2 5 7 10 10 8 8 5 8 10 15 13 13 11 13 9 9 6 7 6 7 8 9 9 9 9 11 9 10 7 6 6 5 6 6 6 7 11 12 12 8 7 4 0 
0 6 12 12 15 15 18 20 18 17 12 9 8 9 9 8 10 10 13 14 17 16 16 15 15 15 14 14 16 18 18 16 17 13 16 13 14 13 16 15 19 23 28 31 31 32 32 28 22 19 23 26 30 29 28 24 22 17 14 15 12 14 12 14 15 17 17 19 17 15 14 10 9 8 7 6 7 6 6 4 2 2 2 1 0 0 0 0 0 0 0 0 0 0 0 0 1 1 2 2 1 3 3 10 16 17 16 10 9 7 6 9 10 14 14 14 15 17 17 17 13 12 13 12 16 13 16 11 12 13 18 19 17 13 11 10 8 5 1 0 0 0 1 2 6 12 17 17 22 86 175 215 185 94 40 25 21 14 10 4 4 4 10 35 70 96 88 59 26 11 10 10 9 10 8 10 8 9 13 12 11 10 9 10 13 13 13 12 11 9 14 14 19 16 15 14 13 16 17 23 17 17 19 20 21 16 14 14 16 16 22 18 17 16 11 18 21 31 28 23 17 16 14 15 19 23 20 21 22 24 25 24 34 31 39 28 25 20 21 22 19 18 18 22 22 21 21 20 24 24 27 28 26 22 22 23 26 25 22 20 16 21 33 39 43 39 40 47 46 43 38 36 37 34 37 31 32 24 19 18 21 29 30 33 33 34 29 27 27 29 28 26 27 25 33 34 38 35 36 30 25 22 25 29 30 31 25 22 21 29 28 22 18 13 19 17 23 32 29 42 34 38 40 40 42 39 32 22 14 12 13 15 13 10 9 10 10 12 13 12 24 56 73 67 52 37 42 33 25 21 25 38 52 58 55 43 28 15 6 5 6 6 24 96 196 250 213 116 32 3 1 1 1 0 0 1 1 2 3 7 10 14 16 19 23 28 32 33 33 33 34 32 28 23 19 19 21 21 20 18 18 17 15 14 13 14 15 14 13 10 8 7 5 7 5 6 8 8 11 10 12 11 8 7 4 5 7 9 8 9 13 14 15 13 15 17 21 25 28 29 29 28 28 28 28 27 26 27 27 26 24 21 18 17 16 17 16 15 14 11 10 10 9 8 6 5 4 4 4 6 7 8 10 8 9 6 10 9 9 8 10 9 10 8 8 6 6 5 6 9 12 16 15 14 12 10 10 7 8 7 6 7 8 9 10 12 12 12 9 6 3 0 
0 8 14 12 15 14 19 19 17 15 10 10 7 8 10 12 19 17 17 16 18 17 14 12 13 13 12 12 14 17 16 12 12 9 15 12 17 18 22 21 24 26 27 29 28 28 26 26 25 26 28 24 22 17 16 14 12 10 11 13 11 12 11 13 14 12 11 9 12 10 12 11 11 10 7 7 6 6 5 3 2 2 2 1 0 0 0 0 0 0 0 0 0 0 0 0 1 1 2 2 1 3 3 8 13 16 17 15 14 12 11 9 9 10 10 10 12 15 18 19 18 16 17 16 19 13 15 10 11 13 15 16 14 12 14 12 9 5 1 0 0 0 1 1 4 10 15 16 15 49 148 205 206 128 54 30 23 15 10 5 5 5 7 17 49 85 99 79 43 16 9 11 11 14 10 10 9 6 9 11 9 8 8 10 12 13 12 13 14 12 14 15 18 19 16 16 15 20 16 20 15 19 22 23 22 17 14 13 16 15 17 13 11 11 9 15 15 19 20 19 17 17 18 18 15 21 19 28 25 26 22 20 24 23 26 26 25 24 24 24 24 22 19 20 28 26 29 27 30 29 25 26 27 24 23 17 19 15 12 15 12 21 30 35 40 34 32 31 27 25 27 25 36 34 43 36 31 26 22 29 26 25 22 29 25 28 22 19 25 23 24 23 25 30 43 34 45 36 46 35 29 25 27 30 30 31 23 22 21 26 26 25 19 16 21 19 23 31 27 41 32 45 42 44 40 31 23 17 11 11 14 17 17 13 12 11 11 10 10 10 30 61 72 62 46 40 42 33 24 22 27 40 53 56 51 41 29 19 9 4 5 5 11 57 148 235 240 165 67 11 3 3 2 1 0 1 1 2 2 4 6 9 10 12 16 20 26 30 32 32 31 31 30 27 22 18 17 16 16 16 17 17 16 15 15 15 14 13 13 10 7 5 4 5 5 6 9 11 16 12 13 12 10 10 7 7 7 7 7 6 7 8 12 11 12 10 11 13 17 22 22 22 22 24 25 26 24 23 23 25 26 26 24 23 21 20 19 19 17 18 17 16 13 10 9 7 6 4 6 6 10 9 11 7 8 7 9 11 12 11 8 9 8 7 6 6 6 7 7 9 8 8 7 8 10 10 10 8 8 6 5 5 4 5 8 12 12 11 7 6 4 0 
0 10 15 11 12 13 19 20 20 16 10 9 7 8 13 15 18 18 19 20 20 22 19 16 15 14 13 13 13 14 13 10 15 16 21 20 23 23 24 23 24 27 33 35 34 35 29 25 16 13 16 15 18 18 20 19 14 12 12 14 13 11 8 9 14 11 13 8 11 8 9 7 8 8 6 5 3 3 3 3 2 2 2 2 1 0 0 0 0 0 0 0 0 0 0 0 1 1 1 2 1 2 3 6 10 15 20 18 20 15 14 12 10 10 10 10 11 15 18 20 20 19 21 20 20 14 11 9 11 11 10 12 13 14 15 12 8 3 1 1 1 1 1 1 2 8 11 14 13 26 113 187 214 163 77 38 25 16 10 6 5 5 5 9 32 69 97 94 61 27 12 10 11 11 11 10 10 7 6 6 5 5 6 13 13 15 11 15 18 14 15 17 19 17 15 19 18 22 16 20 17 19 20 21 22 19 17 14 12 12 11 12 11 11 9 12 16 22 20 19 17 13 12 12 14 20 19 31 24 29 25 23 22 24 27 24 21 18 19 17 17 20 25 27 33 29 34 32 34 30 25 21 23 21 21 14 17 14 16 21 16 24 30 34 43 36 36 35 34 30 30 24 35 34 40 35 29 30 26 28 29 28 23 29 27 30 24 19 22 19 23 16 16 18 30 28 36 27 32 28 24 20 20 30 28 27 20 19 22 24 24 22 20 20 22 19 21 27 24 33 28 40 41 41 32 26 23 16 10 9 13 15 17 16 13 13 11 9 9 13 41 68 69 57 37 42 40 32 25 24 33 42 53 52 45 38 29 23 12 6 5 6 8 31 102 201 251 207 111 27 5 6 4 3 1 2 2 2 2 3 3 5 5 6 7 11 16 21 25 26 27 27 28 27 24 20 19 17 16 15 15 14 14 13 16 18 18 16 14 12 9 6 7 7 8 8 9 10 12 12 14 14 11 10 8 9 10 10 10 9 7 7 8 9 11 9 9 9 8 8 8 9 12 15 17 17 14 13 14 17 18 20 20 22 22 21 18 19 18 21 19 18 17 14 14 13 12 10 10 9 12 12 11 8 6 5 6 7 5 6 5 7 6 6 5 7 7 8 6 7 8 9 10 8 9 8 8 8 7 8 7 7 6 8 9 11 10 10 9 8 4 0 
0 8 12 9 8 9 14 15 15 14 12 11 7 10 12 19 22 23 16 13 12 15 14 13 11 10 9 14 17 22 23 20 21 21 20 19 20 20 22 20 21 23 23 20 16 13 10 11 11 13 12 10 11 13 12 14 10 11 9 10 10 9 9 9 13 10 12 7 9 7 8 9 9 8 6 5 2 3 2 2 1 1 1 2 1 0 0 0 0 0 0 0 0 0 0 0 0 0 1 1 1 2 3 4 7 15 21 21 23 16 16 12 7 7 5 5 5 7 11 14 15 16 18 21 20 17 12 10 9 8 7 7 10 14 15 13 8 3 1 1 1 1 1 1 1 5 9 13 11 15 75 164 212 191 107 49 27 17 11 7 6 6 5 6 16 50 84 101 80 43 18 9 11 11 15 12 11 8 6 6 4 5 6 14 14 18 12 15 20 16 19 17 19 21 17 22 20 28 18 21 18 18 19 19 19 15 13 11 11 12 9 11 8 9 8 11 13 17 18 16 17 15 16 19 17 18 22 28 26 30 19 17 18 17 22 26 32 27 22 16 15 17 16 23 33 35 39 32 35 30 23 16 18 17 21 13 14 16 22 22 20 25 30 32 43 31 34 24 24 21 20 16 26 29 39 37 33 30 27 34 34 29 30 34 28 26 17 16 27 20 25 15 22 25 27 23 22 22 27 28 22 17 16 22 21 21 21 18 19 25 32 31 27 23 20 22 23 25 25 23 25 33 38 34 28 22 19 16 14 11 14 15 16 16 11 12 10 10 8 18 51 73 69 57 34 43 36 30 26 28 41 45 51 47 37 37 28 25 14 7 6 6 8 17 64 155 240 238 160 60 11 8 6 5 2 3 2 2 1 1 2 3 3 3 3 4 6 11 16 20 22 22 22 24 24 24 23 22 19 17 17 17 16 14 16 16 15 15 14 14 12 8 6 5 8 9 9 10 10 12 11 11 11 12 9 10 7 7 8 7 8 6 7 9 13 11 9 6 7 9 9 8 6 6 6 7 8 7 10 11 16 18 17 18 16 15 11 13 14 19 20 19 18 16 16 16 15 14 15 15 16 16 14 12 9 9 9 9 6 7 8 9 8 6 5 7 6 9 5 5 4 4 5 5 7 8 9 7 8 7 7 8 7 9 11 12 12 9 7 7 3 0 
0 7 11 9 8 10 11 12 14 13 12 9 8 11 10 17 15 15 11 11 10 15 14 14 14 15 18 23 22 23 21 20 23 26 29 30 26 21 17 13 13 13 16 20 21 19 16 11 11 10 12 9 7 10 11 15 9 10 11 11 11 8 10 10 13 11 10 9 9 11 9 8 7 6 4 4 3 2 2 2 1 1 1 1 1 1 0 0 0 0 0 0 0 0 0 0 0 0 0 1 1 1 2 2 6 14 20 20 19 16 18 16 10 8 5 4 4 4 6 9 10 10 12 18 18 16 11 9 10 8 9 9 11 13 13 11 7 4 2 1 1 1 1 1 1 2 6 11 11 12 41 134 201 208 142 63 31 17 11 8 7 5 6 6 9 33 65 95 93 62 30 10 11 11 12 15 12 11 7 5 4 6 6 15 14 18 14 15 21 18 22 18 17 17 16 27 18 23 14 17 13 11 10 11 13 15 18 18 15 13 9 12 10 11 9 13 14 14 16 14 14 16 16 20 21 22 23 24 28 25 22 21 20 21 32 31 31 32 26 22 13 14 15 20 28 33 34 30 29 23 16 8 11 13 16 13 14 14 20 20 24 24 32 37 43 32 36 20 22 17 16 12 19 22 38 33 32 25 30 34 35 44 43 45 34 27 20 20 33 23 28 16 22 20 19 20 15 19 22 25 22 23 20 21 21 20 19 21 22 26 28 26 23 24 20 21 20 23 22 18 20 26 32 30 25 19 19 18 16 13 10 12 12 11 10 11 9 11 8 27 63 78 74 53 35 41 31 28 27 32 49 49 48 39 30 33 26 23 14 8 7 7 10 10 36 106 206 250 205 106 27 7 6 5 3 4 3 2 0 1 1 1 2 2 2 2 2 5 10 15 19 19 18 18 18 18 20 21 20 18 19 20 18 15 13 15 15 16 16 17 15 11 10 8 11 10 9 7 6 10 9 11 7 9 8 10 8 8 10 8 9 6 7 7 7 6 8 8 10 9 7 8 6 6 6 7 10 9 12 8 9 9 9 12 11 12 10 11 12 13 14 12 13 13 14 15 16 16 15 16 16 17 14 13 11 12 13 13 13 12 12 12 12 11 9 11 8 9 6 5 3 4 4 6 7 6 8 6 6 7 8 9 10 9 11 10 11 9 8 9 6 0 
0 5 9 10 10 10 11 11 15 14 17 11 9 10 9 14 12 16 13 15 15 19 22 22 21 20 20 23 25 31 31 30 26 23 20 20 18 18 14 12 12 14 15 13 10 9 10 10 12 11 11 9 8 8 8 7 8 10 10 9 12 12 13 9 10 10 10 13 9 10 8 8 7 5 5 4 3 2 2 2 1 1 1 1 1 0 0 0 0 0 0 0 0 0 0 0 0 0 0 0 1 1 2 3 6 13 19 19 16 13 16 18 15 10 7 6 5 3 5 7 9 10 10 14 16 17 13 8 8 8 11 12 11 10 10 9 7 4 2 1 1 1 1 1 1 1 4 9 11 12 23 102 185 215 174 84 37 21 12 9 9 5 7 5 7 17 45 80 96 79 44 15 8 11 11 14 13 12 10 7 6 6 6 13 13 17 13 12 19 21 26 21 17 16 16 23 19 23 15 18 17 15 12 10 10 12 15 21 23 24 16 14 14 15 17 19 21 23 20 14 13 16 21 26 21 18 18 18 24 21 23 16 15 21 27 37 48 42 29 20 13 13 14 16 27 35 35 32 25 20 18 15 16 18 20 18 14 15 20 19 29 26 36 34 36 35 31 19 19 11 16 14 21 20 31 30 31 20 24 30 42 47 48 45 30 18 19 25 30 23 27 19 25 18 16 16 17 31 25 29 21 21 18 21 19 21 22 26 27 27 28 25 21 18 18 20 21 24 24 19 15 21 24 25 22 17 16 19 18 19 13 10 11 10 10 12 11 11 10 39 75 81 83 50 43 38 27 26 27 36 55 50 42 31 26 30 24 20 14 7 7 6 8 8 16 63 157 239 237 158 61 10 6 3 3 3 2 2 0 0 1 1 2 1 2 1 2 2 6 11 16 18 18 17 15 15 17 21 20 19 18 21 21 19 16 17 17 17 16 17 20 19 20 17 17 15 14 12 10 11 8 8 6 7 8 9 9 6 7 7 7 6 6 8 9 9 10 9 10 10 9 7 6 7 9 9 12 8 9 7 7 7 5 7 7 10 10 11 12 10 10 9 9 10 10 10 10 14 15 14 14 15 16 15 15 15 17 19 20 19 18 17 15 14 12 12 10 10 7 7 5 6 7 7 8 7 7 7 7 7 7 8 9 10 14 13 12 10 7 8 3 0 
0 7 11 10 11 9 10 8 12 12 13 10 9 9 8 13 12 18 19 20 19 19 19 17 18 19 20 25 28 30 28 24 20 20 21 26 20 18 11 10 10 12 13 13 13 11 11 10 11 15 13 13 12 7 8 5 6 9 12 12 11 10 12 9 9 7 9 10 9 11 7 7 6 5 5 4 3 2 2 3 2 2 1 1 1 0 0 0 0 0 0 0 0 0 0 0 0 0 0 0 0 1 2 4 6 12 18 17 14 11 15 18 16 13 10 7 6 2 5 6 8 8 8 12 13 14 11 8 9 12 14 13 10 8 7 7 5 3 2 1 1 1 1 1 1 2 3 6 9 11 14 65 160 209 196 111 46 25 15 10 9 6 6 4 6 8 27 60 90 91 62 30 10 10 10 11 11 11 10 8 6 6 6 11 11 12 11 9 16 20 27 22 17 12 16 19 19 18 14 15 13 10 9 8 8 12 15 24 26 27 21 15 16 17 19 20 19 20 19 18 18 20 20 19 18 17 16 17 18 19 20 16 15 20 25 38 38 38 32 22 15 11 13 14 20 27 26 26 21 17 12 11 15 17 24 21 20 15 20 24 40 42 52 47 44 37 28 22 17 9 14 11 15 18 30 31 29 25 30 30 50 47 59 48 31 22 21 23 28 28 27 23 26 22 20 24 26 33 28 34 25 29 24 24 19 20 21 23 24 23 22 15 15 14 16 15 23 26 25 22 16 21 19 22 18 15 13 18 18 19 12 8 11 12 13 11 9 7 13 52 85 87 87 50 47 34 23 24 28 40 57 50 36 23 22 27 24 19 13 9 7 6 6 6 8 32 105 206 250 203 107 25 6 3 3 3 3 1 0 0 1 2 2 2 1 1 1 1 4 6 11 14 17 17 15 15 17 22 23 23 22 28 32 36 36 35 33 32 30 28 30 31 31 26 23 19 18 16 15 14 11 9 7 6 9 8 10 8 9 7 6 6 7 8 8 11 11 13 11 10 7 7 8 8 10 9 11 9 9 6 5 5 4 6 7 9 11 10 11 9 9 9 10 9 8 9 8 9 9 11 11 11 14 13 13 13 16 19 22 22 22 20 18 18 18 17 14 13 10 10 8 9 11 12 12 12 10 9 9 9 9 10 10 9 10 10 9 9 7 9 4 0 
0 7 12 10 10 8 9 7 10 11 14 15 19 22 24 27 24 25 23 22 22 24 25 25 24 21 19 16 19 25 28 26 22 19 15 13 13 16 15 16 13 16 17 17 13 10 10 11 12 15 15 14 11 7 6 4 7 10 10 12 11 10 11 7 8 7 10 11 12 11 9 9 9 7 7 4 4 3 3 3 2 2 1 1 0 0 0 0 0 0 0 0 0 0 0 0 1 1 0 1 0 1 3 4 7 14 19 19 16 7 11 16 14 15 11 7 6 2 6 9 13 12 9 9 11 12 10 9 10 13 14 11 7 7 5 6 5 3 2 1 1 1 1 1 2 2 3 4 8 12 13 39 129 194 206 141 61 31 18 13 9 7 5 5 6 5 14 39 76 96 79 48 15 12 10 11 11 12 10 8 6 5 8 12 14 13 12 7 13 19 26 24 18 13 15 17 22 17 18 12 12 9 8 7 6 8 11 21 28 29 25 19 16 20 19 19 23 26 25 23 22 23 20 14 10 10 11 14 14 17 17 15 15 17 21 35 35 34 19 15 15 14 17 17 19 26 27 26 18 16 24 29 33 30 31 23 24 15 20 27 38 43 50 43 43 34 26 20 14 14 17 18 19 19 25 30 28 32 34 30 43 38 47 36 24 18 19 26 34 33 32 27 24 19 15 19 24 30 29 27 21 24 21 21 18 17 22 23 23 20 17 12 14 11 13 19 25 29 25 20 11 16 16 21 20 16 14 20 20 18 12 7 11 14 16 13 10 9 25 68 91 94 83 54 48 29 20 23 30 42 56 48 30 18 20 25 26 21 14 12 5 5 5 5 6 15 62 156 240 235 157 56 10 5 4 3 2 1 0 0 1 2 2 2 1 1 1 1 2 3 6 9 14 18 19 20 23 29 32 31 29 32 37 44 45 45 42 38 34 31 31 33 36 36 35 32 29 27 25 23 21 18 17 15 16 15 18 15 13 8 6 7 7 10 12 14 12 13 12 10 8 6 7 7 12 11 9 6 6 6 6 5 6 6 8 9 11 11 10 9 8 7 8 9 10 8 6 7 8 8 10 11 13 10 11 9 12 15 17 18 17 16 17 17 18 17 15 13 12 13 13 15 16 17 16 16 14 15 15 14 11 11 10 12 11 11 11 9 6 7 4 0 
0 9 14 9 8 10 12 14 16 17 17 17 19 20 20 21 23 26 26 24 19 15 15 13 11 10 13 15 21 23 20 22 19 16 17 14 16 16 15 17 16 19 19 17 16 13 13 12 13 14 14 13 11 9 8 7 8 11 9 10 8 7 9 7 7 6 8 11 13 10 9 8 9 8 8 4 6 4 4 3 2 2 0 0 0 0 0 0 0 0 0 0 0 0 0 1 1 1 1 1 0 0 3 3 5 12 20 20 19 8 10 13 11 13 11 8 8 3 6 7 10 9 8 9 10 11 10 9 11 11 11 8 5 5 5 6 5 3 2 1 1 1 1 1 2 2 3 3 7 12 14 25 97 175 208 167 82 37 21 15 11 9 6 5 8 6 8 23 57 92 94 70 33 14 9 11 10 13 13 12 10 10 11 13 12 11 12 11 15 18 22 22 18 16 13 15 21 17 22 11 12 9 10 11 11 10 11 13 24 26 27 27 20 18 15 13 13 14 15 19 21 24 21 13 6 8 9 12 11 11 14 11 11 13 16 24 22 23 16 16 17 15 16 14 19 17 18 16 15 19 19 22 24 24 27 21 20 15 18 32 47 60 60 46 40 28 24 23 18 18 15 17 23 25 26 33 26 37 31 32 31 31 34 29 26 18 23 26 28 35 29 27 20 16 20 21 26 28 27 24 25 25 21 18 19 14 16 16 16 16 15 13 14 12 15 23 30 30 22 18 13 18 19 21 21 23 19 20 19 16 11 9 18 19 18 12 7 8 32 77 90 97 74 61 47 27 18 23 33 43 53 45 28 16 19 23 27 22 15 13 6 5 5 5 6 8 34 106 209 249 201 100 23 5 5 3 3 1 0 0 1 2 2 2 2 1 1 0 2 2 4 6 11 15 19 20 23 28 33 35 35 34 36 39 43 43 41 38 36 32 30 28 29 29 29 28 27 26 24 24 24 22 22 21 21 23 25 24 22 17 15 14 15 13 11 11 11 9 9 7 8 6 8 7 8 8 8 7 7 7 8 7 8 6 7 8 10 11 10 9 9 9 9 9 8 9 7 8 9 9 9 8 11 8 10 7 8 9 10 13 14 15 15 14 14 14 12 11 11 13 15 16 16 17 17 18 19 20 20 18 14 14 12 14 14 13 12 12 10 9 4 0 
0 9 15 16 17 19 20 22 20 18 16 17 21 28 34 33 29 28 24 18 14 13 16 19 18 16 15 13 12 14 14 20 20 19 16 13 16 18 23 22 18 16 19 18 20 14 12 10 13 14 14 13 10 10 9 9 8 11 10 11 7 8 8 7 7 7 9 10 10 10 10 8 8 6 7 5 7 5 4 2 2 1 0 0 0 0 0 0 0 0 0 0 0 0 0 1 1 1 1 1 1 1 2 3 5 12 21 23 23 13 11 12 10 11 10 8 8 4 6 6 9 9 9 10 9 9 7 6 8 9 8 7 7 5 6 6 5 4 2 1 1 1 1 1 2 2 3 2 5 10 13 15 65 154 206 189 110 45 24 16 11 10 8 5 9 6 7 12 39 78 98 87 54 25 12 11 11 12 13 14 12 13 14 18 18 19 20 19 21 20 20 17 13 15 14 14 19 18 23 15 14 12 14 14 12 8 12 10 18 21 25 25 22 17 10 10 14 17 15 17 21 23 19 11 9 12 13 14 13 10 11 10 12 14 14 22 18 18 17 17 22 19 20 13 20 20 27 21 18 19 23 33 29 25 19 16 15 15 14 19 26 33 35 35 29 22 20 16 16 24 33 36 31 26 20 24 19 32 26 32 21 24 25 23 29 17 26 25 32 39 26 23 16 15 18 14 27 21 30 24 25 21 22 16 17 21 21 23 21 21 16 14 14 15 23 29 32 30 19 12 10 15 20 23 23 19 20 19 20 15 12 10 17 20 20 13 9 12 46 88 89 97 65 66 46 28 17 23 34 43 48 41 27 18 20 23 28 23 16 13 7 5 6 4 5 4 14 62 163 242 234 151 51 10 5 3 2 1 0 0 1 2 2 2 2 2 1 1 1 2 2 4 7 11 14 16 17 20 24 27 29 29 29 29 30 29 28 28 28 24 20 16 17 22 27 28 25 21 19 19 21 20 21 22 23 26 25 27 24 21 21 24 25 20 15 13 11 11 9 9 9 7 6 5 7 6 6 5 7 8 9 8 8 7 7 7 9 12 11 11 8 7 6 8 8 8 9 10 10 10 9 8 9 8 8 6 6 7 8 10 10 10 10 11 12 12 10 8 8 11 12 12 12 12 13 15 17 19 20 21 20 18 20 21 20 18 16 15 13 11 6 0 
0 15 22 20 19 20 22 26 28 26 18 13 12 13 15 15 17 17 20 18 14 10 10 14 11 13 12 13 13 13 12 18 20 21 15 14 18 22 20 16 20 17 19 16 16 13 16 14 13 13 11 11 12 14 13 12 11 13 11 11 7 8 7 6 6 5 7 7 8 7 6 7 7 6 5 7 7 5 4 1 1 0 0 0 0 0 0 0 0 0 0 0 0 0 0 1 1 1 1 1 1 1 2 3 3 7 18 24 25 18 12 13 12 10 9 7 7 7 8 8 9 8 8 9 10 9 6 6 7 7 7 7 8 7 7 5 5 4 2 1 1 1 1 2 2 2 3 2 3 6 11 14 42 129 196 203 141 59 29 18 12 10 8 6 8 6 6 6 22 57 89 98 75 40 17 11 15 17 21 19 15 17 16 17 19 20 21 25 27 25 20 15 12 14 13 11 15 15 18 13 13 11 14 16 15 12 12 10 13 14 19 21 19 14 9 9 11 12 13 11 13 18 17 14 12 13 13 12 11 12 12 10 9 11 11 13 14 14 17 20 24 17 15 10 16 17 18 14 16 16 17 16 15 19 18 14 12 12 14 24 33 39 35 25 19 15 17 18 23 27 27 29 32 30 24 24 21 23 22 25 17 18 19 23 30 23 29 23 31 30 25 22 15 14 19 13 29 21 36 21 28 19 17 17 18 25 27 34 26 21 14 14 15 21 29 32 28 19 11 12 15 21 25 24 26 18 20 15 17 13 13 14 21 22 19 12 12 17 58 95 91 95 60 70 46 28 16 23 33 40 43 38 27 20 21 24 29 26 18 13 8 5 6 4 3 2 6 32 114 215 248 196 93 21 5 3 1 1 0 0 1 2 2 2 2 2 1 1 1 1 1 2 3 5 6 6 6 7 10 13 16 17 16 14 14 14 15 18 17 16 14 12 11 11 14 14 14 12 12 12 13 13 14 16 16 19 22 25 26 26 28 28 28 24 17 14 13 15 14 14 13 13 11 8 6 6 7 6 8 8 9 8 7 6 4 6 8 12 12 12 10 11 8 9 7 7 8 9 10 10 8 9 8 7 6 4 4 6 8 10 9 8 6 5 7 8 8 7 6 7 7 8 8 7 9 10 12 14 15 17 18 19 20 21 21 20 20 21 21 19 10 0 
0 11 21 22 26 24 28 30 27 23 16 10 8 11 15 15 16 14 21 15 14 11 12 18 17 15 13 11 10 7 10 18 23 22 18 15 16 17 20 18 16 14 14 15 16 12 13 11 13 12 12 14 13 13 12 11 11 11 11 9 7 6 6 5 5 5 5 5 4 4 5 5 4 3 3 4 5 3 2 1 0 0 0 0 0 0 0 0 0 0 0 0 0 0 0 1 1 1 1 1 2 2 2 3 3 6 18 24 28 21 12 13 14 14 12 8 6 6 7 8 10 8 8 8 7 6 6 4 6 6 8 8 11 9 8 6 5 4 2 1 1 1 1 1 2 1 1 1 2 3 8 11 23 102 179 209 170 81 37 20 13 11 9 6 6 5 4 4 11 34 71 98 94 64 34 16 18 16 17 17 14 14 14 16 18 25 26 32 31 28 22 12 9 12 13 9 9 10 12 11 10 11 12 15 14 12 12 10 12 10 11 14 14 12 9 8 12 15 18 19 19 19 16 17 16 17 19 18 15 13 11 11 9 8 10 11 12 13 18 20 21 19 15 12 12 15 17 17 17 15 16 17 17 16 13 12 13 13 12 12 13 16 20 16 17 12 17 18 19 29 40 46 34 27 24 25 24 26 23 23 23 23 20 25 24 27 26 27 29 28 22 18 12 14 16 15 26 22 35 21 29 18 16 16 19 29 30 35 30 22 14 14 18 30 33 33 26 17 15 16 19 24 24 19 19 14 16 13 14 14 14 18 20 20 18 13 13 25 71 99 95 91 60 71 47 29 17 21 31 36 38 34 27 20 20 25 31 30 21 14 9 5 4 3 2 2 4 15 70 170 245 229 140 45 6 3 1 1 0 1 1 2 2 2 2 2 1 0 0 0 1 1 1 1 1 2 1 1 1 3 7 11 12 13 13 15 17 18 17 18 17 16 15 14 15 13 13 8 7 7 6 7 7 9 10 10 14 15 24 21 26 27 28 24 17 15 16 18 18 18 17 17 15 16 13 15 12 11 11 12 13 11 10 8 5 6 6 9 12 14 13 14 10 11 7 7 9 11 11 11 8 10 8 8 6 4 4 5 6 7 6 5 4 4 5 7 6 5 5 5 5 4 4 4 6 7 9 8 10 14 17 18 18 19 18 17 19 21 24 24 15 0 
0 16 24 18 18 15 20 20 22 19 13 8 5 6 9 13 13 9 16 13 14 8 13 14 18 12 15 10 11 8 9 14 21 21 18 13 14 17 17 16 14 15 14 13 13 12 16 11 14 14 14 14 12 13 11 11 11 13 12 9 6 5 5 6 6 5 3 3 3 4 5 6 5 3 2 3 3 2 1 1 0 0 0 0 0 0 0 0 0 0 0 0 0 0 0 1 1 0 0 1 2 1 1 3 4 5 17 25 29 22 13 14 15 15 16 13 9 9 9 10 12 9 8 7 6 6 5 5 7 8 9 10 12 10 8 5 4 3 2 1 1 1 1 1 1 0 1 1 1 1 5 8 12 72 157 208 191 108 48 23 14 11 9 7 5 4 3 4 6 18 49 85 102 85 51 28 20 22 16 15 12 11 11 14 16 27 25 32 32 28 24 12 10 10 9 9 10 7 9 6 7 9 9 12 13 12 13 10 8 7 7 8 9 10 7 5 9 14 19 19 17 18 18 21 21 20 19 17 17 18 13 12 8 7 5 6 8 9 13 17 18 15 11 10 11 15 16 15 14 14 15 15 17 16 21 15 14 11 13 15 18 21 22 18 19 15 15 17 25 32 29 28 25 26 20 27 25 28 21 27 24 29 21 29 22 33 26 32 29 35 28 25 17 17 13 15 18 20 23 19 21 15 14 17 17 29 32 32 28 17 15 14 18 26 31 34 27 19 20 20 28 27 29 25 17 13 13 12 12 15 14 15 17 18 17 17 15 35 79 102 98 85 67 71 47 29 18 19 27 33 34 31 25 19 16 23 32 34 26 16 9 5 3 2 1 2 4 8 40 122 222 246 182 79 13 3 2 1 0 1 1 2 2 2 2 2 0 0 0 0 0 0 0 1 1 2 1 1 1 2 4 6 8 9 10 13 16 17 18 16 18 18 17 15 16 15 15 10 9 9 7 7 9 9 11 10 10 10 17 15 20 16 17 17 15 16 17 16 17 18 17 18 17 20 18 21 18 20 16 16 18 16 14 11 9 8 5 6 8 9 10 14 12 13 8 6 6 6 7 8 6 7 6 7 6 4 4 5 6 6 5 4 2 2 3 6 8 8 6 4 3 3 4 5 7 9 9 8 6 7 9 12 11 11 10 12 15 16 20 22 14 0 
0 10 16 13 14 13 18 17 18 15 13 10 7 7 8 9 9 9 14 12 15 10 13 12 18 12 17 12 13 8 8 11 18 23 22 18 12 12 13 17 12 10 9 10 14 11 14 9 13 12 13 14 10 10 8 12 9 10 9 8 6 6 6 8 6 5 2 2 3 3 4 5 4 2 1 1 1 1 1 1 0 0 0 0 0 0 0 0 0 0 0 0 0 0 0 1 1 0 0 1 1 1 1 3 4 5 17 25 28 22 10 10 13 14 15 15 14 14 11 9 13 10 8 6 5 6 7 7 8 9 10 10 10 10 9 5 4 3 2 1 1 1 1 1 0 0 0 0 1 1 4 8 10 46 130 198 205 137 61 26 15 12 10 9 6 3 1 3 4 9 31 66 96 99 71 47 21 20 12 10 11 11 11 14 13 25 25 28 31 24 23 12 10 10 10 8 10 7 10 6 10 9 11 10 12 12 12 12 12 9 8 11 10 10 8 6 8 12 18 20 19 17 16 18 18 17 20 20 20 18 13 15 13 14 13 12 12 11 12 13 12 13 11 10 11 10 12 13 15 17 19 19 25 18 24 17 19 13 11 9 15 16 19 21 17 15 16 18 20 23 27 28 25 23 23 27 26 26 23 29 25 39 26 31 20 29 23 28 21 26 21 22 15 16 13 15 12 16 15 19 19 18 15 21 18 22 20 23 24 13 18 14 24 30 35 36 32 27 31 29 32 26 24 20 17 19 16 13 12 12 14 15 15 18 18 22 16 50 86 101 94 76 72 71 48 29 16 16 24 30 33 29 25 18 14 20 33 38 32 19 10 6 3 2 2 2 4 5 20 81 186 246 216 119 31 5 4 1 1 1 2 2 2 2 2 1 0 0 0 0 0 0 0 0 0 1 2 1 1 2 3 5 6 6 7 9 13 16 15 13 17 19 20 17 18 17 17 13 11 12 9 9 9 9 9 9 11 12 13 13 13 12 11 12 12 13 13 14 14 14 14 16 18 21 21 25 21 21 20 22 24 22 21 18 16 14 13 13 12 13 14 13 11 10 8 7 7 7 7 7 5 6 6 8 7 7 6 5 5 4 5 4 3 3 2 4 4 4 4 4 4 3 4 4 8 12 10 9 5 6 5 9 8 8 7 7 9 9 13 15 10 0 
0 13 16 12 7 7 9 8 10 8 7 6 5 7 10 15 11 9 10 11 11 9 11 12 15 14 15 14 15 12 13 12 15 20 22 19 13 12 10 12 10 11 10 8 11 10 13 10 12 13 15 13 8 12 7 12 9 13 11 8 5 6 6 9 6 5 2 2 2 3 3 4 3 2 0 0 1 1 1 1 1 0 0 0 0 0 0 0 0 0 0 0 0 0 0 1 1 0 0 1 1 1 1 3 3 5 15 24 26 22 10 10 11 12 14 16 16 16 13 10 9 8 8 7 6 8 8 7 9 9 9 10 10 9 8 6 4 3 2 1 1 1 1 1 0 0 0 0 0 1 3 8 10 27 101 181 213 167 81 30 17 12 11 10 7 4 2 4 4 5 16 44 77 100 87 61 29 15 10 9 12 12 13 12 12 19 21 21 25 20 20 14 10 8 11 8 13 9 13 8 13 10 15 12 10 11 11 11 10 9 9 11 10 8 6 6 8 10 15 16 14 12 11 15 18 18 23 23 23 22 18 22 19 18 15 12 10 9 10 13 13 13 11 11 15 17 19 16 14 16 22 18 27 19 28 21 19 17 18 15 22 19 26 19 20 19 14 15 19 23 22 22 19 22 19 20 24 25 24 25 27 36 26 29 22 27 22 26 21 30 25 26 18 16 11 11 9 11 13 18 19 23 19 29 20 24 18 14 19 10 19 15 22 24 30 35 37 38 35 31 30 27 22 21 17 15 12 12 10 10 10 9 10 19 20 27 20 60 90 96 88 67 77 72 49 28 14 14 21 28 32 30 27 20 16 17 33 39 38 23 11 7 3 3 2 2 4 4 9 51 144 232 240 163 64 10 4 2 1 1 1 1 2 2 1 1 0 0 0 0 0 0 0 0 0 1 1 1 2 2 3 5 5 6 7 10 13 15 14 11 12 14 18 17 18 17 17 15 13 13 11 12 9 9 10 10 10 10 9 10 8 9 8 10 11 14 12 11 9 11 11 11 13 16 16 18 16 17 17 20 21 21 19 16 16 17 20 22 21 19 14 13 14 13 13 12 10 9 7 8 8 6 5 7 7 7 7 5 5 5 7 7 5 4 4 6 7 7 5 4 4 3 4 5 9 12 12 11 6 5 5 7 6 6 6 5 7 6 6 7 4 0 
0 10 12 12 6 6 6 6 8 7 7 7 8 11 10 11 11 13 12 13 13 15 11 14 12 17 16 15 13 12 12 11 14 21 24 21 15 11 10 10 11 9 9 7 8 8 11 11 12 11 10 12 8 12 8 12 9 10 9 8 7 6 7 7 6 4 2 2 2 2 3 3 2 1 0 0 0 1 1 1 1 0 0 0 0 0 0 0 0 0 0 0 0 0 0 1 1 0 0 1 1 1 1 2 3 4 11 19 22 19 11 10 10 10 9 12 15 18 17 14 11 9 7 6 6 8 11 9 8 8 8 10 7 9 8 6 4 4 3 2 1 1 1 1 0 0 0 0 0 0 2 10 10 17 71 156 212 192 111 43 20 13 12 11 8 5 3 3 3 4 10 25 54 88 97 78 47 19 14 13 14 14 17 13 14 17 19 18 17 17 16 14 12 8 12 8 13 10 13 8 9 9 11 10 9 10 9 11 10 11 10 11 10 8 8 8 9 10 13 15 14 10 8 9 13 12 20 22 26 28 20 21 19 19 17 14 12 11 10 11 11 14 18 17 19 17 19 19 19 16 23 17 28 17 24 19 22 19 17 17 24 18 26 16 17 12 11 14 15 15 16 20 18 26 20 23 19 19 20 22 24 27 27 23 20 21 19 21 15 22 17 18 14 13 10 11 11 12 17 24 26 35 24 38 23 26 21 17 21 14 18 20 23 28 29 31 29 30 37 44 32 23 15 15 15 16 12 10 8 7 7 9 13 21 20 25 24 70 96 92 82 61 81 72 48 27 14 12 18 26 30 31 31 23 21 14 33 39 42 28 13 7 4 3 2 2 3 3 6 30 100 201 250 205 110 27 4 3 1 1 1 1 1 1 1 0 0 0 0 0 0 0 0 0 0 0 1 1 1 2 3 4 5 6 7 9 11 14 14 11 11 11 14 15 15 16 17 16 15 14 11 11 8 8 8 9 10 12 11 10 11 12 15 13 12 14 10 10 10 12 13 14 11 10 10 9 9 11 12 15 16 16 14 13 13 16 20 23 23 20 17 13 12 12 14 16 15 14 13 13 15 13 13 8 9 8 9 6 7 7 7 7 6 5 4 4 4 4 4 3 4 4 5 6 9 10 12 8 6 5 6 8 10 9 9 8 6 5 4 5 3 0 
0 10 11 10 6 4 6 5 6 6 6 8 9 13 12 15 12 12 10 10 10 13 10 13 10 16 17 16 15 14 14 12 13 17 23 22 17 14 12 11 11 10 10 7 7 10 13 14 11 13 9 13 11 16 11 12 10 10 8 7 4 6 6 6 5 2 2 2 2 2 2 2 1 1 0 0 0 0 1 2 1 1 0 0 0 0 0 0 0 0 0 0 0 0 0 1 1 0 0 1 1 1 1 2 2 3 7 15 20 19 16 17 19 19 12 9 12 16 15 14 11 9 7 5 5 7 9 10 9 10 8 10 9 10 8 7 5 5 4 2 1 1 1 1 0 0 0 0 0 0 2 9 10 13 40 124 201 208 145 60 23 15 12 11 9 6 4 3 3 4 6 12 33 68 95 94 67 36 17 15 16 16 18 18 14 12 13 15 13 17 17 18 15 10 10 7 12 10 12 9 8 8 10 13 14 12 9 8 9 10 11 10 8 8 8 9 9 11 13 16 15 10 7 8 11 11 19 20 21 21 19 23 20 17 14 12 13 14 15 15 13 12 13 14 18 19 19 18 17 13 20 14 21 13 20 16 17 18 22 20 22 19 23 17 17 15 14 13 16 18 22 22 18 23 13 16 17 18 20 16 16 18 19 17 20 19 16 20 17 24 20 20 17 15 11 14 13 16 19 31 31 42 27 34 22 23 21 24 28 25 18 19 19 23 21 22 27 34 29 28 24 23 16 14 12 12 11 9 9 6 8 11 18 22 20 19 29 74 100 85 76 61 84 71 46 25 13 11 15 22 28 31 33 27 23 12 25 35 42 32 16 8 5 3 2 1 2 3 5 15 61 156 239 236 159 57 8 2 1 1 1 1 1 1 1 0 0 0 0 0 0 0 0 0 0 0 0 0 1 1 2 2 3 4 6 8 10 14 16 13 10 6 10 12 12 13 16 16 17 16 12 11 8 7 7 7 10 10 11 10 10 11 14 12 14 11 9 10 12 17 18 14 11 9 8 8 6 6 6 9 9 10 9 10 10 12 16 23 27 22 17 12 11 11 13 16 16 16 15 16 20 19 20 16 15 14 15 14 13 13 13 11 9 7 7 7 8 6 5 3 5 5 4 5 8 8 11 7 7 5 6 5 6 7 8 8 7 6 4 6 2 0 
0 8 12 11 8 5 6 7 9 8 9 11 11 16 11 15 12 15 14 12 13 12 12 15 15 17 16 12 14 11 13 12 13 16 20 20 17 14 14 14 12 10 8 8 11 11 15 17 14 14 9 16 12 17 13 13 9 7 5 6 4 7 5 4 3 2 3 3 3 3 3 2 2 1 0 0 0 1 2 2 1 1 0 0 0 0 0 0 0 0 0 0 0 0 0 1 1 0 0 1 1 1 1 1 1 2 4 12 17 19 17 17 17 18 13 12 10 14 15 15 12 11 9 6 6 8 9 8 7 7 8 8 8 7 7 5 5 4 4 2 2 1 1 1 0 0 0 0 0 0 2 7 9 11 21 91 182 215 177 85 29 18 13 11 9 6 4 3 3 4 5 7 18 46 81 101 87 57 27 14 14 15 18 18 19 17 15 15 13 16 20 20 17 10 9 6 9 10 10 7 5 7 10 11 11 10 8 7 9 11 11 9 8 10 10 10 10 10 15 16 16 12 8 9 10 10 12 15 17 18 14 12 10 10 13 15 18 19 18 15 14 13 16 18 16 15 16 15 15 11 16 13 19 12 14 10 12 16 15 16 16 15 16 14 14 10 13 14 22 17 19 19 18 24 19 22 19 16 14 12 12 12 16 18 21 20 15 18 15 18 13 13 14 14 15 19 20 24 26 37 33 42 27 29 20 18 24 36 32 33 22 24 21 21 20 21 20 25 27 33 26 17 12 12 10 11 12 11 11 6 9 14 21 24 21 15 40 78 103 82 76 67 86 69 43 23 13 10 12 19 26 31 33 29 23 13 17 31 39 35 20 8 6 3 2 1 2 2 5 8 34 107 208 249 202 100 21 2 1 1 1 2 2 1 1 0 0 0 0 0 0 0 0 0 0 0 0 0 0 1 2 3 2 3 3 4 6 12 16 14 11 3 5 8 10 11 14 16 18 17 12 10 7 7 8 9 12 13 14 14 13 14 15 13 14 10 10 9 12 17 17 14 10 7 7 7 7 7 5 5 4 6 7 9 8 10 10 12 14 15 12 9 7 9 9 13 14 17 17 17 19 19 20 19 18 18 19 19 17 15 12 11 8 7 7 6 6 7 9 9 7 6 5 4 7 8 12 10 11 9 9 8 8 9 10 8 5 4 2 6 3 0 
0 6 10 8 7 7 8 10 12 11 11 10 10 13 12 15 11 12 10 11 12 12 16 14 15 13 18 13 17 11 12 8 8 16 20 21 20 18 19 17 14 12 9 9 9 11 12 14 13 11 10 13 14 20 13 12 7 7 6 6 4 6 5 4 2 1 2 3 3 2 2 2 1 1 1 1 1 1 2 2 1 0 0 0 0 0 0 0 0 0 0 0 0 0 0 1 1 0 0 1 1 1 1 1 2 2 3 10 15 19 16 19 19 21 15 15 13 15 13 11 10 10 10 9 9 10 10 9 8 8 8 6 7 6 7 6 6 5 4 2 2 2 1 0 0 0 0 0 0 0 2 4 8 8 8 56 156 213 200 115 38 21 14 11 9 7 4 3 3 3 3 4 9 28 60 93 99 75 43 16 12 11 20 20 19 15 11 11 12 15 20 20 20 11 10 7 8 10 11 11 9 11 12 15 14 11 9 8 11 12 12 9 10 10 11 11 12 11 17 16 16 11 7 7 9 10 12 11 11 12 15 16 15 13 14 17 21 22 24 20 16 13 11 13 14 15 15 14 14 11 12 12 16 15 14 15 13 15 16 16 13 14 19 17 20 15 19 17 22 21 22 20 19 25 21 23 19 22 18 15 13 14 23 21 23 17 13 16 13 17 13 13 15 14 17 20 21 24 23 33 35 46 29 24 14 17 22 37 37 42 22 20 19 19 18 21 21 24 18 15 16 14 12 11 10 16 15 14 13 8 10 15 23 25 24 18 52 84 104 80 76 74 89 68 40 22 13 9 10 16 24 30 31 29 23 15 13 27 37 37 24 9 6 3 1 2 2 3 5 6 14 65 162 243 233 148 50 6 3 3 2 3 2 2 1 1 0 0 0 0 0 0 0 0 0 0 0 0 0 1 1 2 2 3 2 3 4 10 16 17 12 5 5 8 10 12 14 16 17 18 14 13 9 7 7 9 11 14 14 15 12 11 11 11 14 10 10 8 10 13 14 11 8 6 8 10 8 8 7 7 5 7 8 13 10 10 10 14 17 15 11 9 5 6 6 12 13 15 15 12 13 14 18 19 18 17 18 19 19 20 15 13 9 9 8 9 11 11 11 11 10 9 7 7 10 13 16 15 13 11 9 7 6 6 7 5 5 3 4 6 3 0 
0 6 10 9 8 8 10 13 15 14 14 12 10 9 10 12 12 16 17 16 15 15 18 17 19 13 16 11 17 14 16 12 11 13 19 24 27 24 20 17 13 11 8 12 10 10 11 15 13 11 10 12 14 14 10 10 7 8 6 6 4 5 4 3 2 1 2 2 3 3 2 1 1 1 1 1 2 2 2 1 1 0 0 0 0 0 0 0 0 0 0 0 0 0 0 1 1 0 0 1 1 1 1 2 2 2 2 9 13 17 13 13 12 20 17 18 15 13 12 8 9 9 10 9 10 12 10 8 5 5 6 7 6 6 6 5 4 4 3 2 2 2 2 1 0 0 0 0 0 0 2 4 6 7 5 29 125 202 212 145 54 25 16 12 9 7 5 3 3 3 3 3 5 15 39 74 98 91 60 28 14 11 13 17 18 16 11 9 10 12 17 16 18 13 11 9 8 11 10 13 10 16 13 15 9 7 7 9 12 13 12 10 11 12 16 12 16 14 18 13 13 8 7 7 9 9 9 11 13 13 14 12 11 11 14 16 18 19 21 20 18 15 15 18 20 20 17 14 12 10 12 12 14 19 18 19 14 14 16 17 15 12 14 13 17 13 17 21 22 20 16 19 22 28 27 30 24 19 13 13 15 19 29 24 26 17 18 19 16 14 10 11 12 12 15 21 22 28 22 31 26 28 22 21 16 21 21 33 30 32 26 23 22 22 21 20 20 19 17 17 20 18 17 13 11 12 12 14 12 10 11 16 25 25 24 25 63 94 100 78 74 80 89 65 38 22 12 7 9 14 21 27 28 27 25 18 14 23 35 38 27 11 6 4 1 2 2 4 4 7 7 36 113 216 249 191 90 18 5 6 3 4 2 3 1 1 0 0 0 0 0 0 0 0 0 0 0 0 0 1 1 2 2 2 2 2 3 7 13 17 17 14 9 10 9 10 11 14 16 17 16 15 12 11 8 9 10 14 15 15 14 14 13 11 12 11 11 10 9 11 11 8 8 7 8 7 8 9 8 7 6 8 9 9 8 10 12 15 14 12 9 9 7 8 6 9 12 12 14 9 9 8 13 13 14 11 12 15 15 15 14 16 13 9 8 8 9 11 13 13 11 10 9 9 10 13 15 15 14 14 11 9 9 8 10 6 7 5 6 7 5 0 
0 5 9 11 11 12 14 17 18 18 14 12 10 11 11 10 11 11 12 15 15 19 20 20 18 13 13 13 16 15 15 9 10 15 20 25 31 31 27 20 12 14 10 11 10 13 11 13 11 11 7 8 10 11 10 8 8 8 7 7 4 4 3 2 1 1 1 2 2 2 2 1 1 1 1 1 1 1 1 1 0 0 0 0 0 0 0 0 0 0 0 0 0 0 0 1 1 0 0 1 1 1 1 2 2 3 3 6 10 13 13 11 10 18 18 20 18 13 12 7 10 10 11 10 12 14 12 9 6 5 5 6 5 5 6 6 6 4 2 1 2 2 1 1 0 0 0 0 0 0 1 3 5 7 6 15 95 187 216 170 74 29 18 12 10 8 7 4 4 3 3 2 5 8 22 52 84 98 81 49 22 13 14 16 16 17 11 8 9 10 13 12 14 13 11 10 9 14 14 19 13 20 15 15 9 8 8 11 12 13 12 11 14 12 16 13 19 14 17 12 14 10 11 11 12 12 14 14 15 16 18 17 16 13 14 14 15 15 16 18 16 14 13 15 19 21 18 17 17 14 13 14 15 22 23 24 20 19 19 19 16 15 16 15 17 13 16 18 19 24 22 24 23 22 25 23 19 20 18 20 21 28 30 26 23 17 20 18 18 16 16 14 12 13 14 17 14 21 14 23 21 30 27 23 23 24 20 23 24 24 23 17 18 18 18 17 17 15 13 14 17 17 15 12 14 16 18 16 13 13 12 16 26 25 25 37 73 100 91 72 70 85 87 62 36 21 11 7 8 10 18 24 25 25 25 20 17 22 34 38 29 13 8 6 3 3 3 5 5 6 5 17 72 175 248 224 135 40 7 8 4 4 3 3 1 2 0 0 0 0 0 0 0 0 0 0 0 0 0 1 1 2 1 1 1 2 2 5 10 15 16 16 12 12 11 12 13 13 13 13 13 14 14 15 13 13 9 9 11 12 13 12 12 12 13 13 12 14 8 9 8 9 9 7 8 10 13 14 15 12 10 8 9 9 8 10 13 17 16 16 13 11 8 8 10 11 13 11 11 7 9 9 15 14 14 7 7 9 12 16 16 15 14 11 10 9 11 11 9 9 8 8 9 9 11 14 16 15 13 13 13 12 10 9 10 9 10 9 11 11 7 0 
0 9 12 16 13 14 13 16 16 18 13 15 12 12 11 9 9 13 14 15 14 16 19 18 19 15 13 12 17 19 20 14 13 16 19 30 32 32 26 20 13 10 11 13 14 13 12 14 11 9 5 7 7 8 7 7 7 7 6 6 4 4 2 2 1 1 1 1 2 2 1 1 1 1 1 1 1 1 1 0 0 0 0 0 0 0 0 0 0 0 0 0 0 0 0 1 1 0 0 1 1 1 1 1 2 3 3 5 8 11 11 10 9 15 19 20 17 10 10 7 11 11 12 10 10 11 10 7 5 4 6 8 8 6 7 6 5 4 1 1 1 2 2 1 0 0 0 0 0 0 0 2 5 6 8 10 66 167 212 186 96 32 21 13 10 9 9 6 5 3 4 3 4 6 13 32 64 94 98 72 44 19 17 16 17 18 17 13 10 10 9 10 10 10 10 9 11 15 16 22 16 17 15 14 12 11 9 12 11 13 14 14 18 16 20 18 20 15 13 9 9 9 10 10 9 7 10 13 15 15 15 13 14 10 10 9 9 14 14 16 13 11 12 16 18 19 17 18 19 19 16 15 17 22 28 28 26 20 19 22 18 16 15 14 15 12 15 20 17 20 19 19 20 18 22 23 19 16 12 15 20 26 25 24 18 18 20 18 18 13 12 14 14 18 16 17 14 18 14 20 15 15 13 15 21 22 19 13 19 19 22 19 17 17 14 15 19 17 14 13 15 18 19 15 13 12 13 12 11 10 12 18 27 26 28 48 83 103 82 68 69 89 84 58 34 19 11 8 7 7 15 21 24 25 24 21 18 21 33 37 30 15 9 8 5 4 3 6 5 5 6 8 42 130 227 246 179 76 13 8 4 3 2 4 2 2 0 0 0 0 0 0 0 0 0 0 0 0 0 1 2 2 1 1 1 1 1 2 5 10 14 16 15 12 10 9 10 10 10 9 10 10 11 13 13 13 10 8 10 10 13 12 11 11 9 15 15 18 13 14 10 8 8 8 8 9 10 11 12 9 8 8 10 9 9 13 13 16 14 11 9 9 9 8 8 7 8 9 9 6 6 8 13 13 14 8 9 8 10 11 12 15 17 13 12 7 7 7 5 5 5 6 8 9 9 9 8 8 10 11 12 14 14 15 14 12 11 11 12 12 7 0 
0 10 16 21 17 20 13 16 14 16 12 17 14 16 13 13 10 8 8 11 16 13 19 17 20 15 13 11 15 17 17 14 14 16 19 23 22 29 26 22 19 14 16 14 16 15 14 15 10 10 5 5 3 6 7 10 8 7 7 6 4 3 1 1 1 1 1 1 2 2 2 1 1 1 1 0 0 0 1 1 0 0 0 0 0 0 0 0 0 0 0 0 0 0 0 1 1 0 0 1 1 1 1 1 1 3 3 4 5 9 10 10 8 11 16 18 14 8 7 7 11 12 14 15 13 11 9 7 7 7 9 9 8 6 6 7 5 4 2 1 1 1 1 1 0 0 0 0 0 0 1 1 4 6 10 10 45 149 206 196 115 36 24 15 10 9 10 6 5 3 3 3 4 5 7 17 42 78 102 92 64 33 21 19 20 19 20 19 15 13 9 8 9 9 10 10 12 14 17 19 18 16 17 15 16 15 14 15 8 10 16 17 22 19 18 18 14 13 9 10 10 13 14 12 10 9 12 18 17 17 13 13 13 10 10 12 11 13 12 12 12 9 10 13 15 16 15 21 21 25 20 20 20 19 22 25 29 29 26 23 18 17 16 14 14 15 13 16 14 19 19 19 14 11 13 15 16 16 17 17 20 22 21 19 16 16 14 12 10 13 14 18 20 22 22 18 15 18 19 22 19 18 19 22 25 25 24 19 22 18 18 13 12 12 14 16 16 13 13 11 13 13 13 14 15 16 16 13 10 6 11 17 26 28 36 64 96 102 75 65 71 91 80 52 31 17 11 9 7 6 11 18 23 26 25 22 18 19 31 37 32 19 11 10 6 4 4 7 6 6 7 6 19 85 190 250 214 116 29 6 4 2 2 3 1 1 0 0 0 0 0 0 0 0 0 0 0 0 1 2 2 2 1 1 1 1 1 2 3 5 6 11 14 12 12 9 11 11 10 8 7 6 8 12 15 13 12 7 9 10 11 9 7 7 6 12 13 17 14 11 10 8 7 7 8 9 12 16 16 14 12 12 11 14 12 13 11 11 11 11 11 9 11 13 13 12 11 10 10 8 7 9 13 16 17 11 8 9 9 12 10 10 13 12 13 11 10 8 6 4 4 5 7 7 9 10 10 8 8 9 11 12 12 13 13 14 12 11 10 11 7 0 
0 11 16 20 17 18 12 14 11 15 11 15 13 16 15 13 11 10 10 11 12 11 15 15 19 13 13 12 16 19 18 13 13 12 15 17 16 21 24 25 22 15 14 13 13 13 11 16 10 10 5 4 5 7 8 11 8 7 5 5 4 3 2 2 1 1 1 1 2 2 2 1 1 1 0 0 0 0 0 1 0 0 0 0 0 0 0 0 0 0 0 0 0 0 0 1 1 0 0 1 1 1 1 1 1 3 4 5 4 6 9 9 8 9 13 15 12 7 5 6 7 11 14 16 17 14 10 7 7 8 9 11 10 9 7 5 4 3 2 2 2 2 2 2 1 0 0 0 0 0 1 1 3 5 9 10 30 132 200 203 133 42 27 18 12 10 10 7 5 2 3 3 3 3 4 7 22 54 89 103 85 54 28 19 22 20 20 21 19 14 10 7 6 8 11 10 10 12 15 15 12 11 16 17 21 18 16 13 9 9 16 19 22 22 18 22 18 15 9 11 9 13 13 14 13 11 11 17 17 19 13 12 10 10 9 11 11 13 14 11 10 10 12 14 16 18 15 24 21 25 20 18 17 16 19 22 27 27 23 21 18 17 16 15 13 17 15 16 15 18 17 17 10 9 12 16 22 17 15 13 16 19 20 16 14 12 11 10 8 7 9 11 17 22 26 19 16 14 19 20 18 15 17 21 24 21 18 17 21 19 17 14 13 11 11 15 17 15 11 8 9 11 15 15 13 13 11 9 7 4 9 15 24 30 49 84 107 97 69 63 78 92 75 46 28 15 12 10 8 6 8 15 21 26 26 24 18 16 29 37 35 24 11 9 5 4 3 6 5 6 7 6 11 50 146 236 240 161 59 8 5 3 4 4 2 1 0 0 0 0 0 0 0 0 0 0 0 0 1 2 2 2 1 1 1 1 1 3 3 5 3 7 12 14 14 10 9 9 12 12 11 9 6 7 11 9 10 7 10 12 11 10 5 5 7 11 14 16 15 12 10 8 7 8 8 9 9 10 10 10 10 10 12 17 15 14 10 8 9 8 9 12 13 13 11 9 10 10 12 9 8 7 10 12 12 11 7 9 8 10 7 8 12 12 14 12 10 9 9 7 6 6 6 7 8 7 7 5 5 5 6 9 10 13 12 11 10 8 7 7 4 0 
0 8 12 16 16 16 12 11 8 13 11 14 14 17 14 19 12 14 8 11 10 11 14 18 23 16 13 9 11 14 17 16 16 13 12 10 10 15 21 26 23 20 13 11 11 11 11 14 11 9 8 6 6 8 8 12 9 9 5 4 4 3 2 2 1 1 0 1 1 1 1 1 1 0 0 0 0 0 0 1 1 0 0 0 0 0 0 0 0 0 0 0 0 0 0 1 1 0 0 1 1 1 1 1 1 2 4 5 5 4 8 7 9 8 12 13 11 7 4 5 6 9 11 14 15 13 9 7 6 7 8 10 11 11 8 5 4 3 3 2 2 2 2 3 2 1 0 0 0 0 1 1 3 5 7 10 19 114 193 208 149 53 29 21 14 11 10 8 5 2 2 2 2 2 2 3 10 32 67 97 97 71 44 25 22 22 21 20 20 16 11 8 9 12 12 15 10 10 8 9 9 10 17 19 23 20 17 13 7 5 13 18 19 20 14 14 11 9 9 12 14 18 16 14 16 16 16 20 18 17 11 10 12 11 11 12 11 12 10 11 9 12 16 19 21 19 15 23 20 26 22 20 16 9 9 13 20 26 24 23 20 17 14 14 14 18 17 13 10 13 15 14 10 9 10 15 17 18 19 17 18 23 24 22 19 12 11 8 7 7 11 15 22 21 25 20 17 17 22 24 21 17 18 22 22 19 19 19 20 16 17 15 18 15 13 15 13 12 11 10 10 10 12 13 12 11 8 7 5 3 9 13 23 35 66 103 112 87 61 64 83 91 69 41 26 15 13 10 8 6 7 11 18 25 26 24 18 14 26 37 39 31 14 10 5 4 3 5 5 6 7 5 5 23 102 205 249 201 100 21 6 3 4 3 2 0 0 0 0 0 0 0 0 0 0 0 0 0 1 2 2 1 1 1 1 1 1 2 3 3 3 5 9 13 14 11 10 9 12 15 15 13 10 9 12 12 14 10 11 13 10 9 4 3 4 7 10 12 11 12 9 9 8 10 10 10 10 10 12 11 12 14 15 15 15 11 6 4 6 9 12 11 12 12 14 10 11 11 13 12 11 12 12 12 11 9 8 9 10 11 10 7 10 12 16 13 12 11 11 9 8 7 7 8 9 10 9 6 4 3 3 6 7 8 9 7 8 7 8 7 5 0 
0 6 12 11 13 12 11 12 12 13 13 14 11 13 10 17 9 16 8 12 8 11 13 16 16 12 11 9 13 13 15 11 11 8 7 6 10 15 21 27 24 19 11 9 9 9 12 13 11 9 7 6 6 10 8 15 10 10 6 3 3 3 3 2 2 1 1 1 1 1 1 1 1 0 0 0 0 0 0 1 1 0 0 0 0 0 0 0 0 0 0 0 0 0 0 1 1 1 1 1 2 2 2 1 1 2 4 4 4 3 6 6 8 8 11 13 11 7 5 6 7 7 9 11 13 14 12 10 7 7 6 9 11 11 9 5 3 2 2 2 2 2 3 4 2 1 0 0 0 0 1 2 3 4 5 7 11 93 183 209 163 69 33 26 17 12 10 8 6 4 2 1 1 1 2 2 5 16 43 78 99 90 62 38 25 23 19 19 18 16 12 8 8 14 12 14 9 8 5 5 6 8 17 20 23 18 14 11 9 5 10 15 15 15 11 13 13 11 11 16 20 22 22 22 23 20 21 18 17 16 11 6 11 12 16 12 10 12 10 13 11 14 15 16 17 16 14 21 20 27 21 16 12 7 8 10 15 22 25 24 21 18 14 12 11 13 13 13 14 16 17 16 13 13 14 16 18 23 19 16 16 21 22 22 17 14 12 9 7 8 10 11 15 17 20 15 12 12 17 21 20 18 17 19 17 13 13 12 17 13 21 20 21 16 13 12 12 13 12 11 7 8 10 10 9 9 8 7 5 3 9 11 25 48 88 120 109 75 51 66 87 89 65 38 25 15 12 9 7 5 5 8 15 24 28 27 20 14 21 36 43 37 18 8 5 5 4 4 5 6 6 5 5 12 65 162 243 230 145 49 8 4 6 4 3 0 0 0 0 0 0 0 0 0 0 0 0 0 1 1 1 1 1 1 1 1 1 1 2 3 3 4 6 9 12 11 10 8 11 16 18 16 10 10 11 12 12 11 13 15 12 10 5 5 5 7 10 13 11 12 9 12 10 11 11 11 11 10 12 12 13 11 11 12 14 12 8 6 7 8 10 10 11 10 9 7 9 10 11 13 10 11 9 8 9 8 9 9 11 11 10 9 10 10 12 11 11 10 11 11 9 7 5 5 6 8 8 7 5 3 4 6 8 9 9 7 10 9 11 10 7 0 
0 3 9 8 13 9 11 9 11 13 13 11 12 12 9 14 9 16 9 14 9 13 12 15 15 13 10 7 11 11 16 15 15 13 10 8 9 13 21 29 25 19 10 8 10 10 10 10 10 9 9 11 8 12 8 15 10 10 6 3 4 3 3 2 2 1 1 1 0 0 0 0 0 0 0 0 0 0 1 1 1 0 0 0 0 0 0 0 0 0 0 0 0 0 0 0 1 1 1 1 2 2 2 1 1 1 2 3 4 3 5 5 7 8 10 13 12 7 6 6 10 8 8 6 8 9 9 8 8 7 6 8 9 11 10 7 5 2 1 1 1 2 3 4 3 2 0 0 0 0 1 1 2 4 4 5 7 71 169 207 178 90 39 32 21 14 11 9 7 6 4 2 1 1 1 1 3 7 25 55 86 100 83 56 31 24 21 19 16 15 14 12 10 12 12 12 9 7 6 6 7 7 14 18 21 18 14 10 7 6 9 11 12 10 8 10 11 10 13 16 23 23 21 19 23 20 23 17 16 15 10 8 12 11 13 12 12 16 16 18 14 17 20 20 18 15 12 19 21 25 20 14 12 7 7 9 10 15 20 21 19 15 12 12 14 19 18 15 16 18 19 19 16 15 14 14 20 20 21 19 21 25 26 25 16 14 10 10 7 9 13 17 18 18 16 13 13 16 20 22 21 19 15 12 9 12 16 15 16 15 20 21 22 17 13 10 9 10 10 10 8 9 8 9 10 12 10 8 6 4 12 15 33 66 108 125 96 58 41 69 88 86 62 37 25 15 10 7 5 5 4 6 12 21 27 28 23 15 16 33 43 41 23 8 7 6 6 5 5 7 5 5 4 6 37 117 218 246 189 87 17 5 4 3 2 0 0 0 0 0 0 0 0 0 0 0 0 0 1 1 2 1 1 1 1 1 1 1 2 2 3 3 4 5 9 11 11 7 7 12 16 15 11 13 17 19 17 14 12 12 11 12 10 9 8 8 9 12 14 17 13 13 8 10 10 12 12 11 11 9 12 11 12 12 12 11 8 6 7 10 13 12 9 7 8 6 7 10 10 12 11 12 10 7 8 8 11 10 10 11 12 9 10 9 12 8 9 8 10 8 7 6 6 7 8 9 10 8 7 5 6 8 9 11 9 7 8 10 14 15 8 0 
0 8 15 11 12 8 13 13 14 12 12 13 11 11 8 11 10 15 9 15 11 14 12 12 9 7 8 8 12 11 11 9 9 7 8 8 12 14 21 30 27 22 13 9 12 8 12 9 10 7 9 9 7 11 8 14 9 9 5 3 3 3 3 2 2 1 1 0 0 1 1 1 1 1 1 1 1 1 1 1 1 0 0 0 0 0 0 0 0 0 0 0 0 0 0 0 0 1 1 1 1 1 1 1 1 2 2 2 3 3 4 5 5 7 10 13 12 7 7 6 10 8 8 6 5 8 11 11 10 9 9 10 10 10 10 8 7 3 1 1 1 1 2 3 2 1 0 0 1 1 1 1 2 3 4 4 5 49 149 200 188 113 47 38 26 16 12 8 7 7 4 3 2 2 2 2 3 5 15 34 66 95 99 77 48 25 19 17 15 15 16 16 15 12 10 10 7 6 5 6 9 11 13 15 16 14 11 9 7 7 8 9 10 11 11 13 15 17 22 18 23 24 23 19 23 18 18 18 16 18 12 9 9 11 12 14 15 18 18 19 16 15 14 13 12 10 10 17 22 24 23 14 11 7 9 10 14 16 18 18 15 13 10 11 10 13 15 18 20 20 20 20 15 18 19 17 21 19 24 16 16 18 20 20 13 13 9 10 11 13 15 21 21 19 17 17 20 21 20 22 22 20 15 10 10 19 19 21 13 17 17 21 17 14 11 10 10 11 11 10 8 7 8 10 10 10 10 9 7 5 11 19 43 85 121 120 80 41 40 71 89 84 61 38 25 15 9 6 4 4 4 5 9 17 25 29 26 18 15 29 41 41 27 9 7 6 6 6 5 6 4 4 3 4 18 75 179 245 223 132 38 6 4 2 1 0 0 0 0 0 0 0 0 0 0 0 0 0 1 1 2 1 1 1 1 1 1 1 1 1 2 2 2 3 6 10 12 10 10 13 15 13 10 11 17 17 16 11 13 14 13 13 13 11 10 10 12 14 15 15 14 13 11 11 9 9 9 10 11 11 13 11 12 12 12 11 9 7 8 10 9 7 8 6 8 6 10 10 10 10 9 8 8 5 8 9 10 9 9 8 10 8 9 6 11 6 8 6 7 8 7 6 5 6 6 8 8 8 7 6 7 8 8 11 12 12 13 13 12 14 7 0 
0 4 11 10 15 10 13 12 12 13 11 15 12 16 14 14 12 14 12 17 14 17 14 12 9 8 8 9 11 11 11 9 10 10 15 13 15 14 23 30 28 22 16 11 15 8 9 6 8 7 7 7 7 7 7 10 8 7 4 3 3 4 3 3 2 1 1 0 0 0 1 1 1 1 1 1 1 1 1 1 0 0 0 0 0 0 0 0 0 0 0 0 0 0 0 0 0 0 0 0 1 1 1 1 1 1 1 1 1 2 3 4 5 8 11 12 11 8 7 6 9 8 7 7 8 8 7 8 9 8 10 10 11 8 12 10 8 3 1 1 1 1 2 2 2 1 1 1 1 1 1 1 3 3 4 4 6 32 125 187 192 133 59 44 33 19 13 7 7 7 5 4 3 2 2 2 2 4 10 20 45 79 104 97 68 37 18 14 12 15 19 18 16 13 8 7 5 5 6 8 8 7 6 8 10 12 11 9 9 10 10 10 9 11 14 15 16 16 18 19 15 15 18 19 21 18 15 17 20 23 20 12 8 8 10 15 22 31 32 27 22 17 15 15 16 17 18 18 25 22 23 12 11 9 12 11 13 10 11 11 9 11 9 13 15 22 21 19 19 22 20 19 17 20 19 18 21 17 21 14 16 15 19 19 17 13 13 14 12 15 21 24 23 21 21 26 28 28 23 23 25 21 15 8 13 20 20 23 12 16 13 17 13 17 12 14 11 10 8 7 7 7 9 9 13 14 15 12 10 10 16 26 57 104 128 110 65 27 42 73 90 83 61 38 24 14 7 5 4 5 5 6 7 12 19 26 27 22 16 23 37 39 30 11 6 6 5 5 4 4 2 2 2 2 7 41 131 227 244 174 72 12 4 2 0 0 0 0 0 0 0 0 0 0 0 0 0 0 1 1 2 2 2 1 1 1 1 1 1 1 1 2 2 2 4 8 12 14 15 13 12 9 8 11 18 18 19 15 13 11 11 12 12 12 11 11 11 12 13 15 15 12 9 8 8 8 9 10 8 6 8 11 14 17 14 9 7 7 9 11 14 15 14 10 10 7 9 9 11 10 9 9 11 8 9 9 10 8 8 10 13 10 11 8 10 7 8 8 8 7 5 6 5 6 6 8 7 8 6 7 6 9 10 11 16 13 15 11 12 10 6 0 
0 11 18 15 17 17 17 14 12 11 11 12 14 16 17 13 14 11 11 15 13 16 14 12 10 7 9 8 8 8 8 6 8 9 13 12 15 14 24 29 29 25 17 12 11 8 8 6 5 5 5 5 4 4 5 6 6 4 3 3 3 4 2 2 1 1 0 0 0 0 1 1 1 1 1 1 1 1 1 1 0 0 0 0 0 0 0 0 0 0 0 0 0 0 0 0 0 0 0 0 0 0 0 1 2 2 1 1 0 1 1 3 5 8 11 13 13 11 9 8 9 10 11 10 10 11 10 9 6 7 10 10 11 9 11 9 9 4 2 2 1 2 2 2 2 1 1 1 1 1 1 2 3 3 5 5 6 19 98 170 189 148 73 48 40 24 16 8 6 7 6 5 4 2 2 2 3 4 7 11 27 55 91 106 89 56 23 11 12 13 18 22 20 20 13 8 5 4 6 6 8 8 6 5 6 9 10 11 12 13 13 10 12 13 17 19 21 22 18 17 13 14 15 18 18 16 13 18 23 24 21 16 10 9 10 15 21 26 30 23 19 13 14 15 16 20 19 19 27 23 25 14 9 7 12 11 15 11 10 9 10 15 12 13 14 20 21 25 21 23 17 17 16 18 23 20 21 17 20 15 13 10 16 17 17 14 11 10 13 17 21 24 23 24 27 32 32 28 19 19 20 18 16 15 19 20 19 15 12 13 12 14 13 17 13 18 14 13 8 7 8 8 10 9 14 12 14 14 13 10 16 31 73 119 128 96 48 24 48 78 93 82 59 37 23 13 7 5 4 5 6 6 7 10 16 23 26 25 21 21 32 37 31 17 5 5 4 4 2 2 1 1 1 1 2 19 87 193 248 211 112 27 5 3 1 0 0 0 0 0 0 0 0 0 0 0 0 0 1 1 2 2 2 1 1 1 1 1 1 1 1 1 2 2 3 5 10 15 20 22 20 15 12 13 18 19 17 15 12 13 9 12 9 9 8 9 10 9 10 9 10 10 12 10 9 8 7 6 7 9 8 11 13 16 14 10 7 6 7 9 9 10 11 11 11 10 10 10 11 11 11 9 8 8 11 9 9 8 6 7 7 8 9 11 9 10 7 7 8 8 7 6 6 6 8 8 7 7 5 7 5 7 9 9 15 15 23 17 16 10 5 0 
0 7 12 17 18 20 18 16 10 11 12 14 20 17 25 15 14 12 11 15 12 14 13 11 11 7 9 7 10 10 10 7 8 11 17 16 17 15 21 26 25 23 15 14 12 8 7 4 5 5 4 3 2 3 3 3 3 3 2 2 3 3 2 2 1 1 0 0 0 0 1 1 1 1 1 1 1 1 1 1 0 0 0 0 0 0 0 0 0 0 0 0 0 0 0 0 0 0 0 0 0 0 1 1 2 2 1 0 0 0 1 2 4 7 10 12 13 13 11 9 11 11 15 14 15 12 10 7 5 6 9 9 9 8 9 10 8 5 4 3 2 2 2 1 1 1 1 1 1 1 1 2 3 3 3 5 8 15 76 154 184 160 88 53 45 30 20 10 8 8 7 6 4 2 1 2 1 2 4 6 15 34 68 98 101 76 41 14 10 15 15 20 18 20 17 12 7 4 5 6 7 7 6 5 6 9 12 16 16 16 16 12 15 15 18 17 15 15 15 13 9 10 14 20 19 18 15 21 23 30 19 17 10 12 11 14 22 26 29 26 21 14 13 21 21 28 21 22 28 24 23 13 11 12 13 14 16 13 10 9 9 10 10 12 14 21 20 25 20 24 19 17 15 18 22 20 23 25 26 22 15 9 11 17 18 15 13 11 12 14 17 20 20 25 31 32 28 23 20 22 18 18 18 21 24 20 17 13 15 12 11 10 10 13 16 21 18 15 7 4 5 6 8 9 12 13 16 13 14 10 18 42 92 132 125 82 34 26 55 84 94 80 57 37 23 13 7 6 5 5 5 5 7 10 15 21 26 26 24 20 27 34 30 23 6 4 3 3 2 1 1 1 1 1 1 6 52 151 238 237 155 54 8 5 2 0 0 0 0 0 0 0 0 0 0 0 0 0 1 1 2 2 2 1 1 1 1 1 1 1 0 1 1 2 2 4 8 14 20 22 20 16 14 15 15 16 18 18 14 13 9 10 8 7 8 8 9 6 5 6 8 7 8 9 10 10 11 11 10 8 6 8 12 15 14 11 7 6 6 8 11 16 15 13 11 11 10 12 15 11 10 7 10 10 10 9 7 6 7 10 11 11 8 11 8 10 8 9 8 8 9 9 9 6 8 7 9 7 5 4 5 5 7 8 12 13 16 15 15 10 5 0 
0 11 17 21 19 30 19 18 8 10 11 13 17 14 17 11 11 10 9 12 8 9 8 8 9 7 9 6 8 7 8 7 10 14 15 13 11 12 17 26 25 24 15 11 10 7 8 5 5 4 3 2 2 2 3 3 2 2 1 1 2 2 1 1 1 1 0 0 0 0 1 1 1 1 1 1 1 1 1 1 0 0 0 0 0 0 0 0 0 0 0 0 0 0 0 0 0 0 0 0 0 0 1 1 2 2 1 0 0 0 1 2 5 6 8 9 12 13 14 11 13 15 20 16 18 11 11 6 5 8 9 8 7 6 7 8 7 6 5 4 3 2 2 1 1 0 1 1 1 1 1 2 4 3 3 6 7 10 53 135 178 171 107 60 49 35 24 12 9 9 8 7 5 3 2 2 2 3 3 4 7 19 43 78 100 93 66 31 13 16 17 23 26 24 20 13 9 8 7 7 7 8 8 6 8 10 14 19 17 17 14 13 14 14 16 21 18 16 15 9 11 9 14 19 21 17 14 23 20 26 16 19 11 12 16 20 23 23 21 17 16 16 14 22 21 23 18 18 25 25 23 15 13 14 15 18 16 14 11 7 9 11 12 14 13 18 18 23 21 25 20 20 15 14 17 24 27 32 33 31 25 16 13 15 16 13 10 8 10 13 14 16 20 29 34 32 28 19 18 18 15 19 22 26 25 17 15 15 17 15 11 9 11 14 20 23 20 15 7 7 8 8 7 8 11 11 14 10 10 8 16 54 109 141 118 66 24 32 63 90 94 77 54 36 23 13 8 7 6 5 3 4 5 9 15 21 25 25 26 20 24 31 30 26 10 4 4 3 2 0 1 1 1 1 1 2 28 105 212 250 197 95 18 5 2 0 0 0 0 0 0 0 0 0 0 0 0 0 1 1 2 2 2 1 1 1 1 1 1 1 1 1 1 1 2 2 4 9 15 19 21 20 17 17 16 16 17 14 15 12 12 10 11 7 10 8 9 7 7 8 9 10 8 7 9 8 8 7 8 10 9 8 10 13 14 14 12 9 6 7 9 10 10 10 11 11 12 13 16 13 10 6 9 9 10 8 9 8 7 7 7 8 8 10 9 10 7 8 7 9 11 10 9 6 6 7 10 9 7 5 3 4 5 5 7 11 15 19 17 13 7 0 
0 8 12 17 16 25 16 19 8 10 9 12 14 14 14 9 11 10 10 9 6 8 7 9 10 8 9 7 8 9 9 9 8 14 13 16 11 11 13 21 21 23 16 13 12 8 6 5 4 4 3 2 3 3 3 3 2 2 1 1 1 1 1 1 1 1 0 0 0 0 1 1 1 1 1 1 1 1 1 0 0 0 0 0 0 0 0 0 0 0 0 0 0 0 0 0 0 0 0 0 0 0 0 1 2 2 1 1 0 1 1 3 4 5 6 7 9 11 14 11 13 12 18 16 18 10 9 5 6 9 10 13 13 9 9 7 7 8 6 5 3 2 2 1 1 0 1 1 1 1 1 2 2 2 3 3 5 8 36 113 170 179 126 71 52 40 28 15 11 9 8 8 5 3 3 3 4 4 4 4 3 11 25 53 85 99 86 55 27 19 21 24 27 22 20 14 10 10 9 9 10 9 11 8 9 12 17 21 20 17 11 11 11 15 14 15 14 10 13 8 11 8 14 16 16 15 15 19 17 20 12 11 10 11 13 18 20 20 20 16 17 12 13 18 22 20 17 17 23 25 23 15 15 14 15 17 18 17 15 12 9 9 9 12 12 14 14 17 20 22 20 20 18 17 19 24 28 35 33 32 25 19 17 15 14 12 10 10 14 15 13 15 20 30 37 34 25 18 22 23 22 22 23 25 25 16 14 16 19 16 14 10 11 13 19 21 19 13 7 8 9 8 6 5 9 9 12 8 7 6 18 69 125 144 107 51 22 39 71 94 93 73 51 34 21 10 7 7 6 5 4 4 6 9 16 22 25 24 26 22 22 28 29 27 16 5 5 3 2 1 1 1 1 1 2 2 14 66 172 245 230 139 41 6 2 2 0 0 0 0 0 0 0 0 0 0 0 0 1 1 2 1 2 1 1 1 1 0 0 1 1 1 0 0 2 3 4 5 8 13 16 17 14 14 13 14 19 18 18 13 14 10 11 6 11 11 14 12 9 8 9 10 11 10 7 7 8 8 9 8 7 8 9 10 12 10 9 8 9 10 11 12 12 10 11 10 13 13 13 10 8 7 12 11 11 7 6 6 8 8 8 8 6 7 6 8 8 9 12 11 13 11 10 7 6 7 8 8 8 6 3 2 3 5 8 8 10 11 14 12 7 0 
0 7 11 13 15 19 15 16 8 11 10 12 12 10 10 9 12 10 11 7 4 7 6 11 11 11 9 8 6 9 7 11 8 16 10 13 8 8 8 20 20 23 17 12 11 7 4 4 3 3 2 2 2 2 3 3 2 2 1 1 1 1 1 1 1 1 1 0 0 1 1 1 2 1 1 2 1 1 1 0 0 0 0 0 0 0 0 0 0 0 0 0 0 0 0 0 0 0 0 0 0 0 0 1 1 1 1 1 1 2 2 4 5 6 7 5 7 9 12 11 13 14 16 15 12 9 8 7 6 9 9 11 12 11 10 8 7 9 6 4 3 2 3 2 2 1 1 1 1 1 1 2 2 2 3 3 4 4 18 84 156 183 149 89 56 44 31 17 12 9 8 8 6 3 4 3 6 5 5 3 2 6 14 31 62 92 99 79 46 25 22 22 23 17 14 11 12 14 14 12 10 8 10 8 11 14 17 21 17 13 10 7 8 10 12 12 14 11 15 9 11 8 12 14 15 11 13 15 17 14 13 10 10 11 16 24 26 22 20 15 16 13 15 15 18 17 14 16 21 21 21 17 19 16 17 17 18 20 15 13 11 12 12 14 14 10 10 10 12 14 17 19 19 21 22 25 33 35 30 29 25 20 15 10 10 9 11 13 13 16 18 20 23 28 33 32 27 21 21 28 27 23 18 18 17 15 16 14 18 13 15 13 15 15 18 17 16 11 8 9 11 9 7 4 8 8 9 6 5 6 27 82 134 141 95 42 23 48 80 98 91 70 47 31 18 7 5 6 6 6 5 5 5 9 15 21 25 23 25 25 23 26 28 27 22 8 6 5 2 2 1 1 1 1 2 3 9 37 127 224 249 180 75 12 3 4 2 2 1 0 0 0 0 0 0 0 0 0 0 1 2 1 1 1 1 1 1 0 0 0 1 1 1 0 1 2 3 4 5 9 13 16 15 13 13 13 14 14 15 14 14 10 11 5 10 10 11 9 7 7 9 9 11 10 9 7 5 5 5 6 8 10 9 9 10 11 14 10 8 7 9 9 9 7 8 8 11 11 13 8 8 8 14 13 11 6 7 9 7 7 7 7 8 8 7 7 7 9 12 11 14 10 9 7 6 7 9 10 9 7 4 3 3 5 7 7 10 10 12 12 6 0 
0 6 8 10 11 12 13 13 9 13 10 14 12 14 12 10 10 9 9 7 6 9 8 13 14 16 10 11 6 9 7 10 9 14 12 17 13 12 9 18 21 23 19 14 12 8 5 4 3 2 2 3 3 3 3 2 2 2 2 1 1 1 1 1 1 1 1 1 1 1 1 1 2 1 1 1 1 1 0 0 0 0 0 0 0 0 0 0 0 0 0 0 0 0 0 0 0 0 0 0 0 0 0 0 0 0 1 1 2 3 3 4 5 6 8 7 9 11 12 13 13 14 15 14 12 10 8 7 7 9 10 14 17 13 10 9 9 11 8 5 3 2 3 2 2 1 1 1 0 0 0 1 1 2 2 2 3 3 9 56 133 178 167 112 64 50 37 22 15 9 7 8 7 4 4 3 6 5 5 3 2 4 9 16 38 72 96 98 72 39 24 15 16 16 13 10 10 14 16 16 11 7 8 10 12 17 18 21 20 14 9 6 6 8 9 10 14 14 15 10 10 8 12 9 9 8 14 16 21 15 15 11 12 12 13 14 16 19 19 18 16 10 10 10 13 16 16 16 18 17 18 16 18 18 17 19 24 23 21 17 12 15 17 17 20 13 11 9 10 12 10 17 20 25 25 26 27 23 19 18 18 20 20 16 14 14 15 14 15 15 15 18 22 25 33 34 28 22 22 30 27 22 12 14 15 15 16 15 18 16 17 13 13 11 12 12 11 8 7 8 10 9 8 6 7 7 8 8 7 9 38 96 141 136 82 37 28 58 86 99 88 66 44 28 14 4 3 4 5 5 6 6 7 9 14 19 24 22 24 30 25 26 29 26 27 12 6 6 3 3 1 1 1 1 2 4 6 19 85 189 250 212 114 27 4 5 3 4 3 1 0 0 0 0 0 0 0 0 0 0 1 0 1 0 1 1 0 0 0 0 0 1 1 1 1 3 3 3 4 7 12 14 14 12 11 13 15 14 14 14 12 10 9 7 11 14 15 13 9 5 8 9 12 11 8 8 5 6 7 9 12 11 11 11 10 10 10 11 10 9 9 9 9 8 7 8 10 9 11 6 9 9 15 14 13 6 5 7 6 8 8 8 9 8 7 7 6 9 12 12 12 9 8 6 6 8 9 10 9 7 5 4 4 4 5 6 7 6 8 8 5 0 
0 4 7 8 9 9 10 8 7 13 10 16 11 15 12 12 10 11 9 12 10 11 11 15 14 16 10 12 7 10 9 11 11 12 13 13 16 12 13 14 21 23 22 16 13 8 4 3 2 2 2 2 2 3 2 3 2 2 2 2 1 1 1 1 1 1 1 1 1 1 1 1 1 1 0 0 0 0 0 0 0 0 0 0 0 0 0 0 0 0 0 0 0 0 0 0 0 0 0 0 0 0 0 0 0 0 0 0 1 1 2 3 5 6 7 6 8 10 11 12 12 12 13 12 10 10 9 8 8 7 7 9 12 11 9 8 9 11 10 7 4 3 3 3 2 1 1 0 0 0 0 1 1 1 1 2 3 3 3 29 105 166 175 137 77 56 43 26 19 10 7 8 8 6 4 3 4 4 3 2 1 2 6 10 22 49 81 102 96 63 32 12 12 12 12 11 10 15 18 18 14 8 6 11 12 17 18 19 20 15 10 7 5 6 5 8 14 18 20 13 10 9 12 9 8 7 16 19 27 18 19 12 12 13 15 15 13 13 13 15 14 12 13 13 13 14 16 19 18 15 16 15 18 17 17 16 24 24 23 17 12 15 18 16 19 14 12 10 9 10 7 15 20 25 25 22 23 22 18 14 15 17 16 15 14 13 18 12 13 11 15 23 26 24 31 30 29 24 21 28 26 21 9 9 13 18 18 22 18 20 20 17 12 9 7 8 9 9 7 7 7 9 8 7 7 7 6 6 6 13 49 109 145 128 70 32 34 65 91 98 84 61 40 24 11 4 3 4 4 4 5 5 5 7 11 16 20 22 25 36 29 28 28 27 28 15 7 8 4 3 1 1 0 0 2 3 5 9 54 148 238 236 155 54 7 5 6 6 4 2 1 0 0 0 0 0 0 0 0 0 0 0 0 0 0 0 0 0 0 0 0 0 0 1 2 2 3 3 3 6 10 14 15 15 15 13 12 11 11 13 14 12 11 12 11 13 12 12 9 6 7 8 9 10 8 8 5 8 9 9 12 13 13 12 11 14 13 12 10 8 9 9 7 7 4 6 9 8 11 8 10 10 15 15 15 8 6 6 6 8 8 10 11 10 9 7 6 8 9 12 12 11 9 7 6 8 9 11 8 6 5 5 5 4 5 4 4 4 7 7 5 0 
0 5 9 8 10 11 11 11 11 14 12 15 12 12 10 8 6 8 8 13 12 15 14 16 16 17 12 13 8 12 8 9 9 10 15 15 20 12 14 12 23 25 24 16 11 8 6 4 3 2 3 3 3 3 2 2 1 2 1 1 1 0 1 1 1 0 0 0 0 0 1 1 1 0 0 0 0 0 0 0 0 0 0 0 0 0 0 0 0 0 0 0 0 0 0 0 0 0 0 0 0 0 0 0 0 0 0 0 0 1 1 2 4 6 7 7 8 9 9 9 12 13 13 11 9 9 11 11 9 9 8 11 13 10 8 6 10 11 10 8 6 5 4 3 2 1 0 0 0 0 0 1 1 1 1 1 2 3 4 14 75 149 176 157 98 62 51 30 20 11 7 8 9 7 4 2 2 2 2 2 1 2 4 8 15 31 62 94 107 91 55 25 17 21 23 17 11 10 17 19 17 13 7 10 14 19 23 22 21 18 12 9 6 7 6 7 12 15 17 12 11 11 13 11 8 7 18 20 31 22 22 14 15 15 13 11 12 14 14 14 11 12 12 14 15 20 19 21 19 16 18 15 20 17 18 17 26 26 24 17 13 15 23 26 32 21 17 10 9 9 8 13 19 22 21 17 17 16 17 21 25 28 26 26 24 16 20 11 12 5 8 14 22 24 32 32 31 24 21 26 23 20 11 9 10 16 18 24 19 24 20 18 12 8 7 8 10 8 7 5 6 7 7 8 7 5 5 5 5 15 59 122 147 118 58 27 41 71 93 96 80 57 36 21 10 5 3 3 2 3 3 5 6 8 11 13 18 22 27 37 33 31 26 26 25 17 7 6 4 3 1 0 0 0 1 3 4 6 29 109 212 249 193 89 17 6 4 6 4 3 1 1 0 0 0 0 0 0 0 0 0 0 0 0 0 0 0 0 0 0 0 0 0 0 2 2 4 2 2 3 6 10 11 13 15 15 14 13 13 13 12 9 10 12 14 18 15 12 9 9 9 10 9 9 5 7 6 9 12 12 15 13 13 13 13 13 16 15 14 9 8 7 7 7 6 7 9 9 10 10 11 11 13 13 14 11 7 5 6 8 9 10 11 9 9 7 6 7 6 8 8 8 7 6 5 8 8 10 7 5 6 6 9 8 8 6 5 4 5 6 4 0 
0 4 8 10 9 10 10 12 13 13 13 12 9 9 8 7 7 8 9 13 13 14 12 12 12 14 10 15 8 14 8 12 10 10 11 11 12 10 10 12 20 24 24 17 10 6 4 3 4 3 4 4 3 3 3 2 2 1 1 0 0 0 1 1 0 0 0 0 0 0 0 1 1 0 0 0 0 0 0 0 0 0 0 0 0 0 0 0 0 0 0 0 0 0 0 0 0 0 0 0 0 0 0 0 0 0 0 0 0 0 0 1 3 5 5 5 4 6 7 8 10 9 9 7 8 8 9 10 10 10 7 8 12 10 11 7 10 11 12 11 9 7 5 4 2 1 0 0 0 0 0 1 1 0 0 0 2 2 3 7 45 123 168 169 124 73 57 36 22 14 8 8 9 8 5 2 1 1 1 1 1 1 4 6 11 16 38 73 102 108 83 51 30 25 23 20 12 9 12 17 19 17 11 9 11 16 20 24 24 20 12 10 6 6 4 5 10 14 15 14 10 11 11 10 7 7 15 16 24 20 19 11 12 12 14 14 12 10 9 12 9 14 13 17 16 21 22 26 22 17 15 12 14 12 16 14 16 21 24 22 20 14 18 19 22 18 17 12 11 10 11 15 19 19 17 14 12 16 16 19 23 26 29 22 21 16 17 11 12 7 11 14 22 24 31 31 31 26 24 24 24 24 18 16 14 17 18 19 17 22 20 21 15 10 9 8 10 8 7 4 5 8 10 8 6 4 5 5 6 20 72 133 146 108 47 24 46 75 95 94 75 53 32 17 8 4 4 4 3 3 3 4 6 6 8 10 16 22 27 36 38 31 25 24 19 19 7 6 4 2 1 0 0 0 1 1 2 4 14 75 177 246 225 129 37 6 4 6 4 4 3 2 1 0 0 0 0 0 0 0 0 0 0 0 0 0 0 0 0 0 0 0 0 0 1 2 3 3 2 2 3 7 9 13 15 14 13 13 13 12 12 10 13 15 14 14 12 15 10 10 10 10 10 8 5 7 7 11 15 11 14 12 13 12 13 13 19 13 14 10 9 8 9 7 7 7 9 9 10 11 11 10 10 14 16 13 10 7 7 7 10 10 12 9 9 7 7 6 6 6 7 7 7 7 7 8 7 8 5 5 5 9 10 11 8 7 4 4 6 8 5 0 
0 5 7 9 8 10 12 16 20 19 12 8 6 7 6 6 6 8 9 11 13 14 14 15 14 15 10 15 10 16 10 10 7 10 11 11 10 8 8 11 16 21 23 18 11 6 5 4 5 3 4 4 4 3 2 1 1 1 0 0 1 1 1 0 0 0 0 0 0 0 0 1 1 0 0 0 0 0 0 0 0 0 0 0 0 0 0 0 0 0 0 0 0 0 0 0 0 0 0 0 0 0 0 0 0 0 0 0 0 0 0 1 3 5 7 7 6 5 4 7 10 11 10 6 7 9 13 14 14 12 12 12 13 11 11 9 10 11 11 11 10 9 8 4 2 0 0 0 0 0 0 0 1 0 0 0 1 2 2 5 25 94 155 174 148 90 63 43 24 16 9 8 9 8 6 3 1 1 1 1 1 1 3 4 9 10 23 46 81 106 103 79 48 34 24 23 13 10 12 18 23 20 15 10 11 21 24 23 20 17 10 9 8 9 9 7 8 11 13 14 12 14 13 14 9 7 11 14 17 14 13 9 13 13 14 12 12 15 12 11 8 15 14 18 19 19 24 25 24 22 17 15 15 15 18 20 18 19 23 27 29 22 20 19 20 18 13 9 10 11 11 14 16 19 13 13 13 16 20 27 33 30 36 25 30 20 21 20 15 9 9 10 18 21 26 26 24 21 24 25 27 25 24 22 16 16 17 17 13 17 19 20 16 11 8 9 11 9 7 4 5 8 9 9 8 6 6 6 8 27 87 141 141 93 31 24 51 80 97 92 72 48 28 14 7 4 6 5 5 3 3 5 8 8 8 11 17 22 27 31 40 32 28 24 16 21 6 5 3 1 1 0 0 0 1 3 4 6 7 45 135 229 244 170 68 11 4 4 4 4 5 3 2 0 0 0 0 0 0 0 0 0 0 0 0 0 0 0 0 0 0 0 0 0 1 1 2 2 2 2 2 4 7 10 11 11 12 15 17 16 15 12 12 11 12 13 9 11 8 11 13 11 12 8 6 9 8 10 11 9 13 13 13 13 14 14 20 14 15 9 9 8 9 8 9 6 7 8 9 10 9 9 10 11 11 12 9 7 6 7 10 10 12 9 9 6 7 6 6 6 5 5 6 8 9 9 9 8 5 6 5 13 11 16 10 9 5 6 6 8 5 0 
0 5 7 7 7 9 14 19 19 18 15 15 12 10 8 8 10 11 14 15 16 15 12 9 8 9 9 12 12 15 13 13 10 11 11 7 6 8 14 16 16 17 20 19 14 8 6 6 5 4 5 5 5 4 2 2 1 1 0 1 1 1 0 0 0 0 0 0 0 0 0 1 1 1 0 0 0 0 0 0 0 0 0 0 0 0 0 0 0 0 0 0 0 0 0 0 0 0 0 0 0 0 0 0 0 0 0 0 0 0 0 1 3 4 4 4 3 3 4 8 11 11 10 10 12 13 12 11 12 12 12 12 12 11 10 11 12 13 13 12 12 11 8 4 2 0 0 0 0 0 0 1 1 0 0 0 0 1 1 5 11 63 135 171 166 112 71 50 29 18 10 8 8 8 7 3 2 1 1 1 1 1 3 3 5 7 13 26 54 88 109 103 69 40 20 20 13 15 12 16 22 21 18 14 12 20 23 26 18 14 9 8 9 8 9 8 9 10 11 11 9 11 11 13 12 11 9 12 11 10 8 8 12 12 13 14 16 15 10 11 11 15 14 15 16 16 21 22 23 20 18 16 15 18 18 20 19 20 23 31 31 26 17 10 9 9 11 13 12 13 15 19 19 19 14 12 15 15 19 20 29 28 35 22 29 19 19 18 16 16 14 15 24 26 27 23 22 26 26 22 21 24 28 27 24 21 16 17 13 16 22 21 16 10 7 10 11 9 6 3 6 8 11 11 9 7 6 6 10 39 103 146 132 78 23 29 58 87 98 87 66 44 24 11 5 5 7 7 7 4 4 5 7 7 7 10 16 21 24 26 41 36 32 25 17 20 8 5 2 1 0 0 0 1 3 3 4 7 7 28 93 199 248 207 106 23 5 3 6 4 7 4 3 0 0 0 0 0 0 0 0 0 0 0 0 0 0 0 0 0 0 0 0 0 1 1 2 2 2 2 1 3 6 8 8 7 6 10 14 15 16 16 17 17 13 11 9 11 7 9 12 11 12 8 6 10 8 11 10 10 13 15 14 14 14 15 16 11 13 9 13 10 12 9 9 8 8 7 7 6 7 7 12 12 13 12 8 8 7 7 9 8 9 7 8 6 6 5 5 5 5 5 5 7 10 13 12 10 7 8 6 12 9 12 7 7 5 6 6 7 4 0 
0 4 6 5 7 8 11 15 19 19 15 13 12 10 9 10 13 13 14 16 19 20 17 13 10 11 11 13 14 13 14 11 10 9 10 8 10 11 18 17 18 18 21 23 18 12 8 7 6 6 5 5 4 3 2 1 1 1 1 1 1 0 0 0 0 0 0 0 0 0 0 0 1 1 1 1 1 1 1 0 0 0 0 0 0 0 0 0 0 0 0 0 0 0 0 0 0 0 0 0 0 0 0 0 0 0 0 0 0 0 0 1 2 3 3 4 4 3 4 8 10 12 10 11 14 14 13 12 9 13 13 15 12 13 12 12 12 12 12 10 10 10 8 4 2 0 0 0 0 0 0 0 1 0 0 0 0 0 0 4 5 36 111 162 176 135 82 58 36 21 13 9 8 8 7 4 2 1 1 1 1 1 3 3 5 6 10 15 31 62 97 114 94 58 26 18 14 17 12 17 17 17 16 15 14 24 24 25 16 9 10 7 9 8 10 9 10 10 12 15 13 16 15 17 13 12 10 11 10 8 6 10 14 14 12 11 12 13 13 14 12 13 13 15 15 13 16 18 23 19 19 16 16 16 19 19 19 20 19 27 29 30 21 14 11 9 11 13 16 18 15 15 16 17 17 12 15 13 17 18 28 27 35 26 27 21 22 26 25 24 19 20 27 27 25 20 20 22 25 25 22 25 25 24 19 18 18 17 19 22 25 20 13 7 7 10 10 8 5 3 6 8 13 12 9 8 6 6 14 50 114 146 123 63 21 38 69 93 95 81 58 37 20 9 6 7 8 8 8 5 5 5 6 7 6 11 15 18 22 22 39 40 37 27 19 17 11 4 2 1 0 0 0 1 3 4 6 8 7 15 56 159 237 235 149 49 9 4 6 5 7 4 3 0 0 0 0 0 0 0 0 0 0 0 0 0 0 0 0 0 0 1 1 1 1 1 2 2 2 2 1 3 6 8 8 6 6 9 13 16 17 17 16 16 15 14 10 14 10 11 12 11 13 10 9 13 9 12 7 12 16 15 14 12 12 14 15 11 12 10 15 10 12 9 8 7 5 5 5 3 5 6 11 10 10 10 7 9 8 9 10 8 6 6 5 6 5 5 6 6 7 5 6 9 12 15 14 14 8 10 8 11 10 10 8 8 7 8 7 7 4 0 
0 5 9 6 7 9 15 17 19 17 13 16 16 13 13 11 14 16 20 22 21 23 21 19 13 14 12 11 12 12 14 11 12 11 12 10 12 14 25 21 21 17 25 27 23 15 9 9 8 6 4 4 3 2 1 1 1 1 1 1 0 0 0 0 0 0 0 0 0 0 0 1 1 1 1 1 1 1 1 1 0 0 0 0 0 0 0 0 0 0 0 0 0 0 0 0 0 0 0 0 0 0 0 0 0 0 0 0 0 0 0 1 1 1 1 1 1 1 3 8 10 12 11 13 17 15 13 10 6 9 9 11 11 10 8 9 10 10 9 8 8 8 8 5 3 1 1 0 0 0 1 1 1 1 0 0 0 1 1 4 5 17 82 147 178 155 98 65 43 25 15 10 8 8 7 5 3 1 1 1 1 1 2 3 4 5 8 9 18 38 74 106 110 84 46 22 14 16 10 13 14 14 13 13 12 22 24 26 20 10 10 8 10 9 8 9 7 8 9 10 8 12 12 19 13 12 12 12 13 9 7 9 13 14 13 14 16 20 18 15 13 12 10 12 12 11 12 11 17 15 15 15 16 15 14 15 15 17 16 24 23 24 20 15 12 11 16 18 20 17 15 17 19 19 15 10 11 10 15 21 29 29 30 29 25 23 18 27 28 27 22 25 30 30 27 21 27 26 26 17 13 15 18 20 16 14 18 16 24 23 25 20 13 9 10 10 10 8 5 4 5 6 8 9 8 7 4 6 15 58 120 145 113 55 26 48 78 95 89 71 50 31 18 7 7 6 9 6 7 5 5 6 6 7 5 9 14 17 21 22 37 43 36 25 18 15 14 5 2 1 0 0 1 1 3 4 5 7 8 9 30 114 213 248 189 84 18 5 5 5 5 4 2 1 0 0 0 0 0 0 0 0 0 0 0 0 0 0 0 0 1 1 1 1 2 2 2 2 2 2 1 3 6 8 9 7 6 5 9 12 13 13 15 18 18 20 16 14 12 12 14 13 12 9 8 12 10 12 8 13 15 15 14 10 13 14 12 10 11 8 12 9 10 10 9 11 8 6 5 4 6 6 9 10 9 11 7 11 8 11 8 7 3 5 5 7 4 3 3 4 6 6 7 7 9 15 16 16 10 9 9 8 9 8 8 10 10 8 8 7 5 0 
0 7 10 7 8 9 12 13 13 13 11 14 14 12 15 14 22 17 14 14 18 27 21 24 14 16 15 17 13 9 9 9 10 10 12 12 14 12 19 16 23 17 27 28 26 17 10 9 8 6 5 3 2 1 1 1 1 1 1 0 0 0 1 1 1 1 1 1 1 1 1 1 1 1 1 1 1 1 1 1 0 0 0 0 0 0 0 0 0 0 0 0 0 0 0 0 0 0 0 0 0 0 0 0 0 0 0 0 0 0 0 1 2 2 1 1 2 1 3 6 10 12 12 10 11 11 12 11 9 10 10 9 10 11 13 12 10 10 8 6 6 6 6 5 3 1 1 1 1 1 1 1 1 1 1 1 1 1 2 3 4 8 54 127 172 170 118 73 51 31 18 12 9 8 7 5 4 2 1 1 1 1 2 3 3 3 4 5 9 21 48 85 110 105 74 43 18 14 11 10 10 10 11 13 13 16 20 23 22 17 17 15 13 11 9 10 7 8 9 11 13 14 13 15 13 11 13 13 14 9 9 11 14 14 13 16 14 17 18 18 12 8 8 14 12 12 11 9 12 10 10 12 14 16 12 8 6 11 13 15 17 20 21 20 23 16 17 15 17 15 14 12 15 17 17 15 11 11 12 14 18 24 26 27 19 20 22 31 31 30 24 25 27 26 28 23 32 29 30 24 21 18 15 11 10 13 15 18 26 23 27 20 16 15 14 14 14 12 9 6 4 5 7 8 6 5 4 8 19 65 125 142 108 53 32 57 83 92 81 62 43 27 16 7 8 6 7 5 5 4 4 4 5 5 6 8 13 16 21 23 34 44 35 27 17 15 15 6 2 1 1 1 1 1 2 3 4 5 6 5 15 75 179 246 220 125 36 8 5 5 4 4 2 1 0 0 0 0 0 0 0 0 0 0 0 0 0 0 0 0 1 1 1 1 2 2 3 2 2 1 1 2 4 7 8 7 6 5 7 10 11 10 9 14 20 22 22 16 17 13 15 15 12 10 9 14 11 12 8 13 14 15 11 9 11 14 14 11 10 6 8 8 8 12 10 13 12 11 11 8 7 7 8 8 7 11 8 13 10 15 10 8 4 5 5 6 6 5 6 7 7 9 9 11 11 14 14 13 11 7 9 7 8 7 8 9 10 8 9 9 4 0 
0 10 18 15 14 15 15 19 16 12 8 12 15 14 15 11 15 13 15 15 15 21 22 29 22 20 16 14 11 10 8 9 11 13 15 14 14 13 16 13 17 14 26 27 27 20 12 8 7 5 3 2 2 1 1 1 1 1 1 0 0 1 1 1 1 1 1 1 1 1 1 1 1 1 1 1 1 1 1 0 0 0 0 0 0 0 0 0 0 0 0 0 0 0 0 0 0 0 0 0 0 0 0 0 0 0 0 0 0 0 0 1 2 2 2 2 1 2 3 5 8 9 9 9 8 9 10 10 8 7 7 6 7 7 7 8 8 8 6 5 4 5 6 5 3 2 1 1 1 1 1 1 1 1 1 1 1 1 2 3 3 3 29 102 160 177 141 86 59 37 21 13 9 8 7 6 5 3 1 1 1 1 1 2 2 3 3 4 6 12 26 57 93 113 99 65 32 14 13 10 10 9 9 13 14 13 15 19 21 21 21 20 18 14 10 7 6 6 8 11 11 11 13 13 12 11 13 14 16 12 13 12 13 15 13 14 15 24 18 16 7 6 8 12 12 12 11 9 9 9 9 14 17 18 16 8 5 7 12 15 18 15 18 17 17 13 18 17 17 12 10 11 16 18 16 13 10 12 13 16 19 19 18 19 19 24 28 32 29 23 16 17 22 25 27 29 33 28 24 16 14 14 12 11 9 11 11 20 23 23 24 16 20 19 18 17 14 14 12 8 5 3 4 4 4 4 4 9 22 72 130 137 104 48 38 62 84 87 75 56 39 25 14 6 5 4 4 3 3 3 4 4 5 5 4 5 11 16 22 24 32 43 35 28 16 17 15 9 2 1 1 1 1 1 2 3 4 4 5 4 9 46 140 230 239 165 64 11 5 4 3 3 2 1 0 0 0 0 0 0 0 0 0 0 0 0 0 0 0 0 0 1 1 1 1 1 1 1 1 1 1 1 2 5 7 8 8 7 7 10 12 12 9 12 21 23 27 18 16 14 16 14 11 10 7 11 9 11 8 11 12 14 10 8 11 12 15 11 9 6 5 8 7 13 13 18 16 16 14 11 11 7 7 5 6 10 8 12 9 10 7 6 5 6 9 8 7 6 6 8 9 14 11 12 8 9 12 12 10 6 7 7 9 9 10 9 8 8 8 8 6 0 
0 9 15 14 15 19 21 23 14 12 12 15 15 14 11 12 14 13 10 10 14 18 20 17 16 14 15 14 12 10 7 10 13 16 16 15 10 11 11 11 14 12 17 22 26 26 20 12 6 3 2 2 2 2 2 1 2 1 1 1 1 1 1 0 0 0 0 0 0 0 0 0 0 0 0 0 0 0 0 0 0 0 0 0 0 0 0 0 0 0 0 0 0 0 0 0 0 0 0 0 0 0 0 0 0 0 0 0 0 0 1 1 2 2 2 2 1 1 2 3 5 7 8 7 7 8 9 10 10 9 7 7 6 7 10 12 10 9 6 6 5 4 4 4 3 2 1 1 1 1 1 1 1 0 0 0 1 1 2 3 3 4 13 72 141 177 164 109 70 44 25 16 10 8 6 7 7 4 2 1 1 1 2 2 2 2 2 2 5 8 13 32 65 101 113 91 55 22 13 12 11 11 12 12 12 11 11 13 17 20 23 25 24 17 12 6 6 5 8 11 11 13 12 13 12 12 12 14 13 11 12 13 14 15 15 15 13 18 15 15 7 6 9 10 12 11 13 11 10 11 12 16 20 19 18 11 7 8 14 16 21 17 18 16 16 15 17 16 15 10 9 11 14 18 20 21 16 15 15 17 16 13 13 14 14 23 29 34 26 16 13 14 18 25 25 36 29 27 21 18 16 15 13 13 11 12 10 19 19 20 21 17 29 21 22 16 15 17 15 10 5 2 4 4 4 5 8 13 29 82 134 131 98 41 43 64 83 83 69 51 37 25 13 6 5 4 4 3 3 3 3 3 4 4 4 6 10 15 22 24 30 41 39 32 19 16 13 10 2 2 1 1 1 1 2 3 4 3 4 3 7 26 100 201 247 201 102 22 4 3 3 3 2 1 0 0 0 0 0 0 0 0 0 0 0 0 0 0 0 0 0 0 0 0 0 0 1 0 1 0 1 0 0 3 4 6 6 7 7 10 11 15 15 13 19 20 22 16 12 11 14 13 11 9 7 11 9 9 7 10 13 13 11 8 10 10 11 9 7 6 4 6 6 12 11 19 15 19 14 11 11 8 9 6 6 8 8 11 10 11 10 8 9 9 9 9 11 12 13 13 10 15 13 14 10 8 10 8 10 9 9 10 10 10 8 7 6 10 12 13 8 0 
0 13 18 19 17 19 21 21 20 15 13 16 16 14 9 9 8 9 11 10 14 13 18 19 21 14 16 12 10 10 8 11 13 15 16 17 13 15 9 12 10 13 14 17 21 26 24 16 6 2 2 3 4 4 3 2 2 1 1 1 1 1 0 0 0 0 0 0 0 0 0 0 0 0 0 0 0 0 0 0 0 0 0 0 0 0 0 0 0 0 0 0 0 0 0 0 0 0 0 0 0 0 0 0 0 0 0 0 0 0 1 1 2 2 2 2 1 1 2 3 3 4 5 8 8 9 7 8 8 9 8 7 6 8 9 11 10 8 5 5 4 4 4 4 3 2 0 1 1 1 1 1 0 0 0 0 0 1 1 2 3 4 6 43 114 167 181 139 87 54 32 20 12 9 6 7 7 5 3 1 1 1 2 2 3 2 3 2 3 5 8 17 40 76 107 108 81 44 18 11 10 10 12 16 17 14 9 8 12 14 20 24 25 20 13 6 6 5 8 10 11 12 12 10 13 10 13 12 12 12 11 13 15 16 16 14 13 15 11 10 5 6 7 8 12 12 15 12 10 10 13 17 23 24 24 16 12 12 18 19 22 19 19 14 12 13 17 22 24 17 10 10 12 15 13 13 14 17 18 18 18 15 12 10 15 30 37 36 26 14 10 13 16 27 29 34 26 23 15 13 12 13 11 13 13 13 11 17 18 19 18 13 23 17 21 12 15 13 13 9 5 3 4 4 6 8 11 15 36 92 137 124 87 35 49 66 82 78 65 49 35 24 12 5 4 4 4 3 3 2 2 3 4 4 3 4 9 15 22 25 30 41 43 36 22 13 12 10 4 2 2 1 1 1 2 2 3 3 3 2 5 14 64 162 241 231 147 47 7 3 3 2 2 0 0 0 0 0 0 0 0 0 0 0 0 0 0 0 0 0 0 0 0 0 0 0 0 0 0 1 1 0 0 2 3 5 6 8 7 8 9 12 14 13 18 18 19 14 9 8 10 9 10 11 10 13 9 11 9 10 13 13 11 9 7 8 8 9 6 7 5 6 5 8 9 16 12 16 11 10 9 7 6 5 5 7 7 10 9 10 10 8 9 10 12 13 12 13 11 11 10 14 12 12 7 5 7 8 10 9 9 14 12 12 11 8 7 10 12 15 9 0 
0 10 12 18 13 17 22 20 20 18 16 18 15 14 12 14 14 11 12 11 16 18 15 12 13 12 13 11 10 10 10 13 15 17 17 14 11 12 9 13 10 14 11 11 17 26 28 21 9 2 2 3 4 4 4 3 2 2 1 1 1 1 0 0 0 0 0 0 0 0 0 0 0 0 0 0 0 0 0 0 0 0 0 0 0 0 0 0 0 0 0 0 0 0 0 0 0 0 0 0 0 0 0 0 0 0 0 0 0 0 1 2 3 3 2 2 1 0 0 1 1 2 4 8 10 11 9 10 9 10 11 8 9 8 12 12 9 6 6 6 5 5 4 5 3 2 1 1 1 1 1 1 0 0 0 0 0 1 2 2 4 3 4 20 80 148 185 168 111 65 38 23 14 10 7 6 6 5 3 2 1 1 1 1 2 2 2 2 2 3 5 10 23 51 87 112 103 69 34 11 11 9 11 12 13 13 11 8 7 8 14 20 26 24 19 12 9 6 7 8 11 9 12 8 13 9 14 11 12 12 11 13 17 19 22 19 16 12 9 9 6 7 6 7 10 12 18 16 15 11 14 18 24 25 23 17 16 13 17 21 23 24 18 15 12 13 18 21 24 22 17 14 13 15 16 14 14 15 21 26 26 21 16 16 20 29 35 32 25 16 14 20 20 23 24 25 27 19 14 12 10 9 8 10 11 11 12 16 17 16 14 13 18 16 18 10 15 12 14 9 5 4 4 5 7 9 12 15 42 101 139 118 77 34 56 70 80 72 59 46 34 23 11 5 4 4 3 3 2 2 2 2 3 4 4 5 9 14 20 24 28 41 48 41 27 11 10 9 5 2 2 1 1 1 2 2 3 2 2 3 5 8 35 118 216 249 190 85 16 2 3 2 1 0 0 0 0 0 0 0 0 0 0 0 0 0 0 0 0 0 0 0 0 0 0 0 0 0 0 1 1 0 0 1 2 4 6 9 7 7 5 10 13 14 15 15 15 12 9 9 12 13 10 11 10 16 12 12 10 12 15 15 12 12 8 9 6 7 6 8 7 7 7 7 8 11 11 12 9 8 7 7 8 8 8 11 11 11 12 14 15 13 13 12 11 12 12 14 14 11 9 13 14 14 9 5 6 7 11 12 12 12 12 10 9 6 6 11 13 19 11 0 
0 14 14 22 12 14 13 18 20 22 22 22 15 15 13 14 16 12 14 13 15 14 15 14 12 15 13 14 12 10 14 14 15 15 17 14 15 11 7 10 8 13 10 8 13 22 26 23 12 4 4 5 6 6 5 4 3 2 1 1 1 1 0 0 0 0 0 0 0 0 0 0 0 0 0 0 0 0 0 0 0 0 0 0 0 0 0 0 0 0 0 0 0 0 0 0 0 0 0 0 0 0 0 0 0 0 0 0 0 0 1 2 3 3 2 1 1 0 0 1 1 1 3 7 10 13 11 10 10 13 14 10 12 9 12 10 10 7 8 8 8 8 5 5 3 3 1 1 1 1 1 1 0 0 0 0 0 1 2 2 4 4 4 8 46 119 175 186 142 82 48 28 16 11 8 6 6 5 4 3 1 1 1 1 2 2 2 2 1 2 4 8 14 29 59 96 114 96 60 22 10 7 10 12 13 12 9 9 8 7 12 16 21 21 21 18 14 9 7 7 9 9 10 7 10 9 13 12 12 12 12 13 16 19 26 22 22 12 10 9 8 10 7 9 12 14 15 14 13 11 16 18 22 22 20 15 17 16 18 19 17 20 15 14 11 12 15 19 22 23 18 15 12 12 13 12 15 15 16 16 18 21 17 20 22 32 38 38 33 28 21 28 22 24 21 20 21 17 18 15 11 8 6 7 11 13 15 14 14 13 11 11 12 12 11 11 15 13 13 8 6 5 4 4 6 9 12 17 51 111 139 113 70 40 65 75 77 65 53 43 32 22 11 6 4 3 2 2 1 1 1 2 3 5 5 5 8 11 17 22 26 40 50 45 31 11 7 7 4 2 1 1 1 1 2 2 3 2 2 3 5 5 15 76 178 248 226 131 39 4 4 2 1 0 0 0 0 0 0 0 0 0 0 0 0 0 0 0 0 0 0 0 0 0 0 0 0 0 0 1 1 0 0 1 1 2 5 8 8 8 5 6 9 12 13 14 14 14 15 15 14 12 10 10 10 16 13 15 10 10 12 12 11 13 9 10 5 7 7 9 11 9 10 8 10 10 11 9 9 6 7 5 7 9 11 11 10 12 16 14 16 11 10 10 10 12 15 15 11 8 6 10 11 11 7 5 6 7 12 10 12 11 12 10 8 8 6 9 9 14 7 0 
0 10 14 16 12 14 9 14 18 22 20 18 13 12 13 19 19 15 15 16 20 16 10 10 9 14 11 11 9 10 13 18 17 17 17 13 13 12 12 12 10 9 9 7 11 20 26 24 14 8 7 5 6 6 6 5 3 2 1 1 1 1 0 0 0 0 0 0 0 0 0 0 0 0 0 0 0 0 0 0 0 0 0 0 0 0 0 0 0 0 0 0 0 0 0 0 0 0 0 0 0 0 0 0 0 0 0 0 0 0 1 2 3 3 2 2 1 1 1 2 1 2 3 6 9 10 11 11 10 10 11 11 13 10 12 8 8 7 8 8 9 9 7 6 4 2 1 2 2 1 1 1 0 0 0 0 0 1 2 3 4 5 5 5 21 84 154 189 170 108 62 36 19 12 8 6 6 5 4 3 2 1 1 1 1 1 1 1 1 1 2 6 10 15 35 70 104 111 86 47 19 8 7 7 8 10 10 9 8 8 9 12 15 17 22 23 18 12 6 7 7 8 6 6 6 7 10 12 13 12 12 13 16 20 28 24 27 13 14 11 10 10 10 14 16 18 17 15 11 10 14 18 22 19 14 11 15 16 18 17 16 20 17 12 9 10 12 15 19 22 20 18 17 14 16 13 15 15 16 16 16 19 17 30 28 30 28 28 30 33 26 29 20 19 11 15 20 17 17 14 13 10 6 5 9 13 19 19 16 13 11 11 9 10 10 12 14 12 11 7 5 4 5 6 8 9 12 21 62 120 137 107 65 48 72 78 74 59 48 40 30 20 10 6 4 2 1 1 2 2 3 4 3 4 5 5 7 9 13 19 24 37 50 47 36 17 7 6 3 1 1 1 1 1 1 2 3 3 3 5 6 6 10 42 133 229 248 178 73 12 5 4 2 0 0 0 0 0 0 0 0 0 0 0 0 0 0 0 0 0 0 0 0 0 0 0 0 0 0 1 1 0 0 1 1 2 4 7 8 8 6 6 7 11 11 13 14 13 14 12 15 13 12 9 10 18 16 15 10 11 13 12 10 10 9 11 6 8 9 10 13 11 14 9 10 8 10 8 7 5 7 6 10 10 13 13 13 11 12 13 14 12 12 10 10 10 10 11 10 8 6 8 10 11 10 7 7 7 10 9 10 10 10 9 8 7 6 8 8 12 7 0 
0 8 15 16 15 12 11 14 16 20 21 17 12 11 13 16 15 13 13 13 15 12 10 10 9 13 12 13 12 12 12 15 14 15 14 11 10 9 11 12 13 9 7 5 10 17 23 24 18 12 9 6 5 4 5 4 3 2 1 1 1 1 1 0 0 0 0 0 0 0 0 0 0 0 0 0 0 0 0 0 0 0 0 0 0 0 0 0 0 0 0 0 0 0 0 0 0 0 0 0 0 0 0 0 0 0 0 0 0 0 1 2 3 3 2 1 1 1 1 2 2 2 3 3 5 7 11 9 10 9 10 11 11 12 11 10 10 8 8 8 9 8 7 6 5 4 2 3 2 2 1 1 1 0 0 0 0 1 2 4 4 6 4 4 8 51 126 180 190 139 81 46 23 14 9 7 6 5 5 4 3 2 1 1 1 1 1 1 1 1 2 3 7 9 18 43 80 108 105 74 37 14 7 8 6 7 9 10 8 8 8 9 8 11 16 23 21 17 8 7 6 7 6 5 5 6 8 10 12 13 13 12 15 18 26 23 23 13 12 10 11 13 13 15 16 18 13 12 8 9 12 16 17 16 10 10 12 15 18 20 23 19 15 9 7 7 10 10 13 18 20 21 16 15 16 16 18 17 16 13 11 16 18 27 24 27 28 39 42 36 31 27 19 16 11 17 18 21 24 22 19 15 12 10 10 13 17 18 17 17 15 13 9 7 7 9 11 11 10 7 6 6 7 8 10 12 15 29 74 126 134 101 62 58 77 78 69 55 45 37 26 18 9 7 6 4 2 2 3 3 4 5 5 4 5 5 6 8 11 19 23 33 46 47 40 22 9 6 4 3 2 1 1 1 2 3 3 3 3 6 6 7 7 19 87 192 252 217 115 27 5 4 3 0 0 0 0 0 0 0 0 0 0 0 0 0 0 0 0 0 0 0 0 0 0 0 0 0 0 1 1 0 0 1 1 2 4 6 7 7 7 7 8 11 10 11 12 10 13 12 13 11 12 11 13 15 13 13 9 10 12 11 10 9 9 8 5 8 9 12 12 11 14 11 12 9 8 8 8 10 10 9 12 11 15 10 10 11 14 15 14 12 10 9 9 10 12 11 9 6 6 7 9 9 10 9 9 9 10 11 9 11 9 10 9 7 9 8 8 10 5 0 
0 8 11 13 10 12 10 10 14 15 17 13 10 11 15 16 15 9 11 16 19 16 13 13 16 19 14 13 9 9 12 11 12 10 9 9 11 17 22 22 17 12 9 7 10 16 22 24 23 17 12 9 5 4 4 3 3 2 0 0 0 1 1 1 0 0 0 0 0 0 0 0 0 0 0 0 0 0 0 0 0 0 0 0 0 0 0 0 0 0 0 0 0 0 0 0 0 0 0 0 0 0 0 0 0 0 0 0 0 0 0 1 2 2 1 1 0 0 1 2 3 2 2 2 3 4 8 8 9 6 6 9 9 14 10 11 8 7 7 7 7 7 8 7 6 4 3 3 3 2 1 1 0 0 0 0 0 0 1 3 4 6 5 4 4 24 89 159 197 171 110 58 30 18 10 9 6 5 5 4 3 3 2 2 2 1 1 1 1 1 2 3 5 8 11 24 54 89 111 99 65 32 12 7 7 6 7 7 7 8 8 9 6 8 12 20 20 17 9 6 6 6 6 4 4 4 6 9 10 10 9 9 14 15 20 19 18 15 14 12 10 11 13 18 20 21 15 14 10 10 12 16 17 16 10 10 11 14 17 18 19 19 18 11 8 8 12 15 16 18 21 24 21 19 13 12 15 17 20 18 13 13 15 23 25 23 20 22 25 27 22 19 18 20 16 24 24 25 22 20 18 14 13 14 14 16 19 21 24 25 20 15 9 7 8 9 8 8 6 5 5 7 10 12 15 18 19 34 84 130 129 98 61 67 79 75 64 52 45 35 24 16 8 8 6 4 3 3 4 4 5 6 5 5 4 5 6 10 11 19 23 29 41 45 43 29 14 8 5 3 2 2 1 2 2 3 3 4 4 6 6 6 5 8 50 147 238 242 160 56 9 5 4 1 0 0 0 0 0 0 0 0 0 0 0 0 0 0 0 0 0 0 0 0 0 0 0 0 0 1 1 0 0 1 2 3 4 5 6 7 8 8 7 9 9 11 10 7 7 6 6 10 14 15 16 16 14 14 10 11 13 13 12 9 7 6 5 8 10 13 13 10 10 10 11 9 8 6 7 11 11 13 14 11 15 11 13 11 9 10 11 11 9 8 7 6 6 6 6 5 5 5 8 8 11 10 9 10 8 12 9 11 9 9 12 8 11 8 9 10 6 0 
0 8 11 16 11 14 9 10 14 14 18 14 12 12 14 12 12 8 9 11 17 15 19 15 16 17 14 13 9 10 11 13 12 9 7 6 7 11 16 19 16 13 9 11 9 13 20 23 24 22 15 10 5 2 3 4 3 2 0 0 0 1 2 1 1 0 0 0 0 0 0 0 0 0 0 0 0 0 0 0 0 0 0 0 0 0 0 0 0 0 0 0 0 0 0 0 0 0 0 0 0 0 0 0 0 0 0 0 0 0 0 0 1 1 1 0 0 0 1 1 2 2 2 2 2 3 6 7 9 8 7 9 7 12 9 11 9 7 7 6 7 8 10 7 7 4 5 4 3 2 1 1 0 0 0 0 0 0 1 2 4 4 4 3 3 9 53 128 189 193 143 76 38 23 12 11 9 6 5 4 4 4 3 2 2 1 1 1 1 1 2 2 3 6 8 12 30 61 97 109 92 59 30 11 7 5 8 7 7 8 9 9 9 8 8 15 16 17 11 8 6 6 7 5 5 6 8 13 14 15 13 12 13 14 16 16 15 12 11 12 13 13 12 13 13 14 15 14 12 10 14 17 18 15 12 11 10 12 13 16 18 18 17 14 13 12 13 15 14 16 20 24 21 18 11 11 13 16 21 22 19 18 15 20 22 22 25 25 21 20 18 24 18 20 16 21 19 22 26 24 22 17 16 17 18 14 16 22 29 31 22 15 7 7 7 7 7 8 8 8 9 8 11 14 19 22 25 41 93 134 122 94 59 75 80 72 60 52 44 33 21 13 7 6 5 4 4 5 5 5 5 6 6 4 4 6 6 11 12 19 23 27 37 46 47 35 19 8 5 5 4 3 2 2 3 4 4 3 4 6 5 5 3 4 22 101 209 252 201 94 19 5 4 2 0 0 0 0 0 0 0 0 0 0 0 0 0 0 0 0 0 0 0 0 0 0 0 0 0 1 1 0 0 1 1 2 4 5 5 5 6 8 7 10 11 13 12 10 8 7 6 9 14 16 18 17 15 14 10 10 12 12 12 10 7 6 5 8 11 11 10 8 7 10 12 9 8 7 10 16 17 15 13 11 16 13 13 11 12 15 13 11 8 7 6 6 6 7 7 8 7 9 9 9 10 10 10 14 10 14 10 11 11 9 12 9 13 9 11 9 6 0 
0 9 11 15 9 12 8 9 12 13 14 14 15 14 17 15 15 9 10 12 20 17 22 18 23 21 15 12 6 10 12 14 14 11 9 9 13 17 21 20 17 17 13 15 12 13 15 21 25 26 19 11 5 3 3 3 2 2 1 0 0 1 2 1 1 0 0 0 0 0 0 0 0 0 0 0 0 0 0 0 0 0 0 0 0 0 0 0 0 0 0 0 0 0 0 0 0 0 0 0 0 0 0 0 0 0 0 0 0 0 0 0 0 0 0 0 0 0 0 0 1 1 1 1 2 2 4 6 8 9 8 9 7 12 10 12 11 9 9 8 8 10 11 10 7 4 5 5 4 2 2 1 0 0 0 0 0 0 0 1 3 3 4 3 3 4 23 90 167 201 173 103 48 26 14 11 11 8 6 5 5 4 4 2 2 1 1 1 1 1 2 3 4 5 6 7 16 35 70 99 107 87 52 21 7 4 6 6 6 7 10 11 10 9 9 11 12 15 11 8 5 7 8 5 6 8 9 15 15 18 15 13 15 15 15 16 17 15 13 12 11 10 10 9 11 14 16 16 17 14 16 16 15 13 10 12 13 13 10 9 11 13 18 16 13 13 16 19 15 14 18 23 23 21 15 13 12 15 19 22 21 22 19 22 23 22 20 15 13 13 12 17 18 21 21 23 22 21 23 17 18 16 18 21 22 20 24 28 32 32 21 14 6 7 7 8 9 8 8 9 11 9 13 14 21 24 29 52 103 136 112 88 58 82 81 70 58 51 41 30 18 11 7 5 4 4 3 5 5 6 5 6 5 4 6 7 6 10 11 17 20 25 35 48 53 41 23 10 8 10 10 10 9 9 8 7 7 4 4 4 4 4 2 2 9 64 169 245 232 139 44 7 3 2 0 0 0 0 0 0 0 0 0 0 0 0 0 0 0 0 0 0 0 0 0 0 0 0 0 1 1 1 1 1 2 3 5 5 6 7 9 10 8 9 11 12 13 13 13 12 11 9 14 16 16 16 17 17 15 11 11 11 12 9 8 5 6 7 10 12 12 10 7 8 10 10 9 9 10 13 14 15 15 14 14 14 15 13 11 10 10 11 8 7 6 6 6 6 9 10 10 11 10 11 9 10 13 15 12 12 11 10 13 11 13 10 11 7 9 7 5 0 
0 8 9 14 8 10 9 10 13 13 15 15 16 19 19 18 16 13 12 11 13 14 16 14 15 14 10 8 4 8 14 17 15 12 13 12 13 15 16 15 11 12 11 14 11 12 11 18 26 28 22 12 5 3 4 3 2 2 1 1 1 1 1 1 1 0 0 0 0 0 0 0 0 0 0 0 0 0 0 0 0 0 0 0 0 0 0 0 0 0 0 0 0 0 0 0 0 0 0 0 0 0 0 0 0 0 0 0 0 0 0 0 0 0 0 0 0 0 0 0 0 0 1 1 2 2 2 4 8 11 10 9 6 8 9 11 10 10 9 11 10 16 13 11 6 4 5 5 4 2 2 2 1 0 0 0 0 0 0 0 2 1 2 3 3 4 9 53 135 197 198 139 66 30 17 11 11 9 6 6 5 5 4 2 2 1 1 1 1 1 2 2 3 3 5 5 11 20 43 75 102 106 82 45 17 7 6 6 7 7 8 10 12 14 12 10 12 13 12 10 7 5 6 7 8 10 10 19 18 24 20 16 15 13 17 20 18 15 11 12 13 11 10 6 8 12 14 18 16 18 18 18 18 15 14 13 13 12 11 9 10 15 20 20 19 17 15 20 15 15 17 24 27 26 18 14 10 12 14 20 21 21 20 22 26 27 25 19 12 11 13 14 15 14 14 13 15 15 19 17 21 22 22 27 26 27 27 28 30 27 18 11 7 7 7 7 8 10 12 12 12 10 12 14 22 27 36 65 112 133 102 78 60 85 82 69 56 49 37 26 16 11 7 4 3 3 4 6 6 8 5 6 4 5 7 8 7 8 8 13 17 22 34 50 58 46 28 15 19 23 25 26 26 26 26 24 21 17 13 9 6 4 2 4 6 36 124 220 250 183 81 15 4 2 0 0 0 0 0 0 0 0 0 0 0 0 0 0 0 0 0 0 0 0 0 0 0 0 0 1 1 1 1 2 2 3 4 5 6 6 9 10 10 9 13 12 13 11 11 12 13 13 18 19 19 20 18 18 14 10 9 9 11 10 9 7 7 9 10 12 11 9 9 10 11 9 7 7 8 9 10 10 10 11 13 13 11 11 12 11 10 8 7 7 6 6 9 9 13 11 13 12 12 11 9 11 12 15 16 14 15 12 14 11 13 11 10 7 7 7 4 0 
0 7 10 12 10 8 8 9 15 12 12 12 14 18 18 20 18 16 13 16 15 16 14 15 13 13 10 10 8 8 12 14 15 18 17 18 20 18 21 18 16 15 14 14 11 11 9 17 28 31 25 12 5 3 4 2 2 2 1 1 1 1 1 1 1 0 0 0 0 0 0 0 0 0 0 0 0 0 0 0 0 0 0 0 0 0 0 0 0 0 0 0 0 0 0 0 0 0 0 0 0 0 0 0 0 0 0 0 0 0 0 0 0 0 0 0 0 0 0 0 0 0 0 1 2 2 2 3 6 10 11 10 8 9 10 12 13 13 11 13 9 13 12 11 6 5 6 6 4 3 3 3 1 0 0 0 0 0 0 0 1 1 1 2 3 4 4 24 94 177 210 176 96 39 20 11 10 9 7 6 6 5 4 2 1 1 1 1 1 1 2 2 2 4 5 6 9 12 23 47 81 105 102 74 39 16 8 7 7 7 9 13 15 18 18 15 12 12 13 12 9 7 7 6 7 10 9 16 16 21 19 19 18 18 19 20 19 16 10 9 9 9 8 7 9 16 16 22 18 21 19 19 17 17 17 15 14 12 10 13 12 16 20 18 17 19 18 24 16 16 13 18 23 23 18 13 9 12 13 19 21 22 26 28 27 22 19 18 16 13 10 10 12 13 15 15 16 16 18 16 22 23 27 31 28 30 28 27 24 20 14 11 9 6 7 7 9 11 12 12 11 9 13 15 24 31 43 78 118 126 95 68 65 87 84 68 55 46 34 24 16 11 7 3 4 3 4 5 5 7 6 5 3 6 8 9 8 5 6 9 15 20 35 53 61 48 32 19 29 34 38 40 41 41 41 41 39 34 28 22 16 10 6 6 6 19 82 181 250 219 127 35 4 3 1 0 0 0 0 0 0 0 0 0 0 0 0 0 0 0 0 0 0 0 0 0 0 0 0 1 1 1 1 2 2 3 3 4 5 6 8 9 9 8 10 11 13 13 14 15 13 15 16 20 19 19 17 17 15 12 9 11 10 8 7 8 6 12 9 13 11 10 11 11 10 8 8 9 9 7 6 8 11 11 10 10 12 13 11 8 9 9 7 7 9 9 9 8 12 13 15 13 14 11 11 11 15 17 15 12 11 12 15 12 12 8 7 6 5 5 3 0 
0 5 9 10 10 9 11 11 13 11 11 9 14 18 18 21 16 20 16 17 15 17 12 11 9 11 12 9 7 7 11 13 13 17 17 17 19 16 21 16 17 15 14 11 9 12 11 21 30 33 26 11 4 4 4 3 2 1 0 0 1 1 1 1 0 0 0 0 0 0 0 0 0 0 0 0 0 0 0 0 0 0 0 0 0 0 0 0 0 0 0 0 0 0 0 0 0 0 0 0 0 0 0 0 0 0 0 0 0 0 0 0 0 0 0 0 0 0 0 0 0 0 0 1 1 2 2 2 5 10 11 10 6 6 8 10 10 12 11 12 10 11 10 10 8 9 9 8 5 3 3 3 1 0 0 0 0 0 0 1 1 1 2 2 3 4 4 11 55 144 206 203 134 55 25 15 11 9 7 6 6 5 3 1 1 1 0 1 1 1 1 2 2 3 5 7 10 9 12 24 52 86 106 99 71 37 16 8 8 10 10 10 15 20 22 22 16 15 15 15 13 11 12 12 12 10 8 13 13 18 16 17 14 14 15 17 16 14 12 9 9 9 8 8 11 18 20 26 24 21 20 16 17 18 19 16 14 15 12 17 12 15 17 17 18 21 23 27 20 21 21 29 32 27 19 11 7 11 14 17 18 19 20 24 24 23 19 17 15 15 11 14 14 14 13 11 13 15 17 17 24 22 30 31 34 33 27 21 17 14 11 11 11 8 7 7 10 12 12 10 10 8 13 16 26 36 50 86 120 118 89 63 71 90 84 67 54 45 33 23 15 11 8 4 4 3 4 4 5 4 5 3 3 6 9 9 8 4 6 9 15 22 37 55 62 49 37 28 39 39 39 40 41 42 43 44 45 44 42 37 30 22 16 12 8 10 45 135 233 244 174 69 10 4 1 0 0 0 0 0 0 0 0 0 0 0 0 0 0 0 0 0 0 0 0 0 0 0 0 1 1 1 1 2 2 2 3 2 3 4 6 6 7 6 10 12 13 12 9 10 11 17 17 25 21 19 15 14 13 14 11 13 10 11 8 12 7 13 10 14 9 9 11 11 10 8 7 6 7 7 8 9 10 11 9 8 8 9 10 9 8 8 7 8 8 8 9 10 12 12 14 12 13 11 13 13 17 17 15 14 12 13 12 12 11 9 7 6 8 11 8 0 
0 6 11 12 12 10 10 12 12 10 10 6 10 13 12 17 15 22 19 21 23 19 17 15 13 12 13 11 9 7 10 14 15 17 16 17 19 20 27 25 27 19 15 11 9 14 12 23 28 34 25 13 4 3 3 2 1 0 0 0 0 0 1 0 0 0 0 0 0 0 0 0 0 0 0 0 0 0 0 0 0 0 0 0 0 0 0 0 0 0 0 0 0 0 0 0 0 0 0 0 0 0 0 0 0 0 0 0 0 0 0 0 0 0 0 0 0 0 0 0 0 0 0 0 1 1 2 3 4 7 10 11 11 10 10 11 10 10 10 9 8 9 10 12 11 13 13 11 7 4 3 3 1 0 0 0 0 0 0 1 2 2 2 2 3 4 5 6 24 107 189 215 169 79 32 18 12 9 7 6 7 5 3 1 1 1 0 1 1 1 2 2 3 4 5 5 6 6 8 12 27 56 87 106 98 69 37 15 10 13 15 15 16 19 22 21 17 15 16 18 19 20 17 15 11 12 9 11 10 16 13 16 16 16 16 14 14 12 9 8 8 7 8 8 11 18 22 26 26 19 17 13 14 17 17 16 15 14 11 15 13 16 12 9 12 17 19 21 19 19 17 18 18 18 15 9 8 13 15 18 17 21 28 37 29 20 13 14 14 18 14 18 15 15 14 12 12 12 15 19 24 19 27 29 37 30 23 18 17 15 12 12 12 10 11 12 14 14 13 8 9 8 13 17 28 40 55 89 117 110 84 63 75 92 85 67 55 44 33 23 15 10 7 4 4 4 5 4 4 4 4 2 3 5 8 8 6 4 6 9 16 26 44 59 61 45 36 32 42 37 31 27 27 27 29 32 35 37 40 41 40 35 28 21 14 9 22 89 197 251 214 112 24 3 1 1 0 0 0 0 0 0 0 0 0 0 0 0 0 0 0 0 0 0 0 0 0 0 0 1 1 1 1 1 2 2 2 1 2 2 3 3 6 5 8 12 14 13 9 8 9 13 14 22 20 18 14 14 12 15 13 16 13 12 9 11 8 11 11 12 10 9 11 11 11 8 9 11 12 9 8 10 11 10 11 8 9 9 9 11 12 12 12 13 10 8 6 6 9 10 12 10 11 10 12 16 18 20 13 11 8 10 11 11 9 8 10 14 15 14 7 0 
0 7 13 14 14 12 12 10 9 6 7 7 11 12 12 14 17 21 24 18 22 18 24 20 21 23 19 13 10 7 10 13 14 15 14 13 17 17 20 19 21 20 13 8 8 14 13 21 24 32 24 14 5 3 3 2 1 0 0 0 0 0 0 0 0 0 0 0 0 0 0 0 0 0 0 0 0 0 0 0 0 0 0 0 0 0 0 0 0 0 0 0 0 0 0 0 0 0 0 0 0 0 0 0 0 0 0 0 0 0 0 0 0 0 0 0 0 0 0 0 1 1 0 0 0 0 2 3 4 6 8 8 9 9 10 9 8 7 8 9 8 8 10 12 14 17 18 16 10 5 2 2 2 0 0 0 0 0 1 1 2 2 3 3 3 3 5 7 11 66 161 213 195 108 42 23 14 11 8 7 7 6 4 2 1 2 0 1 1 1 2 3 4 5 4 5 5 4 4 6 12 30 59 91 108 98 68 36 17 13 14 15 15 15 17 18 17 16 18 19 22 26 23 23 12 11 7 9 10 11 10 12 15 13 17 12 13 11 9 10 7 6 6 7 8 14 19 23 22 17 13 9 10 14 16 19 17 14 12 12 12 14 15 12 12 17 21 21 20 20 27 35 33 27 17 14 13 16 15 16 15 19 21 26 25 21 13 13 12 19 16 22 19 19 16 15 13 13 15 19 20 17 24 29 36 29 25 23 23 21 16 15 17 15 16 15 15 13 10 7 7 8 13 18 30 43 60 92 114 103 78 64 77 93 85 68 55 42 30 20 13 9 7 3 4 4 4 4 3 3 3 2 3 5 7 7 6 5 7 10 21 33 52 63 59 41 35 36 44 34 20 12 11 10 10 13 15 20 25 31 36 38 36 31 22 14 12 51 151 241 242 157 51 4 2 2 2 3 2 1 1 0 0 0 0 0 0 0 0 0 0 0 0 0 0 0 0 0 0 1 1 2 2 2 2 2 2 1 2 2 3 3 4 4 8 12 14 12 9 7 9 10 12 17 17 17 14 14 12 14 13 14 11 10 10 10 9 10 11 12 11 10 10 10 10 9 9 8 10 11 11 12 13 10 10 7 7 7 9 11 12 14 13 10 9 7 5 5 7 8 11 9 9 11 14 18 18 18 16 14 9 9 9 8 9 11 11 14 16 19 13 0 
0 8 13 15 15 14 13 15 13 10 9 10 13 13 14 12 16 16 20 17 19 15 19 22 21 19 15 13 15 11 14 15 16 13 14 12 18 19 24 22 19 17 11 8 9 12 13 17 21 28 25 15 6 2 3 2 1 0 0 0 0 0 0 0 0 0 0 0 0 0 0 0 0 0 0 0 0 0 0 0 0 0 0 0 0 0 0 0 0 0 0 1 1 1 1 0 0 0 0 0 0 0 0 0 0 0 0 0 0 0 0 0 0 0 0 0 0 0 0 0 1 1 0 0 0 0 2 2 4 3 5 7 10 12 12 9 8 7 10 10 11 10 14 14 15 16 19 19 15 8 4 2 1 0 0 0 0 0 1 1 1 2 3 3 3 2 4 5 7 36 131 202 210 141 55 27 16 10 7 8 8 7 4 3 2 2 1 1 1 1 2 3 4 3 3 3 2 2 3 4 7 14 33 63 94 110 97 66 34 20 16 15 13 14 12 11 11 10 13 16 22 29 26 24 12 10 8 9 11 13 11 10 15 14 20 13 13 9 8 9 8 8 6 7 6 8 12 15 16 14 12 10 12 15 17 17 15 12 10 8 14 15 17 14 13 14 14 11 13 16 20 21 18 18 17 18 18 19 17 17 16 18 23 24 23 16 10 11 8 15 16 24 20 20 14 18 13 13 12 18 17 18 23 29 33 27 20 25 28 28 21 15 14 15 17 18 17 14 10 8 6 6 12 20 33 47 66 96 111 93 72 61 77 93 86 70 56 38 25 17 12 9 7 5 4 4 3 4 3 3 3 3 3 4 6 6 5 6 8 11 25 40 59 64 53 34 30 38 46 35 16 5 4 3 4 6 6 7 11 18 25 31 34 36 32 24 14 27 106 215 255 197 88 12 2 4 2 3 2 2 1 0 0 0 0 0 0 0 0 0 0 0 0 0 0 0 0 0 0 0 1 2 2 2 2 2 2 1 2 2 2 2 3 4 8 11 13 12 9 7 7 6 9 12 14 16 15 14 12 12 12 14 12 10 11 12 13 13 14 14 11 10 9 9 9 9 9 10 10 9 10 10 9 8 7 6 7 7 10 15 18 15 15 13 10 5 4 5 6 8 9 8 8 9 14 17 21 16 13 10 8 8 7 7 8 11 15 22 22 21 10 0 
0 9 15 20 15 19 16 16 16 14 12 12 13 14 11 11 13 14 16 14 14 15 21 25 22 20 17 14 18 20 19 16 16 16 15 15 17 16 16 14 15 16 13 10 11 12 13 14 20 25 24 15 6 3 3 2 2 1 1 0 0 0 0 0 0 0 0 0 0 0 0 0 0 0 0 0 0 0 0 0 0 0 0 0 0 0 0 0 0 0 0 1 2 2 2 1 0 0 0 0 0 0 0 0 0 0 0 0 0 0 0 0 0 0 0 0 0 0 0 0 0 0 0 0 0 0 1 2 4 3 4 4 7 9 11 8 8 7 10 10 12 10 12 11 13 14 19 20 18 11 6 3 2 1 0 0 0 1 1 1 1 1 2 2 2 2 3 4 6 16 98 186 215 173 78 32 20 11 8 9 9 8 5 4 3 3 1 1 1 2 3 3 3 3 3 2 2 2 3 3 6 9 17 35 65 96 108 95 62 31 15 13 12 11 10 7 8 9 12 13 18 25 27 24 14 9 8 10 11 9 8 7 12 12 18 14 11 7 6 9 8 9 6 6 6 6 9 8 10 11 13 15 13 16 16 15 13 10 9 9 14 16 20 20 20 22 23 17 14 13 16 19 20 18 16 18 22 26 25 21 18 17 18 15 15 13 11 14 12 13 13 19 17 21 14 19 14 14 13 15 13 16 21 27 27 19 19 29 31 30 23 18 15 13 15 14 13 11 9 7 6 6 14 22 36 52 71 99 107 82 66 55 78 92 87 73 55 34 21 14 11 9 6 4 4 5 4 4 3 3 3 4 4 6 6 6 7 9 11 15 34 47 61 60 45 28 24 40 46 37 17 5 4 4 4 4 4 4 6 8 12 17 23 32 34 31 22 18 69 178 251 228 130 31 4 5 3 5 3 3 1 1 0 0 0 0 0 0 0 0 0 0 0 0 0 0 0 0 0 0 1 1 1 1 1 1 1 1 1 1 2 2 3 4 7 11 12 11 10 8 7 5 7 9 13 16 17 14 12 10 12 10 10 7 8 8 10 11 11 13 11 9 9 8 8 9 8 10 10 10 11 9 10 9 8 9 9 9 10 11 13 13 13 8 8 7 6 7 7 10 9 9 9 11 18 16 16 13 13 10 8 6 6 7 10 11 12 14 14 17 10 0 
0 7 11 16 15 17 18 22 22 17 17 15 15 18 16 14 10 8 11 11 14 15 16 16 14 10 8 13 18 22 21 24 19 22 18 17 14 19 17 18 15 14 12 12 11 12 12 12 17 21 22 15 8 4 3 3 1 1 1 1 1 1 0 0 0 0 0 0 0 0 0 0 0 0 0 0 0 0 0 0 0 0 0 0 0 0 0 0 0 0 1 2 2 3 2 1 0 0 0 0 0 0 0 0 0 0 0 0 0 0 0 0 0 0 0 0 0 0 0 0 0 0 0 0 0 0 1 2 3 3 3 4 6 9 11 9 8 9 13 13 14 12 15 15 15 14 20 21 20 13 8 4 2 1 1 1 1 1 1 1 1 1 1 2 2 1 1 2 4 6 62 161 213 197 112 42 24 12 8 9 9 8 6 4 3 3 1 1 1 2 2 3 2 2 2 1 1 1 2 2 4 8 12 19 38 66 96 106 90 57 27 11 10 9 9 7 7 7 7 7 13 20 24 21 13 9 9 9 11 10 8 5 8 10 13 11 8 5 4 8 8 9 7 7 8 6 7 6 8 12 12 15 12 15 13 11 8 9 9 12 14 16 19 21 26 25 21 15 13 11 10 9 8 9 12 17 21 23 24 23 21 19 18 17 13 10 8 9 9 9 12 16 15 18 13 16 16 16 19 17 15 15 21 24 23 15 17 23 27 29 22 17 12 8 8 9 9 9 8 8 8 10 17 26 38 54 75 101 103 73 56 50 78 92 88 72 52 30 18 12 9 8 4 3 5 4 4 4 4 4 6 6 6 6 8 10 10 10 12 18 39 50 60 54 38 26 22 40 46 38 16 4 4 4 3 5 4 4 6 6 7 8 12 23 30 32 27 19 46 137 232 246 171 64 10 6 4 4 3 3 1 1 0 0 0 0 0 0 0 0 0 0 0 0 0 0 0 0 0 0 0 0 1 1 1 0 0 0 0 0 1 2 3 4 6 10 11 11 10 8 7 4 7 9 13 17 17 14 13 11 15 12 9 6 9 10 11 13 11 10 10 9 7 7 7 10 9 10 9 10 10 9 8 7 6 8 9 10 10 13 15 14 15 10 9 6 5 9 7 10 8 8 8 10 13 16 16 13 8 5 5 6 7 7 8 9 11 14 15 14 9 0 
0 8 14 16 16 17 18 19 19 16 17 14 17 16 15 14 14 9 11 13 19 23 23 20 13 12 10 12 14 20 19 23 20 19 15 16 11 16 15 21 22 22 15 14 11 15 12 12 14 20 21 16 9 3 2 2 1 1 1 2 2 1 1 0 0 0 0 0 0 0 0 0 0 0 0 0 0 0 0 0 0 0 0 0 0 0 0 0 0 0 1 2 2 2 2 1 0 0 0 0 0 0 0 0 0 0 0 0 0 0 0 0 0 0 0 0 0 0 0 0 0 0 0 0 0 0 0 1 1 3 3 4 5 8 10 10 7 7 10 11 14 12 14 13 13 13 16 17 17 12 9 7 4 2 1 2 2 2 2 2 1 1 1 1 1 1 1 2 3 5 34 127 202 212 150 62 28 15 9 9 9 8 6 3 3 2 1 1 1 2 2 2 1 1 1 1 2 1 2 1 2 5 9 13 20 36 68 97 103 81 45 17 8 6 6 6 6 8 9 8 10 16 19 20 14 10 11 11 10 8 6 4 6 8 10 9 7 5 6 9 9 8 8 6 8 8 9 9 9 10 12 13 12 14 10 9 7 8 11 13 13 14 16 18 22 21 19 14 11 10 10 8 6 7 7 10 16 21 22 21 19 17 17 15 11 7 7 10 13 10 10 11 13 16 12 14 18 16 21 18 18 14 18 19 20 16 17 23 27 27 23 18 12 6 7 7 7 6 5 8 12 16 22 27 36 51 78 103 98 66 46 50 80 95 88 69 47 27 17 11 8 6 3 3 5 4 6 5 6 7 7 7 6 6 6 8 9 11 13 23 44 52 54 47 34 26 23 38 46 38 16 5 3 4 3 3 3 4 5 6 5 5 6 14 22 28 28 23 29 97 200 252 208 106 23 4 4 3 3 2 0 0 0 0 0 0 0 0 0 0 0 0 0 0 0 0 0 0 0 0 0 0 0 0 0 0 0 0 0 0 1 2 2 3 4 7 9 9 10 7 8 5 10 12 16 18 16 13 11 10 14 14 13 7 6 5 8 7 9 8 7 8 8 7 9 11 12 12 10 10 9 9 7 10 10 11 11 11 9 10 10 10 13 9 9 5 5 8 8 10 8 8 9 12 13 12 11 11 10 8 7 8 9 10 12 12 8 9 11 10 6 0 
0 6 13 13 14 16 17 21 17 16 15 16 19 16 20 15 16 11 12 13 20 24 21 17 10 8 7 10 13 18 20 21 22 22 16 13 11 13 14 19 19 18 12 12 12 14 11 10 12 19 22 19 11 5 3 2 1 1 1 2 2 2 1 0 0 0 0 0 0 0 0 0 0 0 0 0 0 0 0 0 0 0 0 0 0 0 0 0 0 0 1 2 2 2 2 1 0 0 0 0 0 0 0 0 0 0 0 0 0 0 0 0 0 0 0 0 0 0 0 0 0 0 0 0 0 0 0 1 1 3 3 3 3 7 9 11 9 8 10 10 13 12 15 15 15 13 13 14 13 11 8 7 6 4 2 2 2 2 2 2 1 1 1 1 1 0 1 2 3 4 14 86 181 218 184 91 33 19 11 9 8 8 6 3 2 2 1 1 1 2 2 2 2 2 2 2 2 1 2 2 4 6 9 11 13 19 39 72 98 100 72 36 14 6 5 5 6 6 7 7 10 16 19 18 15 12 11 11 9 9 8 7 8 9 8 7 4 5 5 7 9 7 8 7 9 9 10 12 13 10 11 9 10 11 8 6 6 7 10 11 12 13 13 16 19 19 14 10 10 10 11 11 11 11 13 13 13 13 15 15 13 12 14 13 11 8 7 6 7 8 10 10 11 12 12 15 19 20 30 26 21 13 13 18 21 20 22 28 28 24 19 15 13 8 7 7 6 6 5 10 17 21 25 24 31 49 82 105 94 60 39 52 83 97 86 63 41 23 16 10 7 6 3 2 3 3 4 4 6 7 8 10 7 6 6 8 10 10 12 27 45 50 46 40 32 28 25 37 44 36 15 4 3 3 3 3 3 4 5 6 4 4 5 9 15 22 26 27 23 66 159 243 235 148 46 4 3 2 3 2 1 0 0 0 0 0 0 0 0 0 0 0 0 0 0 0 0 0 0 0 0 0 0 0 0 0 0 0 0 0 1 2 2 3 3 6 8 10 11 9 11 8 13 15 19 18 14 10 8 11 13 13 12 9 7 8 11 10 11 10 10 10 10 12 14 15 15 13 12 11 10 10 7 7 6 7 7 8 7 9 12 15 16 10 7 5 6 7 6 8 6 8 10 10 10 12 13 12 9 11 12 12 11 10 8 7 7 7 8 8 6 0 
0 7 13 14 13 14 13 18 13 14 12 16 16 16 17 15 17 14 13 14 20 23 22 20 18 19 17 17 14 15 14 18 16 15 11 9 9 9 11 19 20 18 11 9 11 12 12 11 11 19 25 23 14 4 2 2 1 1 1 2 2 2 1 0 0 0 0 0 0 0 0 0 0 0 0 0 0 0 0 0 0 0 0 0 0 0 0 0 0 0 1 2 2 2 2 1 0 0 0 0 0 0 0 0 0 0 0 0 0 0 0 0 0 0 0 0 0 0 0 0 0 0 0 0 0 0 0 1 1 3 3 3 2 6 8 12 10 10 8 8 9 9 11 9 8 7 8 10 10 8 7 8 6 5 3 2 2 2 2 2 1 1 1 1 1 0 1 2 3 4 5 48 150 213 207 127 46 24 15 10 8 7 7 4 2 1 1 2 2 2 2 3 2 2 2 2 2 1 2 3 5 6 7 8 10 12 21 46 77 96 91 61 31 11 5 4 5 6 7 7 10 13 18 17 16 13 10 10 8 9 9 11 13 13 10 7 4 6 7 8 7 5 8 8 8 9 10 13 12 13 10 9 8 8 6 5 5 6 7 8 9 10 12 14 12 13 11 9 9 8 10 11 13 13 14 13 14 10 9 9 9 11 9 11 12 10 9 8 10 9 9 10 9 12 13 13 17 20 26 22 20 15 15 20 24 26 30 31 28 21 17 11 11 7 9 10 9 8 8 14 21 24 24 20 27 50 87 108 89 55 36 56 85 96 82 57 37 21 15 10 8 7 2 2 2 3 3 3 5 6 7 7 6 6 7 7 8 9 15 31 47 47 38 36 32 30 27 38 44 35 14 3 2 2 2 3 2 4 5 6 4 5 5 7 11 19 24 27 21 42 118 220 248 187 80 12 3 3 2 2 1 0 0 0 0 0 0 0 0 0 0 0 0 0 0 0 0 0 0 0 0 0 0 0 0 0 0 0 0 0 0 2 2 3 2 4 8 11 12 11 12 10 16 18 22 19 12 8 6 7 11 14 13 11 10 11 12 11 10 9 7 11 9 15 15 18 17 12 11 11 10 11 8 10 9 8 8 8 7 9 10 12 12 9 7 6 9 9 9 9 9 12 9 12 12 11 11 13 14 14 14 13 12 11 14 11 9 7 7 7 4 0 
0 6 11 13 13 14 14 14 11 13 11 17 16 18 16 18 17 17 11 11 12 13 18 18 20 19 16 17 17 19 14 16 12 13 10 9 8 7 10 13 13 13 7 7 10 12 12 11 12 21 26 25 16 5 2 2 1 1 1 2 2 1 1 0 0 0 0 0 0 0 0 0 0 0 0 0 0 0 0 0 0 0 0 0 0 0 0 0 0 0 1 2 2 2 2 1 0 0 0 0 0 0 0 0 0 0 0 0 0 0 0 0 0 0 0 0 0 0 0 0 0 0 0 0 0 0 0 0 1 3 3 3 2 5 6 11 12 12 11 8 8 8 8 9 10 7 7 8 8 7 6 7 8 7 5 3 2 3 3 3 2 1 1 1 1 1 1 2 3 4 3 22 113 198 218 161 68 30 19 11 7 7 7 5 3 1 2 2 2 3 2 3 2 2 2 2 2 1 2 3 5 7 7 8 10 15 23 40 63 82 93 81 54 26 9 8 8 7 7 6 10 11 18 18 16 13 9 9 7 10 11 16 16 16 12 8 5 6 6 6 6 5 5 6 6 9 8 15 10 15 9 10 7 6 5 5 5 7 6 6 9 11 11 13 13 13 12 10 10 6 7 9 13 15 18 13 14 11 11 11 10 11 9 11 11 14 17 16 15 11 8 9 9 15 12 14 16 17 21 21 18 12 16 24 29 32 34 32 26 16 11 8 11 7 10 11 12 13 13 20 24 24 23 21 31 56 92 108 83 54 36 61 84 93 78 54 34 20 15 9 8 7 3 2 2 3 4 4 4 4 6 7 7 5 5 7 9 9 19 36 48 43 30 32 32 31 28 38 43 35 13 3 2 2 3 3 3 5 5 6 4 5 6 6 9 16 20 26 23 29 85 184 247 218 121 31 4 3 3 3 2 1 0 0 0 0 0 0 0 0 0 0 0 0 0 0 0 0 0 0 0 0 0 0 0 0 0 0 0 0 0 1 2 3 4 6 9 11 12 12 13 12 18 20 23 19 11 7 5 6 8 11 11 9 12 13 15 14 11 12 10 14 11 19 15 17 14 14 14 13 11 12 9 9 6 6 6 6 6 9 10 14 12 9 9 9 12 9 8 7 7 12 11 17 12 13 12 10 11 12 13 13 11 10 9 7 6 6 5 6 4 0 
0 5 11 13 15 12 14 11 11 11 10 16 14 18 15 18 17 17 11 9 10 8 16 18 25 26 24 19 16 14 11 11 9 10 9 10 9 7 9 13 14 11 5 5 6 8 10 11 10 20 25 26 18 7 5 3 2 1 1 2 2 1 1 0 0 0 0 0 0 0 0 0 0 0 0 0 0 0 0 0 0 0 0 0 0 0 0 0 0 0 1 2 2 2 2 1 0 0 0 0 0 0 0 0 1 1 0 0 0 0 0 0 0 0 0 0 0 0 0 0 0 0 0 0 0 0 0 1 2 2 3 3 2 3 4 9 12 13 12 11 8 7 6 6 7 6 5 6 6 6 5 7 8 8 6 5 4 4 3 3 2 1 1 1 1 1 2 3 3 4 3 9 76 174 219 189 100 40 24 14 7 6 7 6 4 2 2 2 2 2 2 2 2 2 1 1 2 2 2 4 5 7 9 15 26 37 44 48 53 66 82 86 76 47 18 9 9 7 7 4 7 7 14 16 16 14 8 8 6 11 11 20 17 19 14 10 6 7 7 5 6 4 5 5 5 9 7 12 8 14 8 10 6 4 4 5 6 7 5 6 8 9 11 11 11 15 17 14 13 7 6 5 10 12 15 14 15 14 12 12 11 14 13 16 17 19 19 16 15 11 10 11 10 12 12 10 9 12 14 12 11 15 23 29 32 32 33 29 22 11 10 8 10 6 8 10 12 14 16 23 25 25 24 25 36 60 94 105 79 56 39 64 79 87 74 52 33 18 14 9 8 7 3 2 3 3 3 3 3 4 5 5 5 6 7 9 8 11 26 41 48 36 24 31 32 31 28 39 44 35 12 3 2 2 3 3 3 4 5 5 4 5 5 6 9 15 18 23 22 23 60 143 229 238 164 67 11 3 3 3 2 2 1 1 0 0 0 0 0 0 0 0 0 0 0 0 0 0 0 0 0 0 0 0 0 0 0 0 0 0 0 1 2 3 6 9 10 10 9 8 11 11 16 19 22 19 11 7 6 8 8 11 11 10 13 13 14 10 7 8 9 14 13 18 11 14 10 10 10 10 11 11 11 11 12 12 11 8 6 9 9 13 9 10 10 12 13 11 7 7 8 13 12 16 12 13 10 8 10 9 9 8 7 9 10 9 8 5 7 7 5 0 
0 5 11 13 15 13 13 10 10 12 10 17 13 18 16 19 21 17 13 7 8 6 12 16 23 22 19 17 14 11 11 11 8 6 6 6 6 6 8 11 13 12 10 8 8 10 10 15 10 18 25 28 22 9 5 5 3 1 1 1 1 1 1 0 0 0 0 0 0 0 0 0 0 0 0 0 0 0 0 1 1 1 1 0 0 0 0 0 0 0 1 1 2 2 2 1 0 0 0 0 0 0 0 0 1 1 1 0 0 0 0 0 0 0 0 0 0 0 0 0 0 0 0 0 0 0 0 1 1 2 2 2 2 2 3 6 9 13 12 13 11 10 5 7 7 8 6 7 5 6 6 9 10 8 6 4 4 4 3 3 2 1 1 1 1 1 2 3 4 5 4 5 45 141 209 208 137 57 30 17 9 7 5 6 4 3 3 3 3 2 1 1 2 1 2 1 2 2 2 3 5 12 21 33 46 54 57 55 53 49 72 83 90 69 37 19 15 10 8 3 6 7 12 15 16 15 11 10 9 10 11 16 16 18 14 10 7 6 6 5 5 3 4 5 7 8 7 9 8 12 10 9 7 6 5 6 7 8 7 6 9 7 9 10 11 15 15 14 14 8 7 4 7 11 12 14 13 15 14 15 15 17 15 15 15 16 20 18 20 12 12 10 14 11 12 8 9 9 12 13 11 13 21 28 31 30 30 27 21 14 9 8 9 8 7 8 9 12 16 22 24 24 27 30 38 58 90 99 78 58 44 64 74 80 70 50 32 18 14 10 9 7 4 3 4 4 4 4 3 4 5 6 4 6 5 8 7 14 32 46 45 29 19 30 33 31 28 40 45 35 12 3 3 3 4 3 3 4 4 5 4 4 4 5 10 13 16 19 21 21 40 104 195 243 200 110 31 5 4 4 3 1 1 1 1 1 1 0 0 0 0 0 0 0 0 0 0 0 0 0 0 0 0 0 0 0 0 0 0 1 1 1 1 3 6 11 13 12 8 7 8 9 15 20 23 21 14 10 8 9 9 13 11 11 12 13 14 12 10 12 11 12 12 14 10 10 8 11 13 12 10 9 9 9 10 10 10 9 7 8 9 10 8 9 11 14 12 10 6 5 7 11 17 17 13 9 7 5 7 5 6 6 7 8 8 7 8 6 8 8 5 0 
0 7 12 14 15 15 13 13 10 12 8 15 12 17 16 16 21 15 15 7 8 9 10 14 13 18 18 16 12 12 12 11 8 7 8 8 8 6 7 8 13 12 14 12 12 12 11 10 8 15 23 29 26 17 8 6 4 2 1 1 1 1 1 1 0 0 0 0 0 0 0 0 0 0 0 0 0 0 1 1 1 1 1 1 0 0 0 0 0 0 1 1 1 1 1 1 0 0 0 0 0 0 0 0 1 1 1 1 1 1 0 0 0 0 0 0 0 0 0 0 0 0 0 0 0 0 0 1 1 1 1 1 1 1 1 4 7 9 12 13 12 9 6 9 7 9 6 7 5 5 6 8 8 7 6 5 6 5 3 2 2 1 2 1 2 2 2 4 4 6 4 5 21 101 187 218 174 84 36 20 14 9 5 6 4 4 3 3 2 1 1 1 2 2 2 2 3 4 3 5 11 24 40 54 61 59 53 45 55 46 61 73 90 90 65 38 19 11 7 6 7 8 10 13 15 16 16 13 12 9 13 13 16 16 14 9 6 6 6 7 8 7 6 7 8 10 7 8 8 12 12 10 8 7 6 8 9 8 8 8 11 10 10 8 9 15 15 16 15 9 7 4 5 10 12 16 14 18 14 14 14 16 16 15 15 14 15 10 12 12 15 13 14 9 8 4 7 7 8 7 7 12 20 26 26 23 24 26 23 17 13 12 12 9 7 6 7 10 14 20 23 26 31 31 36 54 86 94 79 60 49 64 68 74 67 49 31 19 15 12 9 7 4 3 3 4 4 3 3 4 4 5 4 9 8 12 9 21 39 49 41 22 16 30 34 30 29 41 45 34 11 3 2 4 3 3 3 4 4 4 4 4 3 5 9 12 15 16 19 22 25 72 150 229 223 152 62 14 6 4 4 2 3 2 2 2 1 1 0 0 0 0 0 0 0 0 0 0 0 0 0 0 0 0 0 0 0 0 1 1 1 0 1 2 5 9 10 10 8 7 7 8 16 20 23 20 12 10 11 10 11 14 12 14 13 13 14 10 8 7 7 10 12 13 12 8 8 8 9 10 8 8 8 10 12 13 12 10 8 8 8 10 10 10 9 10 11 8 6 5 6 7 15 14 16 8 7 5 6 4 5 6 7 7 6 6 7 8 9 9 4 0 
0 7 12 13 13 13 13 13 12 13 9 13 12 13 13 14 16 14 15 10 8 10 8 11 11 16 19 18 21 12 15 13 14 11 13 12 13 9 10 7 10 11 15 15 15 15 13 13 11 12 21 31 30 22 9 7 5 3 1 0 0 0 1 1 1 0 0 0 0 0 0 0 0 0 0 0 0 1 1 1 0 0 1 1 1 0 0 0 0 1 1 0 1 1 1 0 0 0 0 0 1 1 1 1 1 0 0 0 1 1 1 0 0 0 0 0 0 0 0 0 0 0 0 0 0 0 1 1 1 1 0 0 0 1 1 3 6 8 12 11 12 9 7 8 8 11 9 11 7 8 8 9 8 6 5 5 5 4 3 2 1 1 2 1 2 2 2 4 4 6 5 7 9 62 157 216 203 119 46 24 17 13 8 7 4 5 3 3 2 1 0 0 1 2 3 3 3 3 4 9 22 40 57 63 57 45 32 24 44 49 60 65 77 94 88 67 41 22 12 11 12 11 9 10 11 16 19 16 15 9 12 11 15 12 11 7 5 6 6 6 4 4 5 7 7 9 5 7 7 12 11 12 9 7 9 9 9 8 7 7 9 8 9 9 8 11 13 14 14 9 8 6 9 12 11 14 10 14 10 13 13 16 15 16 15 11 11 10 14 17 17 19 15 13 8 7 8 10 10 9 6 11 17 22 23 22 25 27 25 20 15 10 9 9 9 7 7 9 13 18 22 29 35 33 34 53 84 91 77 60 55 65 65 69 63 48 32 20 17 13 9 6 3 3 3 3 2 3 3 4 6 6 7 11 10 11 10 29 44 49 34 15 14 30 34 30 29 42 46 34 11 4 2 4 3 3 3 4 4 4 4 4 3 4 8 10 13 14 17 20 19 47 111 200 228 184 97 33 12 4 5 2 2 2 2 2 2 1 1 0 0 0 0 0 0 0 0 0 0 0 0 0 0 0 0 0 0 1 1 1 0 0 2 2 4 7 9 10 10 8 7 9 16 21 23 20 16 10 11 10 13 16 16 18 17 16 16 11 9 7 7 6 9 10 11 7 9 9 12 10 9 6 8 8 11 9 8 9 8 8 9 10 10 11 11 11 10 10 10 7 7 7 14 11 12 5 6 5 5 4 6 7 9 8 7 6 7 10 9 11 5 0 
0 7 12 11 11 11 13 13 13 12 11 12 17 16 16 11 13 15 14 13 9 9 9 9 8 10 18 19 21 15 21 14 17 13 18 18 18 13 10 7 8 9 12 15 18 18 14 10 11 14 20 31 31 26 15 7 4 3 0 0 0 0 0 1 1 0 0 0 0 0 0 0 0 0 0 0 0 1 1 0 0 0 0 1 1 0 0 0 0 1 1 0 0 1 1 0 0 0 1 1 1 1 1 1 1 0 0 1 1 1 1 1 1 0 0 0 0 0 0 1 0 0 0 0 0 1 1 1 1 0 0 0 0 1 1 3 4 8 13 13 15 11 11 11 12 14 13 14 10 11 7 7 5 4 5 6 7 6 3 2 1 1 1 1 1 2 2 4 3 7 4 7 4 27 120 202 218 156 64 28 20 14 9 8 4 5 4 3 2 0 0 0 1 2 2 4 5 6 10 21 41 59 66 59 41 23 13 11 32 48 59 60 64 81 94 88 65 38 20 12 13 13 10 9 7 13 20 18 17 9 11 11 14 11 10 6 4 6 6 7 5 5 5 6 5 6 4 7 7 11 10 10 9 7 9 9 12 9 9 11 13 13 9 9 9 10 12 12 12 11 8 9 10 11 10 11 8 13 10 12 10 15 12 15 11 11 8 8 12 17 20 22 19 18 13 9 7 5 5 4 3 8 15 21 24 25 26 25 22 19 16 15 12 11 11 10 9 9 12 16 22 33 40 35 35 58 86 89 74 59 62 70 64 64 58 45 32 22 19 13 7 5 3 3 2 2 2 4 5 6 6 7 11 12 12 11 18 35 48 48 28 11 14 30 34 29 30 44 46 35 11 5 3 4 3 3 4 4 3 4 3 3 2 5 7 9 11 13 15 17 17 28 83 166 217 200 128 59 28 10 4 3 3 3 2 2 2 2 1 0 0 0 0 0 0 0 0 0 0 0 0 0 0 0 0 0 0 1 1 0 0 0 2 3 4 4 6 10 11 9 8 13 16 21 21 15 12 7 10 10 14 15 16 15 18 17 17 13 11 6 4 4 8 9 12 9 10 8 10 7 8 5 10 8 11 9 8 9 8 8 8 11 13 12 9 9 9 8 9 7 7 5 11 11 12 8 7 6 6 6 8 9 8 7 6 4 7 10 10 11 4 0 
0 6 9 11 14 15 14 13 13 12 14 13 16 12 11 9 10 14 14 13 10 10 12 11 11 13 18 21 23 21 19 16 17 17 25 22 20 16 13 11 12 11 15 15 18 17 18 17 14 13 16 25 31 28 17 8 4 2 1 0 0 0 0 1 1 0 0 0 0 0 1 1 0 0 0 0 0 1 1 0 0 0 0 1 1 0 0 0 0 1 1 0 0 1 1 0 0 0 1 1 0 0 1 1 0 0 0 1 1 1 1 1 1 1 1 0 0 1 1 1 0 0 0 1 1 1 1 0 1 0 0 0 0 0 1 3 5 9 13 14 16 13 12 9 11 14 14 16 11 11 8 7 4 4 5 6 7 5 4 2 1 1 1 1 1 1 1 3 3 5 3 5 4 10 81 179 220 186 91 31 22 13 10 9 5 5 5 4 2 1 0 1 1 2 3 4 5 10 23 40 59 68 59 42 22 11 6 8 21 40 53 55 54 64 80 94 90 66 41 24 18 15 10 9 7 14 21 18 16 7 10 10 12 9 8 6 6 9 7 7 4 4 4 4 5 6 6 7 7 8 10 9 8 6 8 8 10 9 10 10 10 11 10 8 7 7 9 10 9 9 8 11 13 14 9 8 9 13 15 16 11 17 13 19 11 11 7 8 14 18 24 21 22 18 18 11 11 6 6 4 4 8 14 19 22 26 31 30 25 20 15 12 7 9 11 10 8 8 9 15 24 37 45 39 38 63 86 84 70 61 72 77 63 57 51 40 32 24 20 13 7 4 2 3 2 2 3 4 6 6 6 9 13 14 13 8 21 37 48 42 22 9 14 29 33 27 31 45 47 36 11 6 3 3 3 4 4 3 3 3 3 3 2 4 7 8 11 12 15 16 17 19 64 138 198 199 144 84 50 24 9 4 3 3 3 2 2 3 1 1 0 0 0 0 0 0 0 0 0 0 0 0 0 0 0 0 0 1 1 0 0 0 2 3 4 5 6 7 8 8 10 15 17 19 16 13 13 8 9 10 15 13 18 17 20 17 16 11 10 7 6 5 7 8 10 9 9 7 9 7 8 5 10 11 13 12 9 9 10 10 10 11 11 14 12 11 10 9 10 9 9 8 10 9 9 7 8 6 9 8 11 11 9 7 7 5 7 10 10 13 7 0 
0 7 13 15 13 12 12 13 13 15 18 24 27 25 18 12 11 14 12 11 7 8 10 11 10 11 12 21 21 23 20 18 17 15 19 19 20 15 13 15 17 14 16 12 17 18 17 16 14 16 16 21 28 30 22 10 3 2 1 0 0 0 0 1 1 0 0 0 0 0 1 1 0 0 0 0 0 1 1 0 0 0 0 1 1 0 0 0 0 1 1 0 0 1 1 0 0 0 1 1 0 0 1 1 0 0 0 1 1 2 2 1 1 1 1 2 2 1 1 1 1 1 1 1 1 0 0 0 1 1 0 0 0 0 1 2 4 6 10 12 14 12 12 10 12 13 12 13 9 10 6 4 2 3 5 6 7 5 4 2 2 2 2 2 1 1 1 2 3 4 3 4 4 3 47 151 214 207 126 41 23 13 8 9 5 5 5 5 3 1 1 1 2 2 2 5 13 26 44 60 69 62 45 26 11 6 4 4 11 26 43 55 52 51 59 77 95 91 68 39 21 13 10 9 7 13 19 18 16 6 9 9 13 10 9 5 5 8 8 8 5 4 4 4 5 5 5 6 9 9 9 9 7 7 7 8 9 11 10 12 11 9 8 8 10 12 13 12 11 10 10 12 10 10 5 7 11 13 14 13 11 19 15 21 12 11 6 7 12 14 18 16 20 17 23 12 12 6 8 7 6 8 14 19 23 28 34 34 28 20 16 14 11 11 10 9 6 6 7 15 29 41 48 41 45 68 86 74 67 65 83 83 62 49 42 35 31 25 19 12 6 5 4 3 2 3 4 6 7 7 7 12 15 14 11 9 26 39 46 36 17 9 15 28 31 25 31 47 47 37 10 8 4 4 4 3 4 3 2 3 2 2 2 4 6 7 10 13 15 15 16 15 49 118 179 190 146 96 70 47 22 7 3 4 3 4 2 4 1 1 0 0 0 0 0 0 0 0 0 0 0 0 0 0 0 0 0 1 1 0 0 1 2 3 3 5 8 9 7 8 10 14 18 16 14 12 10 9 13 13 16 13 12 12 14 14 14 12 13 11 8 7 6 8 9 9 8 7 6 6 8 7 9 11 12 13 12 12 11 11 11 12 11 10 11 10 9 9 10 10 11 12 10 11 8 7 12 10 15 12 15 12 10 9 9 9 9 10 9 10 5 0 
0 10 14 15 16 16 14 15 12 18 19 24 21 20 15 12 10 13 11 10 10 13 15 14 10 11 11 19 24 27 26 17 19 15 19 18 17 16 16 20 18 17 17 13 16 16 20 23 20 16 13 17 25 28 27 16 5 2 1 0 0 0 0 1 1 0 0 0 0 0 0 0 0 0 0 0 0 1 1 0 0 0 0 1 1 0 0 0 0 1 1 0 0 1 1 0 0 0 1 1 1 1 1 1 0 0 0 1 2 2 1 1 1 2 2 3 3 2 2 1 1 1 1 0 0 0 1 1 1 1 1 0 0 0 1 2 3 5 7 9 11 9 9 8 9 12 11 11 7 8 6 6 4 3 4 6 6 5 4 3 3 2 3 2 1 1 1 2 3 4 4 3 3 2 23 117 200 219 160 63 24 14 9 8 6 5 6 5 3 2 2 2 3 3 4 9 22 42 62 70 63 45 28 13 9 5 4 5 6 13 25 44 53 51 53 60 82 96 94 70 43 21 10 8 9 14 19 18 17 9 8 7 12 11 11 7 6 8 8 10 8 8 6 5 5 8 10 9 9 10 9 11 7 9 8 9 9 9 9 9 9 8 7 8 8 9 10 9 8 8 9 11 9 10 7 7 12 14 17 14 13 18 15 19 10 10 6 6 9 12 13 10 13 11 16 11 12 7 10 10 10 11 14 16 17 22 32 39 38 30 24 20 17 13 9 7 5 6 11 24 37 44 46 43 52 73 82 64 68 72 94 85 58 41 34 30 30 24 16 11 7 6 5 4 3 6 7 8 7 8 8 12 14 13 10 12 29 39 43 30 15 10 17 29 30 23 29 47 46 37 9 8 4 4 4 3 4 2 2 2 2 2 2 4 6 7 10 14 16 15 13 14 35 104 164 180 139 92 74 65 43 18 6 3 3 4 3 4 2 2 0 0 0 0 0 0 0 0 0 0 0 0 0 0 0 0 0 1 1 0 0 1 2 2 3 5 8 9 8 8 11 14 17 14 11 10 9 9 10 10 13 13 11 11 13 12 11 10 11 10 8 9 7 8 7 9 7 5 4 6 7 8 10 13 14 15 14 14 13 10 10 9 8 7 8 9 10 11 11 11 12 13 11 11 8 10 14 11 16 11 14 12 11 13 9 10 8 8 8 8 5 0 
0 13 21 23 15 13 12 12 13 19 20 32 32 31 25 22 21 18 12 10 12 14 15 15 14 13 14 17 27 24 30 21 24 17 17 14 15 15 14 23 20 22 16 12 15 14 18 16 17 18 14 15 23 28 29 22 10 4 1 0 0 0 0 1 1 0 0 0 0 0 0 0 0 0 0 0 0 1 1 0 0 0 0 1 1 0 0 0 0 1 1 0 0 1 1 0 0 0 0 1 1 1 1 1 0 0 1 2 3 4 3 2 1 2 3 4 4 3 2 1 1 1 1 1 1 1 1 2 2 2 2 1 1 1 1 2 2 3 4 4 5 4 6 7 9 10 9 9 6 8 6 7 6 6 5 5 4 4 4 3 3 3 4 3 2 2 1 1 4 4 5 4 4 3 10 80 178 223 189 97 30 17 11 8 7 5 6 5 4 3 3 2 3 4 8 19 41 63 74 66 45 25 14 8 8 7 5 4 5 10 15 29 44 48 49 49 66 82 97 92 69 41 20 12 11 11 13 12 14 11 10 8 11 12 13 8 6 8 9 11 9 8 7 8 7 8 8 8 8 10 9 10 8 8 8 7 7 5 7 7 6 7 5 7 7 10 12 11 10 9 9 10 8 7 5 6 11 12 14 14 12 16 15 20 14 12 7 8 7 8 8 6 8 9 12 11 10 9 12 12 11 12 15 18 18 18 26 37 39 35 27 23 20 14 10 6 8 13 21 34 43 42 41 44 60 76 77 57 73 84 103 85 52 33 28 26 27 22 14 9 7 7 6 5 4 6 7 8 8 10 11 12 12 11 8 17 32 41 40 26 13 11 20 30 28 21 28 47 45 35 9 7 4 3 4 3 3 2 2 3 3 2 2 4 5 7 10 14 18 17 12 13 24 90 155 178 133 79 63 71 64 38 17 6 4 3 3 4 2 2 0 0 0 0 0 0 0 1 1 1 1 1 0 0 0 0 0 1 1 1 1 1 1 1 2 5 8 11 10 10 12 14 17 16 12 10 9 9 10 11 12 11 9 9 11 12 12 11 10 9 7 7 6 7 6 7 5 5 4 4 7 8 9 11 12 14 15 12 13 12 12 9 9 9 9 10 12 13 14 12 12 11 12 12 12 11 14 14 17 14 14 12 9 12 11 12 10 7 6 4 3 0 
0 11 16 18 16 15 15 16 14 17 18 22 20 23 20 18 17 16 13 14 14 18 17 14 12 12 14 16 29 24 33 22 27 17 17 12 15 14 16 20 16 17 11 12 14 12 19 19 18 16 12 12 14 23 27 24 15 8 3 2 1 1 1 1 1 1 0 0 0 0 0 0 0 0 0 0 0 0 1 1 0 0 0 1 1 0 0 0 0 0 1 1 1 1 1 1 0 0 0 1 1 1 1 1 1 1 2 3 4 5 4 2 2 2 3 4 4 3 2 1 1 1 1 1 1 1 2 2 2 2 2 2 1 1 1 2 2 2 3 3 4 3 5 5 6 7 8 7 7 6 8 11 11 9 8 6 5 5 4 3 3 3 4 3 2 2 1 2 4 4 7 4 3 2 4 45 147 217 211 136 44 21 12 7 8 5 5 5 4 3 3 3 4 6 17 36 60 75 70 51 28 13 7 7 6 6 6 5 7 8 11 18 35 42 47 40 47 59 78 92 92 72 42 23 15 11 11 10 14 13 11 9 11 12 13 9 5 5 6 9 11 13 10 8 6 7 7 9 7 9 8 9 10 7 8 6 6 3 4 6 6 7 6 8 8 9 9 10 11 11 10 10 8 7 7 5 9 13 17 16 14 14 12 12 9 9 8 10 7 7 5 5 7 6 6 7 7 8 11 13 13 14 16 20 22 24 31 40 39 34 28 25 23 16 10 10 15 22 30 40 42 35 33 44 66 79 70 56 80 97 108 80 46 28 23 23 23 18 10 7 7 7 6 5 6 7 8 9 10 12 12 10 9 9 7 21 34 41 37 22 13 13 22 30 26 20 29 47 45 32 10 7 5 4 4 3 3 2 2 3 3 2 2 4 5 7 10 16 20 19 13 12 17 75 147 181 136 71 44 63 73 60 35 13 5 3 3 3 2 2 1 0 0 0 0 1 1 2 2 2 2 2 2 1 1 0 0 1 1 1 0 1 1 1 2 3 6 11 14 13 11 15 15 16 12 10 8 8 7 11 14 14 10 8 11 14 14 13 11 9 7 7 7 7 7 7 8 6 4 4 6 9 9 11 10 12 14 13 12 8 9 11 10 10 11 11 11 11 10 8 8 8 10 11 12 14 14 14 14 12 10 8 10 10 10 10 11 9 7 4 3 0 
0 11 19 17 14 13 12 13 12 12 12 17 21 24 24 25 25 24 16 13 14 16 16 18 17 18 18 19 27 24 28 20 23 15 14 9 13 14 14 17 19 19 14 11 14 11 12 10 12 13 11 11 11 16 22 23 17 10 4 2 2 2 2 2 1 1 0 0 0 0 0 0 0 0 0 0 0 0 1 1 0 0 0 1 1 0 0 0 0 0 1 1 1 1 1 1 0 0 0 0 1 1 1 1 1 2 3 5 6 7 5 3 2 2 2 3 3 2 2 1 0 1 1 1 1 1 1 2 2 2 2 1 1 0 0 1 1 1 2 2 2 3 3 4 5 5 8 7 9 6 12 10 15 12 10 6 3 5 3 4 3 3 3 2 2 2 2 2 3 4 4 3 3 2 3 20 110 200 222 169 69 28 16 9 8 4 5 5 5 5 5 4 4 12 30 55 74 75 57 34 16 9 6 5 4 5 7 6 10 9 12 13 26 29 38 35 35 43 58 75 91 94 75 51 30 18 11 7 10 13 13 11 9 11 12 8 5 5 7 11 12 12 12 11 7 6 5 6 6 7 8 8 9 6 6 3 3 2 3 5 6 7 7 9 9 10 9 10 11 11 12 11 10 6 5 5 11 15 19 17 14 10 9 10 10 12 12 11 8 6 6 5 8 5 7 8 8 8 11 15 16 19 19 24 24 21 22 28 28 26 20 18 16 12 10 14 21 29 33 38 34 27 29 46 72 81 62 62 84 108 107 71 39 23 19 20 18 15 9 6 5 6 6 8 9 7 7 9 10 11 10 7 8 6 8 22 33 40 34 20 14 15 24 28 24 17 32 46 45 28 10 6 5 3 4 4 4 3 3 3 3 2 2 4 5 7 11 18 23 21 15 11 13 65 141 185 143 74 25 45 67 73 58 31 11 3 3 3 2 2 1 1 0 0 0 1 2 3 3 3 3 3 2 2 1 1 1 1 1 2 1 1 1 1 2 2 5 10 14 14 15 17 16 17 12 12 11 9 7 10 13 14 11 10 12 13 13 12 11 11 10 8 6 5 6 7 7 7 7 7 7 9 10 13 14 15 15 14 11 11 9 9 10 13 13 12 12 13 13 11 8 6 8 12 12 16 12 15 15 15 13 10 10 11 13 13 13 11 8 8 4 0 
0 7 15 12 11 10 11 12 11 10 9 10 16 18 17 19 17 16 12 12 12 13 13 14 13 17 21 26 28 23 20 16 13 12 10 12 14 14 14 16 16 15 13 8 10 11 14 14 12 13 10 7 10 11 17 20 18 13 6 3 3 3 3 4 2 1 0 0 0 0 0 0 0 0 0 0 0 0 0 1 1 0 0 1 1 0 0 0 0 0 0 1 1 0 0 1 1 0 0 1 1 1 0 1 2 3 5 6 6 5 4 3 1 1 2 2 2 2 1 1 0 0 0 0 0 0 1 1 1 1 1 0 0 0 0 0 0 1 1 2 2 2 2 2 3 4 7 6 10 6 13 9 17 12 12 8 5 5 3 4 2 2 2 2 2 2 2 3 3 4 4 3 2 2 2 7 74 176 220 192 97 36 21 10 8 5 6 5 5 4 4 4 8 23 48 73 79 65 39 19 11 10 8 6 4 4 7 7 11 8 11 11 24 25 29 27 28 30 35 54 72 88 93 81 57 34 18 10 10 11 13 12 11 10 9 7 4 4 6 8 12 13 10 7 5 4 4 4 6 5 9 8 11 10 9 6 3 2 3 4 6 6 6 9 10 14 12 12 12 14 15 11 10 7 7 7 11 14 17 15 12 9 7 7 7 9 11 11 8 5 5 5 8 5 7 6 9 12 15 17 17 21 26 33 36 36 38 35 28 22 18 17 17 16 16 20 26 30 30 31 25 21 30 50 78 81 60 75 92 114 100 60 34 20 15 15 14 12 9 7 6 6 7 10 11 9 9 10 11 10 7 4 7 6 10 22 32 37 31 19 16 18 25 26 20 15 35 46 43 24 9 7 6 4 4 4 4 4 3 4 4 4 4 5 7 9 14 21 25 21 16 8 9 58 135 187 152 83 21 31 51 71 74 54 26 8 3 2 2 2 1 1 1 0 1 2 3 3 2 2 2 2 2 2 2 1 1 1 1 1 2 2 2 2 2 3 5 10 14 15 16 15 15 13 12 13 12 8 8 11 15 15 13 10 10 12 13 11 12 13 11 9 8 7 7 8 11 10 12 12 13 14 13 14 15 18 18 18 12 10 7 9 9 11 12 14 12 10 8 9 9 8 8 11 9 14 11 15 15 13 11 12 11 15 13 14 12 12 8 8 4 0 
0 9 18 11 12 8 7 10 9 8 7 9 11 15 18 18 16 15 12 10 11 13 12 12 15 16 19 19 21 18 13 11 9 11 9 14 14 19 18 20 24 21 15 11 13 13 14 14 12 11 9 8 9 10 15 19 19 16 9 5 3 3 4 4 3 2 0 0 0 0 0 0 0 0 0 0 0 0 0 1 1 0 0 1 1 0 0 0 0 0 0 1 1 0 0 1 1 0 0 1 1 0 0 0 3 4 6 5 5 5 3 2 1 1 1 1 1 1 1 0 0 0 0 0 0 0 0 0 0 0 0 0 0 0 0 0 0 1 1 1 1 2 2 2 4 5 8 7 11 7 11 8 11 9 10 8 5 4 4 4 3 2 2 1 2 2 3 4 4 3 2 2 2 3 3 3 44 148 210 206 128 48 27 13 7 6 7 7 6 6 6 8 17 40 68 83 74 47 22 10 8 9 8 7 4 3 6 8 12 8 10 10 23 27 26 20 18 27 28 33 51 70 86 93 82 59 35 19 12 9 11 11 11 10 7 5 3 4 7 11 13 12 10 9 6 5 4 3 5 4 9 8 11 8 8 6 4 3 3 4 5 6 6 8 8 9 9 9 9 10 10 11 8 7 6 8 11 15 15 12 8 8 5 6 6 9 13 13 10 7 7 5 8 5 7 6 8 11 13 17 18 22 25 28 27 24 25 26 26 23 18 15 13 12 14 19 26 29 28 28 22 20 33 57 82 77 64 83 103 115 88 49 29 17 12 12 13 11 10 8 8 9 11 12 13 12 10 10 9 6 4 4 6 7 10 22 30 34 28 19 18 19 26 23 17 16 36 46 41 21 8 8 7 4 5 6 6 5 4 5 7 8 8 9 11 13 18 22 24 18 13 6 8 53 133 188 159 91 23 21 33 57 74 73 49 22 6 2 3 2 1 1 1 1 1 2 2 2 1 1 1 2 2 1 1 1 1 1 1 1 2 3 3 2 3 3 4 8 12 15 17 16 15 12 11 11 10 7 6 6 12 13 12 10 10 10 11 11 14 16 14 11 8 8 9 9 10 12 16 15 15 11 15 17 18 18 17 17 13 11 8 8 8 9 9 8 10 15 15 14 11 10 9 11 9 13 11 14 16 15 14 13 13 18 15 19 13 9 9 9 6 0 
0 9 18 13 14 13 8 10 10 10 10 12 13 16 14 14 13 9 7 9 12 14 13 11 11 13 18 18 18 12 10 8 8 12 11 21 18 19 16 15 18 17 16 10 11 11 15 12 13 12 11 11 10 13 15 18 19 18 13 9 4 4 5 5 3 1 0 0 0 0 0 0 0 0 0 0 0 0 0 1 1 0 0 1 1 0 0 0 0 0 0 1 1 0 0 1 1 0 0 1 1 0 0 0 3 4 6 5 4 3 2 1 1 1 1 1 1 1 1 1 0 0 0 0 0 0 0 0 0 0 0 0 0 0 0 0 0 1 1 1 1 1 2 3 4 5 10 9 11 8 8 7 7 9 9 8 7 6 5 5 4 3 2 1 2 2 3 4 4 4 3 3 2 3 3 3 25 117 197 214 158 69 31 16 7 6 8 7 5 4 5 11 30 59 83 83 61 32 13 7 7 8 7 7 5 4 6 8 9 7 7 8 21 29 29 24 11 15 21 25 31 45 68 87 92 84 57 34 19 10 11 11 10 9 6 5 6 8 9 10 13 12 10 6 5 6 4 3 4 4 9 8 13 11 12 8 6 3 3 3 4 5 5 5 7 8 10 10 9 11 8 10 7 7 6 7 10 12 12 10 8 9 7 7 4 7 11 14 12 11 9 6 8 4 7 6 9 13 12 12 12 20 25 31 32 35 37 32 25 19 18 18 17 16 19 22 26 30 29 27 21 21 38 63 84 70 71 92 117 112 76 39 24 15 10 11 13 12 12 10 9 10 11 11 15 12 12 10 8 5 4 5 5 8 11 24 30 33 27 20 20 20 25 21 15 17 38 47 40 19 8 8 8 6 6 7 8 8 8 11 13 15 15 15 16 18 21 22 21 14 10 4 5 49 132 190 166 96 29 19 20 39 61 75 68 43 19 6 3 2 1 1 1 1 2 2 3 2 1 2 2 2 2 2 2 2 2 1 0 1 2 3 4 4 5 5 6 8 13 15 18 17 13 13 10 10 9 7 6 7 9 11 12 11 8 11 11 13 12 12 11 9 8 7 7 11 11 13 14 17 19 15 14 15 20 21 18 16 12 10 10 9 8 7 7 8 10 10 13 11 12 9 10 10 9 11 10 12 14 12 12 12 11 14 12 12 9 7 8 6 6 0 
0 7 17 19 22 20 15 13 13 13 12 11 10 14 11 13 8 7 6 8 11 12 10 10 9 12 13 14 15 11 13 12 13 16 12 18 17 21 21 20 22 17 14 10 12 10 15 12 11 11 11 14 11 14 15 18 18 18 16 11 6 3 4 4 2 1 0 0 0 0 0 0 0 0 0 0 0 0 0 1 1 0 0 1 1 0 0 0 0 0 0 1 1 0 0 1 1 0 0 1 1 0 0 0 2 3 4 4 3 2 1 1 1 1 1 1 1 1 1 1 0 0 0 0 0 0 0 0 0 0 0 0 0 0 0 0 0 0 1 1 1 1 1 3 3 5 8 8 10 8 7 8 6 8 7 8 9 8 7 6 4 3 2 1 2 3 3 4 4 4 3 3 2 4 3 3 12 80 177 217 187 101 37 20 7 6 8 8 6 5 6 19 45 76 89 72 44 18 10 7 6 7 7 8 6 5 5 7 8 7 8 7 19 30 30 28 13 11 13 18 24 30 41 66 81 94 82 57 33 17 14 14 11 9 7 6 6 7 9 12 15 12 11 8 6 5 3 4 6 7 10 7 8 6 8 6 6 3 4 3 4 5 6 6 5 4 7 7 8 9 7 9 6 7 6 6 7 9 9 8 6 8 6 7 5 9 11 17 16 16 13 7 9 4 7 6 7 8 8 8 10 17 20 24 24 22 24 21 22 22 19 15 12 10 14 19 27 32 31 25 17 21 42 70 83 67 82 103 125 103 61 29 19 12 9 11 12 11 10 10 9 13 13 13 16 12 12 7 6 3 4 4 5 7 10 24 31 35 29 22 22 20 24 19 14 22 42 48 40 17 8 9 9 8 8 9 10 12 15 19 21 22 21 21 21 22 21 20 16 10 7 3 5 48 135 191 170 95 31 20 17 20 40 63 73 63 40 18 5 2 1 1 1 0 1 2 3 3 2 3 3 2 2 2 2 2 1 1 0 0 2 3 4 3 4 4 6 8 16 17 18 15 12 14 10 9 6 7 8 8 8 9 8 8 8 10 9 13 14 15 14 9 10 13 15 13 10 11 12 15 14 11 12 13 16 18 15 13 10 10 10 11 9 8 6 4 9 11 15 10 10 7 7 7 8 11 10 11 11 11 10 10 8 9 11 11 13 8 10 7 6 0 
0 7 19 20 30 23 24 17 18 15 12 13 10 14 12 16 9 9 7 8 11 12 11 14 11 14 16 15 13 12 13 16 16 17 14 19 17 17 12 10 11 13 13 9 10 6 11 9 11 13 12 15 10 15 14 15 15 15 17 13 8 3 3 3 2 0 0 0 0 0 0 0 0 0 0 0 0 0 0 1 1 0 0 1 1 0 0 0 0 0 0 1 1 0 0 1 1 0 0 1 1 0 0 0 1 2 3 3 3 3 2 1 1 1 1 1 1 1 1 0 0 0 0 0 0 0 0 0 0 0 0 0 0 0 0 0 0 0 1 1 1 1 1 3 3 4 7 9 9 8 7 8 8 9 11 11 10 10 9 7 5 3 2 2 2 3 3 4 3 3 2 2 2 3 3 4 6 47 146 211 210 137 52 23 8 5 8 9 7 6 9 29 62 88 87 58 30 12 10 8 7 7 8 9 8 5 4 6 7 6 8 7 17 30 32 31 17 12 13 13 17 24 29 45 63 84 94 81 56 30 19 15 12 10 9 9 12 13 10 10 10 10 9 6 5 5 5 5 7 9 8 9 9 8 11 8 8 5 6 5 6 6 6 7 8 7 8 7 8 9 9 9 7 7 5 5 7 9 10 9 7 9 8 8 5 10 11 17 17 18 16 9 9 4 9 7 10 8 8 5 7 13 20 27 30 26 26 21 16 14 12 13 12 12 15 22 30 35 30 22 14 23 49 76 78 70 90 115 123 87 45 21 15 10 8 10 11 12 8 10 8 11 9 11 13 12 12 5 6 4 6 5 6 6 9 25 35 40 33 24 23 20 21 17 14 27 44 49 39 14 7 9 10 9 9 10 13 17 21 24 25 24 23 23 22 21 18 15 11 7 5 3 3 50 139 193 172 91 30 18 18 14 20 41 63 72 61 37 15 4 1 1 1 0 1 1 2 2 2 2 2 2 2 2 2 2 1 1 0 1 2 3 3 4 4 4 6 10 18 19 19 15 12 13 11 11 9 9 10 10 10 8 7 9 11 10 10 12 12 11 9 10 14 16 17 15 12 8 11 13 17 14 13 14 18 16 13 10 9 11 11 11 12 9 7 5 8 8 10 10 9 8 7 6 6 10 10 12 12 11 9 9 6 7 8 8 9 6 9 7 7 0 
0 9 23 21 35 24 26 17 17 16 12 11 8 14 12 16 11 11 7 7 8 10 10 13 14 18 16 17 16 16 16 20 19 18 13 17 14 15 11 12 12 15 15 13 12 10 12 9 11 11 11 13 9 13 12 12 11 12 15 14 10 5 3 2 1 0 0 0 0 0 0 0 0 0 0 0 0 0 0 1 1 0 0 1 1 0 0 0 0 0 1 1 1 0 0 1 1 1 1 1 1 0 0 0 1 1 1 2 2 2 2 1 1 1 1 1 1 1 1 1 0 0 0 0 0 0 0 0 0 0 0 0 0 0 0 0 0 0 0 1 1 1 1 3 2 3 5 6 8 7 7 7 7 8 7 7 9 10 8 7 4 2 3 3 3 3 3 3 3 2 2 1 2 2 2 4 3 19 108 195 222 171 75 27 11 5 7 9 7 8 17 45 79 93 78 44 19 11 11 10 9 7 9 10 9 7 5 6 6 6 9 8 16 29 35 34 23 15 16 15 14 17 22 29 44 67 86 90 77 50 29 19 13 11 11 11 10 11 10 12 10 9 5 5 6 5 6 8 9 13 9 8 8 7 10 9 10 6 5 5 6 6 7 6 7 5 5 6 8 8 9 8 6 7 6 5 6 8 8 8 6 8 9 11 10 11 12 13 17 17 18 11 9 4 9 6 11 8 11 8 9 16 25 30 28 22 18 15 16 18 14 12 8 10 14 23 33 36 28 18 13 29 58 80 74 85 101 126 110 66 30 15 12 6 5 8 8 10 6 8 7 11 9 12 12 11 10 5 6 4 5 3 4 6 8 27 38 44 36 26 24 18 17 16 15 33 47 49 37 11 8 9 11 10 10 12 17 22 24 24 22 20 19 19 18 16 13 10 7 5 3 3 4 56 147 196 169 84 24 16 17 15 14 23 46 68 74 61 35 13 3 2 2 2 2 1 1 1 1 1 1 1 1 1 1 1 0 0 1 1 2 2 2 2 3 3 7 13 18 18 16 13 14 15 16 16 14 11 11 10 9 7 8 10 10 10 10 10 11 12 12 16 20 24 21 15 12 8 12 13 16 13 11 11 14 15 14 9 9 9 10 10 9 7 7 5 7 8 8 9 9 9 7 8 9 11 10 11 10 9 9 10 8 10 8 9 10 8 7 8 6 0 
0 13 24 23 27 22 21 18 17 13 9 9 10 16 14 18 15 12 10 9 9 12 15 19 19 19 17 15 11 13 16 16 18 17 16 17 14 15 8 7 11 12 15 13 12 11 11 10 9 10 9 9 6 8 10 11 10 11 14 17 15 9 6 3 3 0 0 0 0 0 0 0 0 0 0 0 0 0 0 1 1 1 1 1 1 1 0 1 1 1 1 1 1 0 0 0 1 1 1 1 1 1 0 1 1 1 1 1 1 2 1 1 1 1 1 1 1 1 1 1 1 1 1 1 1 1 1 0 0 0 0 0 0 1 1 0 0 0 0 0 1 1 1 3 4 5 7 7 9 6 8 8 8 8 9 10 9 8 7 6 4 3 3 3 3 3 3 3 2 1 1 1 1 2 2 4 4 8 72 171 222 197 105 36 16 7 7 8 8 13 28 59 88 90 66 34 14 13 12 11 9 7 10 11 10 7 4 7 6 8 10 9 15 28 38 39 27 16 17 17 14 11 15 21 28 43 67 83 89 73 45 25 14 11 12 13 13 13 11 9 7 6 4 5 5 6 8 9 10 12 9 8 9 8 13 12 10 9 6 7 6 5 6 6 7 7 7 7 9 8 8 8 6 8 7 6 7 9 7 9 6 8 9 9 10 10 11 9 15 16 18 12 7 5 8 7 11 10 12 10 15 17 24 31 29 22 15 13 14 16 14 14 11 13 17 26 33 34 25 14 18 38 66 80 73 97 112 126 91 47 21 12 10 4 4 6 8 9 6 8 8 9 8 10 10 11 8 6 5 4 4 4 4 7 8 31 41 47 38 27 23 16 14 16 18 40 50 49 34 10 9 9 11 11 12 14 19 22 21 19 15 12 12 12 11 8 7 6 5 4 3 4 5 62 155 197 163 74 16 13 13 12 13 15 29 54 72 77 59 33 12 3 2 2 2 2 1 0 0 0 0 0 1 0 0 0 0 1 2 2 2 2 2 2 2 3 8 15 17 18 17 18 18 17 16 15 13 11 13 12 12 12 11 14 11 12 8 10 9 9 13 19 23 27 22 18 15 11 12 11 12 12 12 14 12 10 8 8 9 11 10 11 9 9 7 9 8 6 5 9 10 13 11 12 10 10 10 9 12 10 9 10 8 11 8 10 8 7 6 9 6 0 
0 16 28 31 23 26 17 14 10 8 9 11 11 14 17 17 21 16 14 9 9 14 14 16 17 16 14 11 15 15 17 16 16 17 17 15 13 13 10 9 11 12 15 12 13 11 10 9 9 13 11 8 5 5 9 13 13 13 13 16 16 13 9 4 3 0 0 0 0 0 0 1 0 0 0 0 0 0 0 1 1 1 1 1 1 1 1 1 1 1 1 2 1 1 0 1 1 1 1 0 0 1 1 2 1 1 0 0 0 0 0 0 0 0 1 1 1 1 1 1 1 1 1 1 1 1 1 1 0 0 0 0 1 1 1 1 1 1 0 0 1 1 2 6 7 9 10 8 10 7 8 8 7 8 8 7 7 8 7 5 3 3 4 5 4 4 4 3 2 1 1 1 1 1 2 3 3 4 42 143 212 212 135 48 22 11 9 8 10 19 40 69 88 80 52 25 11 13 12 12 9 8 11 12 11 8 4 6 5 6 9 8 11 24 38 42 32 18 16 18 18 13 11 15 21 27 44 65 84 89 71 44 23 14 13 12 11 12 10 10 8 6 4 5 6 7 9 9 11 11 10 9 9 10 12 12 9 9 5 6 6 6 6 4 5 5 5 6 8 8 7 6 7 8 7 6 6 9 7 8 5 6 9 9 11 9 9 9 13 16 18 14 8 6 6 8 10 14 22 21 25 24 26 29 24 19 13 12 14 15 15 17 17 16 18 26 31 30 22 14 25 48 72 73 77 103 122 117 69 31 15 10 7 2 2 5 8 8 7 7 8 10 11 9 9 7 6 6 4 3 3 3 3 7 12 34 44 46 37 26 21 14 11 17 22 48 51 48 30 10 10 9 10 12 14 17 21 21 18 12 8 7 7 6 6 3 3 3 3 3 2 4 9 73 166 197 157 66 13 12 13 12 15 17 19 37 54 75 75 57 31 12 5 4 3 2 1 1 0 0 0 0 0 0 0 0 1 1 2 2 2 2 2 2 3 4 10 16 17 16 13 16 18 18 18 18 16 13 12 11 10 15 13 17 10 12 8 10 8 10 15 21 27 31 24 21 15 14 15 15 13 10 10 11 12 11 8 8 7 9 9 9 6 6 7 9 10 11 8 10 9 13 12 13 12 10 9 7 8 7 7 8 8 9 7 9 7 7 6 6 4 0 
0 22 27 34 23 28 16 17 13 9 8 10 13 15 13 14 17 15 15 13 12 16 16 17 16 13 12 8 12 15 16 17 14 17 16 14 17 18 17 15 12 12 10 8 9 9 9 10 11 11 8 6 5 6 10 16 17 17 13 15 18 17 14 6 3 0 0 0 0 1 1 1 0 0 0 0 0 0 0 1 1 1 1 1 1 1 1 1 1 1 1 1 1 1 1 1 1 1 1 0 0 0 1 2 1 1 0 0 0 0 0 0 0 0 1 1 1 0 0 0 0 0 0 0 0 0 1 1 1 0 0 1 1 1 0 1 1 1 0 0 1 1 3 8 9 11 9 7 8 7 10 10 12 11 11 10 8 6 5 4 4 3 4 4 4 4 4 3 2 1 1 1 1 1 2 2 4 6 25 113 197 219 164 67 27 15 10 8 12 25 49 71 79 67 41 22 10 11 10 11 9 8 12 13 12 7 4 4 5 5 8 8 14 27 42 44 33 17 13 15 17 16 14 12 15 19 26 45 68 88 91 69 42 23 15 12 9 12 9 10 7 6 6 7 7 7 9 8 9 9 10 9 10 11 11 12 9 11 8 7 6 6 7 7 6 5 5 6 8 8 7 7 8 8 8 6 7 7 6 7 7 9 11 10 10 12 13 15 18 20 19 17 11 9 7 9 12 15 22 25 30 25 23 22 20 18 12 12 16 19 20 19 18 16 17 23 28 26 20 17 34 58 75 68 90 110 127 101 49 21 11 8 5 3 3 5 8 7 8 9 11 13 9 8 8 7 5 4 3 3 3 5 4 8 18 34 43 42 33 24 19 11 10 17 27 51 52 45 23 9 9 8 9 12 14 19 22 20 15 8 6 4 4 3 4 1 2 2 3 3 2 3 15 88 177 199 148 54 12 10 10 9 15 19 19 26 33 57 74 72 54 27 12 6 3 3 2 1 0 0 0 0 0 0 0 0 1 2 2 2 1 2 2 3 3 7 13 18 18 16 18 23 22 19 16 14 13 12 11 11 12 14 13 15 11 13 9 11 10 14 18 22 22 23 21 19 14 15 14 14 11 10 12 13 11 7 5 5 6 8 8 9 7 7 9 12 15 10 10 11 11 13 11 12 12 9 8 6 6 6 5 5 5 6 5 7 6 6 4 5 3 0 
0 23 35 38 28 31 21 15 11 9 10 11 13 12 11 15 17 21 15 13 13 15 12 14 11 12 12 13 16 20 17 16 14 16 14 12 16 15 18 18 15 17 13 14 15 12 12 11 12 14 10 8 7 10 13 20 19 18 13 15 24 24 21 11 3 1 0 0 0 1 1 1 0 0 0 0 0 0 0 1 1 1 1 1 1 1 1 1 1 1 1 1 1 1 1 1 1 1 1 0 0 0 1 1 1 0 0 0 0 0 0 0 0 0 0 1 1 0 0 0 0 0 0 0 0 0 0 1 1 0 0 1 1 0 0 0 1 1 1 0 1 1 4 9 11 13 9 7 8 7 11 12 14 11 10 7 6 7 7 6 4 3 4 4 4 4 3 2 1 1 1 1 1 1 2 2 5 7 13 81 177 219 190 95 34 18 12 9 16 31 54 67 66 54 35 22 12 10 10 10 9 9 13 13 13 9 5 4 4 4 7 11 20 31 42 43 32 17 9 10 13 16 16 13 14 15 19 28 51 76 92 91 67 41 22 12 8 12 10 12 9 6 5 7 7 7 8 8 8 7 8 9 10 12 10 13 9 10 9 7 6 4 5 6 7 8 8 7 6 7 6 7 10 8 9 5 9 8 10 8 9 8 9 11 14 15 15 19 23 25 22 18 15 11 11 14 16 21 26 29 30 21 16 16 16 15 15 18 18 19 19 19 17 12 14 20 24 22 18 23 42 67 73 70 99 116 122 79 33 12 7 6 4 4 4 5 6 6 7 8 9 11 8 7 4 5 4 5 3 4 3 5 4 8 22 34 41 38 30 23 17 9 11 15 30 50 50 41 19 8 9 8 9 11 14 19 22 19 14 8 5 5 5 4 4 1 2 2 3 3 2 4 25 109 190 199 135 45 15 12 15 10 15 18 20 19 19 35 59 72 71 48 26 11 5 3 2 1 1 1 1 0 0 0 0 1 1 2 1 1 1 2 2 2 4 10 15 17 16 16 15 18 19 18 15 14 15 15 12 11 10 12 13 12 12 12 9 10 12 16 17 19 19 22 19 17 14 14 14 15 13 13 11 10 8 5 5 6 8 10 9 7 6 7 9 12 15 12 13 9 9 11 9 10 10 8 7 5 5 5 6 6 7 6 7 6 6 6 4 3 2 0 
0 19 28 29 27 26 22 18 14 10 12 8 11 12 14 15 14 16 16 18 16 16 13 15 13 15 14 12 15 16 16 14 13 11 13 12 18 16 22 19 19 18 12 10 13 13 14 14 14 12 7 6 7 12 13 19 16 16 13 15 22 29 25 17 6 2 1 1 1 1 1 1 0 0 0 0 0 0 0 1 1 1 1 2 2 1 1 1 1 1 1 1 1 1 1 1 0 0 1 1 1 0 1 1 1 0 0 0 0 0 0 0 0 0 0 1 1 0 0 0 0 0 0 0 0 0 0 1 1 0 0 1 1 0 0 0 1 1 1 0 1 1 4 10 11 10 6 5 7 9 14 14 14 11 7 5 4 4 4 4 3 3 3 4 4 3 2 1 1 1 0 0 0 1 2 2 5 7 9 51 147 213 210 129 47 19 13 8 18 36 56 60 52 43 34 25 17 10 10 11 10 10 13 12 12 9 5 3 4 5 9 18 30 39 40 32 21 13 6 6 7 12 16 13 13 10 17 22 32 58 77 93 91 67 37 17 6 8 9 9 8 7 8 8 8 8 7 7 6 6 8 10 9 11 9 11 10 11 10 8 6 4 6 8 9 10 9 7 6 7 8 8 11 8 11 7 9 9 12 10 11 10 12 15 18 19 18 23 27 29 28 23 22 18 14 18 17 19 22 25 24 18 12 12 14 13 17 19 22 25 22 16 11 8 12 20 24 22 20 32 52 73 67 80 104 123 109 58 20 6 4 4 3 4 4 6 7 7 7 8 9 9 7 5 3 4 4 5 3 5 5 6 6 11 24 34 38 35 28 20 13 6 11 14 31 46 49 37 17 8 9 8 8 11 13 18 21 18 14 8 6 5 5 4 4 1 2 2 2 2 1 3 38 132 203 194 116 31 14 11 13 9 15 16 19 17 15 19 39 61 76 70 48 24 9 4 3 2 1 1 1 0 0 0 1 1 1 1 1 1 1 2 2 2 5 11 17 19 16 13 14 20 21 20 15 14 13 13 10 13 10 11 11 9 12 9 10 11 14 18 19 17 12 12 12 11 12 14 15 17 14 13 13 13 9 6 5 7 6 9 7 9 7 7 9 13 15 13 12 11 12 11 9 8 10 7 7 4 5 5 6 6 6 6 8 6 7 4 3 4 2 0 
0 16 22 23 23 24 20 15 13 12 13 10 15 14 16 12 15 18 16 21 21 23 15 15 12 14 17 15 19 16 16 13 11 11 12 10 15 13 17 17 21 20 20 18 16 16 13 15 12 11 7 8 11 15 15 13 11 12 12 20 27 33 27 20 12 6 2 1 1 1 1 0 0 0 0 0 0 0 0 1 1 1 1 2 2 1 1 1 1 1 1 1 1 1 1 0 0 0 0 1 1 1 1 1 1 0 0 0 0 0 0 0 0 0 0 1 1 0 0 0 0 0 0 0 0 0 0 1 1 0 0 1 1 0 0 1 1 1 0 0 1 1 5 9 12 11 9 9 8 12 14 15 12 8 3 3 3 6 8 7 5 3 3 3 3 2 1 1 0 0 0 0 0 0 2 2 5 6 7 26 109 197 221 165 71 22 14 10 21 41 58 53 39 31 31 29 21 12 9 11 13 10 12 11 11 9 5 4 6 8 14 26 35 39 36 29 21 15 10 6 4 5 10 12 13 9 9 18 25 41 61 82 96 92 63 33 11 6 9 9 9 7 7 7 7 8 8 8 8 8 8 9 7 8 8 9 9 11 11 10 7 4 5 8 11 12 10 7 6 6 7 7 12 9 12 9 10 12 14 12 12 9 10 16 18 20 15 19 26 29 31 24 23 23 17 20 20 21 22 24 21 16 11 11 15 16 19 23 25 23 20 16 11 11 17 24 25 20 21 39 59 74 63 92 109 123 90 39 12 4 4 4 4 5 4 5 6 7 7 6 8 8 6 5 3 4 3 5 5 6 7 7 9 11 22 32 38 35 26 17 10 5 11 14 30 44 48 36 19 9 11 9 8 10 12 17 20 18 14 9 7 6 5 4 3 0 1 2 2 2 2 5 59 156 211 181 94 17 11 9 10 9 13 13 15 14 15 17 27 46 67 77 69 45 21 8 3 2 1 1 1 0 0 1 1 1 1 1 1 1 1 1 1 1 5 11 16 17 14 14 16 18 17 15 11 12 12 13 11 12 11 11 8 6 9 6 7 7 13 16 15 13 13 13 16 15 14 13 10 14 13 16 11 9 5 5 5 9 8 12 8 7 6 7 9 11 13 13 13 10 9 9 11 10 11 7 6 4 5 6 8 10 10 9 9 7 7 4 3 4 2 0 
0 9 12 17 16 18 19 15 17 16 16 10 15 16 21 14 11 16 18 28 22 28 16 17 14 17 19 13 14 12 13 11 12 11 14 15 16 11 13 18 20 24 21 21 18 15 12 14 11 10 8 6 9 11 14 11 10 9 10 15 18 23 26 22 17 11 4 2 1 1 0 0 0 0 0 0 0 0 0 0 1 2 2 2 2 2 2 1 1 1 1 1 1 1 0 0 0 0 0 0 0 1 1 1 0 0 0 0 0 0 0 0 0 0 0 1 1 0 0 0 0 0 0 0 0 0 0 1 1 0 0 1 1 0 0 1 1 1 0 0 1 2 6 9 14 13 12 9 10 13 13 14 8 4 3 3 4 4 4 4 3 3 3 3 2 1 0 1 1 0 0 0 0 0 1 1 3 3 7 12 71 172 222 195 104 31 16 12 24 45 57 47 28 21 28 32 25 17 9 12 14 13 13 11 10 9 4 4 6 9 19 30 34 32 23 18 16 14 13 11 9 7 8 10 11 10 8 14 23 32 44 68 87 102 89 58 26 9 6 7 11 14 14 13 11 9 7 9 9 9 9 7 6 6 6 7 8 10 12 11 10 6 5 7 9 10 9 6 4 5 6 7 10 10 12 11 12 13 14 12 11 9 10 15 16 18 10 14 22 26 30 25 22 22 18 19 21 22 22 21 16 15 10 10 13 17 19 20 19 18 17 14 13 19 25 28 25 20 25 44 64 68 66 96 113 115 70 26 9 4 3 2 3 4 4 6 8 8 8 6 6 8 7 7 3 4 3 6 6 7 8 7 10 9 21 32 40 36 24 13 8 5 10 13 28 43 47 37 21 11 11 9 8 9 11 16 19 17 13 9 8 8 6 5 3 0 1 2 2 1 2 11 83 177 212 162 70 12 11 9 7 8 9 9 10 11 12 17 21 34 51 67 75 64 41 18 5 3 2 1 1 1 1 1 1 1 1 1 1 1 0 1 1 1 5 12 16 19 17 14 12 12 14 14 13 13 11 10 13 13 14 13 10 8 7 6 7 9 12 15 14 12 12 13 17 18 15 16 13 20 16 18 14 12 9 7 7 10 8 8 8 8 6 7 9 11 14 13 13 12 13 8 12 10 11 9 6 6 7 8 8 9 10 8 8 8 8 7 7 6 4 0 
0 6 9 12 13 13 16 13 20 22 23 19 19 16 17 10 9 15 15 28 21 30 14 16 15 17 18 13 13 11 15 12 14 14 16 13 15 12 13 18 18 29 26 27 23 19 16 13 11 6 5 6 10 12 12 9 8 11 16 22 24 23 23 24 24 17 8 3 1 1 1 1 1 1 1 1 1 1 1 1 2 2 2 3 3 2 2 1 1 0 0 0 0 0 0 0 0 0 0 0 1 1 1 1 0 0 0 0 0 0 0 0 0 0 0 1 1 1 0 0 0 0 0 0 0 0 1 1 1 0 0 1 1 0 0 1 1 1 0 0 1 2 5 8 14 14 17 10 11 12 11 10 4 3 2 2 3 4 6 5 4 3 3 3 2 1 1 1 1 0 0 0 0 0 1 2 3 3 5 5 37 139 212 214 140 48 20 15 27 48 55 41 21 13 23 32 29 20 10 10 15 15 14 12 11 9 5 5 6 11 23 32 32 25 15 15 16 15 16 16 16 13 10 10 10 9 10 13 18 29 34 49 71 94 103 84 50 22 14 18 22 23 22 17 12 9 7 9 10 10 11 7 7 6 5 5 8 10 15 13 11 9 5 8 9 10 9 7 5 5 5 6 8 10 10 9 9 10 10 10 9 10 13 17 15 18 13 16 19 23 25 24 20 19 18 18 23 24 24 21 15 15 11 17 21 23 22 23 20 17 15 16 20 27 31 30 25 21 29 48 66 58 75 101 120 103 51 17 6 4 4 4 5 5 4 5 6 8 8 8 7 9 8 8 7 5 4 7 7 7 7 8 9 9 20 34 42 36 20 9 7 6 11 14 25 41 45 38 21 10 9 8 8 9 11 15 18 16 13 9 8 8 7 5 4 2 3 3 3 3 3 25 111 194 204 140 46 11 9 9 6 7 8 10 10 11 12 17 20 23 33 49 68 73 60 35 14 5 3 2 2 2 2 2 2 1 1 1 1 1 1 1 1 2 6 13 17 19 16 13 13 11 11 11 12 11 10 8 13 13 17 11 10 8 9 9 10 9 11 11 10 8 10 13 16 17 14 14 11 17 16 17 14 9 8 6 7 8 9 9 7 7 6 6 8 10 14 16 17 14 15 12 18 15 13 10 8 8 8 8 9 9 9 7 8 7 8 7 8 8 5 0 
0 6 9 9 11 12 14 18 21 28 22 21 17 15 16 11 11 15 15 26 18 25 11 14 16 21 23 16 13 12 16 15 15 16 16 15 15 9 9 14 18 26 28 30 26 21 20 13 11 7 5 6 8 11 12 10 10 11 12 14 14 15 18 23 24 20 13 6 2 2 1 1 1 1 1 1 1 1 1 1 1 2 2 2 2 2 2 1 0 0 0 0 0 0 0 0 0 1 1 1 1 1 1 1 0 0 0 0 0 0 0 0 0 0 0 0 1 1 1 0 0 0 0 0 0 1 1 1 0 0 0 1 1 1 1 1 1 1 1 1 1 2 5 9 15 13 14 9 12 11 10 7 2 3 4 4 4 2 2 3 3 3 2 2 1 1 1 1 1 1 1 0 0 0 1 1 2 2 3 4 17 103 194 221 171 72 26 20 30 50 52 37 16 10 18 29 32 24 14 7 13 14 17 14 12 10 6 6 6 11 24 31 29 19 9 10 12 12 16 17 18 18 15 12 11 11 12 14 16 23 30 36 52 73 96 101 76 43 26 24 29 30 29 24 16 12 8 8 10 7 9 5 6 6 6 6 7 7 11 13 11 12 5 6 6 8 8 8 5 7 6 6 8 9 10 10 9 9 8 8 8 9 12 17 17 20 17 17 17 23 20 20 12 12 13 17 24 26 24 18 13 13 13 16 19 20 19 17 13 13 17 22 28 32 29 25 20 20 33 50 63 56 92 110 123 88 36 12 6 4 4 4 4 5 6 7 7 7 7 8 7 7 8 7 6 5 5 6 7 7 6 7 7 8 21 36 44 35 18 8 7 6 11 15 22 38 41 38 21 8 7 7 9 10 11 15 17 16 13 10 8 8 7 5 5 3 4 6 4 4 6 46 139 205 191 112 27 10 11 11 9 8 8 9 10 13 14 17 20 20 19 26 47 67 71 57 32 14 5 3 3 2 3 3 3 2 1 1 1 1 1 1 2 4 8 14 17 18 15 11 8 7 10 13 13 11 8 8 15 15 21 12 13 11 14 13 13 9 10 10 10 8 8 12 16 17 16 14 14 15 16 15 12 8 8 9 11 12 9 7 7 7 6 6 7 10 13 15 18 14 13 10 13 12 14 11 8 8 9 8 9 8 9 7 9 9 13 11 11 10 6 0 
0 5 9 9 8 10 12 24 19 34 21 25 15 16 16 12 15 12 14 18 14 19 9 11 15 19 21 18 13 11 14 17 18 16 15 12 12 9 11 13 18 24 24 22 20 18 20 14 12 5 5 7 8 10 10 9 10 14 20 23 20 19 18 21 23 23 21 14 7 3 2 2 2 2 2 2 2 2 2 2 1 1 2 3 3 2 2 1 0 0 0 0 0 0 0 0 1 1 1 1 1 1 1 1 0 0 0 0 0 0 0 0 0 0 0 0 0 1 1 1 0 0 0 0 1 1 1 0 0 0 0 1 1 1 1 2 1 1 0 1 2 2 6 8 12 13 11 9 10 10 9 5 2 2 2 3 3 3 3 3 3 2 1 1 1 1 1 2 1 1 1 0 0 0 1 1 2 2 4 4 7 69 168 219 195 103 34 24 31 49 50 35 15 9 12 24 32 28 20 9 11 13 16 16 15 12 8 7 7 11 24 33 31 21 10 10 10 10 13 16 18 20 19 16 12 9 13 14 15 17 24 32 38 59 81 102 98 68 46 34 37 33 31 27 18 14 8 8 10 7 8 7 7 7 6 6 6 8 7 11 9 11 7 6 7 9 9 9 5 9 7 8 10 8 10 7 6 6 5 6 7 9 12 18 21 26 22 19 19 21 18 21 14 17 15 19 26 28 25 15 11 9 13 17 22 22 20 18 16 19 25 30 32 30 24 19 17 21 37 53 57 63 99 119 116 69 23 8 4 4 4 5 7 6 6 7 7 7 7 8 8 8 6 7 5 5 5 5 5 5 5 7 7 9 23 37 44 34 17 9 8 9 11 15 17 33 37 38 22 7 5 8 10 10 10 14 17 17 15 11 8 7 6 5 7 6 7 9 6 7 13 74 167 210 172 81 15 12 13 15 13 12 14 14 14 13 14 16 19 22 19 21 30 49 66 71 56 34 14 5 4 3 3 4 3 3 1 1 1 1 1 1 3 6 10 13 14 15 14 10 7 9 12 15 13 9 6 6 14 12 16 10 12 13 18 17 15 11 10 8 8 6 7 14 14 19 13 14 12 11 12 12 9 7 6 8 9 9 11 11 10 10 7 8 7 7 11 11 15 16 20 20 20 16 13 13 12 10 7 6 6 6 7 6 9 7 10 10 11 11 6 0 
0 6 10 9 10 11 13 23 18 28 17 23 12 13 14 13 16 9 13 14 14 15 11 12 12 18 21 20 18 17 16 16 16 14 13 10 13 13 13 12 13 20 21 22 18 19 19 14 10 6 8 9 10 14 12 11 11 12 13 14 12 10 11 15 23 27 27 21 12 5 3 2 1 1 2 2 2 1 1 1 1 1 2 3 3 2 2 1 1 0 0 0 0 0 0 1 1 1 0 0 0 0 1 1 1 0 0 0 0 0 0 0 0 0 0 0 0 0 1 1 1 0 0 1 1 1 0 0 0 0 0 1 1 1 1 2 1 1 0 1 2 3 7 10 12 10 8 10 10 9 8 4 3 3 3 4 3 3 2 3 2 1 1 0 1 1 1 2 1 2 1 1 0 0 0 1 3 3 5 5 4 41 136 209 213 140 50 28 30 48 47 34 16 6 8 18 30 31 25 13 9 10 13 14 15 13 11 9 7 10 22 31 31 23 14 15 14 15 13 13 15 18 19 18 15 11 12 13 14 16 20 29 33 43 67 92 108 92 64 39 34 30 29 26 18 15 8 11 8 7 6 6 7 9 8 9 6 6 4 7 7 9 7 6 9 10 9 8 6 9 8 8 10 8 11 6 6 5 4 6 8 11 12 19 21 23 20 16 18 20 18 17 12 13 15 22 30 33 34 25 21 14 14 14 18 20 18 17 16 22 31 35 32 25 19 16 16 24 41 56 51 82 109 129 102 49 15 7 5 6 6 5 5 5 8 8 8 8 6 7 7 7 5 6 5 6 6 6 6 5 6 7 6 9 22 37 43 34 18 11 7 8 10 14 13 31 35 38 24 8 6 9 11 10 9 12 16 17 16 12 9 7 4 5 6 6 8 9 7 9 27 106 192 205 147 53 9 14 14 19 13 13 13 14 14 14 15 16 17 18 17 17 20 34 52 71 72 57 31 13 5 4 4 4 4 3 1 1 0 1 1 1 4 8 11 12 12 13 13 10 9 9 14 16 14 9 8 8 15 12 15 11 10 13 14 16 14 12 10 8 7 6 8 18 17 25 15 16 11 13 13 12 8 6 6 10 14 14 14 12 10 11 8 8 6 6 8 10 14 14 13 14 14 13 12 12 13 10 7 4 5 7 9 8 9 9 11 10 11 9 6 0 
0 5 13 12 14 15 17 19 16 20 15 18 13 14 13 13 15 10 12 11 14 17 14 13 11 15 18 17 14 12 16 22 21 18 14 13 14 13 13 12 12 18 19 21 18 15 12 10 10 10 11 13 13 11 9 11 11 14 15 15 15 12 14 16 20 25 29 25 17 8 4 2 2 1 1 2 2 2 2 2 2 2 3 3 3 3 2 2 1 0 0 0 0 0 0 1 1 0 0 0 0 0 0 1 1 0 0 0 0 0 0 0 0 0 0 0 0 0 0 1 1 1 1 1 1 1 0 0 0 0 0 1 1 1 1 2 1 1 0 1 2 2 7 10 14 13 11 10 9 7 5 4 3 3 2 3 3 3 2 3 2 1 0 0 1 1 1 2 1 1 1 1 0 0 0 2 2 5 5 6 4 21 98 190 223 175 76 31 28 46 45 32 17 5 7 12 25 32 29 18 8 6 9 12 15 14 13 11 8 9 19 28 30 24 17 17 17 18 16 14 13 17 19 18 17 14 15 16 15 15 16 23 31 37 52 79 104 110 83 48 30 24 23 21 16 15 9 13 8 9 7 8 9 8 7 7 6 5 4 4 5 6 6 6 9 9 9 5 6 7 7 7 8 7 7 5 6 6 5 8 9 12 11 13 18 19 18 16 17 17 18 16 15 15 15 19 28 33 33 26 23 18 14 13 15 19 19 18 18 26 34 36 30 22 18 17 19 30 44 57 50 98 117 128 82 30 9 7 6 5 5 5 6 5 6 7 9 8 6 6 7 8 7 6 5 6 6 6 5 5 6 8 6 9 22 36 42 34 19 12 8 8 9 15 12 28 35 39 27 11 7 10 11 10 8 12 15 17 17 12 9 6 4 6 6 6 8 8 9 10 49 141 210 193 118 28 10 16 14 17 11 14 15 18 17 12 12 15 17 17 17 17 16 20 31 56 71 71 50 25 10 4 3 3 3 3 1 1 1 1 1 2 5 9 12 13 13 13 13 11 11 12 18 18 15 12 11 9 13 10 13 12 12 15 13 16 13 12 10 8 8 7 11 19 19 23 15 16 13 14 14 14 11 8 7 9 9 11 13 15 15 13 11 12 10 7 8 8 9 12 16 19 17 12 13 14 15 11 6 4 4 6 8 9 9 7 7 8 11 11 8 0 
0 5 11 14 19 19 20 20 18 16 14 17 14 16 14 14 11 11 13 12 15 15 14 14 12 12 14 15 16 17 16 17 15 15 11 12 16 22 20 13 10 14 18 21 19 16 12 9 9 10 12 15 14 13 11 11 11 12 14 12 12 8 15 17 25 29 27 24 19 14 9 5 3 2 3 3 2 2 1 1 2 3 3 3 3 3 3 2 1 0 0 0 0 0 0 1 1 0 0 0 0 0 0 1 1 0 0 0 0 0 0 0 0 0 0 0 0 0 0 0 1 1 1 1 1 1 1 0 0 0 1 1 1 1 1 1 1 0 0 1 1 2 6 9 12 12 10 10 9 7 6 5 3 2 2 3 3 3 3 2 1 0 0 1 1 1 1 1 1 1 1 1 0 0 0 2 2 5 4 6 4 9 60 163 222 203 111 34 27 42 43 31 15 5 4 8 20 29 29 21 9 4 5 7 11 12 14 13 11 9 15 23 27 24 19 17 16 14 12 13 12 14 18 15 17 14 16 18 17 18 15 16 24 33 39 72 95 115 101 63 33 20 17 15 12 10 8 10 7 7 6 8 9 9 8 6 5 4 4 4 4 5 6 8 10 11 11 6 7 6 6 6 6 7 6 5 6 6 6 10 12 15 15 13 16 15 15 15 18 17 18 12 14 15 21 24 28 30 32 30 26 22 18 14 13 16 16 16 17 27 35 35 29 22 18 18 22 37 49 55 59 111 126 121 62 17 7 6 7 6 7 5 5 5 7 8 8 7 6 7 8 8 7 5 6 6 7 7 6 5 5 7 5 8 21 35 41 34 19 12 9 9 8 14 14 27 36 39 29 14 8 10 11 9 7 11 14 16 17 12 9 6 4 5 5 5 7 8 9 16 79 174 217 176 86 16 13 13 13 11 7 9 11 14 15 14 11 10 12 14 15 17 16 19 20 40 59 71 67 44 22 8 4 3 3 2 1 1 1 1 1 2 6 11 15 16 15 14 13 10 13 14 17 17 15 14 14 12 15 13 16 15 15 13 10 11 12 15 14 10 10 9 11 16 17 21 16 18 14 16 16 16 12 11 8 11 11 13 13 11 10 10 11 12 12 12 12 11 13 11 10 10 12 9 11 12 13 13 7 6 6 7 9 9 9 8 8 8 10 11 7 0 
0 6 9 17 22 26 25 17 13 10 9 15 16 25 19 20 14 15 14 15 13 15 15 15 14 13 13 13 14 16 21 27 24 19 12 11 12 16 15 15 11 15 19 23 18 13 9 9 10 13 15 16 13 11 9 10 12 11 13 11 13 11 15 16 22 19 20 21 20 19 17 12 8 4 2 2 2 2 1 2 2 3 2 2 2 2 3 2 1 0 0 0 0 0 0 1 1 0 0 0 0 0 0 1 1 0 0 0 0 0 0 0 0 0 0 0 0 0 0 0 0 1 1 1 1 1 1 1 1 1 1 1 1 1 1 1 0 0 0 0 1 1 4 6 9 10 10 9 7 7 6 6 4 2 2 2 4 3 2 1 0 0 1 1 1 0 1 1 1 1 1 1 0 0 1 2 2 3 4 4 4 5 26 127 210 218 147 44 26 39 42 31 13 6 4 5 13 25 28 23 11 3 3 5 8 10 12 14 13 11 14 19 24 24 19 15 13 10 10 10 12 11 17 13 16 13 16 20 18 18 13 13 16 30 34 51 80 106 114 82 42 17 9 9 7 7 9 9 9 9 8 8 8 7 5 4 4 5 6 5 5 6 6 7 8 9 8 7 7 7 6 6 5 6 6 7 7 6 7 11 13 14 12 11 12 12 15 17 19 19 19 15 17 14 17 16 20 22 23 23 21 18 15 13 10 11 11 16 18 27 33 33 28 21 17 18 26 41 51 48 72 121 135 113 48 13 9 7 7 6 5 4 4 7 6 7 7 6 8 9 9 9 8 6 6 6 7 7 5 4 4 6 5 8 19 32 38 32 19 13 10 9 10 13 16 24 35 37 31 17 10 10 10 8 6 10 14 16 17 13 9 6 5 6 6 5 7 8 9 34 117 201 211 151 55 15 13 10 12 6 4 7 12 17 17 13 11 11 11 11 13 17 18 23 21 26 44 60 71 62 40 19 7 3 2 2 1 1 1 1 1 3 8 15 19 19 16 12 10 10 14 16 17 15 14 13 14 11 15 12 16 13 14 11 11 10 11 10 9 6 10 11 15 18 15 21 15 19 15 14 13 15 13 16 9 10 7 7 7 9 10 10 10 13 11 13 12 12 11 8 8 7 8 8 11 13 12 12 10 9 10 9 10 9 9 7 5 6 10 12 8 0 
0 5 8 18 20 24 24 17 16 13 11 19 22 33 27 27 19 19 17 15 13 11 10 12 12 12 12 12 15 16 15 15 14 13 9 12 13 20 16 16 13 18 16 16 13 13 9 11 9 12 9 10 10 11 13 15 14 13 11 11 10 11 12 15 19 15 16 13 16 19 21 18 13 8 5 3 2 1 1 2 2 2 2 2 2 2 2 2 1 0 0 0 0 0 0 1 1 0 0 0 0 0 0 1 1 0 0 0 0 0 0 0 0 0 0 0 0 0 0 0 0 0 1 1 1 1 0 0 0 1 1 1 1 1 1 0 0 0 0 0 0 1 2 3 5 5 6 7 8 11 8 6 4 1 2 2 3 2 2 1 0 0 1 1 0 0 1 1 0 0 1 1 0 0 1 2 3 3 4 4 5 8 11 89 189 224 178 68 28 38 42 32 12 6 5 5 9 21 27 25 15 5 4 4 6 7 9 13 15 13 15 18 23 25 23 20 14 9 8 8 11 9 14 11 13 10 12 19 20 19 14 11 12 20 32 40 71 94 115 100 58 22 6 5 4 6 6 8 8 8 8 8 10 8 8 6 7 7 7 7 8 8 9 11 11 10 8 7 7 8 8 8 6 8 9 9 8 6 7 10 12 14 13 12 11 10 14 17 20 20 18 16 18 20 26 20 17 15 16 15 15 16 15 12 9 8 11 16 19 26 30 30 26 20 16 18 29 43 50 46 91 128 137 97 37 13 11 7 8 8 6 6 4 8 7 9 7 6 8 10 10 11 7 6 5 6 7 7 6 4 4 5 4 7 18 30 35 30 19 14 12 9 10 11 15 19 32 35 32 19 11 10 9 7 6 10 14 16 18 12 9 6 5 6 6 5 6 7 12 63 158 218 194 116 31 14 10 10 8 5 4 6 9 10 11 9 9 8 12 15 19 20 22 24 28 28 35 47 61 69 56 34 13 4 3 1 1 1 2 2 3 6 13 20 23 19 14 10 8 10 14 14 15 10 14 12 14 10 15 12 17 15 15 12 10 10 13 12 13 11 13 11 12 15 15 22 17 18 12 9 9 13 12 14 9 11 9 9 8 6 6 7 8 11 12 16 17 14 12 10 9 7 6 8 8 9 11 11 13 12 12 11 12 11 9 7 7 9 14 15 11 0 
0 7 7 15 18 18 16 10 12 14 15 21 28 33 35 27 25 19 21 16 14 10 11 13 11 12 15 16 17 16 16 17 15 15 11 14 11 12 11 12 13 16 18 19 15 13 12 15 10 12 9 8 7 12 14 18 13 13 9 10 9 8 11 10 13 12 10 9 12 15 18 20 17 14 9 5 3 1 1 2 2 2 1 2 2 2 2 2 2 1 0 0 1 1 1 1 1 0 0 0 0 0 1 1 1 0 0 0 0 0 0 0 0 0 0 0 0 0 0 0 0 0 0 1 1 0 0 0 0 0 0 1 1 1 1 0 0 0 0 0 0 0 1 2 2 2 3 6 6 9 7 6 3 1 1 1 1 1 1 0 0 0 1 1 0 0 1 1 0 0 1 1 1 1 2 2 3 2 4 4 7 8 8 55 163 221 202 104 34 39 41 34 13 7 5 5 6 17 26 27 18 6 3 3 4 5 7 13 15 13 14 16 21 25 25 23 19 14 10 8 9 9 9 11 10 9 9 16 20 19 15 9 11 13 28 34 48 80 105 114 81 37 9 3 2 5 7 11 12 12 11 8 9 8 10 8 9 8 11 9 9 11 13 11 10 8 7 6 7 7 9 9 8 9 9 10 9 5 5 9 10 11 10 7 8 7 12 15 19 19 16 18 18 19 19 16 16 14 15 14 12 11 11 10 9 9 14 17 20 26 28 28 24 18 16 21 33 44 44 49 101 135 132 79 28 15 14 8 8 9 7 6 5 8 8 9 7 6 7 8 7 8 6 7 5 6 8 9 8 6 3 3 4 6 16 27 32 29 20 14 12 9 8 9 13 14 29 32 32 22 12 10 8 7 6 11 14 16 18 12 8 6 5 6 6 6 6 6 22 101 193 219 169 76 20 14 10 12 10 10 6 6 9 10 11 9 9 11 15 17 19 20 23 23 30 29 33 45 56 70 61 43 20 6 4 3 3 3 3 4 6 10 18 24 24 17 11 7 6 10 13 12 13 9 15 13 15 9 14 12 14 13 12 14 12 11 12 8 9 7 9 9 12 16 17 22 18 16 11 6 6 10 11 13 10 11 8 8 6 6 7 7 7 9 13 13 15 12 11 7 6 6 5 7 7 8 10 10 15 13 12 12 12 11 8 8 6 12 16 17 12 0 
0 7 10 15 17 15 13 11 15 19 24 25 33 28 35 22 26 20 23 18 15 9 8 10 14 14 16 15 15 12 11 9 9 11 12 15 14 13 10 10 12 18 21 16 16 12 14 11 12 9 7 5 5 13 14 21 15 13 7 7 9 10 15 11 16 11 11 9 7 10 12 16 16 17 15 11 6 2 1 1 2 2 1 2 2 2 3 3 2 1 0 1 2 2 2 1 1 1 0 0 1 1 1 1 0 0 0 0 0 0 0 0 0 0 0 0 0 0 0 0 0 0 0 1 1 0 0 0 0 0 0 0 1 1 1 0 0 0 0 0 0 0 1 1 1 2 2 5 6 7 6 5 3 1 1 0 0 0 0 0 0 1 1 1 1 1 1 1 0 0 1 1 1 1 2 2 3 3 5 6 7 7 7 28 128 210 218 144 50 38 40 37 17 7 5 5 4 14 23 27 20 9 4 3 3 3 6 11 14 13 12 13 18 22 22 24 23 20 17 14 11 11 9 12 11 10 10 17 22 20 16 7 10 10 18 33 37 67 93 114 100 56 18 4 5 5 6 8 10 11 10 8 8 10 11 10 12 10 9 9 9 10 11 11 11 7 6 5 5 6 9 9 8 9 8 10 9 7 6 9 11 10 10 9 10 9 15 17 19 16 12 15 15 19 19 19 18 16 15 12 12 14 16 15 14 14 16 18 20 25 27 26 22 17 17 25 37 44 39 61 113 141 120 63 20 15 14 9 8 8 7 6 6 7 8 9 8 6 6 6 6 7 5 6 5 7 9 10 9 7 6 5 4 5 14 24 30 29 22 15 12 8 7 8 13 12 26 30 32 25 13 9 8 7 7 11 14 16 18 12 8 5 4 6 5 6 4 7 44 140 215 205 135 39 19 13 10 11 10 9 6 7 10 10 10 9 11 15 16 17 15 15 16 17 24 27 39 49 60 76 66 48 23 8 6 6 7 6 6 9 11 14 22 25 25 15 9 7 7 11 12 11 10 10 16 15 13 9 10 11 12 17 16 16 13 10 13 9 11 8 8 6 7 11 15 17 16 12 9 6 9 11 12 11 8 9 9 12 11 10 8 6 9 8 13 13 17 13 13 9 8 8 5 6 6 7 8 10 11 11 10 9 11 16 15 14 10 13 18 24 15 0 
0 8 15 18 18 20 16 13 16 22 25 26 29 25 28 21 25 22 21 19 16 14 11 10 15 15 20 16 15 11 12 13 17 19 20 18 13 13 10 12 12 15 18 18 22 15 18 12 15 14 10 8 8 14 16 18 12 11 8 9 10 9 14 13 17 14 12 12 8 11 10 13 14 19 22 21 15 7 2 1 2 2 2 2 2 3 3 3 3 2 1 2 2 3 2 2 1 1 1 1 1 1 1 0 0 0 0 0 0 0 0 0 0 0 0 0 0 0 0 0 0 0 0 1 1 0 0 0 0 0 0 0 0 1 1 1 0 0 0 0 0 0 1 1 2 1 2 3 3 4 4 3 3 1 0 0 0 0 0 0 0 0 1 1 1 1 1 1 0 0 1 1 2 2 2 2 3 3 3 4 5 5 5 12 91 190 224 175 72 35 38 38 23 10 6 5 4 11 21 27 21 11 5 4 5 5 7 10 13 13 11 12 15 18 18 18 19 20 19 18 15 14 11 11 12 12 14 21 27 24 17 8 8 9 12 25 32 44 79 104 113 77 36 9 8 7 7 9 10 11 9 8 8 8 10 9 9 10 10 8 9 9 10 10 7 5 5 6 5 5 5 8 8 9 6 9 9 9 9 11 9 10 10 12 16 18 21 20 16 11 8 14 15 19 19 21 20 15 11 9 11 14 17 17 16 15 16 17 20 24 29 26 23 21 21 30 40 43 39 73 121 139 106 47 16 17 12 10 9 6 5 5 6 8 10 11 9 6 5 5 4 5 5 6 8 9 12 11 12 9 8 6 6 6 12 21 27 28 24 18 13 8 6 8 13 13 25 30 32 26 13 8 8 8 8 10 13 16 18 12 7 4 4 5 4 5 5 16 76 174 220 179 97 24 19 13 10 12 12 13 11 9 10 13 16 18 18 19 20 18 14 12 11 12 22 32 49 59 63 65 55 39 19 8 7 9 10 10 10 14 15 18 23 22 24 14 9 7 11 12 12 10 8 11 16 16 13 9 8 10 11 13 15 16 15 10 12 7 8 6 6 5 6 9 11 12 11 9 8 6 11 10 13 9 8 8 11 11 14 10 10 7 9 12 16 15 15 12 12 12 8 6 4 6 6 8 9 9 11 11 10 10 12 14 15 15 13 16 16 18 10 0 
0 14 22 25 27 27 24 19 20 18 24 27 26 25 21 23 20 21 17 19 15 14 15 15 20 18 20 14 13 10 14 17 23 26 23 21 15 16 13 13 13 17 20 17 18 16 17 15 14 13 10 10 11 13 14 13 10 9 8 9 10 14 15 16 14 15 11 16 10 13 9 10 14 20 27 29 25 15 6 2 1 2 2 3 3 3 3 3 3 2 2 2 2 2 2 2 1 1 1 1 1 1 1 0 0 0 0 0 0 0 0 0 0 0 0 0 0 0 0 0 0 0 0 1 1 0 0 0 0 0 0 0 0 0 1 1 1 0 0 0 0 0 1 1 2 1 2 2 3 3 3 3 3 2 0 0 0 0 0 0 1 0 1 1 1 1 1 1 0 0 0 1 2 2 1 1 2 2 3 3 3 2 2 3 55 162 218 197 102 39 35 39 28 13 5 4 3 10 20 28 24 15 8 6 7 5 6 7 10 11 11 12 14 16 14 12 12 14 16 17 16 14 12 9 10 11 14 23 30 28 19 9 7 9 8 14 28 33 65 92 116 99 58 20 11 8 8 8 9 10 8 6 6 7 7 8 7 8 8 6 8 7 8 7 4 5 4 6 6 5 5 9 8 10 6 8 8 9 8 9 8 10 12 17 20 19 18 17 13 13 12 17 17 18 19 19 19 15 9 8 10 15 18 19 17 15 13 14 19 24 30 27 25 21 21 32 41 41 46 86 129 132 91 36 15 13 9 8 7 4 3 4 5 6 7 8 7 6 5 5 5 5 6 7 9 9 11 10 9 9 11 10 8 7 11 18 24 26 23 18 13 9 7 7 13 15 23 31 30 26 13 7 8 8 8 8 12 16 18 13 7 4 4 4 4 5 6 31 116 198 211 144 56 18 18 18 14 14 13 13 13 13 15 19 20 21 21 20 20 17 12 10 11 18 28 39 49 54 55 50 39 26 13 6 7 10 11 11 13 18 20 21 19 20 17 12 11 9 15 13 13 8 7 9 15 16 14 10 10 9 10 13 16 15 12 7 8 6 8 7 9 8 8 12 11 12 9 10 9 8 11 11 15 11 9 8 12 12 16 11 12 8 8 10 13 13 14 14 14 11 9 8 6 7 8 9 10 8 8 7 7 7 10 14 18 16 12 12 13 18 10 0 
0 12 20 21 25 25 28 19 24 16 27 24 28 28 23 28 22 21 15 12 14 15 17 15 22 20 18 12 10 12 13 15 25 29 31 22 17 16 15 14 17 15 17 19 19 18 16 15 15 17 12 11 10 15 15 13 10 8 11 14 14 16 15 16 12 12 9 13 11 15 13 11 13 16 25 30 30 23 13 5 2 2 3 3 4 3 3 3 3 2 2 1 1 2 1 1 1 1 1 1 1 1 1 0 0 0 0 0 0 0 0 0 0 0 0 0 0 0 0 0 0 0 0 1 1 0 0 0 0 0 0 0 0 0 0 1 1 0 0 0 0 0 1 1 2 1 2 2 2 2 2 3 3 2 0 0 0 0 0 0 1 0 1 1 1 1 1 1 0 0 0 1 2 2 1 2 2 2 2 1 1 2 3 3 31 130 205 212 133 48 32 38 32 18 7 5 4 8 19 27 27 18 9 6 8 5 5 4 7 10 11 12 14 17 15 11 8 8 11 14 15 14 11 7 7 10 13 25 31 31 21 10 6 7 7 8 20 27 42 80 109 115 81 36 14 10 9 8 7 8 6 6 5 6 6 8 8 9 10 8 8 6 6 5 4 4 5 7 6 4 3 7 7 9 6 7 7 9 10 10 8 11 14 20 22 20 16 13 9 10 11 16 16 17 20 19 18 11 8 8 10 16 20 19 15 12 11 13 19 23 27 26 25 24 26 34 42 38 54 100 137 124 76 25 16 11 9 7 5 4 2 3 5 7 9 9 8 6 5 5 5 6 7 8 9 8 7 8 8 11 12 11 10 8 11 16 21 22 21 17 13 9 6 6 11 17 21 32 28 27 14 7 9 8 7 6 11 16 19 13 7 4 4 4 4 5 11 60 154 211 189 106 27 16 16 17 13 14 14 15 15 14 15 19 21 22 24 20 20 20 19 21 24 31 39 43 42 35 30 24 18 12 7 6 8 9 10 11 15 20 20 20 15 20 14 14 11 13 16 12 12 7 8 10 16 16 16 12 11 9 8 11 13 13 10 6 5 5 8 9 9 10 8 12 10 12 8 10 11 11 12 11 12 14 14 12 14 11 15 13 11 12 12 14 19 17 16 12 15 12 10 5 5 5 9 8 11 10 12 14 13 10 9 9 11 11 11 12 12 13 7 0 
0 16 24 19 20 18 25 19 22 14 22 21 25 21 21 24 24 18 13 12 16 19 23 21 24 20 18 14 9 12 11 17 24 24 25 22 16 14 13 11 12 13 13 13 11 13 13 15 13 11 9 10 11 15 12 11 9 10 12 15 15 16 13 12 8 6 7 10 13 12 11 9 13 16 23 27 29 28 21 11 4 2 2 3 3 4 3 3 3 2 2 1 1 1 1 2 1 1 1 1 2 2 1 1 0 0 0 0 0 0 0 0 0 0 0 0 0 0 0 0 0 0 0 1 1 0 0 0 0 0 0 0 0 0 0 1 1 0 0 0 0 0 1 1 2 1 1 2 2 3 2 2 2 2 1 0 0 0 0 1 1 0 1 1 1 1 1 1 0 0 0 1 1 2 1 1 2 1 2 1 1 1 2 3 15 95 186 218 167 72 33 35 33 20 8 4 6 7 20 28 29 20 11 5 8 4 4 3 6 8 10 11 15 17 16 12 8 5 6 8 10 9 7 4 5 7 9 23 29 31 21 10 6 7 8 6 13 26 33 70 100 120 100 53 18 9 8 7 6 6 5 4 3 5 6 7 8 10 12 11 10 7 7 5 4 4 5 7 6 5 4 8 10 12 9 9 8 8 8 8 7 10 14 18 19 14 11 8 11 14 14 16 13 14 17 18 20 12 8 7 9 12 14 15 14 12 11 14 20 22 23 23 22 23 28 37 43 33 63 112 143 116 60 17 15 8 6 4 4 3 3 3 4 5 6 6 5 5 5 5 5 7 9 10 10 8 6 5 4 9 10 11 10 9 11 15 19 21 19 15 12 9 6 5 9 19 19 35 27 28 16 7 10 7 6 5 11 17 19 13 7 4 4 4 4 6 23 94 182 209 157 68 12 12 13 16 13 13 12 12 14 16 19 22 21 20 16 14 20 21 28 33 38 41 41 35 26 17 10 5 4 6 8 11 10 7 7 10 15 17 15 13 11 15 12 15 14 16 15 9 9 6 7 11 17 17 16 11 10 10 9 12 13 12 8 4 3 5 8 13 14 17 14 20 15 12 9 9 13 13 12 14 12 14 15 13 15 12 12 15 13 16 12 14 16 16 18 14 11 8 7 6 9 9 10 8 9 8 9 9 8 7 7 7 10 9 11 11 12 11 6 0 
0 14 20 15 12 12 17 18 21 24 26 29 28 25 23 23 20 20 17 17 17 17 19 25 26 24 16 15 10 14 12 17 19 27 22 22 15 14 11 11 10 12 11 14 14 16 14 16 13 10 9 9 15 16 16 14 13 16 19 20 18 17 13 12 7 5 5 6 10 12 14 10 11 10 13 17 25 28 27 18 8 2 2 2 3 3 3 3 3 2 2 1 1 1 1 1 1 1 1 1 2 2 2 1 1 0 0 0 0 0 0 0 0 0 0 0 0 0 0 0 0 0 0 1 1 0 0 0 0 0 0 0 0 0 0 1 1 0 0 0 0 0 1 1 2 1 1 1 2 2 2 2 2 1 1 1 0 0 1 1 1 0 1 1 1 1 1 1 0 0 0 1 1 2 2 2 2 1 1 1 1 1 2 3 7 58 159 215 195 106 40 31 35 23 12 5 8 8 21 29 32 24 13 5 6 3 4 3 5 7 9 10 14 17 17 14 9 6 5 6 8 10 9 6 5 6 8 22 29 30 20 8 6 7 9 8 11 22 32 48 90 114 115 71 27 10 10 6 5 5 5 5 5 6 6 7 8 9 13 13 11 8 4 4 3 5 5 6 6 6 7 10 11 12 8 7 7 8 8 8 8 10 12 16 17 14 11 8 11 13 13 12 8 10 14 17 19 16 14 8 10 13 16 17 16 14 15 19 23 24 21 21 21 28 37 42 43 33 79 125 144 108 46 13 13 9 11 8 6 5 5 4 4 5 6 7 6 5 5 5 5 7 8 10 9 7 5 5 6 7 8 9 8 9 12 16 20 21 18 14 11 9 8 6 9 21 21 37 29 28 18 8 9 7 5 7 12 18 18 12 5 3 4 5 7 9 46 132 200 194 122 40 11 15 14 17 13 13 11 11 11 12 14 16 15 15 13 13 19 26 38 41 41 38 30 20 12 6 5 5 5 10 13 17 15 11 9 11 15 15 12 8 10 13 14 16 18 16 13 7 7 8 9 14 19 19 17 9 9 8 8 11 12 12 8 7 7 9 9 11 10 12 10 12 12 10 9 11 15 16 13 14 11 13 16 14 16 14 13 16 13 17 12 17 17 18 18 14 11 6 4 7 8 12 10 10 8 9 10 11 9 7 6 6 10 9 12 10 11 9 5 0 
0 17 23 19 15 13 11 17 17 21 19 19 15 17 19 24 20 17 17 20 22 26 25 31 24 25 14 14 10 13 12 18 16 17 14 17 15 13 11 9 10 11 10 11 9 11 12 17 15 12 9 12 20 21 23 16 13 12 15 17 14 12 7 7 5 5 4 6 10 13 12 8 10 10 16 13 20 26 28 22 12 4 2 2 2 3 3 3 2 2 2 1 1 2 2 2 2 2 2 2 2 2 2 2 1 0 0 0 0 0 0 0 0 0 0 0 0 0 0 0 0 0 0 1 1 0 0 0 0 0 0 0 0 0 0 1 1 0 0 0 0 0 1 1 2 1 1 1 1 2 1 1 1 1 1 1 1 1 1 1 1 0 1 1 1 1 0 1 0 0 0 0 1 1 1 2 2 2 2 1 1 1 2 3 5 30 121 200 214 148 66 34 35 27 16 7 10 10 21 30 32 27 15 5 5 3 4 3 6 6 7 9 12 16 17 15 11 7 5 6 9 12 13 12 11 11 11 23 30 29 19 8 6 6 7 8 10 16 31 35 81 108 122 90 41 12 10 8 5 5 7 9 9 8 7 7 8 9 13 14 14 12 7 6 4 5 5 6 7 8 10 12 11 11 8 8 8 8 8 8 9 9 10 12 14 14 13 12 19 20 20 14 12 14 17 23 24 17 12 6 6 9 12 17 19 18 19 22 25 23 17 16 21 35 44 45 41 39 95 136 141 95 31 13 13 12 14 11 8 7 7 6 5 5 5 5 5 6 8 7 7 7 8 11 10 8 7 6 6 6 6 7 8 10 13 16 19 20 17 14 10 10 10 8 11 23 26 38 34 27 20 9 9 7 5 8 13 19 16 11 4 2 4 6 8 16 79 165 206 167 84 21 13 17 13 14 8 10 10 11 10 10 11 14 13 13 10 13 25 35 41 38 30 22 14 9 4 5 5 7 7 16 21 28 24 18 15 16 15 13 9 8 11 12 13 15 18 14 10 5 6 9 8 14 21 20 18 8 9 9 10 12 10 12 7 8 7 9 10 12 11 13 15 14 12 10 8 10 10 15 14 15 14 11 12 11 13 11 12 15 14 19 13 15 14 18 19 15 12 5 4 10 10 17 10 11 6 5 4 4 4 5 7 9 13 14 18 15 11 7 3 0 
0 10 18 13 9 11 7 10 10 16 15 17 12 14 14 12 13 10 15 15 15 15 12 20 16 16 10 8 9 8 8 12 12 13 12 10 9 8 6 7 7 5 5 6 7 10 11 12 9 9 5 9 14 16 15 10 10 10 11 12 9 9 5 5 3 3 3 3 4 6 7 6 6 4 9 6 12 15 18 15 8 3 1 1 1 1 1 1 1 1 1 1 1 1 1 1 1 1 1 1 1 1 1 1 1 0 0 0 0 0 0 0 0 0 0 0 0 0 0 0 0 0 0 0 0 0 0 0 0 0 0 0 0 0 0 0 0 0 0 0 0 0 0 1 1 1 0 0 1 1 1 1 0 0 1 1 1 0 0 0 0 0 0 0 0 0 0 0 0 0 0 0 0 0 1 1 1 1 1 1 1 0 1 1 2 10 66 125 135 100 47 24 21 18 11 4 7 7 13 20 20 18 10 4 3 1 2 2 3 3 4 5 7 10 10 9 7 4 3 3 6 8 9 8 7 6 7 15 18 17 12 5 4 4 4 6 6 9 19 17 42 67 75 60 29 11 7 5 3 3 5 7 7 6 5 4 4 4 6 9 9 8 5 3 2 3 3 3 5 5 7 8 7 7 4 3 4 3 4 4 5 5 5 6 8 9 8 7 12 12 14 9 8 9 9 11 13 11 9 4 4 6 8 11 12 11 12 15 16 15 11 10 14 23 29 30 25 28 64 85 87 57 16 9 7 9 10 9 7 6 5 4 3 3 2 4 4 4 5 5 4 4 4 5 5 4 4 4 4 3 3 3 5 6 8 10 12 12 10 8 6 6 7 6 9 15 19 23 24 15 14 5 5 5 3 6 8 12 10 6 2 1 3 4 5 15 59 105 129 99 42 11 10 12 9 12 6 9 8 9 6 5 3 4 4 5 6 10 17 24 27 23 15 8 4 2 2 2 3 5 6 12 15 18 17 13 11 11 10 8 6 5 7 8 8 9 11 8 6 3 5 6 6 11 14 13 12 5 5 5 5 7 5 8 4 7 6 9 6 5 5 4 4 5 5 6 5 8 6 10 8 9 8 6 6 6 8 7 9 7 10 9 8 9 7 10 13 9 9 3 3 6 7 10 7 8 4 3 2 1 2 2 4 6 9 10 10 8 5 4 1 0 
0 0 0 0 0 0 0 0 0 0 0 0 0 0 0 0 0 0 0 0 0 0 0 0 0 0 0 0 0 0 0 0 0 0 0 0 0 0 0 0 0 0 0 0 0 0 0 0 0 0 0 0 0 0 0 0 0 0 0 0 0 0 0 0 0 0 0 0 0 0 0 0 0 0 0 0 0 0 0 0 0 0 0 0 0 0 0 0 0 0 0 0 0 0 0 0 0 0 0 0 0 0 0 0 0 0 0 0 0 0 0 0 0 0 0 0 0 0 0 0 0 0 0 0 0 0 0 0 0 0 0 0 0 0 0 0 0 0 0 0 0 0 0 0 0 0 0 0 0 0 0 0 0 0 0 0 0 0 0 0 0 0 0 0 0 0 0 0 0 0 0 0 0 0 0 0 0 0 0 0 0 0 0 0 0 0 0 0 0 0 0 0 0 0 0 0 0 0 0 0 0 0 0 0 0 0 0 0 0 0 0 0 0 0 0 0 0 0 0 0 0 0 0 0 0 0 0 0 0 0 0 0 0 0 0 0 0 0 0 0 0 0 0 0 0 0 0 0 0 0 0 0 0 0 0 0 0 0 0 0 0 0 0 0 0 0 0 0 0 0 0 0 0 0 0 0 0 0 0 0 0 0 0 0 0 0 0 0 0 0 0 0 0 0 0 0 0 0 0 0 0 0 0 0 0 0 0 0 0 0 0 0 0 0 0 0 0 0 0 0 0 0 0 0 0 0 0 0 0 0 0 0 0 0 0 0 0 0 0 0 0 0 0 0 0 0 0 0 0 0 0 0 0 0 0 0 0 0 0 0 0 0 0 0 0 0 0 0 0 0 0 0 0 0 0 0 0 0 0 0 0 0 0 0 0 0 0 0 0 0 0 0 0 0 0 0 0 0 0 0 0 0 0 0 0 0 0 0 0 0 0 0 0 0 0 0 0 0 0 0 0 0 0 0 0 0 0 0 0 0 0 0 0 0 0 0 0 0 0 0 0 0 0 0 0 0 0 0 0 0 0 0 0 0 0 0 0 0 0 0 0 0 0 0 0 0 0 0 0 0 0 0 0 0 0 0 0 0 0 0 0 0 0 0 0 0 0 0 0 0 0 0 0 0 0 0 0 0 0 0 0 0 0 0 0 0 0 0 0 0 0 0 
