P3
256 256 255
153 152 98 153 152 98 153 152 98 153 152 98 153 152 98 153 152 98 153 152 98 153 152 98 153 152 98 153 152 98 153 152 98 153 152 98 153 152 98 153 152 98 153 152 98 153 152 98 153 152 98 153 152 98 153 152 98 153 152 98 153 152 98 153 152 98 153 152 98 153 152 98 153 152 98 153 152 98 153 152 98 153 152 98 0 0 255 164 169 111 164 169 111 164 169 111 164 169 111 164 169 111 164 169 111 164 169 111 164 169 111 164 169 111 164 169 111 164 169 111 164 169 111 164 169 111 164 169 111 164 169 111 164 169 111 164 169 111 164 169 111 164 169 111 164 169 111 164 169 111 164 169 111 164 169 111 164 169 111 0 0 255 0 0 255 173 181 124 173 181 124 173 181 124 173 181 124 173 181 124 173 181 124 173 181 124 173 181 124 173 181 124 173 181 124 173 181 124 173 181 124 173 181 124 173 181 124 173 181 124 173 181 124 173 181 124 173 181 124 173 181 124 173 181 124 173 181 124 173 181 124 173 181 124 173 181 124 173 181 124 173 181 124 173 181 124 173 181 124 173 181 124 0 0 255 177 187 134 177 187 134 177 187 134 177 187 134 177 187 134 177 187 134 177 187 134 177 187 134 177 187 134 177 187 134 177 187 134 177 187 134 177 187 134 177 187 134 177 187 134 177 187 134 177 187 134 177 187 134 177 187 134 177 187 134 177 187 134 0 0 255 0 0 255 154 163 99 154 163 99 154 163 99 154 163 99 154 163 99 154 163 99 154 163 99 154 163 99 154 163 99 154 163 99 154 163 99 154 163 99 154 163 99 0 0 255 178 184 131 178 184 131 178 184 131 178 184 131 178 184 131 178 184 131 178 184 131 178 184 131 178 184 131 178 184 131 178 184 131 178 184 131 178 184 131 178 184 131 178 184 131 178 184 131 178 184 131 178 184 131 178 184 131 178 184 131 178 184 131 178 184 131 178 184 131 178 184 131 178 184 131 178 184 131 178 184 131 178 184 131 178 184 131 178 184 131 178 184 131 178 184 131 178 184 131 178 184 131 178 184 131 178 184 131 0 0 255 179 185 137 179 185 137 179 185 137 179 185 137 179 185 137 179 185 137 179 185 137 179 185 137 179 185 137 179 185 137 179 185 137 179 185 137 179 185 137 179 185 137 179 185 137 179 185 137 179 185 137 179 185 137 179 185 137 179 185 137 179 185 137 179 185 137 179 185 137 179 185 137 179 185 137 179 185 137 179 185 137 179 185 137 179 185 137 179 185 137 179 185 137 179 185 137 179 185 137 179 185 137 179 185 137 179 185 137 0 0 255 175 179 129 175 179 129 175 179 129 175 179 129 175 179 129 175 179 129 175 179 129 175 179 129 175 179 129 175 179 129 175 179 129 175 179 129 175 179 129 175 179 129 175 179 129 175 179 129 175 179 129 175 179 129 175 179 129 175 179 129 175 179 129 175 179 129 175 179 129 175 179 129 175 179 129 175 179 129 175 179 129 175 179 129 175 179 129 175 179 129 175 179 129 175 179 129 175 179 129 175 179 129 175 179 129 0 0 255 167 167 117 167 167 117 167 167 117 167 167 117 167 167 117 167 167 117 167 167 117 167 167 117 167 167 117 167 167 117 167 167 117 167 167 117 167 167 117 167 167 117 167 167 117 167 167 117 167 167 117 167 167 117 167 167 117 167 167 117 167 167 117 167 167 117 167 167 117 167 167 117 
153 152 98 153 152 98 153 152 98 153 152 98 153 152 98 153 152 98 153 152 98 153 152 98 153 152 98 153 152 98 153 152 98 153 152 98 153 152 98 153 152 98 153 152 98 153 152 98 153 152 98 153 152 98 153 152 98 153 152 98 153 152 98 153 152 98 153 152 98 153 152 98 153 152 98 153 152 98 153 152 98 153 152 98 0 0 255 164 169 111 164 169 111 164 169 111 164 169 111 164 169 111 164 169 111 164 169 111 164 169 111 164 169 111 164 169 111 164 169 111 164 169 111 164 169 111 164 169 111 164 169 111 164 169 111 164 169 111 164 169 111 164 169 111 164 169 111 164 169 111 164 169 111 164 169 111 164 169 111 164 169 111 0 0 255 173 181 124 173 181 124 173 181 124 173 181 124 173 181 124 173 181 124 173 181 124 173 181 124 173 181 124 173 181 124 173 181 124 173 181 124 173 181 124 173 181 124 173 181 124 173 181 124 173 181 124 173 181 124 173 181 124 173 181 124 173 181 124 173 181 124 173 181 124 173 181 124 173 181 124 173 181 124 173 181 124 173 181 124 0 0 255 177 187 134 177 187 134 177 187 134 177 187 134 177 187 134 177 187 134 177 187 134 177 187 134 177 187 134 177 187 134 177 187 134 177 187 134 177 187 134 177 187 134 177 187 134 177 187 134 177 187 134 177 187 134 177 187 134 177 187 134 177 187 134 177 187 134 177 187 134 0 0 255 0 0 255 154 163 99 154 163 99 154 163 99 154 163 99 154 163 99 154 163 99 154 163 99 154 163 99 154 163 99 154 163 99 154 163 99 154 163 99 0 0 255 178 184 131 178 184 131 178 184 131 178 184 131 178 184 131 178 184 131 178 184 131 178 184 131 178 184 131 178 184 131 178 184 131 178 184 131 178 184 131 178 184 131 178 184 131 178 184 131 178 184 131 178 184 131 178 184 131 178 184 131 178 184 131 178 184 131 178 184 131 178 184 131 178 184 131 178 184 131 178 184 131 178 184 131 178 184 131 178 184 131 178 184 131 178 184 131 178 184 131 178 184 131 178 184 131 178 184 131 0 0 255 179 185 137 179 185 137 179 185 137 179 185 137 179 185 137 179 185 137 179 185 137 179 185 137 179 185 137 179 185 137 179 185 137 179 185 137 179 185 137 179 185 137 179 185 137 179 185 137 179 185 137 179 185 137 179 185 137 179 185 137 179 185 137 179 185 137 179 185 137 179 185 137 179 185 137 179 185 137 179 185 137 179 185 137 179 185 137 179 185 137 179 185 137 179 185 137 179 185 137 179 185 137 179 185 137 179 185 137 0 0 255 175 179 129 175 179 129 175 179 129 175 179 129 175 179 129 175 179 129 175 179 129 175 179 129 175 179 129 175 179 129 175 179 129 175 179 129 175 179 129 175 179 129 175 179 129 175 179 129 175 179 129 175 179 129 175 179 129 175 179 129 175 179 129 175 179 129 175 179 129 175 179 129 175 179 129 175 179 129 175 179 129 175 179 129 175 179 129 175 179 129 175 179 129 175 179 129 175 179 129 175 179 129 175 179 129 0 0 255 167 167 117 167 167 117 167 167 117 167 167 117 167 167 117 167 167 117 167 167 117 167 167 117 167 167 117 167 167 117 167 167 117 167 167 117 167 167 117 167 167 117 167 167 117 167 167 117 167 167 117 167 167 117 167 167 117 167 167 117 167 167 117 167 167 117 167 167 117 167 167 117 
153 152 98 153 152 98 153 152 98 153 152 98 153 152 98 153 152 98 153 152 98 153 152 98 153 152 98 153 152 98 153 152 98 153 152 98 153 152 98 153 152 98 153 152 98 153 152 98 153 152 98 153 152 98 153 152 98 153 152 98 153 152 98 153 152 98 153 152 98 153 152 98 153 152 98 153 152 98 153 152 98 153 152 98 0 0 255 164 169 111 164 169 111 164 169 111 164 169 111 164 169 111 164 169 111 164 169 111 164 169 111 164 169 111 164 169 111 164 169 111 164 169 111 164 169 111 164 169 111 164 169 111 164 169 111 164 169 111 164 169 111 164 169 111 164 169 111 164 169 111 164 169 111 164 169 111 164 169 111 164 169 111 0 0 255 173 181 124 173 181 124 173 181 124 173 181 124 173 181 124 173 181 124 173 181 124 173 181 124 173 181 124 173 181 124 173 181 124 173 181 124 173 181 124 173 181 124 173 181 124 173 181 124 173 181 124 173 181 124 173 181 124 173 181 124 173 181 124 173 181 124 173 181 124 173 181 124 173 181 124 173 181 124 173 181 124 173 181 124 0 0 255 177 187 134 177 187 134 177 187 134 177 187 134 177 187 134 177 187 134 177 187 134 177 187 134 177 187 134 177 187 134 177 187 134 177 187 134 177 187 134 177 187 134 177 187 134 177 187 134 177 187 134 177 187 134 177 187 134 177 187 134 177 187 134 177 187 134 177 187 134 177 187 134 0 0 255 0 0 255 154 163 99 154 163 99 154 163 99 154 163 99 154 163 99 154 163 99 154 163 99 154 163 99 154 163 99 154 163 99 154 163 99 0 0 255 178 184 131 178 184 131 178 184 131 178 184 131 178 184 131 178 184 131 178 184 131 178 184 131 178 184 131 178 184 131 178 184 131 178 184 131 178 184 131 178 184 131 178 184 131 178 184 131 178 184 131 178 184 131 178 184 131 178 184 131 178 184 131 178 184 131 178 184 131 178 184 131 178 184 131 178 184 131 178 184 131 178 184 131 178 184 131 178 184 131 178 184 131 178 184 131 178 184 131 178 184 131 178 184 131 0 0 255 179 185 137 179 185 137 179 185 137 179 185 137 179 185 137 179 185 137 179 185 137 179 185 137 179 185 137 179 185 137 179 185 137 179 185 137 179 185 137 179 185 137 179 185 137 179 185 137 179 185 137 179 185 137 179 185 137 179 185 137 179 185 137 179 185 137 179 185 137 179 185 137 179 185 137 179 185 137 179 185 137 179 185 137 179 185 137 179 185 137 179 185 137 179 185 137 179 185 137 179 185 137 179 185 137 179 185 137 179 185 137 0 0 255 175 179 129 175 179 129 175 179 129 175 179 129 175 179 129 175 179 129 175 179 129 175 179 129 175 179 129 175 179 129 175 179 129 175 179 129 175 179 129 175 179 129 175 179 129 175 179 129 175 179 129 175 179 129 175 179 129 175 179 129 175 179 129 175 179 129 175 179 129 175 179 129 175 179 129 175 179 129 175 179 129 175 179 129 175 179 129 175 179 129 175 179 129 175 179 129 175 179 129 175 179 129 175 179 129 0 0 255 167 167 117 167 167 117 167 167 117 167 167 117 167 167 117 167 167 117 167 167 117 167 167 117 167 167 117 167 167 117 167 167 117 167 167 117 167 167 117 167 167 117 167 167 117 167 167 117 167 167 117 167 167 117 167 167 117 167 167 117 167 167 117 167 167 117 167 167 117 167 167 117 
153 152 98 153 152 98 153 152 98 153 152 98 153 152 98 153 152 98 153 152 98 153 152 98 153 152 98 153 152 98 153 152 98 153 152 98 153 152 98 153 152 98 153 152 98 153 152 98 153 152 98 153 152 98 153 152 98 153 152 98 153 152 98 153 152 98 153 152 98 153 152 98 153 152 98 153 152 98 153 152 98 153 152 98 0 0 255 164 169 111 164 169 111 164 169 111 164 169 111 164 169 111 164 169 111 164 169 111 164 169 111 164 169 111 164 169 111 164 169 111 164 169 111 164 169 111 164 169 111 164 169 111 164 169 111 164 169 111 164 169 111 164 169 111 164 169 111 164 169 111 164 169 111 164 169 111 164 169 111 0 0 255 173 181 124 173 181 124 173 181 124 173 181 124 173 181 124 173 181 124 173 181 124 173 181 124 173 181 124 173 181 124 173 181 124 173 181 124 173 181 124 173 181 124 173 181 124 173 181 124 173 181 124 173 181 124 173 181 124 173 181 124 173 181 124 173 181 124 173 181 124 173 181 124 173 181 124 173 181 124 173 181 124 173 181 124 173 181 124 0 0 255 177 187 134 177 187 134 177 187 134 177 187 134 177 187 134 177 187 134 177 187 134 177 187 134 177 187 134 177 187 134 177 187 134 177 187 134 177 187 134 177 187 134 177 187 134 177 187 134 177 187 134 177 187 134 177 187 134 177 187 134 177 187 134 177 187 134 177 187 134 177 187 134 177 187 134 0 0 255 0 0 255 154 163 99 154 163 99 154 163 99 154 163 99 154 163 99 154 163 99 154 163 99 154 163 99 154 163 99 154 163 99 0 0 255 178 184 131 178 184 131 178 184 131 178 184 131 178 184 131 178 184 131 178 184 131 178 184 131 178 184 131 178 184 131 178 184 131 178 184 131 178 184 131 178 184 131 178 184 131 178 184 131 178 184 131 178 184 131 178 184 131 178 184 131 178 184 131 178 184 131 178 184 131 178 184 131 178 184 131 178 184 131 178 184 131 178 184 131 178 184 131 178 184 131 178 184 131 178 184 131 178 184 131 178 184 131 178 184 131 0 0 255 179 185 137 179 185 137 179 185 137 179 185 137 179 185 137 179 185 137 179 185 137 179 185 137 179 185 137 179 185 137 179 185 137 179 185 137 179 185 137 179 185 137 179 185 137 179 185 137 179 185 137 179 185 137 179 185 137 179 185 137 179 185 137 179 185 137 179 185 137 179 185 137 179 185 137 179 185 137 179 185 137 179 185 137 179 185 137 179 185 137 179 185 137 179 185 137 179 185 137 179 185 137 179 185 137 179 185 137 179 185 137 0 0 255 175 179 129 175 179 129 175 179 129 175 179 129 175 179 129 175 179 129 175 179 129 175 179 129 175 179 129 175 179 129 175 179 129 175 179 129 175 179 129 175 179 129 175 179 129 175 179 129 175 179 129 175 179 129 175 179 129 175 179 129 175 179 129 175 179 129 175 179 129 175 179 129 175 179 129 175 179 129 175 179 129 175 179 129 175 179 129 175 179 129 175 179 129 175 179 129 175 179 129 175 179 129 175 179 129 0 0 255 167 167 117 167 167 117 167 167 117 167 167 117 167 167 117 167 167 117 167 167 117 167 167 117 167 167 117 167 167 117 167 167 117 167 167 117 167 167 117 167 167 117 167 167 117 167 167 117 167 167 117 167 167 117 167 167 117 167 167 117 167 167 117 167 167 117 167 167 117 167 167 117 
153 152 98 153 152 98 153 152 98 153 152 98 153 152 98 153 152 98 153 152 98 153 152 98 153 152 98 153 152 98 153 152 98 153 152 98 153 152 98 153 152 98 153 152 98 153 152 98 153 152 98 153 152 98 153 152 98 153 152 98 153 152 98 153 152 98 153 152 98 153 152 98 153 152 98 153 152 98 0 0 255 0 0 255 0 0 255 164 169 111 164 169 111 164 169 111 164 169 111 164 169 111 164 169 111 164 169 111 164 169 111 164 169 111 164 169 111 164 169 111 164 169 111 164 169 111 164 169 111 164 169 111 164 169 111 164 169 111 164 169 111 164 169 111 164 169 111 164 169 111 164 169 111 164 169 111 0 0 255 173 181 124 173 181 124 173 181 124 173 181 124 173 181 124 173 181 124 173 181 124 173 181 124 173 181 124 173 181 124 173 181 124 173 181 124 173 181 124 173 181 124 173 181 124 173 181 124 173 181 124 173 181 124 173 181 124 173 181 124 173 181 124 173 181 124 173 181 124 173 181 124 173 181 124 173 181 124 173 181 124 173 181 124 173 181 124 0 0 255 177 187 134 177 187 134 177 187 134 177 187 134 177 187 134 177 187 134 177 187 134 177 187 134 177 187 134 177 187 134 177 187 134 177 187 134 177 187 134 177 187 134 177 187 134 177 187 134 177 187 134 177 187 134 177 187 134 177 187 134 177 187 134 177 187 134 177 187 134 177 187 134 177 187 134 177 187 134 177 187 134 0 0 255 0 0 255 154 163 99 154 163 99 154 163 99 154 163 99 154 163 99 154 163 99 154 163 99 154 163 99 154 163 99 0 0 255 178 184 131 178 184 131 178 184 131 178 184 131 178 184 131 178 184 131 178 184 131 178 184 131 178 184 131 178 184 131 178 184 131 178 184 131 178 184 131 178 184 131 178 184 131 178 184 131 178 184 131 178 184 131 178 184 131 178 184 131 178 184 131 178 184 131 178 184 131 178 184 131 178 184 131 178 184 131 178 184 131 178 184 131 178 184 131 178 184 131 178 184 131 178 184 131 178 184 131 178 184 131 178 184 131 0 0 255 179 185 137 179 185 137 179 185 137 179 185 137 179 185 137 179 185 137 179 185 137 179 185 137 179 185 137 179 185 137 179 185 137 179 185 137 179 185 137 179 185 137 179 185 137 179 185 137 179 185 137 179 185 137 179 185 137 179 185 137 179 185 137 179 185 137 179 185 137 179 185 137 179 185 137 179 185 137 179 185 137 179 185 137 179 185 137 179 185 137 179 185 137 179 185 137 179 185 137 179 185 137 179 185 137 179 185 137 0 0 255 175 179 129 175 179 129 175 179 129 175 179 129 175 179 129 175 179 129 175 179 129 175 179 129 175 179 129 175 179 129 175 179 129 175 179 129 175 179 129 175 179 129 175 179 129 175 179 129 175 179 129 175 179 129 175 179 129 175 179 129 175 179 129 175 179 129 175 179 129 175 179 129 175 179 129 175 179 129 175 179 129 175 179 129 175 179 129 175 179 129 175 179 129 175 179 129 175 179 129 175 179 129 175 179 129 0 0 255 167 167 117 167 167 117 167 167 117 167 167 117 167 167 117 167 167 117 167 167 117 167 167 117 167 167 117 167 167 117 167 167 117 167 167 117 167 167 117 167 167 117 167 167 117 167 167 117 167 167 117 167 167 117 167 167 117 167 167 117 167 167 117 167 167 117 167 167 117 167 167 117 167 167 117 
153 152 98 153 152 98 153 152 98 153 152 98 153 152 98 153 152 98 153 152 98 153 152 98 153 152 98 153 152 98 153 152 98 153 152 98 153 152 98 153 152 98 153 152 98 153 152 98 153 152 98 153 152 98 153 152 98 153 152 98 153 152 98 153 152 98 153 152 98 153 152 98 153 152 98 0 0 255 164 169 111 164 169 111 164 169 111 164 169 111 164 169 111 164 169 111 164 169 111 164 169 111 164 169 111 164 169 111 164 169 111 164 169 111 164 169 111 164 169 111 164 169 111 164 169 111 164 169 111 164 169 111 164 169 111 164 169 111 164 169 111 164 169 111 164 169 111 164 169 111 164 169 111 164 169 111 0 0 255 173 181 124 173 181 124 173 181 124 173 181 124 173 181 124 173 181 124 173 181 124 173 181 124 173 181 124 173 181 124 173 181 124 173 181 124 173 181 124 173 181 124 173 181 124 173 181 124 173 181 124 173 181 124 173 181 124 173 181 124 173 181 124 173 181 124 173 181 124 173 181 124 173 181 124 173 181 124 173 181 124 173 181 124 173 181 124 0 0 255 177 187 134 177 187 134 177 187 134 177 187 134 177 187 134 177 187 134 177 187 134 177 187 134 177 187 134 177 187 134 177 187 134 177 187 134 177 187 134 177 187 134 177 187 134 177 187 134 177 187 134 177 187 134 177 187 134 177 187 134 177 187 134 177 187 134 177 187 134 177 187 134 177 187 134 177 187 134 177 187 134 177 187 134 0 0 255 0 0 255 154 163 99 154 163 99 154 163 99 154 163 99 154 163 99 154 163 99 154 163 99 154 163 99 0 0 255 178 184 131 178 184 131 178 184 131 178 184 131 178 184 131 178 184 131 178 184 131 178 184 131 178 184 131 178 184 131 178 184 131 178 184 131 178 184 131 178 184 131 178 184 131 178 184 131 178 184 131 178 184 131 178 184 131 178 184 131 178 184 131 178 184 131 178 184 131 178 184 131 178 184 131 178 184 131 178 184 131 178 184 131 178 184 131 178 184 131 178 184 131 178 184 131 178 184 131 178 184 131 178 184 131 0 0 255 0 0 255 179 185 137 179 185 137 179 185 137 179 185 137 179 185 137 179 185 137 179 185 137 179 185 137 179 185 137 179 185 137 179 185 137 179 185 137 179 185 137 179 185 137 179 185 137 179 185 137 179 185 137 179 185 137 179 185 137 179 185 137 179 185 137 179 185 137 179 185 137 179 185 137 179 185 137 179 185 137 179 185 137 179 185 137 179 185 137 179 185 137 179 185 137 179 185 137 179 185 137 179 185 137 179 185 137 0 0 255 0 0 255 175 179 129 175 179 129 175 179 129 175 179 129 175 179 129 175 179 129 175 179 129 175 179 129 175 179 129 175 179 129 175 179 129 175 179 129 175 179 129 175 179 129 175 179 129 175 179 129 175 179 129 175 179 129 175 179 129 175 179 129 175 179 129 175 179 129 175 179 129 175 179 129 175 179 129 175 179 129 175 179 129 175 179 129 175 179 129 175 179 129 175 179 129 175 179 129 175 179 129 175 179 129 0 0 255 167 167 117 167 167 117 167 167 117 167 167 117 167 167 117 167 167 117 167 167 117 167 167 117 167 167 117 167 167 117 167 167 117 167 167 117 167 167 117 167 167 117 167 167 117 167 167 117 167 167 117 167 167 117 167 167 117 167 167 117 167 167 117 167 167 117 167 167 117 167 167 117 167 167 117 
153 152 98 153 152 98 153 152 98 153 152 98 153 152 98 153 152 98 153 152 98 153 152 98 153 152 98 153 152 98 153 152 98 153 152 98 153 152 98 153 152 98 153 152 98 153 152 98 153 152 98 153 152 98 153 152 98 153 152 98 153 152 98 153 152 98 153 152 98 153 152 98 0 0 255 164 169 111 164 169 111 164 169 111 164 169 111 164 169 111 164 169 111 164 169 111 164 169 111 164 169 111 164 169 111 164 169 111 164 169 111 164 169 111 164 169 111 164 169 111 164 169 111 164 169 111 164 169 111 164 169 111 164 169 111 164 169 111 164 169 111 164 169 111 164 169 111 164 169 111 164 169 111 164 169 111 0 0 255 173 181 124 173 181 124 173 181 124 173 181 124 173 181 124 173 181 124 173 181 124 173 181 124 173 181 124 173 181 124 173 181 124 173 181 124 173 181 124 173 181 124 173 181 124 173 181 124 173 181 124 173 181 124 173 181 124 173 181 124 173 181 124 173 181 124 173 181 124 173 181 124 173 181 124 173 181 124 173 181 124 173 181 124 173 181 124 0 0 255 177 187 134 177 187 134 177 187 134 177 187 134 177 187 134 177 187 134 177 187 134 177 187 134 177 187 134 177 187 134 177 187 134 177 187 134 177 187 134 177 187 134 177 187 134 177 187 134 177 187 134 177 187 134 177 187 134 177 187 134 177 187 134 177 187 134 177 187 134 177 187 134 177 187 134 177 187 134 177 187 134 177 187 134 177 187 134 0 0 255 0 0 255 0 0 255 154 163 99 154 163 99 154 163 99 154 163 99 154 163 99 154 163 99 0 0 255 0 0 255 178 184 131 178 184 131 178 184 131 178 184 131 178 184 131 178 184 131 178 184 131 178 184 131 178 184 131 178 184 131 178 184 131 178 184 131 178 184 131 178 184 131 178 184 131 178 184 131 178 184 131 178 184 131 178 184 131 178 184 131 178 184 131 178 184 131 178 184 131 178 184 131 178 184 131 178 184 131 178 184 131 178 184 131 178 184 131 178 184 131 178 184 131 178 184 131 178 184 131 178 184 131 178 184 131 0 0 255 179 185 137 179 185 137 179 185 137 179 185 137 179 185 137 179 185 137 179 185 137 179 185 137 179 185 137 179 185 137 179 185 137 179 185 137 179 185 137 179 185 137 179 185 137 179 185 137 179 185 137 179 185 137 179 185 137 179 185 137 179 185 137 179 185 137 179 185 137 179 185 137 179 185 137 179 185 137 179 185 137 179 185 137 179 185 137 179 185 137 179 185 137 179 185 137 179 185 137 179 185 137 179 185 137 179 185 137 0 0 255 175 179 129 175 179 129 175 179 129 175 179 129 175 179 129 175 179 129 175 179 129 175 179 129 175 179 129 175 179 129 175 179 129 175 179 129 175 179 129 175 179 129 175 179 129 175 179 129 175 179 129 175 179 129 175 179 129 175 179 129 175 179 129 175 179 129 175 179 129 175 179 129 175 179 129 175 179 129 175 179 129 175 179 129 175 179 129 175 179 129 175 179 129 175 179 129 175 179 129 175 179 129 0 0 255 167 167 117 167 167 117 167 167 117 167 167 117 167 167 117 167 167 117 167 167 117 167 167 117 167 167 117 167 167 117 167 167 117 167 167 117 167 167 117 167 167 117 167 167 117 167 167 117 167 167 117 167 167 117 167 167 117 167 167 117 167 167 117 167 167 117 167 167 117 167 167 117 167 167 117 
153 152 98 153 152 98 153 152 98 153 152 98 153 152 98 153 152 98 153 152 98 153 152 98 153 152 98 153 152 98 153 152 98 153 152 98 153 152 98 153 152 98 153 152 98 153 152 98 153 152 98 153 152 98 153 152 98 153 152 98 153 152 98 153 152 98 153 152 98 153 152 98 0 0 255 164 169 111 164 169 111 164 169 111 164 169 111 164 169 111 164 169 111 164 169 111 164 169 111 164 169 111 164 169 111 164 169 111 164 169 111 164 169 111 164 169 111 164 169 111 164 169 111 164 169 111 164 169 111 164 169 111 164 169 111 164 169 111 164 169 111 164 169 111 164 169 111 164 169 111 164 169 111 0 0 255 173 181 124 173 181 124 173 181 124 173 181 124 173 181 124 173 181 124 173 181 124 173 181 124 173 181 124 173 181 124 173 181 124 173 181 124 173 181 124 173 181 124 173 181 124 173 181 124 173 181 124 173 181 124 173 181 124 173 181 124 173 181 124 173 181 124 173 181 124 173 181 124 173 181 124 173 181 124 173 181 124 173 181 124 173 181 124 0 0 255 177 187 134 177 187 134 177 187 134 177 187 134 177 187 134 177 187 134 177 187 134 177 187 134 177 187 134 177 187 134 177 187 134 177 187 134 177 187 134 177 187 134 177 187 134 177 187 134 177 187 134 177 187 134 177 187 134 177 187 134 177 187 134 177 187 134 177 187 134 177 187 134 177 187 134 177 187 134 177 187 134 177 187 134 177 187 134 177 187 134 177 187 134 177 187 134 0 0 255 0 0 255 0 0 255 154 163 99 154 163 99 154 163 99 154 163 99 154 163 99 0 0 255 0 0 255 0 0 255 0 0 255 178 184 131 178 184 131 178 184 131 178 184 131 178 184 131 178 184 131 178 184 131 178 184 131 178 184 131 178 184 131 178 184 131 178 184 131 178 184 131 178 184 131 178 184 131 178 184 131 178 184 131 178 184 131 178 184 131 178 184 131 178 184 131 178 184 131 178 184 131 178 184 131 178 184 131 178 184 131 178 184 131 178 184 131 178 184 131 178 184 131 178 184 131 178 184 131 0 0 255 0 0 255 179 185 137 179 185 137 179 185 137 179 185 137 179 185 137 179 185 137 179 185 137 179 185 137 179 185 137 179 185 137 179 185 137 179 185 137 179 185 137 179 185 137 179 185 137 179 185 137 179 185 137 179 185 137 179 185 137 179 185 137 179 185 137 179 185 137 179 185 137 179 185 137 179 185 137 179 185 137 179 185 137 179 185 137 179 185 137 179 185 137 179 185 137 179 185 137 179 185 137 179 185 137 179 185 137 0 0 255 175 179 129 175 179 129 175 179 129 175 179 129 175 179 129 175 179 129 175 179 129 175 179 129 175 179 129 175 179 129 175 179 129 175 179 129 175 179 129 175 179 129 175 179 129 175 179 129 175 179 129 175 179 129 175 179 129 175 179 129 175 179 129 175 179 129 175 179 129 175 179 129 175 179 129 175 179 129 175 179 129 175 179 129 175 179 129 175 179 129 175 179 129 175 179 129 175 179 129 175 179 129 0 0 255 167 167 117 167 167 117 167 167 117 167 167 117 167 167 117 167 167 117 167 167 117 167 167 117 167 167 117 167 167 117 167 167 117 167 167 117 167 167 117 167 167 117 167 167 117 167 167 117 167 167 117 167 167 117 167 167 117 167 167 117 167 167 117 167 167 117 167 167 117 167 167 117 167 167 117 
153 152 98 153 152 98 153 152 98 153 152 98 153 152 98 153 152 98 153 152 98 153 152 98 153 152 98 153 152 98 153 152 98 153 152 98 153 152 98 153 152 98 153 152 98 153 152 98 153 152 98 153 152 98 153 152 98 153 152 98 153 152 98 153 152 98 153 152 98 0 0 255 164 169 111 164 169 111 164 169 111 164 169 111 164 169 111 164 169 111 164 169 111 164 169 111 164 169 111 164 169 111 164 169 111 164 169 111 164 169 111 164 169 111 164 169 111 164 169 111 164 169 111 164 169 111 164 169 111 164 169 111 164 169 111 164 169 111 164 169 111 164 169 111 164 169 111 164 169 111 0 0 255 173 181 124 173 181 124 173 181 124 173 181 124 173 181 124 173 181 124 173 181 124 173 181 124 173 181 124 173 181 124 173 181 124 173 181 124 173 181 124 173 181 124 173 181 124 173 181 124 173 181 124 173 181 124 173 181 124 173 181 124 173 181 124 173 181 124 173 181 124 173 181 124 173 181 124 173 181 124 173 181 124 173 181 124 173 181 124 173 181 124 0 0 255 177 187 134 177 187 134 177 187 134 177 187 134 177 187 134 177 187 134 177 187 134 177 187 134 177 187 134 177 187 134 177 187 134 177 187 134 177 187 134 177 187 134 177 187 134 177 187 134 177 187 134 177 187 134 177 187 134 177 187 134 177 187 134 177 187 134 177 187 134 177 187 134 177 187 134 177 187 134 177 187 134 177 187 134 177 187 134 177 187 134 177 187 134 177 187 134 177 187 134 177 187 134 0 0 255 0 0 255 154 163 99 154 163 99 154 163 99 154 163 99 154 163 99 0 0 255 0 0 255 0 0 255 178 184 131 178 184 131 178 184 131 178 184 131 178 184 131 178 184 131 178 184 131 178 184 131 178 184 131 178 184 131 178 184 131 178 184 131 178 184 131 178 184 131 178 184 131 178 184 131 178 184 131 178 184 131 178 184 131 178 184 131 178 184 131 178 184 131 178 184 131 178 184 131 178 184 131 178 184 131 178 184 131 178 184 131 178 184 131 178 184 131 178 184 131 178 184 131 178 184 131 0 0 255 0 0 255 179 185 137 179 185 137 179 185 137 179 185 137 179 185 137 179 185 137 179 185 137 179 185 137 179 185 137 179 185 137 179 185 137 179 185 137 179 185 137 179 185 137 179 185 137 179 185 137 179 185 137 179 185 137 179 185 137 179 185 137 179 185 137 179 185 137 179 185 137 179 185 137 179 185 137 179 185 137 179 185 137 179 185 137 179 185 137 179 185 137 179 185 137 179 185 137 179 185 137 179 185 137 0 0 255 175 179 129 175 179 129 175 179 129 175 179 129 175 179 129 175 179 129 175 179 129 175 179 129 175 179 129 175 179 129 175 179 129 175 179 129 175 179 129 175 179 129 175 179 129 175 179 129 175 179 129 175 179 129 175 179 129 175 179 129 175 179 129 175 179 129 175 179 129 175 179 129 175 179 129 175 179 129 175 179 129 175 179 129 175 179 129 175 179 129 175 179 129 175 179 129 175 179 129 0 0 255 167 167 117 167 167 117 167 167 117 167 167 117 167 167 117 167 167 117 167 167 117 167 167 117 167 167 117 167 167 117 167 167 117 167 167 117 167 167 117 167 167 117 167 167 117 167 167 117 167 167 117 167 167 117 167 167 117 167 167 117 167 167 117 167 167 117 167 167 117 167 167 117 167 167 117 167 167 117 
153 152 98 153 152 98 153 152 98 153 152 98 153 152 98 153 152 98 153 152 98 153 152 98 153 152 98 153 152 98 153 152 98 153 152 98 153 152 98 153 152 98 153 152 98 153 152 98 153 152 98 153 152 98 153 152 98 153 152 98 153 152 98 153 152 98 0 0 255 164 169 111 164 169 111 164 169 111 164 169 111 164 169 111 164 169 111 164 169 111 164 169 111 164 169 111 164 169 111 164 169 111 164 169 111 164 169 111 164 169 111 164 169 111 164 169 111 164 169 111 164 169 111 164 169 111 164 169 111 164 169 111 164 169 111 164 169 111 164 169 111 164 169 111 164 169 111 0 0 255 173 181 124 173 181 124 173 181 124 173 181 124 173 181 124 173 181 124 173 181 124 173 181 124 173 181 124 173 181 124 173 181 124 173 181 124 173 181 124 173 181 124 173 181 124 173 181 124 173 181 124 173 181 124 173 181 124 173 181 124 173 181 124 173 181 124 173 181 124 173 181 124 173 181 124 173 181 124 173 181 124 173 181 124 173 181 124 173 181 124 173 181 124 0 0 255 177 187 134 177 187 134 177 187 134 177 187 134 177 187 134 177 187 134 177 187 134 177 187 134 177 187 134 177 187 134 177 187 134 177 187 134 177 187 134 177 187 134 177 187 134 177 187 134 177 187 134 177 187 134 177 187 134 177 187 134 177 187 134 177 187 134 177 187 134 177 187 134 177 187 134 177 187 134 177 187 134 177 187 134 177 187 134 177 187 134 177 187 134 177 187 134 177 187 134 177 187 134 177 187 134 0 0 255 0 0 255 0 0 255 0 0 255 0 0 255 0 0 255 178 184 131 178 184 131 178 184 131 178 184 131 178 184 131 178 184 131 178 184 131 178 184 131 178 184 131 178 184 131 178 184 131 178 184 131 178 184 131 178 184 131 178 184 131 178 184 131 178 184 131 178 184 131 178 184 131 178 184 131 178 184 131 178 184 131 178 184 131 178 184 131 178 184 131 178 184 131 178 184 131 178 184 131 178 184 131 178 184 131 178 184 131 178 184 131 178 184 131 178 184 131 178 184 131 178 184 131 178 184 131 0 0 255 0 0 255 179 185 137 179 185 137 179 185 137 179 185 137 179 185 137 179 185 137 179 185 137 179 185 137 179 185 137 179 185 137 179 185 137 179 185 137 179 185 137 179 185 137 179 185 137 179 185 137 179 185 137 179 185 137 179 185 137 179 185 137 179 185 137 179 185 137 179 185 137 179 185 137 179 185 137 179 185 137 179 185 137 179 185 137 179 185 137 0 0 255 0 0 255 0 0 255 0 0 255 175 179 129 175 179 129 175 179 129 175 179 129 175 179 129 175 179 129 175 179 129 175 179 129 175 179 129 175 179 129 175 179 129 175 179 129 175 179 129 175 179 129 175 179 129 175 179 129 175 179 129 175 179 129 175 179 129 175 179 129 175 179 129 175 179 129 175 179 129 175 179 129 175 179 129 175 179 129 175 179 129 175 179 129 175 179 129 175 179 129 175 179 129 0 0 255 0 0 255 0 0 255 167 167 117 167 167 117 167 167 117 167 167 117 167 167 117 167 167 117 167 167 117 167 167 117 167 167 117 167 167 117 167 167 117 167 167 117 167 167 117 167 167 117 167 167 117 167 167 117 167 167 117 167 167 117 167 167 117 167 167 117 167 167 117 167 167 117 167 167 117 167 167 117 167 167 117 167 167 117 167 167 117 
153 152 98 153 152 98 153 152 98 153 152 98 153 152 98 153 152 98 153 152 98 153 152 98 153 152 98 153 152 98 153 152 98 153 152 98 153 152 98 153 152 98 153 152 98 153 152 98 153 152 98 153 152 98 153 152 98 153 152 98 153 152 98 0 0 255 164 169 111 164 169 111 164 169 111 164 169 111 164 169 111 164 169 111 164 169 111 164 169 111 164 169 111 164 169 111 164 169 111 164 169 111 164 169 111 164 169 111 164 169 111 164 169 111 164 169 111 164 169 111 164 169 111 164 169 111 164 169 111 164 169 111 164 169 111 164 169 111 164 169 111 164 169 111 164 169 111 0 0 255 173 181 124 173 181 124 173 181 124 173 181 124 173 181 124 173 181 124 173 181 124 173 181 124 173 181 124 173 181 124 173 181 124 173 181 124 173 181 124 173 181 124 173 181 124 173 181 124 173 181 124 173 181 124 173 181 124 173 181 124 173 181 124 173 181 124 173 181 124 173 181 124 173 181 124 173 181 124 173 181 124 173 181 124 173 181 124 173 181 124 173 181 124 0 0 255 177 187 134 177 187 134 177 187 134 177 187 134 177 187 134 177 187 134 177 187 134 177 187 134 177 187 134 177 187 134 177 187 134 177 187 134 177 187 134 177 187 134 177 187 134 177 187 134 177 187 134 177 187 134 177 187 134 177 187 134 177 187 134 177 187 134 177 187 134 177 187 134 177 187 134 177 187 134 177 187 134 177 187 134 177 187 134 177 187 134 177 187 134 177 187 134 177 187 134 177 187 134 177 187 134 177 187 134 0 0 255 0 0 255 178 184 131 178 184 131 178 184 131 178 184 131 178 184 131 178 184 131 178 184 131 178 184 131 178 184 131 178 184 131 178 184 131 178 184 131 178 184 131 178 184 131 178 184 131 178 184 131 178 184 131 178 184 131 178 184 131 178 184 131 178 184 131 178 184 131 178 184 131 178 184 131 178 184 131 178 184 131 178 184 131 178 184 131 178 184 131 178 184 131 178 184 131 178 184 131 178 184 131 178 184 131 178 184 131 178 184 131 178 184 131 178 184 131 178 184 131 178 184 131 178 184 131 0 0 255 179 185 137 179 185 137 179 185 137 179 185 137 179 185 137 179 185 137 179 185 137 179 185 137 179 185 137 179 185 137 179 185 137 179 185 137 179 185 137 179 185 137 179 185 137 179 185 137 179 185 137 179 185 137 179 185 137 179 185 137 179 185 137 179 185 137 179 185 137 179 185 137 179 185 137 179 185 137 0 0 255 0 0 255 0 0 255 175 179 129 175 179 129 175 179 129 175 179 129 175 179 129 175 179 129 175 179 129 175 179 129 175 179 129 175 179 129 175 179 129 175 179 129 175 179 129 175 179 129 175 179 129 175 179 129 175 179 129 175 179 129 175 179 129 175 179 129 175 179 129 175 179 129 175 179 129 175 179 129 175 179 129 175 179 129 175 179 129 175 179 129 175 179 129 0 0 255 0 0 255 0 0 255 0 0 255 0 0 255 0 0 255 167 167 117 167 167 117 167 167 117 167 167 117 167 167 117 167 167 117 167 167 117 167 167 117 167 167 117 167 167 117 167 167 117 167 167 117 167 167 117 167 167 117 167 167 117 167 167 117 167 167 117 167 167 117 167 167 117 167 167 117 167 167 117 167 167 117 167 167 117 167 167 117 167 167 117 167 167 117 167 167 117 167 167 117 167 167 117 167 167 117 
153 152 98 153 152 98 153 152 98 153 152 98 153 152 98 153 152 98 153 152 98 153 152 98 153 152 98 153 152 98 153 152 98 153 152 98 153 152 98 153 152 98 153 152 98 153 152 98 153 152 98 153 152 98 153 152 98 153 152 98 0 0 255 164 169 111 164 169 111 164 169 111 164 169 111 164 169 111 164 169 111 164 169 111 164 169 111 164 169 111 164 169 111 164 169 111 164 169 111 164 169 111 164 169 111 164 169 111 164 169 111 164 169 111 164 169 111 164 169 111 164 169 111 164 169 111 164 169 111 164 169 111 164 169 111 164 169 111 164 169 111 164 169 111 164 169 111 0 0 255 173 181 124 173 181 124 173 181 124 173 181 124 173 181 124 173 181 124 173 181 124 173 181 124 173 181 124 173 181 124 173 181 124 173 181 124 173 181 124 173 181 124 173 181 124 173 181 124 173 181 124 173 181 124 173 181 124 173 181 124 173 181 124 173 181 124 173 181 124 173 181 124 173 181 124 173 181 124 173 181 124 173 181 124 173 181 124 173 181 124 173 181 124 0 0 255 177 187 134 177 187 134 177 187 134 177 187 134 177 187 134 177 187 134 177 187 134 177 187 134 177 187 134 177 187 134 177 187 134 177 187 134 177 187 134 177 187 134 177 187 134 177 187 134 177 187 134 177 187 134 177 187 134 177 187 134 177 187 134 177 187 134 177 187 134 177 187 134 177 187 134 177 187 134 177 187 134 177 187 134 177 187 134 177 187 134 177 187 134 177 187 134 177 187 134 177 187 134 177 187 134 177 187 134 177 187 134 0 0 255 178 184 131 178 184 131 178 184 131 178 184 131 178 184 131 178 184 131 178 184 131 178 184 131 178 184 131 178 184 131 178 184 131 178 184 131 178 184 131 178 184 131 178 184 131 178 184 131 178 184 131 178 184 131 178 184 131 178 184 131 178 184 131 178 184 131 178 184 131 178 184 131 178 184 131 178 184 131 178 184 131 178 184 131 178 184 131 178 184 131 178 184 131 178 184 131 178 184 131 178 184 131 178 184 131 178 184 131 178 184 131 178 184 131 178 184 131 0 0 255 0 0 255 179 185 137 179 185 137 179 185 137 179 185 137 179 185 137 179 185 137 179 185 137 179 185 137 179 185 137 179 185 137 179 185 137 179 185 137 179 185 137 179 185 137 179 185 137 179 185 137 179 185 137 179 185 137 179 185 137 179 185 137 179 185 137 179 185 137 179 185 137 179 185 137 179 185 137 179 185 137 0 0 255 0 0 255 0 0 255 175 179 129 175 179 129 175 179 129 175 179 129 175 179 129 175 179 129 175 179 129 175 179 129 175 179 129 175 179 129 175 179 129 175 179 129 175 179 129 175 179 129 175 179 129 175 179 129 175 179 129 175 179 129 175 179 129 175 179 129 175 179 129 175 179 129 175 179 129 175 179 129 175 179 129 175 179 129 175 179 129 175 179 129 175 179 129 0 0 255 167 167 117 167 167 117 167 167 117 167 167 117 167 167 117 167 167 117 167 167 117 167 167 117 167 167 117 167 167 117 167 167 117 167 167 117 167 167 117 167 167 117 167 167 117 167 167 117 167 167 117 167 167 117 167 167 117 167 167 117 167 167 117 167 167 117 167 167 117 167 167 117 167 167 117 167 167 117 167 167 117 167 167 117 167 167 117 167 167 117 167 167 117 167 167 117 167 167 117 167 167 117 167 167 117 167 167 117 
153 152 98 153 152 98 153 152 98 153 152 98 153 152 98 153 152 98 153 152 98 153 152 98 153 152 98 153 152 98 153 152 98 153 152 98 153 152 98 153 152 98 153 152 98 153 152 98 153 152 98 153 152 98 153 152 98 0 0 255 164 169 111 164 169 111 164 169 111 164 169 111 164 169 111 164 169 111 164 169 111 164 169 111 164 169 111 164 169 111 164 169 111 164 169 111 164 169 111 164 169 111 164 169 111 164 169 111 164 169 111 164 169 111 164 169 111 164 169 111 164 169 111 164 169 111 164 169 111 164 169 111 164 169 111 164 169 111 164 169 111 164 169 111 164 169 111 0 0 255 173 181 124 173 181 124 173 181 124 173 181 124 173 181 124 173 181 124 173 181 124 173 181 124 173 181 124 173 181 124 173 181 124 173 181 124 173 181 124 173 181 124 173 181 124 173 181 124 173 181 124 173 181 124 173 181 124 173 181 124 173 181 124 173 181 124 173 181 124 173 181 124 173 181 124 173 181 124 173 181 124 173 181 124 173 181 124 173 181 124 0 0 255 177 187 134 177 187 134 177 187 134 177 187 134 177 187 134 177 187 134 177 187 134 177 187 134 177 187 134 177 187 134 177 187 134 177 187 134 177 187 134 177 187 134 177 187 134 177 187 134 177 187 134 177 187 134 177 187 134 177 187 134 177 187 134 177 187 134 177 187 134 177 187 134 177 187 134 177 187 134 177 187 134 177 187 134 177 187 134 177 187 134 177 187 134 177 187 134 177 187 134 177 187 134 177 187 134 177 187 134 177 187 134 177 187 134 0 0 255 178 184 131 178 184 131 178 184 131 178 184 131 178 184 131 178 184 131 178 184 131 178 184 131 178 184 131 178 184 131 178 184 131 178 184 131 178 184 131 178 184 131 178 184 131 178 184 131 178 184 131 178 184 131 178 184 131 178 184 131 178 184 131 178 184 131 178 184 131 178 184 131 178 184 131 178 184 131 178 184 131 178 184 131 178 184 131 178 184 131 178 184 131 178 184 131 178 184 131 178 184 131 178 184 131 178 184 131 178 184 131 178 184 131 0 0 255 179 185 137 179 185 137 179 185 137 179 185 137 179 185 137 179 185 137 179 185 137 179 185 137 179 185 137 179 185 137 179 185 137 179 185 137 179 185 137 179 185 137 179 185 137 179 185 137 179 185 137 179 185 137 179 185 137 179 185 137 179 185 137 179 185 137 179 185 137 179 185 137 179 185 137 179 185 137 179 185 137 179 185 137 179 185 137 179 185 137 0 0 255 0 0 255 0 0 255 0 0 255 175 179 129 175 179 129 175 179 129 175 179 129 175 179 129 175 179 129 175 179 129 175 179 129 175 179 129 175 179 129 175 179 129 175 179 129 175 179 129 175 179 129 175 179 129 175 179 129 175 179 129 175 179 129 175 179 129 175 179 129 175 179 129 175 179 129 175 179 129 175 179 129 175 179 129 0 0 255 0 0 255 0 0 255 0 0 255 0 0 255 0 0 255 167 167 117 167 167 117 167 167 117 167 167 117 167 167 117 167 167 117 167 167 117 167 167 117 167 167 117 167 167 117 167 167 117 167 167 117 167 167 117 167 167 117 167 167 117 167 167 117 167 167 117 167 167 117 167 167 117 167 167 117 167 167 117 167 167 117 167 167 117 167 167 117 167 167 117 167 167 117 167 167 117 167 167 117 167 167 117 167 167 117 167 167 117 167 167 117 
153 152 98 153 152 98 153 152 98 153 152 98 153 152 98 153 152 98 153 152 98 153 152 98 153 152 98 153 152 98 153 152 98 153 152 98 153 152 98 153 152 98 153 152 98 153 152 98 153 152 98 153 152 98 153 152 98 0 0 255 164 169 111 164 169 111 164 169 111 164 169 111 164 169 111 164 169 111 164 169 111 164 169 111 164 169 111 164 169 111 164 169 111 164 169 111 164 169 111 164 169 111 164 169 111 164 169 111 164 169 111 164 169 111 164 169 111 164 169 111 164 169 111 164 169 111 164 169 111 164 169 111 164 169 111 164 169 111 164 169 111 164 169 111 164 169 111 0 0 255 173 181 124 173 181 124 173 181 124 173 181 124 173 181 124 173 181 124 173 181 124 173 181 124 173 181 124 173 181 124 173 181 124 173 181 124 173 181 124 173 181 124 173 181 124 173 181 124 173 181 124 173 181 124 173 181 124 173 181 124 173 181 124 173 181 124 173 181 124 173 181 124 173 181 124 173 181 124 173 181 124 173 181 124 173 181 124 173 181 124 0 0 255 177 187 134 177 187 134 177 187 134 177 187 134 177 187 134 177 187 134 177 187 134 177 187 134 177 187 134 177 187 134 177 187 134 177 187 134 177 187 134 177 187 134 177 187 134 177 187 134 177 187 134 177 187 134 177 187 134 177 187 134 177 187 134 177 187 134 177 187 134 177 187 134 177 187 134 177 187 134 177 187 134 177 187 134 177 187 134 177 187 134 177 187 134 177 187 134 177 187 134 177 187 134 177 187 134 177 187 134 177 187 134 177 187 134 0 0 255 0 0 255 178 184 131 178 184 131 0 0 255 0 0 255 0 0 255 0 0 255 0 0 255 178 184 131 178 184 131 178 184 131 178 184 131 178 184 131 178 184 131 178 184 131 0 0 255 178 184 131 0 0 255 0 0 255 0 0 255 0 0 255 0 0 255 0 0 255 0 0 255 0 0 255 0 0 255 0 0 255 0 0 255 0 0 255 0 0 255 0 0 255 0 0 255 0 0 255 0 0 255 0 0 255 0 0 255 0 0 255 0 0 255 0 0 255 0 0 255 0 0 255 0 0 255 179 185 137 179 185 137 179 185 137 179 185 137 179 185 137 179 185 137 179 185 137 179 185 137 179 185 137 179 185 137 179 185 137 179 185 137 179 185 137 179 185 137 179 185 137 179 185 137 179 185 137 179 185 137 179 185 137 179 185 137 179 185 137 179 185 137 179 185 137 179 185 137 179 185 137 179 185 137 179 185 137 179 185 137 179 185 137 179 185 137 0 0 255 0 0 255 0 0 255 0 0 255 0 0 255 175 179 129 175 179 129 175 179 129 175 179 129 175 179 129 175 179 129 175 179 129 175 179 129 175 179 129 175 179 129 175 179 129 175 179 129 175 179 129 175 179 129 175 179 129 175 179 129 175 179 129 175 179 129 175 179 129 175 179 129 175 179 129 175 179 129 175 179 129 175 179 129 175 179 129 175 179 129 0 0 255 0 0 255 0 0 255 0 0 255 0 0 255 0 0 255 0 0 255 0 0 255 167 167 117 167 167 117 167 167 117 167 167 117 167 167 117 167 167 117 167 167 117 167 167 117 167 167 117 167 167 117 167 167 117 167 167 117 167 167 117 167 167 117 167 167 117 167 167 117 167 167 117 167 167 117 167 167 117 167 167 117 167 167 117 167 167 117 167 167 117 167 167 117 167 167 117 
153 152 98 153 152 98 153 152 98 153 152 98 153 152 98 153 152 98 153 152 98 153 152 98 153 152 98 153 152 98 153 152 98 153 152 98 153 152 98 153 152 98 153 152 98 153 152 98 153 152 98 153 152 98 0 0 255 164 169 111 164 169 111 164 169 111 164 169 111 164 169 111 164 169 111 164 169 111 164 169 111 164 169 111 164 169 111 164 169 111 164 169 111 164 169 111 164 169 111 164 169 111 164 169 111 164 169 111 164 169 111 164 169 111 164 169 111 164 169 111 164 169 111 164 169 111 164 169 111 164 169 111 164 169 111 164 169 111 164 169 111 164 169 111 0 0 255 173 181 124 173 181 124 173 181 124 173 181 124 173 181 124 173 181 124 173 181 124 173 181 124 173 181 124 173 181 124 173 181 124 173 181 124 173 181 124 173 181 124 173 181 124 173 181 124 173 181 124 173 181 124 173 181 124 173 181 124 173 181 124 173 181 124 173 181 124 173 181 124 173 181 124 173 181 124 173 181 124 173 181 124 173 181 124 173 181 124 173 181 124 0 0 255 177 187 134 177 187 134 177 187 134 177 187 134 177 187 134 177 187 134 177 187 134 177 187 134 177 187 134 177 187 134 177 187 134 177 187 134 177 187 134 177 187 134 177 187 134 177 187 134 177 187 134 177 187 134 177 187 134 177 187 134 177 187 134 177 187 134 177 187 134 177 187 134 177 187 134 177 187 134 177 187 134 177 187 134 177 187 134 177 187 134 177 187 134 177 187 134 177 187 134 177 187 134 177 187 134 177 187 134 177 187 134 177 187 134 177 187 134 0 0 255 178 184 131 0 0 255 190 197 159 190 197 159 190 197 159 190 197 159 0 0 255 0 0 255 0 0 255 0 0 255 0 0 255 0 0 255 0 0 255 0 0 255 0 0 255 0 0 255 188 195 157 188 195 157 188 195 157 188 195 157 188 195 157 188 195 157 188 195 157 188 195 157 188 195 157 188 195 157 188 195 157 188 195 157 188 195 157 188 195 157 188 195 157 188 195 157 188 195 157 188 195 157 188 195 157 188 195 157 188 195 157 188 195 157 188 195 157 188 195 157 0 0 255 0 0 255 0 0 255 0 0 255 0 0 255 0 0 255 179 185 137 179 185 137 179 185 137 179 185 137 179 185 137 179 185 137 179 185 137 179 185 137 179 185 137 179 185 137 179 185 137 179 185 137 179 185 137 179 185 137 179 185 137 179 185 137 179 185 137 179 185 137 179 185 137 179 185 137 179 185 137 179 185 137 179 185 137 179 185 137 179 185 137 179 185 137 179 185 137 179 185 137 179 185 137 0 0 255 0 0 255 175 179 129 175 179 129 175 179 129 175 179 129 175 179 129 175 179 129 175 179 129 175 179 129 175 179 129 175 179 129 175 179 129 175 179 129 175 179 129 175 179 129 175 179 129 175 179 129 175 179 129 175 179 129 175 179 129 175 179 129 175 179 129 175 179 129 175 179 129 175 179 129 175 179 129 175 179 129 175 179 129 175 179 129 175 179 129 175 179 129 175 179 129 175 179 129 0 0 255 0 0 255 0 0 255 167 167 117 167 167 117 167 167 117 167 167 117 167 167 117 167 167 117 167 167 117 167 167 117 167 167 117 167 167 117 167 167 117 167 167 117 167 167 117 167 167 117 167 167 117 167 167 117 167 167 117 167 167 117 167 167 117 167 167 117 167 167 117 167 167 117 167 167 117 
153 152 98 153 152 98 153 152 98 153 152 98 153 152 98 153 152 98 153 152 98 153 152 98 153 152 98 153 152 98 153 152 98 153 152 98 153 152 98 153 152 98 153 152 98 153 152 98 153 152 98 0 0 255 0 0 255 164 169 111 164 169 111 164 169 111 164 169 111 164 169 111 164 169 111 164 169 111 164 169 111 164 169 111 164 169 111 164 169 111 164 169 111 164 169 111 164 169 111 164 169 111 164 169 111 164 169 111 164 169 111 164 169 111 164 169 111 164 169 111 164 169 111 164 169 111 164 169 111 164 169 111 164 169 111 164 169 111 164 169 111 164 169 111 0 0 255 173 181 124 173 181 124 173 181 124 173 181 124 173 181 124 173 181 124 173 181 124 173 181 124 173 181 124 173 181 124 173 181 124 173 181 124 173 181 124 173 181 124 173 181 124 173 181 124 173 181 124 173 181 124 173 181 124 173 181 124 173 181 124 173 181 124 173 181 124 173 181 124 173 181 124 173 181 124 173 181 124 173 181 124 173 181 124 173 181 124 173 181 124 0 0 255 177 187 134 177 187 134 177 187 134 177 187 134 177 187 134 177 187 134 177 187 134 177 187 134 177 187 134 177 187 134 177 187 134 177 187 134 177 187 134 177 187 134 177 187 134 177 187 134 177 187 134 177 187 134 177 187 134 177 187 134 177 187 134 177 187 134 177 187 134 177 187 134 177 187 134 177 187 134 177 187 134 177 187 134 177 187 134 177 187 134 177 187 134 177 187 134 177 187 134 177 187 134 177 187 134 177 187 134 177 187 134 177 187 134 177 187 134 0 0 255 0 0 255 190 197 159 190 197 159 190 197 159 190 197 159 190 197 159 190 197 159 190 197 159 190 197 159 0 0 255 188 195 157 188 195 157 188 195 157 188 195 157 188 195 157 188 195 157 188 195 157 188 195 157 188 195 157 188 195 157 188 195 157 188 195 157 188 195 157 188 195 157 188 195 157 188 195 157 188 195 157 188 195 157 188 195 157 188 195 157 188 195 157 188 195 157 188 195 157 188 195 157 188 195 157 188 195 157 188 195 157 188 195 157 188 195 157 188 195 157 188 195 157 188 195 157 188 195 157 188 195 157 188 195 157 0 0 255 0 0 255 0 0 255 179 185 137 179 185 137 179 185 137 179 185 137 179 185 137 179 185 137 179 185 137 179 185 137 179 185 137 179 185 137 179 185 137 179 185 137 179 185 137 179 185 137 179 185 137 179 185 137 179 185 137 179 185 137 179 185 137 179 185 137 179 185 137 179 185 137 179 185 137 179 185 137 179 185 137 179 185 137 179 185 137 179 185 137 0 0 255 0 0 255 0 0 255 0 0 255 0 0 255 175 179 129 175 179 129 175 179 129 175 179 129 175 179 129 175 179 129 175 179 129 175 179 129 175 179 129 175 179 129 175 179 129 175 179 129 175 179 129 175 179 129 175 179 129 175 179 129 175 179 129 175 179 129 175 179 129 175 179 129 175 179 129 175 179 129 175 179 129 175 179 129 175 179 129 175 179 129 175 179 129 175 179 129 0 0 255 0 0 255 0 0 255 0 0 255 0 0 255 0 0 255 0 0 255 0 0 255 0 0 255 0 0 255 167 167 117 167 167 117 167 167 117 167 167 117 167 167 117 167 167 117 167 167 117 167 167 117 167 167 117 167 167 117 167 167 117 167 167 117 167 167 117 167 167 117 167 167 117 167 167 117 
153 152 98 153 152 98 153 152 98 153 152 98 153 152 98 153 152 98 153 152 98 153 152 98 153 152 98 153 152 98 153 152 98 153 152 98 153 152 98 153 152 98 153 152 98 153 152 98 0 0 255 164 169 111 164 169 111 164 169 111 164 169 111 164 169 111 164 169 111 164 169 111 164 169 111 164 169 111 164 169 111 164 169 111 164 169 111 164 169 111 164 169 111 164 169 111 164 169 111 164 169 111 164 169 111 164 169 111 164 169 111 164 169 111 164 169 111 164 169 111 164 169 111 164 169 111 164 169 111 164 169 111 164 169 111 164 169 111 164 169 111 0 0 255 173 181 124 173 181 124 173 181 124 173 181 124 173 181 124 173 181 124 173 181 124 173 181 124 173 181 124 173 181 124 173 181 124 173 181 124 173 181 124 173 181 124 173 181 124 173 181 124 173 181 124 173 181 124 173 181 124 173 181 124 173 181 124 173 181 124 173 181 124 173 181 124 173 181 124 173 181 124 173 181 124 173 181 124 173 181 124 173 181 124 173 181 124 173 181 124 0 0 255 177 187 134 177 187 134 177 187 134 177 187 134 177 187 134 177 187 134 177 187 134 177 187 134 177 187 134 177 187 134 177 187 134 177 187 134 177 187 134 177 187 134 177 187 134 177 187 134 177 187 134 177 187 134 177 187 134 177 187 134 177 187 134 177 187 134 177 187 134 177 187 134 177 187 134 177 187 134 177 187 134 177 187 134 177 187 134 177 187 134 177 187 134 177 187 134 177 187 134 177 187 134 177 187 134 177 187 134 177 187 134 177 187 134 0 0 255 190 197 159 190 197 159 190 197 159 190 197 159 190 197 159 190 197 159 190 197 159 190 197 159 190 197 159 190 197 159 0 0 255 0 0 255 188 195 157 188 195 157 188 195 157 188 195 157 188 195 157 188 195 157 188 195 157 188 195 157 188 195 157 188 195 157 188 195 157 188 195 157 188 195 157 188 195 157 188 195 157 188 195 157 188 195 157 188 195 157 188 195 157 188 195 157 188 195 157 188 195 157 188 195 157 188 195 157 188 195 157 188 195 157 188 195 157 188 195 157 188 195 157 188 195 157 188 195 157 188 195 157 188 195 157 188 195 157 188 195 157 188 195 157 0 0 255 0 0 255 0 0 255 0 0 255 0 0 255 0 0 255 179 185 137 179 185 137 179 185 137 179 185 137 179 185 137 179 185 137 179 185 137 179 185 137 179 185 137 0 0 255 0 0 255 0 0 255 0 0 255 0 0 255 0 0 255 179 185 137 179 185 137 179 185 137 179 185 137 179 185 137 179 185 137 179 185 137 0 0 255 0 0 255 0 0 255 187 193 157 187 193 157 0 0 255 0 0 255 0 0 255 0 0 255 0 0 255 0 0 255 0 0 255 0 0 255 0 0 255 0 0 255 0 0 255 0 0 255 0 0 255 0 0 255 0 0 255 0 0 255 0 0 255 0 0 255 175 179 129 175 179 129 175 179 129 175 179 129 175 179 129 175 179 129 175 179 129 0 0 255 0 0 255 0 0 255 0 0 255 183 184 145 183 184 145 183 184 145 183 184 145 183 184 145 183 184 145 183 184 145 183 184 145 183 184 145 0 0 255 0 0 255 0 0 255 0 0 255 0 0 255 0 0 255 167 167 117 167 167 117 167 167 117 167 167 117 167 167 117 167 167 117 167 167 117 167 167 117 167 167 117 167 167 117 167 167 117 
153 152 98 153 152 98 153 152 98 153 152 98 153 152 98 153 152 98 153 152 98 153 152 98 153 152 98 153 152 98 153 152 98 153 152 98 153 152 98 153 152 98 153 152 98 153 152 98 0 0 255 164 169 111 164 169 111 164 169 111 164 169 111 164 169 111 164 169 111 164 169 111 164 169 111 164 169 111 164 169 111 164 169 111 164 169 111 164 169 111 164 169 111 164 169 111 164 169 111 164 169 111 164 169 111 164 169 111 164 169 111 164 169 111 164 169 111 164 169 111 164 169 111 164 169 111 164 169 111 164 169 111 164 169 111 164 169 111 0 0 255 173 181 124 173 181 124 173 181 124 173 181 124 173 181 124 173 181 124 173 181 124 173 181 124 173 181 124 173 181 124 173 181 124 173 181 124 173 181 124 173 181 124 173 181 124 173 181 124 173 181 124 173 181 124 173 181 124 173 181 124 173 181 124 173 181 124 173 181 124 173 181 124 173 181 124 173 181 124 173 181 124 173 181 124 173 181 124 173 181 124 173 181 124 173 181 124 173 181 124 0 0 255 177 187 134 177 187 134 177 187 134 177 187 134 177 187 134 177 187 134 177 187 134 177 187 134 177 187 134 177 187 134 177 187 134 177 187 134 177 187 134 177 187 134 177 187 134 177 187 134 177 187 134 177 187 134 177 187 134 177 187 134 177 187 134 177 187 134 177 187 134 177 187 134 177 187 134 177 187 134 177 187 134 177 187 134 177 187 134 177 187 134 177 187 134 177 187 134 177 187 134 177 187 134 177 187 134 177 187 134 177 187 134 177 187 134 0 0 255 190 197 159 190 197 159 190 197 159 190 197 159 190 197 159 190 197 159 190 197 159 190 197 159 190 197 159 190 197 159 190 197 159 0 0 255 188 195 157 188 195 157 188 195 157 188 195 157 188 195 157 188 195 157 188 195 157 188 195 157 188 195 157 188 195 157 188 195 157 188 195 157 188 195 157 188 195 157 188 195 157 188 195 157 188 195 157 188 195 157 188 195 157 188 195 157 188 195 157 188 195 157 188 195 157 188 195 157 188 195 157 188 195 157 188 195 157 188 195 157 188 195 157 188 195 157 188 195 157 188 195 157 188 195 157 188 195 157 188 195 157 188 195 157 188 195 157 0 0 255 189 196 161 189 196 161 189 196 161 0 0 255 0 0 255 0 0 255 0 0 255 0 0 255 0 0 255 0 0 255 0 0 255 0 0 255 0 0 255 189 196 161 189 196 161 189 196 161 189 196 161 189 196 161 0 0 255 0 0 255 0 0 255 0 0 255 0 0 255 0 0 255 0 0 255 0 0 255 187 193 157 187 193 157 187 193 157 187 193 157 187 193 157 187 193 157 187 193 157 187 193 157 187 193 157 187 193 157 187 193 157 187 193 157 187 193 157 187 193 157 187 193 157 187 193 157 187 193 157 187 193 157 187 193 157 187 193 157 187 193 157 187 193 157 0 0 255 0 0 255 0 0 255 0 0 255 0 0 255 0 0 255 0 0 255 0 0 255 183 184 145 183 184 145 183 184 145 183 184 145 183 184 145 183 184 145 183 184 145 183 184 145 183 184 145 183 184 145 183 184 145 183 184 145 183 184 145 183 184 145 183 184 145 183 184 145 183 184 145 183 184 145 0 0 255 0 0 255 0 0 255 0 0 255 167 167 117 167 167 117 167 167 117 167 167 117 167 167 117 167 167 117 167 167 117 167 167 117 
153 152 98 153 152 98 153 152 98 153 152 98 153 152 98 153 152 98 153 152 98 153 152 98 153 152 98 153 152 98 153 152 98 153 152 98 153 152 98 153 152 98 153 152 98 153 152 98 0 0 255 164 169 111 164 169 111 164 169 111 164 169 111 164 169 111 164 169 111 164 169 111 164 169 111 164 169 111 164 169 111 164 169 111 164 169 111 164 169 111 164 169 111 164 169 111 164 169 111 164 169 111 164 169 111 164 169 111 164 169 111 164 169 111 164 169 111 164 169 111 164 169 111 164 169 111 164 169 111 164 169 111 164 169 111 164 169 111 0 0 255 173 181 124 173 181 124 173 181 124 173 181 124 173 181 124 173 181 124 173 181 124 173 181 124 173 181 124 173 181 124 173 181 124 173 181 124 173 181 124 173 181 124 173 181 124 173 181 124 173 181 124 173 181 124 173 181 124 173 181 124 173 181 124 173 181 124 173 181 124 173 181 124 173 181 124 173 181 124 173 181 124 173 181 124 173 181 124 173 181 124 173 181 124 173 181 124 0 0 255 177 187 134 177 187 134 177 187 134 177 187 134 177 187 134 177 187 134 177 187 134 177 187 134 177 187 134 177 187 134 177 187 134 177 187 134 177 187 134 177 187 134 177 187 134 177 187 134 177 187 134 177 187 134 177 187 134 177 187 134 177 187 134 177 187 134 177 187 134 177 187 134 177 187 134 177 187 134 177 187 134 177 187 134 177 187 134 177 187 134 177 187 134 177 187 134 177 187 134 177 187 134 177 187 134 177 187 134 177 187 134 0 0 255 0 0 255 0 0 255 190 197 159 190 197 159 190 197 159 190 197 159 190 197 159 190 197 159 190 197 159 190 197 159 190 197 159 190 197 159 190 197 159 0 0 255 188 195 157 188 195 157 188 195 157 188 195 157 188 195 157 188 195 157 188 195 157 188 195 157 188 195 157 188 195 157 188 195 157 188 195 157 188 195 157 188 195 157 188 195 157 188 195 157 188 195 157 188 195 157 188 195 157 188 195 157 188 195 157 188 195 157 188 195 157 188 195 157 188 195 157 188 195 157 188 195 157 188 195 157 188 195 157 188 195 157 188 195 157 188 195 157 188 195 157 188 195 157 188 195 157 188 195 157 0 0 255 189 196 161 189 196 161 189 196 161 189 196 161 189 196 161 189 196 161 189 196 161 189 196 161 189 196 161 189 196 161 189 196 161 189 196 161 189 196 161 189 196 161 189 196 161 189 196 161 189 196 161 189 196 161 189 196 161 189 196 161 189 196 161 189 196 161 189 196 161 189 196 161 189 196 161 0 0 255 187 193 157 187 193 157 187 193 157 187 193 157 187 193 157 187 193 157 187 193 157 187 193 157 187 193 157 187 193 157 187 193 157 187 193 157 187 193 157 187 193 157 187 193 157 187 193 157 187 193 157 187 193 157 187 193 157 187 193 157 187 193 157 187 193 157 187 193 157 187 193 157 187 193 157 187 193 157 0 0 255 0 0 255 183 184 145 183 184 145 183 184 145 183 184 145 183 184 145 183 184 145 183 184 145 183 184 145 183 184 145 183 184 145 183 184 145 183 184 145 183 184 145 183 184 145 183 184 145 183 184 145 183 184 145 183 184 145 183 184 145 183 184 145 183 184 145 183 184 145 183 184 145 183 184 145 0 0 255 0 0 255 0 0 255 0 0 255 167 167 117 167 167 117 167 167 117 167 167 117 167 167 117 
153 152 98 153 152 98 153 152 98 153 152 98 153 152 98 153 152 98 153 152 98 153 152 98 153 152 98 153 152 98 153 152 98 153 152 98 153 152 98 153 152 98 153 152 98 153 152 98 0 0 255 164 169 111 164 169 111 164 169 111 164 169 111 164 169 111 164 169 111 164 169 111 164 169 111 164 169 111 164 169 111 164 169 111 164 169 111 164 169 111 164 169 111 164 169 111 164 169 111 164 169 111 164 169 111 164 169 111 164 169 111 164 169 111 164 169 111 164 169 111 164 169 111 164 169 111 164 169 111 164 169 111 164 169 111 164 169 111 0 0 255 0 0 255 173 181 124 173 181 124 173 181 124 173 181 124 173 181 124 173 181 124 173 181 124 173 181 124 173 181 124 173 181 124 173 181 124 173 181 124 173 181 124 173 181 124 173 181 124 173 181 124 173 181 124 173 181 124 173 181 124 173 181 124 173 181 124 173 181 124 173 181 124 173 181 124 173 181 124 173 181 124 173 181 124 173 181 124 173 181 124 173 181 124 173 181 124 0 0 255 177 187 134 177 187 134 177 187 134 177 187 134 177 187 134 177 187 134 177 187 134 177 187 134 177 187 134 177 187 134 177 187 134 177 187 134 177 187 134 177 187 134 177 187 134 177 187 134 177 187 134 177 187 134 177 187 134 177 187 134 177 187 134 177 187 134 177 187 134 177 187 134 177 187 134 177 187 134 177 187 134 177 187 134 177 187 134 177 187 134 177 187 134 177 187 134 177 187 134 177 187 134 177 187 134 177 187 134 0 0 255 190 197 159 190 197 159 190 197 159 190 197 159 190 197 159 190 197 159 190 197 159 190 197 159 190 197 159 190 197 159 190 197 159 190 197 159 190 197 159 190 197 159 0 0 255 0 0 255 188 195 157 188 195 157 188 195 157 188 195 157 188 195 157 188 195 157 188 195 157 188 195 157 188 195 157 188 195 157 188 195 157 188 195 157 188 195 157 188 195 157 188 195 157 188 195 157 188 195 157 188 195 157 188 195 157 188 195 157 188 195 157 188 195 157 188 195 157 188 195 157 188 195 157 188 195 157 188 195 157 188 195 157 188 195 157 188 195 157 188 195 157 188 195 157 188 195 157 188 195 157 188 195 157 0 0 255 189 196 161 189 196 161 189 196 161 189 196 161 189 196 161 189 196 161 189 196 161 189 196 161 189 196 161 189 196 161 189 196 161 189 196 161 189 196 161 189 196 161 189 196 161 189 196 161 189 196 161 189 196 161 189 196 161 189 196 161 189 196 161 189 196 161 189 196 161 189 196 161 189 196 161 0 0 255 187 193 157 187 193 157 187 193 157 187 193 157 187 193 157 187 193 157 187 193 157 187 193 157 187 193 157 187 193 157 187 193 157 187 193 157 187 193 157 187 193 157 187 193 157 187 193 157 187 193 157 187 193 157 187 193 157 187 193 157 187 193 157 187 193 157 187 193 157 187 193 157 187 193 157 187 193 157 187 193 157 0 0 255 0 0 255 183 184 145 183 184 145 183 184 145 183 184 145 183 184 145 183 184 145 183 184 145 183 184 145 183 184 145 183 184 145 183 184 145 183 184 145 183 184 145 183 184 145 183 184 145 183 184 145 183 184 145 183 184 145 183 184 145 183 184 145 183 184 145 183 184 145 183 184 145 183 184 145 183 184 145 183 184 145 0 0 255 0 0 255 0 0 255 0 0 255 0 0 255 0 0 255 
153 152 98 153 152 98 153 152 98 153 152 98 153 152 98 153 152 98 153 152 98 153 152 98 153 152 98 153 152 98 153 152 98 153 152 98 153 152 98 153 152 98 153 152 98 153 152 98 0 0 255 164 169 111 164 169 111 164 169 111 164 169 111 164 169 111 164 169 111 164 169 111 164 169 111 164 169 111 164 169 111 164 169 111 164 169 111 164 169 111 164 169 111 164 169 111 164 169 111 164 169 111 164 169 111 164 169 111 164 169 111 164 169 111 164 169 111 164 169 111 164 169 111 164 169 111 164 169 111 164 169 111 164 169 111 164 169 111 164 169 111 0 0 255 173 181 124 173 181 124 173 181 124 173 181 124 173 181 124 173 181 124 173 181 124 173 181 124 173 181 124 173 181 124 173 181 124 173 181 124 173 181 124 173 181 124 173 181 124 173 181 124 173 181 124 173 181 124 173 181 124 173 181 124 173 181 124 173 181 124 173 181 124 173 181 124 173 181 124 173 181 124 173 181 124 173 181 124 173 181 124 173 181 124 0 0 255 177 187 134 177 187 134 177 187 134 177 187 134 177 187 134 177 187 134 177 187 134 177 187 134 177 187 134 177 187 134 177 187 134 177 187 134 177 187 134 177 187 134 177 187 134 177 187 134 177 187 134 177 187 134 177 187 134 177 187 134 177 187 134 177 187 134 177 187 134 177 187 134 177 187 134 177 187 134 177 187 134 177 187 134 177 187 134 177 187 134 177 187 134 177 187 134 177 187 134 177 187 134 177 187 134 177 187 134 0 0 255 190 197 159 190 197 159 190 197 159 190 197 159 190 197 159 190 197 159 190 197 159 190 197 159 190 197 159 190 197 159 190 197 159 190 197 159 190 197 159 190 197 159 190 197 159 190 197 159 0 0 255 188 195 157 188 195 157 188 195 157 188 195 157 188 195 157 188 195 157 188 195 157 188 195 157 188 195 157 188 195 157 188 195 157 188 195 157 188 195 157 188 195 157 188 195 157 188 195 157 188 195 157 188 195 157 188 195 157 188 195 157 188 195 157 188 195 157 188 195 157 188 195 157 188 195 157 188 195 157 188 195 157 188 195 157 188 195 157 188 195 157 188 195 157 188 195 157 188 195 157 188 195 157 188 195 157 0 0 255 189 196 161 189 196 161 189 196 161 189 196 161 189 196 161 189 196 161 189 196 161 189 196 161 189 196 161 189 196 161 189 196 161 189 196 161 189 196 161 189 196 161 189 196 161 189 196 161 189 196 161 189 196 161 189 196 161 189 196 161 189 196 161 189 196 161 189 196 161 189 196 161 189 196 161 0 0 255 187 193 157 187 193 157 187 193 157 187 193 157 187 193 157 187 193 157 187 193 157 187 193 157 187 193 157 187 193 157 187 193 157 187 193 157 187 193 157 187 193 157 187 193 157 187 193 157 187 193 157 187 193 157 187 193 157 187 193 157 187 193 157 187 193 157 187 193 157 187 193 157 187 193 157 187 193 157 187 193 157 187 193 157 0 0 255 183 184 145 183 184 145 183 184 145 183 184 145 183 184 145 183 184 145 183 184 145 183 184 145 183 184 145 183 184 145 183 184 145 183 184 145 183 184 145 183 184 145 183 184 145 183 184 145 183 184 145 183 184 145 183 184 145 183 184 145 183 184 145 183 184 145 183 184 145 183 184 145 183 184 145 183 184 145 183 184 145 183 184 145 183 184 145 183 184 145 183 184 145 183 184 145 
153 152 98 153 152 98 153 152 98 153 152 98 153 152 98 153 152 98 153 152 98 153 152 98 153 152 98 153 152 98 153 152 98 153 152 98 153 152 98 153 152 98 153 152 98 153 152 98 0 0 255 164 169 111 164 169 111 164 169 111 164 169 111 164 169 111 164 169 111 164 169 111 164 169 111 164 169 111 164 169 111 164 169 111 164 169 111 164 169 111 164 169 111 164 169 111 164 169 111 164 169 111 164 169 111 164 169 111 164 169 111 164 169 111 164 169 111 164 169 111 164 169 111 164 169 111 164 169 111 164 169 111 164 169 111 164 169 111 0 0 255 173 181 124 173 181 124 173 181 124 173 181 124 173 181 124 173 181 124 173 181 124 173 181 124 173 181 124 173 181 124 173 181 124 173 181 124 173 181 124 173 181 124 173 181 124 173 181 124 173 181 124 173 181 124 173 181 124 173 181 124 173 181 124 173 181 124 173 181 124 173 181 124 173 181 124 173 181 124 173 181 124 173 181 124 173 181 124 173 181 124 173 181 124 0 0 255 177 187 134 177 187 134 177 187 134 177 187 134 177 187 134 177 187 134 177 187 134 177 187 134 177 187 134 177 187 134 177 187 134 177 187 134 177 187 134 177 187 134 177 187 134 177 187 134 177 187 134 177 187 134 177 187 134 177 187 134 177 187 134 177 187 134 177 187 134 177 187 134 177 187 134 177 187 134 177 187 134 177 187 134 177 187 134 177 187 134 177 187 134 177 187 134 177 187 134 0 0 255 0 0 255 0 0 255 190 197 159 190 197 159 190 197 159 190 197 159 190 197 159 190 197 159 190 197 159 190 197 159 190 197 159 190 197 159 190 197 159 190 197 159 190 197 159 190 197 159 190 197 159 190 197 159 190 197 159 0 0 255 0 0 255 188 195 157 188 195 157 188 195 157 188 195 157 188 195 157 188 195 157 188 195 157 188 195 157 188 195 157 188 195 157 188 195 157 188 195 157 188 195 157 188 195 157 188 195 157 188 195 157 188 195 157 188 195 157 188 195 157 188 195 157 188 195 157 188 195 157 188 195 157 188 195 157 188 195 157 188 195 157 188 195 157 188 195 157 188 195 157 188 195 157 188 195 157 188 195 157 188 195 157 0 0 255 189 196 161 189 196 161 189 196 161 189 196 161 189 196 161 189 196 161 189 196 161 189 196 161 189 196 161 189 196 161 189 196 161 189 196 161 189 196 161 189 196 161 189 196 161 189 196 161 189 196 161 189 196 161 189 196 161 189 196 161 189 196 161 189 196 161 189 196 161 189 196 161 189 196 161 189 196 161 0 0 255 187 193 157 187 193 157 187 193 157 187 193 157 187 193 157 187 193 157 187 193 157 187 193 157 187 193 157 187 193 157 187 193 157 187 193 157 187 193 157 187 193 157 187 193 157 187 193 157 187 193 157 187 193 157 187 193 157 187 193 157 187 193 157 187 193 157 187 193 157 187 193 157 187 193 157 187 193 157 187 193 157 187 193 157 0 0 255 183 184 145 183 184 145 183 184 145 183 184 145 183 184 145 183 184 145 183 184 145 183 184 145 183 184 145 183 184 145 183 184 145 183 184 145 183 184 145 183 184 145 183 184 145 183 184 145 183 184 145 183 184 145 183 184 145 183 184 145 183 184 145 183 184 145 183 184 145 183 184 145 183 184 145 183 184 145 183 184 145 183 184 145 183 184 145 183 184 145 183 184 145 183 184 145 
153 152 98 153 152 98 153 152 98 153 152 98 153 152 98 153 152 98 153 152 98 153 152 98 153 152 98 153 152 98 153 152 98 153 152 98 153 152 98 153 152 98 153 152 98 153 152 98 0 0 255 164 169 111 164 169 111 164 169 111 164 169 111 164 169 111 164 169 111 164 169 111 164 169 111 164 169 111 164 169 111 164 169 111 164 169 111 164 169 111 164 169 111 164 169 111 164 169 111 164 169 111 164 169 111 164 169 111 164 169 111 164 169 111 164 169 111 164 169 111 164 169 111 164 169 111 164 169 111 164 169 111 164 169 111 0 0 255 173 181 124 173 181 124 173 181 124 173 181 124 173 181 124 173 181 124 173 181 124 173 181 124 173 181 124 173 181 124 173 181 124 173 181 124 173 181 124 173 181 124 173 181 124 173 181 124 173 181 124 173 181 124 173 181 124 173 181 124 173 181 124 173 181 124 173 181 124 173 181 124 173 181 124 173 181 124 173 181 124 173 181 124 173 181 124 173 181 124 173 181 124 173 181 124 0 0 255 177 187 134 177 187 134 177 187 134 177 187 134 177 187 134 177 187 134 177 187 134 177 187 134 177 187 134 177 187 134 177 187 134 177 187 134 177 187 134 177 187 134 177 187 134 177 187 134 177 187 134 177 187 134 177 187 134 177 187 134 177 187 134 177 187 134 177 187 134 177 187 134 177 187 134 177 187 134 177 187 134 177 187 134 177 187 134 177 187 134 177 187 134 177 187 134 0 0 255 190 197 159 190 197 159 190 197 159 190 197 159 190 197 159 190 197 159 190 197 159 190 197 159 190 197 159 190 197 159 190 197 159 190 197 159 190 197 159 190 197 159 190 197 159 190 197 159 190 197 159 190 197 159 190 197 159 190 197 159 190 197 159 0 0 255 188 195 157 188 195 157 188 195 157 188 195 157 188 195 157 188 195 157 188 195 157 188 195 157 188 195 157 188 195 157 188 195 157 188 195 157 188 195 157 188 195 157 188 195 157 188 195 157 188 195 157 188 195 157 188 195 157 188 195 157 188 195 157 188 195 157 188 195 157 188 195 157 188 195 157 188 195 157 188 195 157 188 195 157 188 195 157 188 195 157 188 195 157 188 195 157 188 195 157 0 0 255 189 196 161 189 196 161 189 196 161 189 196 161 189 196 161 189 196 161 189 196 161 189 196 161 189 196 161 189 196 161 189 196 161 189 196 161 189 196 161 189 196 161 189 196 161 189 196 161 189 196 161 189 196 161 189 196 161 189 196 161 189 196 161 189 196 161 189 196 161 189 196 161 189 196 161 189 196 161 0 0 255 187 193 157 187 193 157 187 193 157 187 193 157 187 193 157 187 193 157 187 193 157 187 193 157 187 193 157 187 193 157 187 193 157 187 193 157 187 193 157 187 193 157 187 193 157 187 193 157 187 193 157 187 193 157 187 193 157 187 193 157 187 193 157 187 193 157 187 193 157 187 193 157 187 193 157 187 193 157 187 193 157 187 193 157 0 0 255 183 184 145 183 184 145 183 184 145 183 184 145 183 184 145 183 184 145 183 184 145 183 184 145 183 184 145 183 184 145 183 184 145 183 184 145 183 184 145 183 184 145 183 184 145 183 184 145 183 184 145 183 184 145 183 184 145 183 184 145 183 184 145 183 184 145 183 184 145 183 184 145 183 184 145 183 184 145 183 184 145 183 184 145 183 184 145 183 184 145 183 184 145 183 184 145 
153 152 98 153 152 98 153 152 98 153 152 98 153 152 98 153 152 98 153 152 98 153 152 98 153 152 98 153 152 98 153 152 98 153 152 98 153 152 98 153 152 98 153 152 98 0 0 255 0 0 255 0 0 255 0 0 255 164 169 111 164 169 111 164 169 111 164 169 111 164 169 111 164 169 111 164 169 111 164 169 111 164 169 111 164 169 111 164 169 111 164 169 111 164 169 111 164 169 111 164 169 111 164 169 111 164 169 111 164 169 111 164 169 111 164 169 111 164 169 111 164 169 111 0 0 255 0 0 255 0 0 255 0 0 255 0 0 255 0 0 255 0 0 255 0 0 255 0 0 255 173 181 124 173 181 124 173 181 124 173 181 124 173 181 124 173 181 124 173 181 124 173 181 124 173 181 124 173 181 124 173 181 124 173 181 124 173 181 124 173 181 124 173 181 124 173 181 124 173 181 124 173 181 124 173 181 124 0 0 255 0 0 255 0 0 255 0 0 255 0 0 255 0 0 255 0 0 255 0 0 255 0 0 255 0 0 255 0 0 255 0 0 255 0 0 255 177 187 134 177 187 134 177 187 134 177 187 134 177 187 134 177 187 134 177 187 134 177 187 134 177 187 134 177 187 134 177 187 134 177 187 134 177 187 134 177 187 134 177 187 134 177 187 134 177 187 134 177 187 134 177 187 134 177 187 134 177 187 134 177 187 134 177 187 134 177 187 134 0 0 255 0 0 255 0 0 255 0 0 255 0 0 255 190 197 159 190 197 159 190 197 159 190 197 159 190 197 159 190 197 159 190 197 159 190 197 159 190 197 159 190 197 159 190 197 159 190 197 159 190 197 159 190 197 159 190 197 159 190 197 159 190 197 159 190 197 159 190 197 159 190 197 159 190 197 159 190 197 159 0 0 255 188 195 157 188 195 157 188 195 157 188 195 157 188 195 157 188 195 157 188 195 157 188 195 157 188 195 157 188 195 157 188 195 157 188 195 157 188 195 157 188 195 157 188 195 157 188 195 157 188 195 157 188 195 157 188 195 157 188 195 157 188 195 157 188 195 157 188 195 157 188 195 157 188 195 157 188 195 157 188 195 157 188 195 157 188 195 157 188 195 157 188 195 157 188 195 157 188 195 157 0 0 255 189 196 161 189 196 161 189 196 161 189 196 161 189 196 161 189 196 161 189 196 161 189 196 161 189 196 161 189 196 161 189 196 161 189 196 161 189 196 161 189 196 161 189 196 161 189 196 161 189 196 161 189 196 161 189 196 161 189 196 161 189 196 161 189 196 161 189 196 161 189 196 161 189 196 161 189 196 161 0 0 255 0 0 255 187 193 157 187 193 157 187 193 157 187 193 157 187 193 157 187 193 157 187 193 157 187 193 157 187 193 157 187 193 157 187 193 157 187 193 157 187 193 157 187 193 157 187 193 157 187 193 157 187 193 157 187 193 157 187 193 157 187 193 157 187 193 157 187 193 157 187 193 157 187 193 157 187 193 157 187 193 157 187 193 157 0 0 255 183 184 145 183 184 145 183 184 145 183 184 145 183 184 145 183 184 145 183 184 145 183 184 145 183 184 145 183 184 145 183 184 145 183 184 145 183 184 145 183 184 145 183 184 145 183 184 145 183 184 145 183 184 145 183 184 145 183 184 145 183 184 145 183 184 145 183 184 145 183 184 145 183 184 145 183 184 145 183 184 145 183 184 145 183 184 145 183 184 145 183 184 145 183 184 145 
153 152 98 153 152 98 153 152 98 153 152 98 153 152 98 153 152 98 153 152 98 153 152 98 153 152 98 153 152 98 153 152 98 153 152 98 0 0 255 0 0 255 0 0 255 176 171 118 176 171 118 176 171 118 0 0 255 0 0 255 0 0 255 0 0 255 0 0 255 0 0 255 164 169 111 164 169 111 164 169 111 164 169 111 164 169 111 164 169 111 164 169 111 164 169 111 164 169 111 164 169 111 164 169 111 164 169 111 164 169 111 164 169 111 0 0 255 0 0 255 0 0 255 182 184 134 182 184 134 182 184 134 182 184 134 182 184 134 182 184 134 182 184 134 182 184 134 0 0 255 0 0 255 0 0 255 0 0 255 173 181 124 173 181 124 173 181 124 173 181 124 173 181 124 0 0 255 0 0 255 0 0 255 0 0 255 0 0 255 0 0 255 173 181 124 0 0 255 0 0 255 0 0 255 0 0 255 187 192 148 187 192 148 187 192 148 187 192 148 187 192 148 187 192 148 187 192 148 187 192 148 187 192 148 187 192 148 187 192 148 187 192 148 0 0 255 0 0 255 0 0 255 0 0 255 177 187 134 177 187 134 177 187 134 177 187 134 177 187 134 177 187 134 177 187 134 177 187 134 177 187 134 177 187 134 177 187 134 177 187 134 177 187 134 177 187 134 177 187 134 177 187 134 177 187 134 177 187 134 177 187 134 0 0 255 0 0 255 190 197 159 190 197 159 190 197 159 190 197 159 190 197 159 190 197 159 190 197 159 190 197 159 190 197 159 190 197 159 190 197 159 190 197 159 190 197 159 190 197 159 190 197 159 190 197 159 190 197 159 190 197 159 190 197 159 190 197 159 190 197 159 190 197 159 190 197 159 190 197 159 190 197 159 190 197 159 190 197 159 0 0 255 0 0 255 188 195 157 188 195 157 188 195 157 188 195 157 188 195 157 188 195 157 188 195 157 188 195 157 188 195 157 188 195 157 188 195 157 188 195 157 188 195 157 188 195 157 188 195 157 188 195 157 188 195 157 188 195 157 188 195 157 188 195 157 188 195 157 188 195 157 188 195 157 188 195 157 188 195 157 188 195 157 188 195 157 188 195 157 188 195 157 188 195 157 188 195 157 0 0 255 189 196 161 189 196 161 189 196 161 189 196 161 189 196 161 189 196 161 189 196 161 189 196 161 189 196 161 189 196 161 189 196 161 189 196 161 189 196 161 189 196 161 189 196 161 189 196 161 189 196 161 189 196 161 189 196 161 189 196 161 189 196 161 189 196 161 189 196 161 189 196 161 189 196 161 189 196 161 189 196 161 189 196 161 0 0 255 187 193 157 187 193 157 187 193 157 187 193 157 187 193 157 187 193 157 187 193 157 187 193 157 187 193 157 187 193 157 187 193 157 187 193 157 187 193 157 187 193 157 187 193 157 187 193 157 187 193 157 187 193 157 187 193 157 187 193 157 187 193 157 187 193 157 187 193 157 187 193 157 187 193 157 187 193 157 187 193 157 0 0 255 183 184 145 183 184 145 183 184 145 183 184 145 183 184 145 183 184 145 183 184 145 183 184 145 183 184 145 183 184 145 183 184 145 183 184 145 183 184 145 183 184 145 183 184 145 183 184 145 183 184 145 183 184 145 183 184 145 183 184 145 183 184 145 183 184 145 183 184 145 183 184 145 183 184 145 183 184 145 183 184 145 183 184 145 183 184 145 183 184 145 183 184 145 183 184 145 
153 152 98 153 152 98 153 152 98 153 152 98 153 152 98 153 152 98 153 152 98 0 0 255 0 0 255 0 0 255 0 0 255 0 0 255 176 171 118 176 171 118 176 171 118 176 171 118 176 171 118 176 171 118 176 171 118 176 171 118 176 171 118 176 171 118 176 171 118 0 0 255 0 0 255 0 0 255 0 0 255 0 0 255 0 0 255 0 0 255 0 0 255 0 0 255 0 0 255 0 0 255 0 0 255 0 0 255 0 0 255 0 0 255 182 184 134 182 184 134 182 184 134 182 184 134 182 184 134 182 184 134 182 184 134 182 184 134 182 184 134 182 184 134 182 184 134 182 184 134 182 184 134 182 184 134 0 0 255 0 0 255 0 0 255 0 0 255 0 0 255 0 0 255 187 192 148 187 192 148 187 192 148 187 192 148 187 192 148 0 0 255 0 0 255 187 192 148 187 192 148 187 192 148 187 192 148 187 192 148 187 192 148 187 192 148 187 192 148 187 192 148 187 192 148 187 192 148 187 192 148 187 192 148 187 192 148 187 192 148 187 192 148 187 192 148 187 192 148 187 192 148 0 0 255 0 0 255 0 0 255 177 187 134 0 0 255 177 187 134 0 0 255 177 187 134 177 187 134 177 187 134 177 187 134 0 0 255 0 0 255 0 0 255 177 187 134 0 0 255 0 0 255 0 0 255 0 0 255 0 0 255 190 197 159 190 197 159 190 197 159 190 197 159 190 197 159 190 197 159 190 197 159 190 197 159 190 197 159 190 197 159 190 197 159 190 197 159 190 197 159 190 197 159 190 197 159 190 197 159 190 197 159 190 197 159 190 197 159 190 197 159 190 197 159 190 197 159 190 197 159 190 197 159 190 197 159 190 197 159 190 197 159 190 197 159 190 197 159 190 197 159 0 0 255 188 195 157 188 195 157 188 195 157 188 195 157 188 195 157 188 195 157 188 195 157 188 195 157 188 195 157 188 195 157 188 195 157 188 195 157 188 195 157 188 195 157 188 195 157 188 195 157 188 195 157 188 195 157 188 195 157 188 195 157 188 195 157 188 195 157 188 195 157 188 195 157 188 195 157 188 195 157 188 195 157 188 195 157 188 195 157 188 195 157 188 195 157 0 0 255 189 196 161 189 196 161 189 196 161 189 196 161 189 196 161 189 196 161 189 196 161 189 196 161 189 196 161 189 196 161 189 196 161 189 196 161 189 196 161 189 196 161 189 196 161 189 196 161 189 196 161 189 196 161 189 196 161 189 196 161 189 196 161 189 196 161 189 196 161 189 196 161 189 196 161 189 196 161 189 196 161 189 196 161 0 0 255 187 193 157 187 193 157 187 193 157 187 193 157 187 193 157 187 193 157 187 193 157 187 193 157 187 193 157 187 193 157 187 193 157 187 193 157 187 193 157 187 193 157 187 193 157 187 193 157 187 193 157 187 193 157 187 193 157 187 193 157 187 193 157 187 193 157 187 193 157 187 193 157 187 193 157 187 193 157 187 193 157 0 0 255 183 184 145 183 184 145 183 184 145 183 184 145 183 184 145 183 184 145 183 184 145 183 184 145 183 184 145 183 184 145 183 184 145 183 184 145 183 184 145 183 184 145 183 184 145 183 184 145 183 184 145 183 184 145 183 184 145 183 184 145 183 184 145 183 184 145 183 184 145 183 184 145 183 184 145 183 184 145 183 184 145 183 184 145 183 184 145 183 184 145 183 184 145 183 184 145 
0 0 255 0 0 255 0 0 255 0 0 255 0 0 255 0 0 255 0 0 255 176 171 118 176 171 118 176 171 118 176 171 118 176 171 118 176 171 118 176 171 118 176 171 118 176 171 118 176 171 118 176 171 118 176 171 118 176 171 118 176 171 118 176 171 118 176 171 118 176 171 118 176 171 118 176 171 118 176 171 118 176 171 118 176 171 118 0 0 255 182 184 134 182 184 134 182 184 134 182 184 134 182 184 134 182 184 134 182 184 134 182 184 134 182 184 134 182 184 134 182 184 134 182 184 134 182 184 134 182 184 134 182 184 134 182 184 134 182 184 134 182 184 134 182 184 134 182 184 134 182 184 134 182 184 134 182 184 134 182 184 134 182 184 134 0 0 255 187 192 148 187 192 148 187 192 148 187 192 148 187 192 148 187 192 148 187 192 148 187 192 148 187 192 148 187 192 148 187 192 148 187 192 148 187 192 148 187 192 148 187 192 148 187 192 148 187 192 148 187 192 148 187 192 148 187 192 148 187 192 148 187 192 148 187 192 148 187 192 148 187 192 148 187 192 148 187 192 148 187 192 148 187 192 148 187 192 148 0 0 255 0 0 255 0 0 255 0 0 255 0 0 255 0 0 255 0 0 255 0 0 255 0 0 255 191 198 158 191 198 158 0 0 255 0 0 255 191 198 158 191 198 158 191 198 158 0 0 255 190 197 159 190 197 159 190 197 159 190 197 159 190 197 159 190 197 159 190 197 159 190 197 159 190 197 159 190 197 159 190 197 159 190 197 159 190 197 159 190 197 159 190 197 159 190 197 159 190 197 159 190 197 159 190 197 159 190 197 159 190 197 159 190 197 159 190 197 159 190 197 159 190 197 159 190 197 159 190 197 159 190 197 159 190 197 159 190 197 159 190 197 159 0 0 255 188 195 157 188 195 157 188 195 157 188 195 157 188 195 157 188 195 157 188 195 157 188 195 157 188 195 157 188 195 157 188 195 157 188 195 157 188 195 157 188 195 157 188 195 157 188 195 157 188 195 157 188 195 157 188 195 157 188 195 157 188 195 157 188 195 157 188 195 157 188 195 157 188 195 157 188 195 157 188 195 157 188 195 157 188 195 157 188 195 157 188 195 157 0 0 255 189 196 161 189 196 161 189 196 161 189 196 161 189 196 161 189 196 161 189 196 161 189 196 161 189 196 161 189 196 161 189 196 161 189 196 161 189 196 161 189 196 161 189 196 161 189 196 161 189 196 161 189 196 161 189 196 161 189 196 161 189 196 161 189 196 161 189 196 161 189 196 161 189 196 161 189 196 161 189 196 161 189 196 161 0 0 255 187 193 157 187 193 157 187 193 157 187 193 157 187 193 157 187 193 157 187 193 157 187 193 157 187 193 157 187 193 157 187 193 157 187 193 157 187 193 157 187 193 157 187 193 157 187 193 157 187 193 157 187 193 157 187 193 157 187 193 157 187 193 157 187 193 157 187 193 157 187 193 157 187 193 157 187 193 157 187 193 157 0 0 255 183 184 145 183 184 145 183 184 145 183 184 145 183 184 145 183 184 145 183 184 145 183 184 145 183 184 145 183 184 145 183 184 145 183 184 145 183 184 145 183 184 145 183 184 145 183 184 145 183 184 145 183 184 145 183 184 145 183 184 145 183 184 145 183 184 145 183 184 145 183 184 145 183 184 145 183 184 145 183 184 145 183 184 145 183 184 145 183 184 145 183 184 145 183 184 145 
176 171 118 176 171 118 176 171 118 176 171 118 176 171 118 176 171 118 176 171 118 176 171 118 176 171 118 176 171 118 176 171 118 176 171 118 176 171 118 176 171 118 176 171 118 176 171 118 176 171 118 176 171 118 176 171 118 176 171 118 176 171 118 176 171 118 176 171 118 176 171 118 176 171 118 176 171 118 176 171 118 176 171 118 0 0 255 182 184 134 182 184 134 182 184 134 182 184 134 182 184 134 182 184 134 182 184 134 182 184 134 182 184 134 182 184 134 182 184 134 182 184 134 182 184 134 182 184 134 182 184 134 182 184 134 182 184 134 182 184 134 182 184 134 182 184 134 182 184 134 182 184 134 182 184 134 182 184 134 182 184 134 0 0 255 187 192 148 187 192 148 187 192 148 187 192 148 187 192 148 187 192 148 187 192 148 187 192 148 187 192 148 187 192 148 187 192 148 187 192 148 187 192 148 187 192 148 187 192 148 187 192 148 187 192 148 187 192 148 187 192 148 187 192 148 187 192 148 187 192 148 187 192 148 187 192 148 187 192 148 187 192 148 187 192 148 187 192 148 187 192 148 187 192 148 0 0 255 0 0 255 191 198 158 191 198 158 191 198 158 191 198 158 191 198 158 191 198 158 191 198 158 191 198 158 191 198 158 191 198 158 191 198 158 191 198 158 191 198 158 191 198 158 191 198 158 0 0 255 0 0 255 190 197 159 190 197 159 190 197 159 190 197 159 190 197 159 190 197 159 190 197 159 190 197 159 190 197 159 190 197 159 190 197 159 190 197 159 190 197 159 190 197 159 190 197 159 190 197 159 190 197 159 190 197 159 190 197 159 190 197 159 190 197 159 190 197 159 190 197 159 190 197 159 190 197 159 190 197 159 190 197 159 190 197 159 190 197 159 190 197 159 0 0 255 0 0 255 188 195 157 188 195 157 188 195 157 188 195 157 188 195 157 188 195 157 188 195 157 188 195 157 188 195 157 188 195 157 188 195 157 188 195 157 188 195 157 188 195 157 188 195 157 188 195 157 188 195 157 188 195 157 188 195 157 188 195 157 188 195 157 188 195 157 188 195 157 188 195 157 188 195 157 188 195 157 188 195 157 188 195 157 188 195 157 0 0 255 189 196 161 189 196 161 189 196 161 189 196 161 189 196 161 189 196 161 189 196 161 189 196 161 189 196 161 189 196 161 189 196 161 189 196 161 189 196 161 189 196 161 189 196 161 189 196 161 189 196 161 189 196 161 189 196 161 189 196 161 189 196 161 189 196 161 189 196 161 189 196 161 189 196 161 189 196 161 189 196 161 189 196 161 189 196 161 0 0 255 187 193 157 187 193 157 187 193 157 187 193 157 187 193 157 187 193 157 187 193 157 187 193 157 187 193 157 187 193 157 187 193 157 187 193 157 187 193 157 187 193 157 187 193 157 187 193 157 187 193 157 187 193 157 187 193 157 187 193 157 187 193 157 187 193 157 187 193 157 187 193 157 187 193 157 187 193 157 187 193 157 0 0 255 0 0 255 183 184 145 183 184 145 183 184 145 183 184 145 183 184 145 183 184 145 183 184 145 183 184 145 183 184 145 183 184 145 183 184 145 183 184 145 183 184 145 183 184 145 183 184 145 183 184 145 183 184 145 183 184 145 183 184 145 183 184 145 183 184 145 183 184 145 183 184 145 183 184 145 183 184 145 183 184 145 183 184 145 183 184 145 183 184 145 183 184 145 183 184 145 
176 171 118 176 171 118 176 171 118 176 171 118 176 171 118 176 171 118 176 171 118 176 171 118 176 171 118 176 171 118 176 171 118 176 171 118 176 171 118 176 171 118 176 171 118 176 171 118 176 171 118 176 171 118 176 171 118 176 171 118 176 171 118 176 171 118 176 171 118 176 171 118 176 171 118 176 171 118 176 171 118 0 0 255 182 184 134 182 184 134 182 184 134 182 184 134 182 184 134 182 184 134 182 184 134 182 184 134 182 184 134 182 184 134 182 184 134 182 184 134 182 184 134 182 184 134 182 184 134 182 184 134 182 184 134 182 184 134 182 184 134 182 184 134 182 184 134 182 184 134 182 184 134 182 184 134 182 184 134 0 0 255 187 192 148 187 192 148 187 192 148 187 192 148 187 192 148 187 192 148 187 192 148 187 192 148 187 192 148 187 192 148 187 192 148 187 192 148 187 192 148 187 192 148 187 192 148 187 192 148 187 192 148 187 192 148 187 192 148 187 192 148 187 192 148 187 192 148 187 192 148 187 192 148 187 192 148 187 192 148 187 192 148 187 192 148 187 192 148 187 192 148 0 0 255 191 198 158 191 198 158 191 198 158 191 198 158 191 198 158 191 198 158 191 198 158 191 198 158 191 198 158 191 198 158 191 198 158 191 198 158 191 198 158 191 198 158 191 198 158 191 198 158 191 198 158 191 198 158 0 0 255 190 197 159 190 197 159 190 197 159 190 197 159 190 197 159 190 197 159 190 197 159 190 197 159 190 197 159 190 197 159 190 197 159 190 197 159 190 197 159 190 197 159 190 197 159 190 197 159 190 197 159 190 197 159 190 197 159 190 197 159 190 197 159 190 197 159 190 197 159 190 197 159 190 197 159 190 197 159 190 197 159 190 197 159 190 197 159 190 197 159 190 197 159 0 0 255 188 195 157 188 195 157 188 195 157 188 195 157 188 195 157 188 195 157 188 195 157 188 195 157 188 195 157 188 195 157 188 195 157 188 195 157 188 195 157 188 195 157 188 195 157 188 195 157 188 195 157 188 195 157 188 195 157 188 195 157 188 195 157 188 195 157 188 195 157 188 195 157 188 195 157 188 195 157 188 195 157 188 195 157 188 195 157 0 0 255 189 196 161 189 196 161 189 196 161 189 196 161 189 196 161 189 196 161 189 196 161 189 196 161 189 196 161 189 196 161 189 196 161 189 196 161 189 196 161 189 196 161 189 196 161 189 196 161 189 196 161 189 196 161 189 196 161 189 196 161 189 196 161 189 196 161 189 196 161 189 196 161 189 196 161 189 196 161 189 196 161 189 196 161 189 196 161 0 0 255 187 193 157 187 193 157 187 193 157 187 193 157 187 193 157 187 193 157 187 193 157 187 193 157 187 193 157 187 193 157 187 193 157 187 193 157 187 193 157 187 193 157 187 193 157 187 193 157 187 193 157 187 193 157 187 193 157 187 193 157 187 193 157 187 193 157 187 193 157 187 193 157 187 193 157 187 193 157 187 193 157 187 193 157 0 0 255 183 184 145 183 184 145 183 184 145 183 184 145 183 184 145 183 184 145 183 184 145 183 184 145 183 184 145 183 184 145 183 184 145 183 184 145 183 184 145 183 184 145 183 184 145 183 184 145 183 184 145 183 184 145 183 184 145 183 184 145 183 184 145 183 184 145 183 184 145 183 184 145 183 184 145 183 184 145 183 184 145 183 184 145 183 184 145 183 184 145 183 184 145 
176 171 118 176 171 118 176 171 118 176 171 118 176 171 118 176 171 118 176 171 118 176 171 118 176 171 118 176 171 118 176 171 118 176 171 118 176 171 118 176 171 118 176 171 118 176 171 118 176 171 118 176 171 118 176 171 118 176 171 118 176 171 118 176 171 118 176 171 118 176 171 118 176 171 118 176 171 118 176 171 118 0 0 255 182 184 134 182 184 134 182 184 134 182 184 134 182 184 134 182 184 134 182 184 134 182 184 134 182 184 134 182 184 134 182 184 134 182 184 134 182 184 134 182 184 134 182 184 134 182 184 134 182 184 134 182 184 134 182 184 134 182 184 134 182 184 134 182 184 134 182 184 134 182 184 134 182 184 134 0 0 255 187 192 148 187 192 148 187 192 148 187 192 148 187 192 148 187 192 148 187 192 148 187 192 148 187 192 148 187 192 148 187 192 148 187 192 148 187 192 148 187 192 148 187 192 148 187 192 148 187 192 148 187 192 148 187 192 148 187 192 148 187 192 148 187 192 148 187 192 148 187 192 148 187 192 148 187 192 148 187 192 148 187 192 148 187 192 148 187 192 148 0 0 255 191 198 158 191 198 158 191 198 158 191 198 158 191 198 158 191 198 158 191 198 158 191 198 158 191 198 158 191 198 158 191 198 158 191 198 158 191 198 158 191 198 158 191 198 158 191 198 158 191 198 158 191 198 158 0 0 255 190 197 159 190 197 159 190 197 159 190 197 159 190 197 159 190 197 159 190 197 159 190 197 159 190 197 159 190 197 159 190 197 159 190 197 159 190 197 159 190 197 159 190 197 159 190 197 159 190 197 159 190 197 159 190 197 159 190 197 159 190 197 159 190 197 159 190 197 159 190 197 159 190 197 159 190 197 159 190 197 159 190 197 159 190 197 159 190 197 159 190 197 159 0 0 255 188 195 157 188 195 157 188 195 157 188 195 157 188 195 157 188 195 157 188 195 157 188 195 157 188 195 157 188 195 157 188 195 157 188 195 157 188 195 157 188 195 157 188 195 157 188 195 157 188 195 157 188 195 157 188 195 157 188 195 157 188 195 157 188 195 157 188 195 157 188 195 157 188 195 157 188 195 157 188 195 157 188 195 157 188 195 157 0 0 255 189 196 161 189 196 161 189 196 161 189 196 161 189 196 161 189 196 161 189 196 161 189 196 161 189 196 161 189 196 161 189 196 161 189 196 161 189 196 161 189 196 161 189 196 161 189 196 161 189 196 161 189 196 161 189 196 161 189 196 161 189 196 161 189 196 161 189 196 161 189 196 161 189 196 161 189 196 161 189 196 161 189 196 161 189 196 161 0 0 255 187 193 157 187 193 157 187 193 157 187 193 157 187 193 157 187 193 157 187 193 157 187 193 157 187 193 157 187 193 157 187 193 157 187 193 157 187 193 157 187 193 157 187 193 157 187 193 157 187 193 157 187 193 157 187 193 157 187 193 157 187 193 157 187 193 157 187 193 157 187 193 157 187 193 157 187 193 157 187 193 157 187 193 157 0 0 255 0 0 255 183 184 145 183 184 145 183 184 145 183 184 145 183 184 145 183 184 145 183 184 145 183 184 145 183 184 145 183 184 145 183 184 145 183 184 145 183 184 145 183 184 145 183 184 145 183 184 145 183 184 145 183 184 145 183 184 145 183 184 145 183 184 145 183 184 145 183 184 145 183 184 145 183 184 145 183 184 145 183 184 145 183 184 145 183 184 145 183 184 145 
176 171 118 176 171 118 176 171 118 176 171 118 176 171 118 176 171 118 176 171 118 176 171 118 176 171 118 176 171 118 176 171 118 176 171 118 176 171 118 176 171 118 176 171 118 176 171 118 176 171 118 176 171 118 176 171 118 176 171 118 176 171 118 176 171 118 176 171 118 176 171 118 176 171 118 176 171 118 0 0 255 182 184 134 182 184 134 182 184 134 182 184 134 182 184 134 182 184 134 182 184 134 182 184 134 182 184 134 182 184 134 182 184 134 182 184 134 182 184 134 182 184 134 182 184 134 182 184 134 182 184 134 182 184 134 182 184 134 182 184 134 182 184 134 182 184 134 182 184 134 182 184 134 182 184 134 0 0 255 187 192 148 187 192 148 187 192 148 187 192 148 187 192 148 187 192 148 187 192 148 187 192 148 187 192 148 187 192 148 187 192 148 187 192 148 187 192 148 187 192 148 187 192 148 187 192 148 187 192 148 187 192 148 187 192 148 187 192 148 187 192 148 187 192 148 187 192 148 187 192 148 187 192 148 187 192 148 187 192 148 187 192 148 187 192 148 187 192 148 0 0 255 191 198 158 191 198 158 191 198 158 191 198 158 191 198 158 191 198 158 191 198 158 191 198 158 191 198 158 191 198 158 191 198 158 191 198 158 191 198 158 191 198 158 191 198 158 191 198 158 191 198 158 191 198 158 191 198 158 0 0 255 0 0 255 190 197 159 190 197 159 190 197 159 190 197 159 190 197 159 190 197 159 190 197 159 190 197 159 190 197 159 190 197 159 190 197 159 190 197 159 190 197 159 190 197 159 190 197 159 190 197 159 190 197 159 190 197 159 190 197 159 190 197 159 190 197 159 190 197 159 190 197 159 190 197 159 190 197 159 190 197 159 190 197 159 190 197 159 190 197 159 190 197 159 0 0 255 0 0 255 188 195 157 188 195 157 188 195 157 188 195 157 188 195 157 188 195 157 188 195 157 188 195 157 188 195 157 188 195 157 188 195 157 188 195 157 188 195 157 188 195 157 188 195 157 188 195 157 188 195 157 188 195 157 188 195 157 188 195 157 188 195 157 188 195 157 188 195 157 188 195 157 188 195 157 188 195 157 188 195 157 0 0 255 189 196 161 189 196 161 189 196 161 189 196 161 189 196 161 189 196 161 189 196 161 189 196 161 189 196 161 189 196 161 189 196 161 189 196 161 189 196 161 189 196 161 189 196 161 189 196 161 189 196 161 189 196 161 189 196 161 189 196 161 189 196 161 189 196 161 189 196 161 189 196 161 189 196 161 189 196 161 189 196 161 189 196 161 189 196 161 189 196 161 0 0 255 187 193 157 187 193 157 187 193 157 187 193 157 187 193 157 187 193 157 187 193 157 187 193 157 187 193 157 187 193 157 187 193 157 187 193 157 187 193 157 187 193 157 187 193 157 187 193 157 187 193 157 187 193 157 187 193 157 187 193 157 187 193 157 187 193 157 187 193 157 187 193 157 187 193 157 187 193 157 187 193 157 187 193 157 187 193 157 0 0 255 183 184 145 183 184 145 183 184 145 183 184 145 183 184 145 183 184 145 183 184 145 183 184 145 183 184 145 183 184 145 183 184 145 183 184 145 183 184 145 183 184 145 183 184 145 183 184 145 183 184 145 183 184 145 183 184 145 183 184 145 183 184 145 183 184 145 183 184 145 183 184 145 183 184 145 183 184 145 183 184 145 183 184 145 183 184 145 183 184 145 
176 171 118 176 171 118 176 171 118 176 171 118 176 171 118 176 171 118 176 171 118 176 171 118 176 171 118 176 171 118 176 171 118 176 171 118 176 171 118 176 171 118 176 171 118 176 171 118 176 171 118 176 171 118 176 171 118 176 171 118 176 171 118 176 171 118 176 171 118 176 171 118 176 171 118 0 0 255 182 184 134 182 184 134 182 184 134 182 184 134 182 184 134 182 184 134 182 184 134 182 184 134 182 184 134 182 184 134 182 184 134 182 184 134 182 184 134 182 184 134 182 184 134 182 184 134 182 184 134 182 184 134 182 184 134 182 184 134 182 184 134 182 184 134 182 184 134 182 184 134 182 184 134 182 184 134 0 0 255 0 0 255 187 192 148 187 192 148 187 192 148 187 192 148 187 192 148 187 192 148 187 192 148 187 192 148 187 192 148 187 192 148 187 192 148 187 192 148 187 192 148 187 192 148 187 192 148 187 192 148 187 192 148 187 192 148 187 192 148 187 192 148 187 192 148 187 192 148 187 192 148 187 192 148 187 192 148 187 192 148 187 192 148 187 192 148 0 0 255 191 198 158 191 198 158 191 198 158 191 198 158 191 198 158 191 198 158 191 198 158 191 198 158 191 198 158 191 198 158 191 198 158 191 198 158 191 198 158 191 198 158 191 198 158 191 198 158 191 198 158 191 198 158 191 198 158 191 198 158 191 198 158 0 0 255 190 197 159 190 197 159 190 197 159 190 197 159 190 197 159 190 197 159 190 197 159 190 197 159 190 197 159 190 197 159 190 197 159 190 197 159 190 197 159 190 197 159 190 197 159 190 197 159 190 197 159 190 197 159 190 197 159 190 197 159 190 197 159 190 197 159 190 197 159 190 197 159 190 197 159 190 197 159 190 197 159 190 197 159 190 197 159 190 197 159 190 197 159 0 0 255 188 195 157 188 195 157 188 195 157 188 195 157 188 195 157 188 195 157 188 195 157 188 195 157 188 195 157 188 195 157 188 195 157 188 195 157 188 195 157 188 195 157 188 195 157 188 195 157 188 195 157 188 195 157 188 195 157 188 195 157 188 195 157 188 195 157 188 195 157 188 195 157 188 195 157 188 195 157 188 195 157 0 0 255 189 196 161 189 196 161 189 196 161 189 196 161 189 196 161 189 196 161 189 196 161 189 196 161 189 196 161 189 196 161 189 196 161 189 196 161 189 196 161 189 196 161 189 196 161 189 196 161 189 196 161 189 196 161 189 196 161 189 196 161 189 196 161 189 196 161 189 196 161 189 196 161 189 196 161 189 196 161 189 196 161 189 196 161 189 196 161 189 196 161 0 0 255 187 193 157 187 193 157 187 193 157 187 193 157 187 193 157 187 193 157 187 193 157 187 193 157 187 193 157 187 193 157 187 193 157 187 193 157 187 193 157 187 193 157 187 193 157 187 193 157 187 193 157 187 193 157 187 193 157 187 193 157 187 193 157 187 193 157 187 193 157 187 193 157 187 193 157 187 193 157 187 193 157 187 193 157 187 193 157 0 0 255 0 0 255 183 184 145 183 184 145 183 184 145 183 184 145 183 184 145 183 184 145 183 184 145 183 184 145 183 184 145 183 184 145 183 184 145 183 184 145 183 184 145 183 184 145 183 184 145 183 184 145 183 184 145 183 184 145 183 184 145 183 184 145 183 184 145 183 184 145 183 184 145 183 184 145 183 184 145 183 184 145 183 184 145 183 184 145 183 184 145 
176 171 118 176 171 118 176 171 118 176 171 118 176 171 118 176 171 118 176 171 118 176 171 118 176 171 118 176 171 118 176 171 118 176 171 118 176 171 118 176 171 118 176 171 118 176 171 118 176 171 118 176 171 118 176 171 118 176 171 118 176 171 118 176 171 118 176 171 118 176 171 118 176 171 118 0 0 255 182 184 134 182 184 134 182 184 134 182 184 134 182 184 134 182 184 134 182 184 134 182 184 134 182 184 134 182 184 134 182 184 134 182 184 134 182 184 134 182 184 134 182 184 134 182 184 134 182 184 134 182 184 134 182 184 134 182 184 134 182 184 134 182 184 134 182 184 134 182 184 134 182 184 134 182 184 134 182 184 134 0 0 255 187 192 148 187 192 148 187 192 148 187 192 148 187 192 148 187 192 148 187 192 148 187 192 148 187 192 148 187 192 148 187 192 148 187 192 148 187 192 148 187 192 148 187 192 148 187 192 148 187 192 148 187 192 148 187 192 148 187 192 148 187 192 148 187 192 148 187 192 148 187 192 148 187 192 148 187 192 148 187 192 148 0 0 255 191 198 158 191 198 158 191 198 158 191 198 158 191 198 158 191 198 158 191 198 158 191 198 158 191 198 158 191 198 158 191 198 158 191 198 158 191 198 158 191 198 158 191 198 158 191 198 158 191 198 158 191 198 158 191 198 158 191 198 158 191 198 158 191 198 158 0 0 255 0 0 255 190 197 159 190 197 159 190 197 159 190 197 159 190 197 159 190 197 159 190 197 159 190 197 159 190 197 159 190 197 159 190 197 159 190 197 159 190 197 159 190 197 159 190 197 159 190 197 159 190 197 159 190 197 159 190 197 159 190 197 159 190 197 159 190 197 159 190 197 159 190 197 159 190 197 159 190 197 159 190 197 159 190 197 159 190 197 159 190 197 159 0 0 255 0 0 255 188 195 157 188 195 157 188 195 157 188 195 157 188 195 157 188 195 157 188 195 157 188 195 157 188 195 157 188 195 157 188 195 157 188 195 157 188 195 157 188 195 157 188 195 157 188 195 157 188 195 157 188 195 157 188 195 157 188 195 157 188 195 157 188 195 157 188 195 157 188 195 157 188 195 157 188 195 157 0 0 255 189 196 161 189 196 161 189 196 161 189 196 161 189 196 161 189 196 161 189 196 161 189 196 161 189 196 161 189 196 161 189 196 161 189 196 161 189 196 161 189 196 161 189 196 161 189 196 161 189 196 161 189 196 161 189 196 161 189 196 161 189 196 161 189 196 161 189 196 161 189 196 161 189 196 161 189 196 161 189 196 161 189 196 161 189 196 161 189 196 161 0 0 255 187 193 157 187 193 157 187 193 157 187 193 157 187 193 157 187 193 157 187 193 157 187 193 157 187 193 157 187 193 157 187 193 157 187 193 157 187 193 157 187 193 157 187 193 157 187 193 157 187 193 157 187 193 157 187 193 157 187 193 157 187 193 157 187 193 157 187 193 157 187 193 157 187 193 157 187 193 157 187 193 157 187 193 157 187 193 157 187 193 157 0 0 255 183 184 145 183 184 145 183 184 145 183 184 145 183 184 145 183 184 145 183 184 145 183 184 145 183 184 145 183 184 145 183 184 145 183 184 145 183 184 145 183 184 145 183 184 145 183 184 145 183 184 145 183 184 145 183 184 145 183 184 145 183 184 145 183 184 145 183 184 145 183 184 145 183 184 145 183 184 145 183 184 145 183 184 145 183 184 145 
176 171 118 176 171 118 176 171 118 176 171 118 176 171 118 176 171 118 176 171 118 176 171 118 176 171 118 176 171 118 176 171 118 176 171 118 176 171 118 176 171 118 176 171 118 176 171 118 176 171 118 176 171 118 176 171 118 176 171 118 176 171 118 176 171 118 176 171 118 176 171 118 0 0 255 182 184 134 182 184 134 182 184 134 182 184 134 182 184 134 182 184 134 182 184 134 182 184 134 182 184 134 182 184 134 182 184 134 182 184 134 182 184 134 182 184 134 182 184 134 182 184 134 182 184 134 182 184 134 182 184 134 182 184 134 182 184 134 182 184 134 182 184 134 182 184 134 182 184 134 182 184 134 182 184 134 182 184 134 0 0 255 187 192 148 187 192 148 187 192 148 187 192 148 187 192 148 187 192 148 187 192 148 187 192 148 187 192 148 187 192 148 187 192 148 187 192 148 187 192 148 187 192 148 187 192 148 187 192 148 187 192 148 187 192 148 187 192 148 187 192 148 187 192 148 187 192 148 187 192 148 187 192 148 187 192 148 187 192 148 187 192 148 0 0 255 191 198 158 191 198 158 191 198 158 191 198 158 191 198 158 191 198 158 191 198 158 191 198 158 191 198 158 191 198 158 191 198 158 191 198 158 191 198 158 191 198 158 191 198 158 191 198 158 191 198 158 191 198 158 191 198 158 191 198 158 191 198 158 191 198 158 191 198 158 0 0 255 190 197 159 190 197 159 190 197 159 190 197 159 190 197 159 190 197 159 190 197 159 190 197 159 190 197 159 190 197 159 190 197 159 190 197 159 190 197 159 190 197 159 190 197 159 190 197 159 190 197 159 190 197 159 190 197 159 190 197 159 190 197 159 190 197 159 190 197 159 190 197 159 190 197 159 190 197 159 190 197 159 190 197 159 190 197 159 190 197 159 190 197 159 0 0 255 188 195 157 188 195 157 188 195 157 188 195 157 188 195 157 188 195 157 188 195 157 188 195 157 188 195 157 188 195 157 188 195 157 188 195 157 188 195 157 188 195 157 188 195 157 188 195 157 188 195 157 188 195 157 188 195 157 188 195 157 188 195 157 188 195 157 188 195 157 188 195 157 188 195 157 0 0 255 189 196 161 189 196 161 189 196 161 189 196 161 189 196 161 189 196 161 189 196 161 189 196 161 189 196 161 189 196 161 189 196 161 189 196 161 189 196 161 189 196 161 189 196 161 189 196 161 189 196 161 189 196 161 189 196 161 189 196 161 189 196 161 189 196 161 189 196 161 189 196 161 189 196 161 189 196 161 189 196 161 189 196 161 189 196 161 189 196 161 189 196 161 0 0 255 187 193 157 187 193 157 187 193 157 187 193 157 187 193 157 187 193 157 187 193 157 187 193 157 187 193 157 187 193 157 187 193 157 187 193 157 187 193 157 187 193 157 187 193 157 187 193 157 187 193 157 187 193 157 187 193 157 187 193 157 187 193 157 187 193 157 187 193 157 187 193 157 187 193 157 187 193 157 187 193 157 187 193 157 187 193 157 187 193 157 0 0 255 0 0 255 183 184 145 183 184 145 183 184 145 183 184 145 183 184 145 183 184 145 183 184 145 183 184 145 183 184 145 183 184 145 183 184 145 183 184 145 183 184 145 183 184 145 183 184 145 183 184 145 183 184 145 183 184 145 183 184 145 183 184 145 183 184 145 183 184 145 183 184 145 183 184 145 183 184 145 183 184 145 183 184 145 183 184 145 
176 171 118 176 171 118 176 171 118 176 171 118 176 171 118 176 171 118 176 171 118 176 171 118 176 171 118 176 171 118 176 171 118 176 171 118 176 171 118 176 171 118 176 171 118 176 171 118 176 171 118 176 171 118 176 171 118 176 171 118 176 171 118 176 171 118 176 171 118 176 171 118 0 0 255 182 184 134 182 184 134 182 184 134 182 184 134 182 184 134 182 184 134 182 184 134 182 184 134 182 184 134 182 184 134 182 184 134 182 184 134 182 184 134 182 184 134 182 184 134 182 184 134 182 184 134 182 184 134 182 184 134 182 184 134 182 184 134 182 184 134 182 184 134 182 184 134 182 184 134 182 184 134 182 184 134 0 0 255 187 192 148 187 192 148 187 192 148 187 192 148 187 192 148 187 192 148 187 192 148 187 192 148 187 192 148 187 192 148 187 192 148 187 192 148 187 192 148 187 192 148 187 192 148 187 192 148 187 192 148 187 192 148 187 192 148 187 192 148 187 192 148 187 192 148 187 192 148 187 192 148 187 192 148 187 192 148 187 192 148 187 192 148 0 0 255 191 198 158 191 198 158 191 198 158 191 198 158 191 198 158 191 198 158 191 198 158 191 198 158 191 198 158 191 198 158 191 198 158 191 198 158 191 198 158 191 198 158 191 198 158 191 198 158 191 198 158 191 198 158 191 198 158 191 198 158 191 198 158 191 198 158 191 198 158 0 0 255 190 197 159 190 197 159 190 197 159 190 197 159 190 197 159 190 197 159 190 197 159 190 197 159 190 197 159 190 197 159 190 197 159 190 197 159 190 197 159 190 197 159 190 197 159 190 197 159 190 197 159 190 197 159 190 197 159 190 197 159 190 197 159 190 197 159 190 197 159 190 197 159 190 197 159 190 197 159 190 197 159 190 197 159 190 197 159 190 197 159 190 197 159 0 0 255 188 195 157 188 195 157 188 195 157 188 195 157 188 195 157 188 195 157 188 195 157 188 195 157 188 195 157 188 195 157 188 195 157 188 195 157 188 195 157 188 195 157 188 195 157 188 195 157 188 195 157 188 195 157 188 195 157 188 195 157 188 195 157 188 195 157 188 195 157 188 195 157 188 195 157 0 0 255 189 196 161 189 196 161 189 196 161 189 196 161 189 196 161 189 196 161 189 196 161 189 196 161 189 196 161 189 196 161 189 196 161 189 196 161 189 196 161 189 196 161 189 196 161 189 196 161 189 196 161 189 196 161 189 196 161 189 196 161 189 196 161 189 196 161 189 196 161 189 196 161 189 196 161 189 196 161 189 196 161 189 196 161 189 196 161 189 196 161 189 196 161 0 0 255 187 193 157 187 193 157 187 193 157 187 193 157 187 193 157 187 193 157 187 193 157 187 193 157 187 193 157 187 193 157 187 193 157 187 193 157 187 193 157 187 193 157 187 193 157 187 193 157 187 193 157 187 193 157 187 193 157 187 193 157 187 193 157 187 193 157 187 193 157 187 193 157 187 193 157 187 193 157 187 193 157 187 193 157 187 193 157 187 193 157 187 193 157 0 0 255 0 0 255 183 184 145 183 184 145 183 184 145 183 184 145 183 184 145 183 184 145 183 184 145 183 184 145 183 184 145 183 184 145 183 184 145 183 184 145 183 184 145 183 184 145 183 184 145 183 184 145 183 184 145 183 184 145 183 184 145 183 184 145 183 184 145 183 184 145 183 184 145 183 184 145 183 184 145 183 184 145 183 184 145 
176 171 118 176 171 118 176 171 118 176 171 118 176 171 118 176 171 118 176 171 118 176 171 118 176 171 118 176 171 118 176 171 118 176 171 118 176 171 118 176 171 118 176 171 118 176 171 118 176 171 118 176 171 118 176 171 118 176 171 118 176 171 118 176 171 118 176 171 118 176 171 118 0 0 255 182 184 134 182 184 134 182 184 134 182 184 134 182 184 134 182 184 134 182 184 134 182 184 134 182 184 134 182 184 134 182 184 134 182 184 134 182 184 134 182 184 134 182 184 134 182 184 134 182 184 134 182 184 134 182 184 134 182 184 134 182 184 134 182 184 134 182 184 134 182 184 134 182 184 134 182 184 134 182 184 134 0 0 255 0 0 255 187 192 148 187 192 148 187 192 148 187 192 148 187 192 148 187 192 148 187 192 148 187 192 148 187 192 148 187 192 148 187 192 148 187 192 148 187 192 148 187 192 148 187 192 148 187 192 148 187 192 148 187 192 148 187 192 148 187 192 148 187 192 148 187 192 148 187 192 148 187 192 148 187 192 148 187 192 148 0 0 255 191 198 158 191 198 158 191 198 158 191 198 158 191 198 158 191 198 158 191 198 158 191 198 158 191 198 158 191 198 158 191 198 158 191 198 158 191 198 158 191 198 158 191 198 158 191 198 158 191 198 158 191 198 158 191 198 158 191 198 158 191 198 158 191 198 158 191 198 158 191 198 158 0 0 255 0 0 255 190 197 159 190 197 159 190 197 159 190 197 159 190 197 159 190 197 159 190 197 159 190 197 159 190 197 159 190 197 159 190 197 159 190 197 159 190 197 159 190 197 159 190 197 159 190 197 159 190 197 159 190 197 159 190 197 159 190 197 159 190 197 159 190 197 159 190 197 159 190 197 159 190 197 159 190 197 159 190 197 159 190 197 159 190 197 159 190 197 159 0 0 255 0 0 255 188 195 157 188 195 157 188 195 157 188 195 157 188 195 157 188 195 157 188 195 157 188 195 157 188 195 157 188 195 157 188 195 157 188 195 157 188 195 157 188 195 157 188 195 157 188 195 157 188 195 157 188 195 157 188 195 157 188 195 157 188 195 157 188 195 157 188 195 157 188 195 157 0 0 255 189 196 161 189 196 161 189 196 161 189 196 161 189 196 161 189 196 161 189 196 161 189 196 161 189 196 161 189 196 161 189 196 161 189 196 161 189 196 161 189 196 161 189 196 161 189 196 161 189 196 161 189 196 161 189 196 161 189 196 161 189 196 161 189 196 161 189 196 161 189 196 161 189 196 161 189 196 161 189 196 161 189 196 161 189 196 161 189 196 161 189 196 161 0 0 255 0 0 255 187 193 157 187 193 157 187 193 157 187 193 157 187 193 157 187 193 157 187 193 157 187 193 157 187 193 157 187 193 157 187 193 157 187 193 157 187 193 157 187 193 157 187 193 157 187 193 157 187 193 157 187 193 157 187 193 157 187 193 157 187 193 157 187 193 157 187 193 157 187 193 157 187 193 157 187 193 157 187 193 157 187 193 157 187 193 157 187 193 157 187 193 157 0 0 255 183 184 145 183 184 145 183 184 145 183 184 145 183 184 145 183 184 145 183 184 145 183 184 145 183 184 145 183 184 145 183 184 145 183 184 145 183 184 145 183 184 145 183 184 145 183 184 145 183 184 145 183 184 145 183 184 145 183 184 145 183 184 145 183 184 145 183 184 145 183 184 145 183 184 145 183 184 145 183 184 145 
176 171 118 176 171 118 176 171 118 176 171 118 176 171 118 176 171 118 176 171 118 176 171 118 176 171 118 176 171 118 176 171 118 176 171 118 176 171 118 176 171 118 176 171 118 176 171 118 176 171 118 176 171 118 176 171 118 176 171 118 176 171 118 176 171 118 176 171 118 0 0 255 0 0 255 182 184 134 182 184 134 182 184 134 182 184 134 182 184 134 182 184 134 182 184 134 182 184 134 182 184 134 182 184 134 182 184 134 182 184 134 182 184 134 182 184 134 182 184 134 182 184 134 182 184 134 182 184 134 182 184 134 182 184 134 182 184 134 182 184 134 182 184 134 182 184 134 182 184 134 182 184 134 182 184 134 182 184 134 0 0 255 187 192 148 187 192 148 187 192 148 187 192 148 187 192 148 187 192 148 187 192 148 187 192 148 187 192 148 187 192 148 187 192 148 187 192 148 187 192 148 187 192 148 187 192 148 187 192 148 187 192 148 187 192 148 187 192 148 187 192 148 187 192 148 187 192 148 187 192 148 187 192 148 187 192 148 187 192 148 0 0 255 191 198 158 191 198 158 191 198 158 191 198 158 191 198 158 191 198 158 191 198 158 191 198 158 191 198 158 191 198 158 191 198 158 191 198 158 191 198 158 191 198 158 191 198 158 191 198 158 191 198 158 191 198 158 191 198 158 191 198 158 191 198 158 191 198 158 191 198 158 191 198 158 191 198 158 0 0 255 190 197 159 190 197 159 190 197 159 190 197 159 190 197 159 190 197 159 190 197 159 190 197 159 190 197 159 190 197 159 190 197 159 190 197 159 190 197 159 190 197 159 190 197 159 190 197 159 190 197 159 190 197 159 190 197 159 190 197 159 190 197 159 190 197 159 190 197 159 190 197 159 190 197 159 190 197 159 190 197 159 190 197 159 190 197 159 190 197 159 190 197 159 0 0 255 188 195 157 188 195 157 188 195 157 188 195 157 188 195 157 188 195 157 188 195 157 188 195 157 188 195 157 188 195 157 188 195 157 188 195 157 188 195 157 188 195 157 188 195 157 188 195 157 188 195 157 188 195 157 188 195 157 188 195 157 188 195 157 188 195 157 188 195 157 0 0 255 189 196 161 189 196 161 189 196 161 189 196 161 189 196 161 189 196 161 189 196 161 189 196 161 189 196 161 189 196 161 189 196 161 189 196 161 189 196 161 189 196 161 189 196 161 189 196 161 189 196 161 189 196 161 189 196 161 189 196 161 189 196 161 189 196 161 189 196 161 189 196 161 189 196 161 189 196 161 189 196 161 189 196 161 189 196 161 189 196 161 189 196 161 189 196 161 189 196 161 0 0 255 187 193 157 187 193 157 187 193 157 187 193 157 187 193 157 187 193 157 187 193 157 187 193 157 187 193 157 187 193 157 187 193 157 187 193 157 187 193 157 187 193 157 187 193 157 187 193 157 187 193 157 187 193 157 187 193 157 187 193 157 187 193 157 187 193 157 187 193 157 187 193 157 187 193 157 187 193 157 187 193 157 187 193 157 187 193 157 187 193 157 187 193 157 0 0 255 183 184 145 183 184 145 183 184 145 183 184 145 183 184 145 183 184 145 183 184 145 183 184 145 183 184 145 183 184 145 183 184 145 183 184 145 183 184 145 183 184 145 183 184 145 183 184 145 183 184 145 183 184 145 183 184 145 183 184 145 183 184 145 183 184 145 183 184 145 183 184 145 183 184 145 183 184 145 183 184 145 
176 171 118 176 171 118 176 171 118 176 171 118 176 171 118 176 171 118 176 171 118 176 171 118 176 171 118 176 171 118 176 171 118 176 171 118 176 171 118 176 171 118 176 171 118 176 171 118 176 171 118 176 171 118 176 171 118 176 171 118 176 171 118 176 171 118 0 0 255 182 184 134 182 184 134 182 184 134 182 184 134 182 184 134 182 184 134 182 184 134 182 184 134 182 184 134 182 184 134 182 184 134 182 184 134 182 184 134 182 184 134 182 184 134 182 184 134 182 184 134 182 184 134 182 184 134 182 184 134 182 184 134 182 184 134 182 184 134 182 184 134 182 184 134 182 184 134 182 184 134 182 184 134 182 184 134 0 0 255 187 192 148 187 192 148 187 192 148 187 192 148 187 192 148 187 192 148 187 192 148 187 192 148 187 192 148 187 192 148 187 192 148 187 192 148 187 192 148 187 192 148 187 192 148 187 192 148 187 192 148 187 192 148 187 192 148 187 192 148 187 192 148 187 192 148 187 192 148 187 192 148 187 192 148 187 192 148 0 0 255 191 198 158 191 198 158 191 198 158 191 198 158 191 198 158 191 198 158 191 198 158 191 198 158 191 198 158 191 198 158 191 198 158 191 198 158 191 198 158 191 198 158 191 198 158 191 198 158 191 198 158 191 198 158 191 198 158 191 198 158 191 198 158 191 198 158 191 198 158 191 198 158 191 198 158 191 198 158 0 0 255 0 0 255 190 197 159 190 197 159 190 197 159 190 197 159 190 197 159 190 197 159 190 197 159 190 197 159 190 197 159 190 197 159 190 197 159 190 197 159 190 197 159 190 197 159 190 197 159 190 197 159 190 197 159 190 197 159 190 197 159 190 197 159 190 197 159 190 197 159 190 197 159 190 197 159 190 197 159 190 197 159 190 197 159 190 197 159 190 197 159 190 197 159 0 0 255 188 195 157 188 195 157 188 195 157 188 195 157 188 195 157 188 195 157 188 195 157 188 195 157 188 195 157 188 195 157 188 195 157 188 195 157 188 195 157 188 195 157 188 195 157 188 195 157 188 195 157 188 195 157 188 195 157 188 195 157 188 195 157 188 195 157 188 195 157 0 0 255 189 196 161 189 196 161 189 196 161 189 196 161 189 196 161 189 196 161 189 196 161 189 196 161 189 196 161 189 196 161 189 196 161 189 196 161 189 196 161 189 196 161 189 196 161 189 196 161 189 196 161 189 196 161 189 196 161 189 196 161 189 196 161 189 196 161 189 196 161 189 196 161 189 196 161 189 196 161 189 196 161 189 196 161 189 196 161 189 196 161 189 196 161 189 196 161 189 196 161 0 0 255 187 193 157 187 193 157 187 193 157 187 193 157 187 193 157 187 193 157 187 193 157 187 193 157 187 193 157 187 193 157 187 193 157 187 193 157 187 193 157 187 193 157 187 193 157 187 193 157 187 193 157 187 193 157 187 193 157 187 193 157 187 193 157 187 193 157 187 193 157 187 193 157 187 193 157 187 193 157 187 193 157 187 193 157 187 193 157 187 193 157 187 193 157 0 0 255 0 0 255 183 184 145 183 184 145 183 184 145 183 184 145 183 184 145 183 184 145 183 184 145 183 184 145 183 184 145 183 184 145 183 184 145 183 184 145 183 184 145 183 184 145 183 184 145 183 184 145 183 184 145 183 184 145 183 184 145 183 184 145 183 184 145 183 184 145 183 184 145 183 184 145 183 184 145 183 184 145 
176 171 118 176 171 118 176 171 118 176 171 118 176 171 118 176 171 118 176 171 118 176 171 118 176 171 118 176 171 118 176 171 118 176 171 118 176 171 118 176 171 118 176 171 118 176 171 118 176 171 118 176 171 118 176 171 118 176 171 118 176 171 118 176 171 118 0 0 255 182 184 134 182 184 134 182 184 134 182 184 134 182 184 134 182 184 134 182 184 134 182 184 134 182 184 134 182 184 134 182 184 134 182 184 134 182 184 134 182 184 134 182 184 134 182 184 134 182 184 134 182 184 134 182 184 134 182 184 134 182 184 134 182 184 134 182 184 134 182 184 134 182 184 134 182 184 134 182 184 134 182 184 134 0 0 255 187 192 148 187 192 148 187 192 148 187 192 148 187 192 148 187 192 148 187 192 148 187 192 148 187 192 148 187 192 148 187 192 148 187 192 148 187 192 148 187 192 148 187 192 148 187 192 148 187 192 148 187 192 148 187 192 148 187 192 148 187 192 148 187 192 148 187 192 148 187 192 148 187 192 148 187 192 148 187 192 148 0 0 255 191 198 158 191 198 158 191 198 158 191 198 158 191 198 158 191 198 158 191 198 158 191 198 158 191 198 158 191 198 158 191 198 158 191 198 158 191 198 158 191 198 158 191 198 158 191 198 158 191 198 158 191 198 158 191 198 158 191 198 158 191 198 158 191 198 158 191 198 158 191 198 158 191 198 158 191 198 158 191 198 158 0 0 255 190 197 159 190 197 159 190 197 159 190 197 159 190 197 159 190 197 159 190 197 159 190 197 159 190 197 159 190 197 159 190 197 159 190 197 159 190 197 159 190 197 159 190 197 159 190 197 159 190 197 159 190 197 159 190 197 159 190 197 159 190 197 159 190 197 159 190 197 159 190 197 159 190 197 159 190 197 159 190 197 159 190 197 159 190 197 159 190 197 159 0 0 255 0 0 255 188 195 157 188 195 157 188 195 157 188 195 157 188 195 157 188 195 157 188 195 157 188 195 157 188 195 157 188 195 157 188 195 157 188 195 157 188 195 157 188 195 157 188 195 157 188 195 157 188 195 157 188 195 157 188 195 157 188 195 157 0 0 255 0 0 255 0 0 255 189 196 161 189 196 161 189 196 161 189 196 161 189 196 161 189 196 161 189 196 161 189 196 161 189 196 161 189 196 161 189 196 161 189 196 161 189 196 161 189 196 161 189 196 161 189 196 161 189 196 161 189 196 161 189 196 161 189 196 161 189 196 161 189 196 161 189 196 161 189 196 161 189 196 161 189 196 161 189 196 161 189 196 161 189 196 161 189 196 161 189 196 161 189 196 161 189 196 161 0 0 255 187 193 157 187 193 157 187 193 157 187 193 157 187 193 157 187 193 157 187 193 157 187 193 157 187 193 157 187 193 157 187 193 157 187 193 157 187 193 157 187 193 157 187 193 157 187 193 157 187 193 157 187 193 157 187 193 157 187 193 157 187 193 157 187 193 157 187 193 157 187 193 157 187 193 157 187 193 157 187 193 157 187 193 157 187 193 157 187 193 157 187 193 157 187 193 157 0 0 255 183 184 145 183 184 145 183 184 145 183 184 145 183 184 145 183 184 145 183 184 145 183 184 145 183 184 145 183 184 145 183 184 145 183 184 145 183 184 145 183 184 145 183 184 145 183 184 145 183 184 145 183 184 145 183 184 145 183 184 145 183 184 145 183 184 145 183 184 145 183 184 145 183 184 145 183 184 145 
176 171 118 176 171 118 176 171 118 176 171 118 176 171 118 176 171 118 176 171 118 176 171 118 176 171 118 176 171 118 176 171 118 176 171 118 176 171 118 176 171 118 176 171 118 176 171 118 176 171 118 176 171 118 176 171 118 176 171 118 176 171 118 176 171 118 0 0 255 182 184 134 182 184 134 182 184 134 182 184 134 182 184 134 182 184 134 182 184 134 182 184 134 182 184 134 182 184 134 182 184 134 182 184 134 182 184 134 182 184 134 182 184 134 182 184 134 182 184 134 182 184 134 182 184 134 182 184 134 182 184 134 182 184 134 182 184 134 182 184 134 182 184 134 182 184 134 182 184 134 182 184 134 0 0 255 187 192 148 187 192 148 187 192 148 187 192 148 187 192 148 187 192 148 187 192 148 187 192 148 187 192 148 187 192 148 187 192 148 187 192 148 187 192 148 187 192 148 187 192 148 187 192 148 187 192 148 187 192 148 187 192 148 187 192 148 187 192 148 187 192 148 187 192 148 187 192 148 187 192 148 187 192 148 187 192 148 0 0 255 191 198 158 191 198 158 191 198 158 191 198 158 191 198 158 191 198 158 191 198 158 191 198 158 191 198 158 191 198 158 191 198 158 191 198 158 191 198 158 191 198 158 191 198 158 191 198 158 191 198 158 191 198 158 191 198 158 191 198 158 191 198 158 191 198 158 191 198 158 191 198 158 191 198 158 191 198 158 191 198 158 0 0 255 190 197 159 190 197 159 190 197 159 190 197 159 190 197 159 190 197 159 190 197 159 190 197 159 190 197 159 190 197 159 190 197 159 190 197 159 190 197 159 190 197 159 190 197 159 190 197 159 190 197 159 190 197 159 190 197 159 190 197 159 190 197 159 190 197 159 190 197 159 190 197 159 190 197 159 190 197 159 190 197 159 190 197 159 190 197 159 0 0 255 0 0 255 0 0 255 0 0 255 0 0 255 0 0 255 0 0 255 0 0 255 0 0 255 0 0 255 0 0 255 0 0 255 0 0 255 0 0 255 0 0 255 0 0 255 0 0 255 0 0 255 0 0 255 0 0 255 0 0 255 0 0 255 0 0 255 194 202 169 0 0 255 0 0 255 189 196 161 189 196 161 189 196 161 189 196 161 189 196 161 189 196 161 189 196 161 189 196 161 189 196 161 189 196 161 189 196 161 189 196 161 189 196 161 189 196 161 189 196 161 189 196 161 189 196 161 189 196 161 189 196 161 189 196 161 189 196 161 189 196 161 189 196 161 189 196 161 189 196 161 189 196 161 189 196 161 189 196 161 189 196 161 189 196 161 189 196 161 189 196 161 189 196 161 0 0 255 187 193 157 187 193 157 187 193 157 187 193 157 187 193 157 187 193 157 187 193 157 187 193 157 187 193 157 187 193 157 187 193 157 187 193 157 187 193 157 187 193 157 187 193 157 187 193 157 187 193 157 187 193 157 187 193 157 187 193 157 187 193 157 187 193 157 187 193 157 187 193 157 187 193 157 187 193 157 187 193 157 187 193 157 187 193 157 187 193 157 187 193 157 187 193 157 0 0 255 183 184 145 183 184 145 183 184 145 183 184 145 183 184 145 183 184 145 183 184 145 183 184 145 183 184 145 183 184 145 183 184 145 183 184 145 183 184 145 183 184 145 183 184 145 183 184 145 183 184 145 183 184 145 183 184 145 183 184 145 183 184 145 183 184 145 183 184 145 183 184 145 183 184 145 183 184 145 
176 171 118 176 171 118 176 171 118 176 171 118 176 171 118 176 171 118 176 171 118 176 171 118 176 171 118 176 171 118 176 171 118 176 171 118 176 171 118 176 171 118 176 171 118 176 171 118 176 171 118 176 171 118 176 171 118 176 171 118 176 171 118 0 0 255 182 184 134 182 184 134 182 184 134 182 184 134 182 184 134 182 184 134 182 184 134 182 184 134 182 184 134 182 184 134 182 184 134 182 184 134 182 184 134 182 184 134 182 184 134 182 184 134 182 184 134 182 184 134 182 184 134 182 184 134 182 184 134 182 184 134 182 184 134 182 184 134 182 184 134 182 184 134 182 184 134 182 184 134 182 184 134 0 0 255 187 192 148 187 192 148 187 192 148 187 192 148 187 192 148 187 192 148 187 192 148 187 192 148 187 192 148 187 192 148 187 192 148 187 192 148 187 192 148 187 192 148 187 192 148 187 192 148 187 192 148 187 192 148 187 192 148 187 192 148 187 192 148 187 192 148 187 192 148 187 192 148 187 192 148 187 192 148 0 0 255 191 198 158 191 198 158 191 198 158 191 198 158 191 198 158 191 198 158 191 198 158 191 198 158 191 198 158 191 198 158 191 198 158 191 198 158 191 198 158 191 198 158 191 198 158 191 198 158 191 198 158 191 198 158 191 198 158 191 198 158 191 198 158 191 198 158 191 198 158 191 198 158 191 198 158 191 198 158 191 198 158 191 198 158 0 0 255 0 0 255 190 197 159 190 197 159 190 197 159 190 197 159 190 197 159 190 197 159 190 197 159 190 197 159 190 197 159 190 197 159 190 197 159 190 197 159 190 197 159 190 197 159 190 197 159 190 197 159 190 197 159 190 197 159 190 197 159 190 197 159 190 197 159 190 197 159 190 197 159 190 197 159 190 197 159 190 197 159 190 197 159 0 0 255 194 202 169 194 202 169 194 202 169 194 202 169 194 202 169 194 202 169 194 202 169 194 202 169 194 202 169 194 202 169 194 202 169 194 202 169 194 202 169 194 202 169 194 202 169 194 202 169 194 202 169 194 202 169 194 202 169 194 202 169 194 202 169 194 202 169 194 202 169 194 202 169 194 202 169 0 0 255 0 0 255 189 196 161 189 196 161 189 196 161 189 196 161 189 196 161 189 196 161 189 196 161 189 196 161 189 196 161 189 196 161 189 196 161 189 196 161 189 196 161 189 196 161 189 196 161 189 196 161 189 196 161 189 196 161 189 196 161 189 196 161 189 196 161 189 196 161 189 196 161 189 196 161 189 196 161 189 196 161 189 196 161 189 196 161 189 196 161 189 196 161 189 196 161 189 196 161 0 0 255 187 193 157 187 193 157 187 193 157 187 193 157 187 193 157 187 193 157 187 193 157 187 193 157 187 193 157 187 193 157 187 193 157 187 193 157 187 193 157 187 193 157 187 193 157 187 193 157 187 193 157 187 193 157 187 193 157 187 193 157 187 193 157 187 193 157 187 193 157 187 193 157 187 193 157 187 193 157 187 193 157 187 193 157 187 193 157 187 193 157 187 193 157 187 193 157 0 0 255 183 184 145 183 184 145 183 184 145 183 184 145 183 184 145 183 184 145 183 184 145 183 184 145 183 184 145 183 184 145 183 184 145 183 184 145 183 184 145 183 184 145 183 184 145 183 184 145 183 184 145 183 184 145 183 184 145 183 184 145 183 184 145 183 184 145 183 184 145 183 184 145 183 184 145 183 184 145 
176 171 118 176 171 118 176 171 118 176 171 118 176 171 118 176 171 118 176 171 118 176 171 118 176 171 118 176 171 118 176 171 118 176 171 118 176 171 118 176 171 118 176 171 118 176 171 118 176 171 118 176 171 118 176 171 118 176 171 118 176 171 118 0 0 255 182 184 134 182 184 134 182 184 134 182 184 134 182 184 134 182 184 134 182 184 134 182 184 134 182 184 134 182 184 134 182 184 134 182 184 134 182 184 134 182 184 134 182 184 134 182 184 134 182 184 134 182 184 134 182 184 134 182 184 134 182 184 134 182 184 134 182 184 134 182 184 134 182 184 134 182 184 134 182 184 134 182 184 134 0 0 255 0 0 255 187 192 148 187 192 148 187 192 148 187 192 148 187 192 148 187 192 148 187 192 148 187 192 148 187 192 148 187 192 148 187 192 148 187 192 148 187 192 148 187 192 148 187 192 148 187 192 148 187 192 148 187 192 148 187 192 148 187 192 148 187 192 148 187 192 148 187 192 148 187 192 148 187 192 148 0 0 255 191 198 158 191 198 158 191 198 158 191 198 158 191 198 158 191 198 158 191 198 158 191 198 158 191 198 158 191 198 158 191 198 158 191 198 158 191 198 158 191 198 158 191 198 158 191 198 158 191 198 158 191 198 158 191 198 158 191 198 158 191 198 158 191 198 158 191 198 158 191 198 158 191 198 158 191 198 158 191 198 158 191 198 158 191 198 158 191 198 158 0 0 255 190 197 159 190 197 159 190 197 159 190 197 159 190 197 159 190 197 159 190 197 159 190 197 159 190 197 159 190 197 159 190 197 159 190 197 159 190 197 159 190 197 159 190 197 159 190 197 159 190 197 159 190 197 159 190 197 159 190 197 159 190 197 159 190 197 159 190 197 159 190 197 159 190 197 159 190 197 159 0 0 255 194 202 169 194 202 169 194 202 169 194 202 169 194 202 169 194 202 169 194 202 169 194 202 169 194 202 169 194 202 169 194 202 169 194 202 169 194 202 169 194 202 169 194 202 169 194 202 169 194 202 169 194 202 169 194 202 169 194 202 169 194 202 169 194 202 169 194 202 169 194 202 169 194 202 169 194 202 169 194 202 169 0 0 255 189 196 161 189 196 161 189 196 161 189 196 161 189 196 161 189 196 161 189 196 161 189 196 161 189 196 161 189 196 161 189 196 161 189 196 161 189 196 161 189 196 161 189 196 161 189 196 161 189 196 161 189 196 161 189 196 161 189 196 161 189 196 161 189 196 161 189 196 161 189 196 161 189 196 161 189 196 161 189 196 161 189 196 161 189 196 161 189 196 161 189 196 161 189 196 161 0 0 255 187 193 157 187 193 157 187 193 157 187 193 157 187 193 157 187 193 157 187 193 157 187 193 157 187 193 157 187 193 157 187 193 157 187 193 157 187 193 157 187 193 157 187 193 157 187 193 157 187 193 157 187 193 157 187 193 157 187 193 157 187 193 157 187 193 157 187 193 157 187 193 157 187 193 157 187 193 157 187 193 157 187 193 157 187 193 157 187 193 157 187 193 157 187 193 157 0 0 255 0 0 255 183 184 145 183 184 145 183 184 145 183 184 145 183 184 145 183 184 145 183 184 145 183 184 145 183 184 145 183 184 145 183 184 145 183 184 145 183 184 145 183 184 145 183 184 145 183 184 145 183 184 145 183 184 145 183 184 145 183 184 145 183 184 145 183 184 145 183 184 145 183 184 145 183 184 145 
176 171 118 176 171 118 176 171 118 176 171 118 176 171 118 176 171 118 176 171 118 176 171 118 176 171 118 176 171 118 176 171 118 176 171 118 176 171 118 176 171 118 176 171 118 176 171 118 176 171 118 176 171 118 176 171 118 176 171 118 176 171 118 0 0 255 182 184 134 182 184 134 182 184 134 182 184 134 182 184 134 182 184 134 182 184 134 182 184 134 182 184 134 182 184 134 182 184 134 182 184 134 182 184 134 182 184 134 182 184 134 182 184 134 182 184 134 182 184 134 182 184 134 182 184 134 182 184 134 182 184 134 182 184 134 182 184 134 182 184 134 182 184 134 182 184 134 0 0 255 187 192 148 187 192 148 187 192 148 187 192 148 187 192 148 187 192 148 187 192 148 187 192 148 187 192 148 187 192 148 187 192 148 187 192 148 187 192 148 187 192 148 187 192 148 187 192 148 187 192 148 187 192 148 187 192 148 187 192 148 187 192 148 187 192 148 187 192 148 187 192 148 187 192 148 187 192 148 187 192 148 0 0 255 191 198 158 191 198 158 191 198 158 191 198 158 191 198 158 191 198 158 191 198 158 191 198 158 191 198 158 191 198 158 191 198 158 191 198 158 191 198 158 191 198 158 191 198 158 191 198 158 191 198 158 191 198 158 191 198 158 191 198 158 191 198 158 191 198 158 191 198 158 191 198 158 191 198 158 191 198 158 191 198 158 191 198 158 191 198 158 191 198 158 0 0 255 190 197 159 190 197 159 190 197 159 190 197 159 190 197 159 190 197 159 190 197 159 190 197 159 190 197 159 190 197 159 190 197 159 190 197 159 190 197 159 190 197 159 190 197 159 190 197 159 190 197 159 190 197 159 190 197 159 190 197 159 190 197 159 190 197 159 190 197 159 190 197 159 190 197 159 190 197 159 0 0 255 194 202 169 194 202 169 194 202 169 194 202 169 194 202 169 194 202 169 194 202 169 194 202 169 194 202 169 194 202 169 194 202 169 194 202 169 194 202 169 194 202 169 194 202 169 194 202 169 194 202 169 194 202 169 194 202 169 194 202 169 194 202 169 194 202 169 194 202 169 194 202 169 194 202 169 194 202 169 194 202 169 0 0 255 0 0 255 189 196 161 189 196 161 189 196 161 189 196 161 189 196 161 189 196 161 189 196 161 189 196 161 189 196 161 189 196 161 189 196 161 189 196 161 189 196 161 189 196 161 189 196 161 189 196 161 189 196 161 189 196 161 189 196 161 189 196 161 189 196 161 189 196 161 189 196 161 189 196 161 189 196 161 189 196 161 189 196 161 189 196 161 189 196 161 189 196 161 189 196 161 0 0 255 187 193 157 187 193 157 187 193 157 187 193 157 187 193 157 187 193 157 187 193 157 187 193 157 187 193 157 187 193 157 187 193 157 187 193 157 187 193 157 187 193 157 187 193 157 187 193 157 187 193 157 187 193 157 187 193 157 187 193 157 187 193 157 187 193 157 187 193 157 187 193 157 187 193 157 187 193 157 187 193 157 187 193 157 187 193 157 187 193 157 187 193 157 187 193 157 187 193 157 0 0 255 0 0 255 0 0 255 183 184 145 183 184 145 183 184 145 183 184 145 183 184 145 183 184 145 183 184 145 183 184 145 183 184 145 183 184 145 183 184 145 183 184 145 183 184 145 183 184 145 183 184 145 183 184 145 183 184 145 183 184 145 183 184 145 183 184 145 183 184 145 183 184 145 183 184 145 
176 171 118 176 171 118 176 171 118 176 171 118 176 171 118 176 171 118 176 171 118 176 171 118 176 171 118 176 171 118 176 171 118 176 171 118 176 171 118 176 171 118 176 171 118 176 171 118 176 171 118 176 171 118 176 171 118 176 171 118 0 0 255 182 184 134 182 184 134 182 184 134 182 184 134 182 184 134 182 184 134 182 184 134 182 184 134 182 184 134 182 184 134 182 184 134 182 184 134 182 184 134 182 184 134 182 184 134 182 184 134 182 184 134 182 184 134 182 184 134 182 184 134 182 184 134 182 184 134 182 184 134 182 184 134 182 184 134 182 184 134 182 184 134 182 184 134 0 0 255 187 192 148 187 192 148 187 192 148 187 192 148 187 192 148 187 192 148 187 192 148 187 192 148 187 192 148 187 192 148 187 192 148 187 192 148 187 192 148 187 192 148 187 192 148 187 192 148 187 192 148 187 192 148 187 192 148 187 192 148 187 192 148 187 192 148 187 192 148 187 192 148 187 192 148 187 192 148 187 192 148 0 0 255 191 198 158 191 198 158 191 198 158 191 198 158 191 198 158 191 198 158 191 198 158 191 198 158 191 198 158 191 198 158 191 198 158 191 198 158 191 198 158 191 198 158 191 198 158 191 198 158 191 198 158 191 198 158 191 198 158 191 198 158 191 198 158 191 198 158 191 198 158 191 198 158 191 198 158 191 198 158 191 198 158 191 198 158 191 198 158 191 198 158 0 0 255 0 0 255 190 197 159 190 197 159 190 197 159 190 197 159 190 197 159 190 197 159 190 197 159 190 197 159 190 197 159 190 197 159 190 197 159 190 197 159 190 197 159 190 197 159 190 197 159 190 197 159 190 197 159 190 197 159 190 197 159 190 197 159 190 197 159 190 197 159 190 197 159 190 197 159 0 0 255 194 202 169 194 202 169 194 202 169 194 202 169 194 202 169 194 202 169 194 202 169 194 202 169 194 202 169 194 202 169 194 202 169 194 202 169 194 202 169 194 202 169 194 202 169 194 202 169 194 202 169 194 202 169 194 202 169 194 202 169 194 202 169 194 202 169 194 202 169 194 202 169 194 202 169 194 202 169 194 202 169 194 202 169 194 202 169 0 0 255 189 196 161 189 196 161 189 196 161 189 196 161 189 196 161 189 196 161 189 196 161 189 196 161 189 196 161 189 196 161 189 196 161 189 196 161 189 196 161 189 196 161 189 196 161 189 196 161 189 196 161 189 196 161 189 196 161 189 196 161 189 196 161 189 196 161 189 196 161 189 196 161 189 196 161 189 196 161 189 196 161 189 196 161 189 196 161 189 196 161 189 196 161 0 0 255 187 193 157 187 193 157 187 193 157 187 193 157 187 193 157 187 193 157 187 193 157 187 193 157 187 193 157 187 193 157 187 193 157 187 193 157 187 193 157 187 193 157 187 193 157 187 193 157 187 193 157 187 193 157 187 193 157 187 193 157 187 193 157 187 193 157 187 193 157 187 193 157 187 193 157 187 193 157 187 193 157 187 193 157 187 193 157 187 193 157 187 193 157 187 193 157 0 0 255 191 194 159 191 194 159 0 0 255 0 0 255 0 0 255 183 184 145 183 184 145 183 184 145 183 184 145 183 184 145 183 184 145 183 184 145 183 184 145 183 184 145 183 184 145 183 184 145 183 184 145 183 184 145 183 184 145 183 184 145 183 184 145 183 184 145 183 184 145 183 184 145 183 184 145 183 184 145 
176 171 118 176 171 118 176 171 118 176 171 118 176 171 118 176 171 118 176 171 118 176 171 118 176 171 118 176 171 118 176 171 118 176 171 118 176 171 118 176 171 118 176 171 118 176 171 118 176 171 118 176 171 118 0 0 255 0 0 255 0 0 255 182 184 134 182 184 134 182 184 134 182 184 134 182 184 134 182 184 134 182 184 134 182 184 134 182 184 134 182 184 134 182 184 134 182 184 134 182 184 134 182 184 134 182 184 134 182 184 134 182 184 134 182 184 134 182 184 134 182 184 134 182 184 134 182 184 134 182 184 134 182 184 134 182 184 134 182 184 134 182 184 134 182 184 134 0 0 255 187 192 148 187 192 148 187 192 148 187 192 148 187 192 148 187 192 148 187 192 148 187 192 148 187 192 148 187 192 148 187 192 148 187 192 148 187 192 148 187 192 148 187 192 148 187 192 148 187 192 148 187 192 148 187 192 148 187 192 148 187 192 148 187 192 148 187 192 148 187 192 148 187 192 148 187 192 148 187 192 148 0 0 255 191 198 158 191 198 158 191 198 158 191 198 158 191 198 158 191 198 158 191 198 158 191 198 158 191 198 158 191 198 158 191 198 158 191 198 158 191 198 158 191 198 158 191 198 158 191 198 158 191 198 158 191 198 158 191 198 158 191 198 158 191 198 158 191 198 158 191 198 158 191 198 158 191 198 158 191 198 158 191 198 158 191 198 158 191 198 158 191 198 158 191 198 158 0 0 255 190 197 159 190 197 159 190 197 159 190 197 159 190 197 159 190 197 159 190 197 159 190 197 159 190 197 159 190 197 159 190 197 159 190 197 159 190 197 159 190 197 159 190 197 159 190 197 159 190 197 159 190 197 159 190 197 159 190 197 159 190 197 159 190 197 159 190 197 159 0 0 255 194 202 169 194 202 169 194 202 169 194 202 169 194 202 169 194 202 169 194 202 169 194 202 169 194 202 169 194 202 169 194 202 169 194 202 169 194 202 169 194 202 169 194 202 169 194 202 169 194 202 169 194 202 169 194 202 169 194 202 169 194 202 169 194 202 169 194 202 169 194 202 169 194 202 169 194 202 169 194 202 169 194 202 169 194 202 169 194 202 169 0 0 255 0 0 255 189 196 161 189 196 161 189 196 161 189 196 161 189 196 161 189 196 161 189 196 161 189 196 161 189 196 161 189 196 161 189 196 161 189 196 161 189 196 161 189 196 161 189 196 161 189 196 161 189 196 161 189 196 161 189 196 161 189 196 161 189 196 161 189 196 161 189 196 161 189 196 161 189 196 161 189 196 161 189 196 161 189 196 161 189 196 161 189 196 161 0 0 255 187 193 157 187 193 157 187 193 157 187 193 157 187 193 157 187 193 157 187 193 157 187 193 157 187 193 157 187 193 157 187 193 157 187 193 157 187 193 157 187 193 157 187 193 157 187 193 157 187 193 157 187 193 157 187 193 157 187 193 157 187 193 157 187 193 157 187 193 157 187 193 157 187 193 157 187 193 157 187 193 157 187 193 157 187 193 157 187 193 157 187 193 157 0 0 255 191 194 159 191 194 159 191 194 159 191 194 159 191 194 159 0 0 255 0 0 255 0 0 255 0 0 255 0 0 255 0 0 255 183 184 145 183 184 145 183 184 145 183 184 145 183 184 145 183 184 145 183 184 145 183 184 145 183 184 145 183 184 145 183 184 145 183 184 145 183 184 145 183 184 145 183 184 145 183 184 145 
176 171 118 176 171 118 176 171 118 176 171 118 176 171 118 176 171 118 176 171 118 176 171 118 176 171 118 176 171 118 176 171 118 176 171 118 176 171 118 176 171 118 176 171 118 176 171 118 0 0 255 0 0 255 183 181 129 183 181 129 0 0 255 0 0 255 182 184 134 182 184 134 182 184 134 182 184 134 182 184 134 182 184 134 182 184 134 182 184 134 182 184 134 182 184 134 182 184 134 182 184 134 182 184 134 182 184 134 182 184 134 182 184 134 182 184 134 182 184 134 182 184 134 182 184 134 182 184 134 182 184 134 182 184 134 182 184 134 182 184 134 182 184 134 182 184 134 0 0 255 187 192 148 187 192 148 187 192 148 187 192 148 187 192 148 187 192 148 187 192 148 187 192 148 187 192 148 187 192 148 187 192 148 187 192 148 187 192 148 187 192 148 187 192 148 187 192 148 187 192 148 187 192 148 187 192 148 187 192 148 187 192 148 187 192 148 187 192 148 187 192 148 187 192 148 187 192 148 187 192 148 0 0 255 191 198 158 191 198 158 191 198 158 191 198 158 191 198 158 191 198 158 191 198 158 191 198 158 191 198 158 191 198 158 191 198 158 191 198 158 191 198 158 191 198 158 191 198 158 191 198 158 191 198 158 191 198 158 191 198 158 191 198 158 191 198 158 191 198 158 191 198 158 191 198 158 191 198 158 191 198 158 191 198 158 191 198 158 191 198 158 191 198 158 191 198 158 0 0 255 190 197 159 190 197 159 190 197 159 190 197 159 190 197 159 190 197 159 190 197 159 190 197 159 190 197 159 190 197 159 190 197 159 190 197 159 190 197 159 190 197 159 190 197 159 190 197 159 190 197 159 190 197 159 190 197 159 190 197 159 190 197 159 190 197 159 0 0 255 0 0 255 194 202 169 194 202 169 194 202 169 194 202 169 194 202 169 194 202 169 194 202 169 194 202 169 194 202 169 194 202 169 194 202 169 194 202 169 194 202 169 194 202 169 194 202 169 194 202 169 194 202 169 194 202 169 194 202 169 194 202 169 194 202 169 194 202 169 194 202 169 194 202 169 194 202 169 194 202 169 194 202 169 194 202 169 194 202 169 194 202 169 194 202 169 0 0 255 0 0 255 189 196 161 189 196 161 189 196 161 189 196 161 189 196 161 189 196 161 189 196 161 189 196 161 189 196 161 189 196 161 189 196 161 189 196 161 189 196 161 189 196 161 189 196 161 189 196 161 189 196 161 189 196 161 189 196 161 189 196 161 189 196 161 189 196 161 189 196 161 189 196 161 189 196 161 189 196 161 189 196 161 189 196 161 189 196 161 0 0 255 187 193 157 187 193 157 187 193 157 187 193 157 187 193 157 187 193 157 187 193 157 187 193 157 187 193 157 187 193 157 187 193 157 187 193 157 187 193 157 187 193 157 187 193 157 187 193 157 187 193 157 187 193 157 187 193 157 187 193 157 187 193 157 187 193 157 187 193 157 187 193 157 187 193 157 187 193 157 187 193 157 187 193 157 187 193 157 187 193 157 0 0 255 191 194 159 191 194 159 191 194 159 191 194 159 191 194 159 191 194 159 191 194 159 191 194 159 191 194 159 191 194 159 191 194 159 0 0 255 0 0 255 0 0 255 0 0 255 0 0 255 0 0 255 183 184 145 183 184 145 183 184 145 183 184 145 183 184 145 183 184 145 183 184 145 183 184 145 183 184 145 183 184 145 183 184 145 
176 171 118 176 171 118 176 171 118 176 171 118 176 171 118 176 171 118 176 171 118 176 171 118 176 171 118 176 171 118 176 171 118 176 171 118 176 171 118 176 171 118 176 171 118 0 0 255 183 181 129 183 181 129 183 181 129 183 181 129 183 181 129 0 0 255 0 0 255 182 184 134 182 184 134 182 184 134 182 184 134 182 184 134 182 184 134 182 184 134 182 184 134 182 184 134 182 184 134 182 184 134 182 184 134 182 184 134 182 184 134 182 184 134 182 184 134 182 184 134 182 184 134 182 184 134 182 184 134 182 184 134 182 184 134 182 184 134 182 184 134 182 184 134 0 0 255 187 192 148 187 192 148 187 192 148 187 192 148 187 192 148 187 192 148 187 192 148 187 192 148 187 192 148 187 192 148 187 192 148 187 192 148 187 192 148 187 192 148 187 192 148 187 192 148 187 192 148 187 192 148 187 192 148 187 192 148 187 192 148 187 192 148 187 192 148 187 192 148 187 192 148 187 192 148 187 192 148 187 192 148 0 0 255 191 198 158 191 198 158 191 198 158 191 198 158 191 198 158 191 198 158 191 198 158 191 198 158 191 198 158 191 198 158 191 198 158 191 198 158 191 198 158 191 198 158 191 198 158 191 198 158 191 198 158 191 198 158 191 198 158 191 198 158 191 198 158 191 198 158 191 198 158 191 198 158 191 198 158 191 198 158 191 198 158 191 198 158 191 198 158 191 198 158 191 198 158 0 0 255 0 0 255 190 197 159 190 197 159 190 197 159 190 197 159 190 197 159 190 197 159 190 197 159 190 197 159 190 197 159 190 197 159 190 197 159 190 197 159 190 197 159 190 197 159 190 197 159 190 197 159 190 197 159 190 197 159 190 197 159 190 197 159 0 0 255 194 202 169 194 202 169 194 202 169 194 202 169 194 202 169 194 202 169 194 202 169 194 202 169 194 202 169 194 202 169 194 202 169 194 202 169 194 202 169 194 202 169 194 202 169 194 202 169 194 202 169 194 202 169 194 202 169 194 202 169 194 202 169 194 202 169 194 202 169 194 202 169 194 202 169 194 202 169 194 202 169 194 202 169 194 202 169 194 202 169 194 202 169 194 202 169 194 202 169 194 202 169 0 0 255 0 0 255 189 196 161 189 196 161 189 196 161 189 196 161 189 196 161 189 196 161 189 196 161 189 196 161 189 196 161 189 196 161 189 196 161 189 196 161 189 196 161 189 196 161 189 196 161 189 196 161 189 196 161 189 196 161 189 196 161 189 196 161 189 196 161 189 196 161 189 196 161 189 196 161 189 196 161 189 196 161 189 196 161 189 196 161 0 0 255 187 193 157 187 193 157 187 193 157 187 193 157 187 193 157 187 193 157 187 193 157 187 193 157 187 193 157 187 193 157 187 193 157 187 193 157 187 193 157 187 193 157 187 193 157 187 193 157 187 193 157 187 193 157 187 193 157 187 193 157 187 193 157 187 193 157 187 193 157 187 193 157 187 193 157 187 193 157 187 193 157 187 193 157 187 193 157 0 0 255 191 194 159 191 194 159 191 194 159 191 194 159 191 194 159 191 194 159 191 194 159 191 194 159 191 194 159 191 194 159 191 194 159 191 194 159 191 194 159 191 194 159 191 194 159 191 194 159 191 194 159 0 0 255 0 0 255 0 0 255 0 0 255 0 0 255 0 0 255 0 0 255 0 0 255 0 0 255 183 184 145 0 0 255 0 0 255 
176 171 118 176 171 118 176 171 118 176 171 118 176 171 118 176 171 118 176 171 118 176 171 118 176 171 118 176 171 118 176 171 118 176 171 118 0 0 255 0 0 255 0 0 255 0 0 255 183 181 129 183 181 129 183 181 129 183 181 129 183 181 129 183 181 129 0 0 255 182 184 134 182 184 134 182 184 134 182 184 134 182 184 134 182 184 134 182 184 134 182 184 134 182 184 134 182 184 134 182 184 134 182 184 134 182 184 134 182 184 134 182 184 134 182 184 134 182 184 134 182 184 134 182 184 134 182 184 134 182 184 134 182 184 134 182 184 134 182 184 134 182 184 134 0 0 255 187 192 148 187 192 148 187 192 148 187 192 148 187 192 148 187 192 148 187 192 148 187 192 148 187 192 148 187 192 148 187 192 148 187 192 148 187 192 148 187 192 148 187 192 148 187 192 148 187 192 148 187 192 148 187 192 148 187 192 148 187 192 148 187 192 148 187 192 148 187 192 148 187 192 148 187 192 148 187 192 148 0 0 255 0 0 255 191 198 158 191 198 158 191 198 158 191 198 158 191 198 158 191 198 158 191 198 158 191 198 158 191 198 158 191 198 158 191 198 158 191 198 158 191 198 158 191 198 158 191 198 158 191 198 158 191 198 158 191 198 158 191 198 158 191 198 158 191 198 158 191 198 158 191 198 158 191 198 158 191 198 158 191 198 158 191 198 158 191 198 158 191 198 158 191 198 158 191 198 158 191 198 158 0 0 255 190 197 159 190 197 159 190 197 159 190 197 159 190 197 159 190 197 159 190 197 159 190 197 159 190 197 159 190 197 159 190 197 159 190 197 159 190 197 159 190 197 159 190 197 159 190 197 159 190 197 159 190 197 159 190 197 159 0 0 255 194 202 169 194 202 169 194 202 169 194 202 169 194 202 169 194 202 169 194 202 169 194 202 169 194 202 169 194 202 169 194 202 169 194 202 169 194 202 169 194 202 169 194 202 169 194 202 169 194 202 169 194 202 169 194 202 169 194 202 169 194 202 169 194 202 169 194 202 169 194 202 169 194 202 169 194 202 169 194 202 169 194 202 169 194 202 169 194 202 169 194 202 169 194 202 169 194 202 169 194 202 169 194 202 169 194 202 169 0 0 255 189 196 161 189 196 161 189 196 161 189 196 161 189 196 161 189 196 161 189 196 161 189 196 161 189 196 161 189 196 161 189 196 161 189 196 161 189 196 161 189 196 161 189 196 161 189 196 161 189 196 161 189 196 161 0 0 255 0 0 255 0 0 255 189 196 161 189 196 161 0 0 255 0 0 255 0 0 255 0 0 255 0 0 255 0 0 255 187 193 157 187 193 157 187 193 157 187 193 157 187 193 157 187 193 157 187 193 157 187 193 157 187 193 157 187 193 157 187 193 157 187 193 157 187 193 157 187 193 157 187 193 157 187 193 157 187 193 157 187 193 157 187 193 157 187 193 157 187 193 157 187 193 157 187 193 157 187 193 157 187 193 157 187 193 157 187 193 157 187 193 157 0 0 255 191 194 159 191 194 159 191 194 159 191 194 159 191 194 159 191 194 159 191 194 159 191 194 159 191 194 159 191 194 159 191 194 159 191 194 159 191 194 159 191 194 159 191 194 159 191 194 159 191 194 159 191 194 159 191 194 159 191 194 159 191 194 159 191 194 159 191 194 159 191 194 159 191 194 159 191 194 159 0 0 255 0 0 255 191 194 159 191 194 159 
176 171 118 176 171 118 176 171 118 176 171 118 176 171 118 176 171 118 176 171 118 176 171 118 176 171 118 176 171 118 176 171 118 0 0 255 183 181 129 183 181 129 183 181 129 183 181 129 183 181 129 183 181 129 183 181 129 183 181 129 183 181 129 183 181 129 0 0 255 0 0 255 182 184 134 182 184 134 182 184 134 182 184 134 182 184 134 182 184 134 182 184 134 182 184 134 182 184 134 182 184 134 182 184 134 182 184 134 182 184 134 182 184 134 182 184 134 182 184 134 182 184 134 182 184 134 182 184 134 182 184 134 182 184 134 182 184 134 182 184 134 182 184 134 0 0 255 187 192 148 187 192 148 187 192 148 187 192 148 187 192 148 187 192 148 187 192 148 187 192 148 187 192 148 187 192 148 187 192 148 187 192 148 187 192 148 187 192 148 187 192 148 187 192 148 187 192 148 187 192 148 187 192 148 187 192 148 187 192 148 187 192 148 187 192 148 187 192 148 187 192 148 187 192 148 0 0 255 191 198 158 191 198 158 191 198 158 191 198 158 191 198 158 191 198 158 191 198 158 191 198 158 191 198 158 191 198 158 191 198 158 191 198 158 191 198 158 191 198 158 191 198 158 191 198 158 191 198 158 191 198 158 191 198 158 191 198 158 191 198 158 191 198 158 191 198 158 191 198 158 191 198 158 191 198 158 191 198 158 191 198 158 191 198 158 191 198 158 191 198 158 191 198 158 191 198 158 191 198 158 0 0 255 0 0 255 190 197 159 190 197 159 190 197 159 190 197 159 190 197 159 190 197 159 190 197 159 190 197 159 190 197 159 190 197 159 190 197 159 190 197 159 190 197 159 190 197 159 190 197 159 190 197 159 190 197 159 190 197 159 0 0 255 194 202 169 194 202 169 194 202 169 194 202 169 194 202 169 194 202 169 194 202 169 194 202 169 194 202 169 194 202 169 194 202 169 194 202 169 194 202 169 194 202 169 194 202 169 194 202 169 194 202 169 194 202 169 194 202 169 194 202 169 194 202 169 194 202 169 194 202 169 194 202 169 194 202 169 194 202 169 194 202 169 194 202 169 194 202 169 194 202 169 194 202 169 194 202 169 194 202 169 194 202 169 194 202 169 194 202 169 0 0 255 0 0 255 189 196 161 189 196 161 189 196 161 0 0 255 0 0 255 0 0 255 189 196 161 189 196 161 189 196 161 0 0 255 0 0 255 0 0 255 0 0 255 0 0 255 0 0 255 0 0 255 0 0 255 193 202 171 193 202 171 0 0 255 0 0 255 0 0 255 193 202 171 193 202 171 193 202 171 193 202 171 193 202 171 0 0 255 0 0 255 187 193 157 187 193 157 187 193 157 187 193 157 187 193 157 187 193 157 187 193 157 187 193 157 187 193 157 187 193 157 187 193 157 187 193 157 187 193 157 187 193 157 187 193 157 187 193 157 187 193 157 187 193 157 187 193 157 187 193 157 187 193 157 187 193 157 187 193 157 187 193 157 187 193 157 187 193 157 0 0 255 191 194 159 191 194 159 191 194 159 191 194 159 191 194 159 191 194 159 191 194 159 191 194 159 191 194 159 191 194 159 191 194 159 191 194 159 191 194 159 191 194 159 191 194 159 191 194 159 191 194 159 191 194 159 191 194 159 191 194 159 191 194 159 191 194 159 191 194 159 191 194 159 191 194 159 191 194 159 191 194 159 191 194 159 191 194 159 191 194 159 191 194 159 
176 171 118 176 171 118 176 171 118 176 171 118 176 171 118 176 171 118 176 171 118 176 171 118 0 0 255 0 0 255 0 0 255 183 181 129 183 181 129 183 181 129 183 181 129 183 181 129 183 181 129 183 181 129 183 181 129 183 181 129 183 181 129 183 181 129 183 181 129 0 0 255 0 0 255 182 184 134 182 184 134 182 184 134 182 184 134 182 184 134 182 184 134 182 184 134 182 184 134 182 184 134 182 184 134 182 184 134 182 184 134 182 184 134 182 184 134 182 184 134 182 184 134 182 184 134 182 184 134 182 184 134 182 184 134 0 0 255 0 0 255 0 0 255 0 0 255 187 192 148 187 192 148 187 192 148 187 192 148 187 192 148 187 192 148 187 192 148 187 192 148 187 192 148 187 192 148 187 192 148 187 192 148 187 192 148 187 192 148 187 192 148 187 192 148 187 192 148 187 192 148 187 192 148 187 192 148 187 192 148 187 192 148 187 192 148 0 0 255 0 0 255 0 0 255 0 0 255 191 198 158 191 198 158 191 198 158 191 198 158 191 198 158 191 198 158 191 198 158 191 198 158 191 198 158 191 198 158 191 198 158 191 198 158 191 198 158 191 198 158 191 198 158 191 198 158 191 198 158 191 198 158 191 198 158 191 198 158 191 198 158 191 198 158 191 198 158 191 198 158 191 198 158 191 198 158 191 198 158 191 198 158 191 198 158 191 198 158 191 198 158 191 198 158 191 198 158 191 198 158 191 198 158 0 0 255 190 197 159 190 197 159 190 197 159 190 197 159 190 197 159 190 197 159 190 197 159 190 197 159 190 197 159 190 197 159 190 197 159 190 197 159 190 197 159 190 197 159 190 197 159 190 197 159 190 197 159 0 0 255 194 202 169 194 202 169 194 202 169 194 202 169 194 202 169 194 202 169 194 202 169 194 202 169 194 202 169 194 202 169 194 202 169 194 202 169 194 202 169 194 202 169 194 202 169 194 202 169 194 202 169 194 202 169 194 202 169 194 202 169 194 202 169 194 202 169 194 202 169 194 202 169 194 202 169 194 202 169 194 202 169 194 202 169 194 202 169 194 202 169 194 202 169 194 202 169 194 202 169 194 202 169 194 202 169 194 202 169 194 202 169 194 202 169 0 0 255 0 0 255 0 0 255 0 0 255 193 202 171 193 202 171 0 0 255 0 0 255 0 0 255 0 0 255 193 202 171 193 202 171 193 202 171 193 202 171 193 202 171 193 202 171 193 202 171 193 202 171 193 202 171 193 202 171 193 202 171 193 202 171 193 202 171 193 202 171 193 202 171 193 202 171 193 202 171 193 202 171 193 202 171 0 0 255 0 0 255 0 0 255 187 193 157 187 193 157 187 193 157 187 193 157 187 193 157 187 193 157 187 193 157 187 193 157 187 193 157 187 193 157 187 193 157 187 193 157 187 193 157 187 193 157 187 193 157 187 193 157 187 193 157 187 193 157 187 193 157 187 193 157 187 193 157 187 193 157 187 193 157 0 0 255 191 194 159 191 194 159 191 194 159 191 194 159 191 194 159 191 194 159 191 194 159 191 194 159 191 194 159 191 194 159 191 194 159 191 194 159 191 194 159 191 194 159 191 194 159 191 194 159 191 194 159 191 194 159 191 194 159 191 194 159 191 194 159 191 194 159 191 194 159 191 194 159 191 194 159 191 194 159 191 194 159 191 194 159 191 194 159 191 194 159 191 194 159 191 194 159 
176 171 118 176 171 118 176 171 118 176 171 118 176 171 118 176 171 118 176 171 118 0 0 255 0 0 255 183 181 129 183 181 129 183 181 129 183 181 129 183 181 129 183 181 129 183 181 129 183 181 129 183 181 129 183 181 129 183 181 129 183 181 129 183 181 129 183 181 129 183 181 129 0 0 255 0 0 255 182 184 134 182 184 134 182 184 134 182 184 134 182 184 134 182 184 134 182 184 134 182 184 134 182 184 134 182 184 134 182 184 134 182 184 134 182 184 134 0 0 255 0 0 255 0 0 255 0 0 255 0 0 255 0 0 255 189 192 145 189 192 145 189 192 145 0 0 255 0 0 255 187 192 148 187 192 148 187 192 148 187 192 148 187 192 148 187 192 148 187 192 148 187 192 148 187 192 148 187 192 148 0 0 255 0 0 255 0 0 255 0 0 255 187 192 148 0 0 255 0 0 255 0 0 255 0 0 255 0 0 255 0 0 255 0 0 255 192 199 158 192 199 158 0 0 255 0 0 255 191 198 158 191 198 158 191 198 158 191 198 158 191 198 158 191 198 158 191 198 158 191 198 158 191 198 158 191 198 158 191 198 158 191 198 158 191 198 158 191 198 158 191 198 158 191 198 158 191 198 158 191 198 158 191 198 158 191 198 158 191 198 158 191 198 158 191 198 158 191 198 158 191 198 158 191 198 158 191 198 158 191 198 158 191 198 158 191 198 158 191 198 158 191 198 158 191 198 158 191 198 158 191 198 158 0 0 255 190 197 159 190 197 159 190 197 159 190 197 159 190 197 159 190 197 159 190 197 159 190 197 159 190 197 159 190 197 159 190 197 159 190 197 159 190 197 159 190 197 159 190 197 159 190 197 159 0 0 255 194 202 169 194 202 169 194 202 169 194 202 169 194 202 169 194 202 169 194 202 169 194 202 169 194 202 169 194 202 169 194 202 169 194 202 169 194 202 169 194 202 169 194 202 169 194 202 169 194 202 169 194 202 169 194 202 169 194 202 169 194 202 169 194 202 169 194 202 169 194 202 169 194 202 169 194 202 169 194 202 169 194 202 169 194 202 169 194 202 169 194 202 169 194 202 169 194 202 169 194 202 169 194 202 169 194 202 169 194 202 169 194 202 169 194 202 169 0 0 255 193 202 171 193 202 171 193 202 171 193 202 171 193 202 171 193 202 171 193 202 171 193 202 171 193 202 171 193 202 171 193 202 171 193 202 171 193 202 171 193 202 171 193 202 171 193 202 171 193 202 171 193 202 171 193 202 171 193 202 171 193 202 171 193 202 171 193 202 171 193 202 171 193 202 171 193 202 171 193 202 171 193 202 171 193 202 171 193 202 171 0 0 255 0 0 255 0 0 255 0 0 255 0 0 255 0 0 255 0 0 255 0 0 255 0 0 255 0 0 255 0 0 255 187 193 157 187 193 157 0 0 255 0 0 255 0 0 255 0 0 255 0 0 255 0 0 255 0 0 255 187 193 157 187 193 157 0 0 255 0 0 255 191 194 159 191 194 159 191 194 159 191 194 159 191 194 159 191 194 159 191 194 159 191 194 159 191 194 159 191 194 159 191 194 159 191 194 159 191 194 159 191 194 159 191 194 159 191 194 159 191 194 159 191 194 159 191 194 159 191 194 159 191 194 159 191 194 159 191 194 159 191 194 159 191 194 159 191 194 159 191 194 159 191 194 159 191 194 159 191 194 159 191 194 159 191 194 159 191 194 159 
176 171 118 0 0 255 0 0 255 0 0 255 0 0 255 0 0 255 0 0 255 0 0 255 0 0 255 183 181 129 183 181 129 183 181 129 183 181 129 183 181 129 183 181 129 183 181 129 183 181 129 183 181 129 183 181 129 183 181 129 183 181 129 183 181 129 183 181 129 183 181 129 183 181 129 0 0 255 182 184 134 182 184 134 182 184 134 182 184 134 182 184 134 182 184 134 182 184 134 182 184 134 182 184 134 0 0 255 0 0 255 0 0 255 0 0 255 189 192 145 189 192 145 189 192 145 189 192 145 189 192 145 189 192 145 189 192 145 189 192 145 189 192 145 189 192 145 0 0 255 0 0 255 0 0 255 187 192 148 187 192 148 0 0 255 0 0 255 0 0 255 0 0 255 0 0 255 0 0 255 192 199 158 192 199 158 192 199 158 0 0 255 0 0 255 192 199 158 192 199 158 192 199 158 192 199 158 192 199 158 192 199 158 192 199 158 192 199 158 192 199 158 192 199 158 0 0 255 0 0 255 191 198 158 191 198 158 191 198 158 191 198 158 191 198 158 191 198 158 191 198 158 191 198 158 191 198 158 191 198 158 191 198 158 191 198 158 191 198 158 191 198 158 191 198 158 191 198 158 191 198 158 191 198 158 191 198 158 191 198 158 191 198 158 191 198 158 191 198 158 191 198 158 191 198 158 191 198 158 191 198 158 191 198 158 191 198 158 191 198 158 191 198 158 191 198 158 191 198 158 191 198 158 0 0 255 0 0 255 190 197 159 190 197 159 190 197 159 190 197 159 190 197 159 190 197 159 190 197 159 190 197 159 190 197 159 190 197 159 190 197 159 190 197 159 190 197 159 190 197 159 0 0 255 194 202 169 194 202 169 194 202 169 194 202 169 194 202 169 194 202 169 194 202 169 194 202 169 194 202 169 194 202 169 194 202 169 194 202 169 194 202 169 194 202 169 194 202 169 194 202 169 194 202 169 194 202 169 194 202 169 194 202 169 194 202 169 194 202 169 194 202 169 194 202 169 194 202 169 194 202 169 194 202 169 194 202 169 194 202 169 194 202 169 194 202 169 194 202 169 194 202 169 194 202 169 194 202 169 194 202 169 194 202 169 194 202 169 194 202 169 194 202 169 0 0 255 193 202 171 193 202 171 193 202 171 193 202 171 193 202 171 193 202 171 193 202 171 193 202 171 193 202 171 193 202 171 193 202 171 193 202 171 193 202 171 193 202 171 193 202 171 193 202 171 193 202 171 193 202 171 193 202 171 193 202 171 193 202 171 193 202 171 193 202 171 193 202 171 193 202 171 193 202 171 193 202 171 193 202 171 193 202 171 193 202 171 193 202 171 193 202 171 0 0 255 192 200 169 192 200 169 192 200 169 192 200 169 192 200 169 192 200 169 192 200 169 0 0 255 0 0 255 0 0 255 192 200 169 192 200 169 192 200 169 192 200 169 192 200 169 192 200 169 0 0 255 0 0 255 0 0 255 0 0 255 191 194 159 191 194 159 191 194 159 191 194 159 191 194 159 191 194 159 191 194 159 191 194 159 191 194 159 191 194 159 191 194 159 191 194 159 191 194 159 191 194 159 191 194 159 191 194 159 191 194 159 191 194 159 191 194 159 191 194 159 191 194 159 191 194 159 191 194 159 191 194 159 191 194 159 191 194 159 191 194 159 191 194 159 191 194 159 191 194 159 191 194 159 191 194 159 191 194 159 191 194 159 
0 0 255 183 181 129 183 181 129 183 181 129 183 181 129 183 181 129 183 181 129 183 181 129 183 181 129 183 181 129 183 181 129 183 181 129 183 181 129 183 181 129 183 181 129 183 181 129 183 181 129 183 181 129 183 181 129 183 181 129 183 181 129 183 181 129 183 181 129 183 181 129 183 181 129 0 0 255 0 0 255 182 184 134 0 0 255 0 0 255 0 0 255 0 0 255 0 0 255 0 0 255 0 0 255 189 192 145 189 192 145 189 192 145 189 192 145 189 192 145 189 192 145 189 192 145 189 192 145 189 192 145 189 192 145 189 192 145 189 192 145 189 192 145 189 192 145 189 192 145 0 0 255 0 0 255 0 0 255 0 0 255 192 199 158 192 199 158 192 199 158 192 199 158 192 199 158 192 199 158 192 199 158 192 199 158 192 199 158 192 199 158 192 199 158 192 199 158 192 199 158 192 199 158 192 199 158 192 199 158 192 199 158 192 199 158 192 199 158 192 199 158 192 199 158 192 199 158 0 0 255 191 198 158 191 198 158 191 198 158 191 198 158 191 198 158 191 198 158 191 198 158 191 198 158 191 198 158 191 198 158 191 198 158 191 198 158 191 198 158 191 198 158 191 198 158 191 198 158 191 198 158 191 198 158 191 198 158 191 198 158 191 198 158 191 198 158 191 198 158 191 198 158 191 198 158 191 198 158 191 198 158 191 198 158 191 198 158 191 198 158 191 198 158 191 198 158 191 198 158 191 198 158 191 198 158 0 0 255 0 0 255 0 0 255 0 0 255 0 0 255 0 0 255 0 0 255 0 0 255 0 0 255 0 0 255 0 0 255 0 0 255 0 0 255 0 0 255 0 0 255 194 202 169 194 202 169 194 202 169 194 202 169 194 202 169 194 202 169 194 202 169 194 202 169 194 202 169 194 202 169 194 202 169 194 202 169 194 202 169 194 202 169 194 202 169 194 202 169 194 202 169 194 202 169 194 202 169 194 202 169 194 202 169 194 202 169 194 202 169 194 202 169 194 202 169 194 202 169 194 202 169 194 202 169 194 202 169 194 202 169 194 202 169 194 202 169 194 202 169 194 202 169 194 202 169 194 202 169 194 202 169 194 202 169 194 202 169 194 202 169 194 202 169 0 0 255 193 202 171 193 202 171 193 202 171 193 202 171 193 202 171 193 202 171 193 202 171 193 202 171 193 202 171 193 202 171 193 202 171 193 202 171 193 202 171 193 202 171 193 202 171 193 202 171 193 202 171 193 202 171 193 202 171 193 202 171 193 202 171 193 202 171 193 202 171 193 202 171 193 202 171 193 202 171 193 202 171 193 202 171 193 202 171 193 202 171 193 202 171 0 0 255 192 200 169 192 200 169 192 200 169 192 200 169 192 200 169 192 200 169 192 200 169 192 200 169 192 200 169 192 200 169 192 200 169 192 200 169 192 200 169 192 200 169 192 200 169 192 200 169 192 200 169 192 200 169 192 200 169 192 200 169 0 0 255 0 0 255 191 194 159 191 194 159 191 194 159 191 194 159 191 194 159 191 194 159 191 194 159 191 194 159 191 194 159 191 194 159 191 194 159 191 194 159 191 194 159 191 194 159 191 194 159 191 194 159 191 194 159 191 194 159 191 194 159 191 194 159 191 194 159 191 194 159 191 194 159 191 194 159 191 194 159 191 194 159 191 194 159 191 194 159 191 194 159 191 194 159 191 194 159 191 194 159 191 194 159 
183 181 129 183 181 129 183 181 129 183 181 129 183 181 129 183 181 129 183 181 129 183 181 129 183 181 129 183 181 129 183 181 129 183 181 129 183 181 129 183 181 129 183 181 129 183 181 129 183 181 129 183 181 129 183 181 129 183 181 129 183 181 129 183 181 129 183 181 129 183 181 129 183 181 129 183 181 129 0 0 255 0 0 255 189 192 145 189 192 145 189 192 145 189 192 145 189 192 145 189 192 145 189 192 145 189 192 145 189 192 145 189 192 145 189 192 145 189 192 145 189 192 145 189 192 145 189 192 145 189 192 145 189 192 145 189 192 145 189 192 145 189 192 145 189 192 145 189 192 145 0 0 255 192 199 158 192 199 158 192 199 158 192 199 158 192 199 158 192 199 158 192 199 158 192 199 158 192 199 158 192 199 158 192 199 158 192 199 158 192 199 158 192 199 158 192 199 158 192 199 158 192 199 158 192 199 158 192 199 158 192 199 158 192 199 158 192 199 158 192 199 158 192 199 158 192 199 158 0 0 255 0 0 255 191 198 158 191 198 158 191 198 158 191 198 158 191 198 158 191 198 158 191 198 158 191 198 158 191 198 158 191 198 158 191 198 158 191 198 158 191 198 158 191 198 158 191 198 158 191 198 158 191 198 158 191 198 158 191 198 158 191 198 158 191 198 158 191 198 158 191 198 158 191 198 158 191 198 158 191 198 158 191 198 158 191 198 158 191 198 158 191 198 158 191 198 158 191 198 158 191 198 158 0 0 255 195 202 168 195 202 168 195 202 168 195 202 168 195 202 168 195 202 168 195 202 168 195 202 168 195 202 168 195 202 168 195 202 168 195 202 168 195 202 168 195 202 168 0 0 255 0 0 255 194 202 169 194 202 169 194 202 169 194 202 169 194 202 169 194 202 169 194 202 169 194 202 169 194 202 169 194 202 169 194 202 169 194 202 169 194 202 169 194 202 169 194 202 169 194 202 169 194 202 169 194 202 169 194 202 169 194 202 169 194 202 169 194 202 169 194 202 169 194 202 169 194 202 169 194 202 169 194 202 169 194 202 169 194 202 169 194 202 169 194 202 169 194 202 169 194 202 169 194 202 169 194 202 169 194 202 169 194 202 169 194 202 169 194 202 169 194 202 169 0 0 255 193 202 171 193 202 171 193 202 171 193 202 171 193 202 171 193 202 171 193 202 171 193 202 171 193 202 171 193 202 171 193 202 171 193 202 171 193 202 171 193 202 171 193 202 171 193 202 171 193 202 171 193 202 171 193 202 171 193 202 171 193 202 171 193 202 171 193 202 171 193 202 171 193 202 171 193 202 171 193 202 171 193 202 171 193 202 171 193 202 171 193 202 171 0 0 255 192 200 169 192 200 169 192 200 169 192 200 169 192 200 169 192 200 169 192 200 169 192 200 169 192 200 169 192 200 169 192 200 169 192 200 169 192 200 169 192 200 169 192 200 169 192 200 169 192 200 169 192 200 169 192 200 169 192 200 169 192 200 169 0 0 255 191 194 159 191 194 159 191 194 159 191 194 159 191 194 159 191 194 159 191 194 159 191 194 159 191 194 159 191 194 159 191 194 159 191 194 159 191 194 159 191 194 159 191 194 159 191 194 159 191 194 159 191 194 159 191 194 159 191 194 159 191 194 159 191 194 159 191 194 159 191 194 159 191 194 159 191 194 159 191 194 159 191 194 159 191 194 159 191 194 159 191 194 159 191 194 159 191 194 159 
183 181 129 183 181 129 183 181 129 183 181 129 183 181 129 183 181 129 183 181 129 183 181 129 183 181 129 183 181 129 183 181 129 183 181 129 183 181 129 183 181 129 183 181 129 183 181 129 183 181 129 183 181 129 183 181 129 183 181 129 183 181 129 183 181 129 183 181 129 183 181 129 183 181 129 183 181 129 0 0 255 189 192 145 189 192 145 189 192 145 189 192 145 189 192 145 189 192 145 189 192 145 189 192 145 189 192 145 189 192 145 189 192 145 189 192 145 189 192 145 189 192 145 189 192 145 189 192 145 189 192 145 189 192 145 189 192 145 189 192 145 189 192 145 189 192 145 189 192 145 0 0 255 192 199 158 192 199 158 192 199 158 192 199 158 192 199 158 192 199 158 192 199 158 192 199 158 192 199 158 192 199 158 192 199 158 192 199 158 192 199 158 192 199 158 192 199 158 192 199 158 192 199 158 192 199 158 192 199 158 192 199 158 192 199 158 192 199 158 192 199 158 192 199 158 192 199 158 192 199 158 0 0 255 0 0 255 191 198 158 191 198 158 191 198 158 191 198 158 191 198 158 191 198 158 191 198 158 191 198 158 191 198 158 191 198 158 191 198 158 191 198 158 191 198 158 191 198 158 191 198 158 191 198 158 191 198 158 191 198 158 191 198 158 191 198 158 191 198 158 191 198 158 191 198 158 191 198 158 191 198 158 191 198 158 191 198 158 191 198 158 191 198 158 191 198 158 191 198 158 0 0 255 195 202 168 195 202 168 195 202 168 195 202 168 195 202 168 195 202 168 195 202 168 195 202 168 195 202 168 195 202 168 195 202 168 195 202 168 195 202 168 195 202 168 195 202 168 195 202 168 0 0 255 194 202 169 194 202 169 194 202 169 194 202 169 194 202 169 194 202 169 194 202 169 194 202 169 194 202 169 194 202 169 194 202 169 194 202 169 194 202 169 194 202 169 194 202 169 194 202 169 194 202 169 194 202 169 194 202 169 194 202 169 194 202 169 194 202 169 194 202 169 194 202 169 194 202 169 194 202 169 194 202 169 194 202 169 194 202 169 194 202 169 194 202 169 194 202 169 194 202 169 194 202 169 194 202 169 194 202 169 194 202 169 194 202 169 194 202 169 0 0 255 193 202 171 193 202 171 193 202 171 193 202 171 193 202 171 193 202 171 193 202 171 193 202 171 193 202 171 193 202 171 193 202 171 193 202 171 193 202 171 193 202 171 193 202 171 193 202 171 193 202 171 193 202 171 193 202 171 193 202 171 193 202 171 193 202 171 193 202 171 193 202 171 193 202 171 193 202 171 193 202 171 193 202 171 193 202 171 193 202 171 193 202 171 193 202 171 0 0 255 192 200 169 192 200 169 192 200 169 192 200 169 192 200 169 192 200 169 192 200 169 192 200 169 192 200 169 192 200 169 192 200 169 192 200 169 192 200 169 192 200 169 192 200 169 192 200 169 192 200 169 192 200 169 192 200 169 192 200 169 192 200 169 0 0 255 191 194 159 191 194 159 191 194 159 191 194 159 191 194 159 191 194 159 191 194 159 191 194 159 191 194 159 191 194 159 191 194 159 191 194 159 191 194 159 191 194 159 191 194 159 191 194 159 191 194 159 191 194 159 191 194 159 191 194 159 191 194 159 191 194 159 191 194 159 191 194 159 191 194 159 191 194 159 191 194 159 191 194 159 191 194 159 191 194 159 191 194 159 191 194 159 191 194 159 
183 181 129 183 181 129 183 181 129 183 181 129 183 181 129 183 181 129 183 181 129 183 181 129 183 181 129 183 181 129 183 181 129 183 181 129 183 181 129 183 181 129 183 181 129 183 181 129 183 181 129 183 181 129 183 181 129 183 181 129 183 181 129 183 181 129 183 181 129 183 181 129 183 181 129 0 0 255 189 192 145 189 192 145 189 192 145 189 192 145 189 192 145 189 192 145 189 192 145 189 192 145 189 192 145 189 192 145 189 192 145 189 192 145 189 192 145 189 192 145 189 192 145 189 192 145 189 192 145 189 192 145 189 192 145 189 192 145 189 192 145 189 192 145 189 192 145 189 192 145 0 0 255 192 199 158 192 199 158 192 199 158 192 199 158 192 199 158 192 199 158 192 199 158 192 199 158 192 199 158 192 199 158 192 199 158 192 199 158 192 199 158 192 199 158 192 199 158 192 199 158 192 199 158 192 199 158 192 199 158 192 199 158 192 199 158 192 199 158 192 199 158 192 199 158 192 199 158 192 199 158 192 199 158 0 0 255 191 198 158 191 198 158 191 198 158 191 198 158 191 198 158 191 198 158 191 198 158 191 198 158 191 198 158 191 198 158 191 198 158 191 198 158 191 198 158 191 198 158 191 198 158 191 198 158 191 198 158 191 198 158 191 198 158 191 198 158 191 198 158 191 198 158 191 198 158 191 198 158 191 198 158 191 198 158 191 198 158 191 198 158 191 198 158 0 0 255 0 0 255 195 202 168 195 202 168 195 202 168 195 202 168 195 202 168 195 202 168 195 202 168 195 202 168 195 202 168 195 202 168 195 202 168 195 202 168 195 202 168 195 202 168 195 202 168 195 202 168 195 202 168 0 0 255 0 0 255 194 202 169 194 202 169 194 202 169 194 202 169 194 202 169 194 202 169 194 202 169 194 202 169 194 202 169 194 202 169 194 202 169 194 202 169 194 202 169 194 202 169 194 202 169 194 202 169 194 202 169 194 202 169 194 202 169 194 202 169 194 202 169 194 202 169 194 202 169 194 202 169 194 202 169 194 202 169 194 202 169 194 202 169 194 202 169 194 202 169 194 202 169 194 202 169 194 202 169 194 202 169 194 202 169 194 202 169 194 202 169 194 202 169 0 0 255 193 202 171 193 202 171 193 202 171 193 202 171 193 202 171 193 202 171 193 202 171 193 202 171 193 202 171 193 202 171 193 202 171 193 202 171 193 202 171 193 202 171 193 202 171 193 202 171 193 202 171 193 202 171 193 202 171 193 202 171 193 202 171 193 202 171 193 202 171 193 202 171 193 202 171 193 202 171 193 202 171 193 202 171 193 202 171 193 202 171 193 202 171 193 202 171 0 0 255 192 200 169 192 200 169 192 200 169 192 200 169 192 200 169 192 200 169 192 200 169 192 200 169 192 200 169 192 200 169 192 200 169 192 200 169 192 200 169 192 200 169 192 200 169 192 200 169 192 200 169 192 200 169 192 200 169 192 200 169 192 200 169 0 0 255 0 0 255 191 194 159 191 194 159 191 194 159 191 194 159 191 194 159 191 194 159 191 194 159 191 194 159 191 194 159 191 194 159 191 194 159 191 194 159 191 194 159 191 194 159 191 194 159 191 194 159 191 194 159 191 194 159 191 194 159 191 194 159 191 194 159 191 194 159 191 194 159 191 194 159 191 194 159 191 194 159 191 194 159 191 194 159 191 194 159 191 194 159 191 194 159 191 194 159 
183 181 129 183 181 129 183 181 129 183 181 129 183 181 129 183 181 129 183 181 129 183 181 129 183 181 129 183 181 129 183 181 129 183 181 129 183 181 129 183 181 129 183 181 129 183 181 129 183 181 129 183 181 129 183 181 129 183 181 129 183 181 129 183 181 129 183 181 129 183 181 129 0 0 255 189 192 145 189 192 145 189 192 145 189 192 145 189 192 145 189 192 145 189 192 145 189 192 145 189 192 145 189 192 145 189 192 145 189 192 145 189 192 145 189 192 145 189 192 145 189 192 145 189 192 145 189 192 145 189 192 145 189 192 145 189 192 145 189 192 145 189 192 145 189 192 145 189 192 145 0 0 255 192 199 158 192 199 158 192 199 158 192 199 158 192 199 158 192 199 158 192 199 158 192 199 158 192 199 158 192 199 158 192 199 158 192 199 158 192 199 158 192 199 158 192 199 158 192 199 158 192 199 158 192 199 158 192 199 158 192 199 158 192 199 158 192 199 158 192 199 158 192 199 158 192 199 158 192 199 158 192 199 158 0 0 255 0 0 255 191 198 158 191 198 158 191 198 158 191 198 158 191 198 158 191 198 158 191 198 158 191 198 158 191 198 158 191 198 158 191 198 158 191 198 158 191 198 158 191 198 158 191 198 158 191 198 158 191 198 158 191 198 158 191 198 158 191 198 158 191 198 158 191 198 158 191 198 158 191 198 158 191 198 158 191 198 158 191 198 158 0 0 255 195 202 168 195 202 168 195 202 168 195 202 168 195 202 168 195 202 168 195 202 168 195 202 168 195 202 168 195 202 168 195 202 168 195 202 168 195 202 168 195 202 168 195 202 168 195 202 168 195 202 168 195 202 168 195 202 168 195 202 168 0 0 255 0 0 255 194 202 169 194 202 169 194 202 169 194 202 169 194 202 169 194 202 169 194 202 169 194 202 169 194 202 169 194 202 169 194 202 169 194 202 169 194 202 169 194 202 169 194 202 169 194 202 169 194 202 169 194 202 169 194 202 169 194 202 169 194 202 169 194 202 169 194 202 169 194 202 169 194 202 169 194 202 169 194 202 169 194 202 169 194 202 169 194 202 169 194 202 169 194 202 169 194 202 169 194 202 169 194 202 169 194 202 169 0 0 255 193 202 171 193 202 171 193 202 171 193 202 171 193 202 171 193 202 171 193 202 171 193 202 171 193 202 171 193 202 171 193 202 171 193 202 171 193 202 171 193 202 171 193 202 171 193 202 171 193 202 171 193 202 171 193 202 171 193 202 171 193 202 171 193 202 171 193 202 171 193 202 171 193 202 171 193 202 171 193 202 171 193 202 171 193 202 171 193 202 171 193 202 171 193 202 171 193 202 171 0 0 255 192 200 169 192 200 169 192 200 169 192 200 169 192 200 169 192 200 169 192 200 169 192 200 169 192 200 169 192 200 169 192 200 169 192 200 169 192 200 169 192 200 169 192 200 169 192 200 169 192 200 169 192 200 169 192 200 169 192 200 169 192 200 169 192 200 169 0 0 255 191 194 159 191 194 159 191 194 159 191 194 159 191 194 159 191 194 159 191 194 159 191 194 159 191 194 159 191 194 159 191 194 159 191 194 159 191 194 159 191 194 159 191 194 159 191 194 159 191 194 159 191 194 159 191 194 159 191 194 159 191 194 159 191 194 159 191 194 159 191 194 159 191 194 159 191 194 159 191 194 159 191 194 159 191 194 159 191 194 159 191 194 159 191 194 159 
183 181 129 183 181 129 183 181 129 183 181 129 183 181 129 183 181 129 183 181 129 183 181 129 183 181 129 183 181 129 183 181 129 183 181 129 183 181 129 183 181 129 183 181 129 183 181 129 183 181 129 183 181 129 183 181 129 183 181 129 183 181 129 183 181 129 183 181 129 183 181 129 0 0 255 189 192 145 189 192 145 189 192 145 189 192 145 189 192 145 189 192 145 189 192 145 189 192 145 189 192 145 189 192 145 189 192 145 189 192 145 189 192 145 189 192 145 189 192 145 189 192 145 189 192 145 189 192 145 189 192 145 189 192 145 189 192 145 189 192 145 189 192 145 189 192 145 189 192 145 0 0 255 192 199 158 192 199 158 192 199 158 192 199 158 192 199 158 192 199 158 192 199 158 192 199 158 192 199 158 192 199 158 192 199 158 192 199 158 192 199 158 192 199 158 192 199 158 192 199 158 192 199 158 192 199 158 192 199 158 192 199 158 192 199 158 192 199 158 192 199 158 192 199 158 192 199 158 192 199 158 192 199 158 192 199 158 0 0 255 0 0 255 0 0 255 191 198 158 191 198 158 191 198 158 191 198 158 191 198 158 191 198 158 191 198 158 191 198 158 191 198 158 191 198 158 191 198 158 191 198 158 191 198 158 191 198 158 191 198 158 191 198 158 191 198 158 191 198 158 191 198 158 191 198 158 191 198 158 191 198 158 191 198 158 0 0 255 0 0 255 195 202 168 195 202 168 195 202 168 195 202 168 195 202 168 195 202 168 195 202 168 195 202 168 195 202 168 195 202 168 195 202 168 195 202 168 195 202 168 195 202 168 195 202 168 195 202 168 195 202 168 195 202 168 195 202 168 195 202 168 195 202 168 195 202 168 0 0 255 194 202 169 194 202 169 194 202 169 194 202 169 194 202 169 194 202 169 194 202 169 194 202 169 194 202 169 194 202 169 194 202 169 194 202 169 194 202 169 194 202 169 194 202 169 194 202 169 194 202 169 194 202 169 194 202 169 194 202 169 194 202 169 194 202 169 194 202 169 194 202 169 194 202 169 194 202 169 194 202 169 194 202 169 194 202 169 194 202 169 194 202 169 194 202 169 194 202 169 194 202 169 194 202 169 194 202 169 0 0 255 193 202 171 193 202 171 193 202 171 193 202 171 193 202 171 193 202 171 193 202 171 193 202 171 193 202 171 193 202 171 193 202 171 193 202 171 193 202 171 193 202 171 193 202 171 193 202 171 193 202 171 193 202 171 193 202 171 193 202 171 193 202 171 193 202 171 193 202 171 193 202 171 193 202 171 193 202 171 193 202 171 193 202 171 193 202 171 193 202 171 193 202 171 193 202 171 193 202 171 0 0 255 192 200 169 192 200 169 192 200 169 192 200 169 192 200 169 192 200 169 192 200 169 192 200 169 192 200 169 192 200 169 192 200 169 192 200 169 192 200 169 192 200 169 192 200 169 192 200 169 192 200 169 192 200 169 192 200 169 192 200 169 192 200 169 192 200 169 0 0 255 0 0 255 191 194 159 191 194 159 191 194 159 191 194 159 191 194 159 191 194 159 191 194 159 191 194 159 191 194 159 191 194 159 191 194 159 191 194 159 191 194 159 191 194 159 191 194 159 191 194 159 191 194 159 191 194 159 191 194 159 191 194 159 191 194 159 191 194 159 191 194 159 191 194 159 191 194 159 191 194 159 191 194 159 191 194 159 191 194 159 191 194 159 191 194 159 
183 181 129 183 181 129 183 181 129 183 181 129 183 181 129 183 181 129 183 181 129 183 181 129 183 181 129 183 181 129 183 181 129 183 181 129 183 181 129 183 181 129 183 181 129 183 181 129 183 181 129 183 181 129 183 181 129 183 181 129 183 181 129 183 181 129 183 181 129 0 0 255 189 192 145 189 192 145 189 192 145 189 192 145 189 192 145 189 192 145 189 192 145 189 192 145 189 192 145 189 192 145 189 192 145 189 192 145 189 192 145 189 192 145 189 192 145 189 192 145 189 192 145 189 192 145 189 192 145 189 192 145 189 192 145 189 192 145 189 192 145 189 192 145 189 192 145 189 192 145 0 0 255 192 199 158 192 199 158 192 199 158 192 199 158 192 199 158 192 199 158 192 199 158 192 199 158 192 199 158 192 199 158 192 199 158 192 199 158 192 199 158 192 199 158 192 199 158 192 199 158 192 199 158 192 199 158 192 199 158 192 199 158 192 199 158 192 199 158 192 199 158 192 199 158 192 199 158 192 199 158 192 199 158 192 199 158 192 199 158 0 0 255 0 0 255 0 0 255 0 0 255 0 0 255 191 198 158 191 198 158 191 198 158 191 198 158 191 198 158 191 198 158 191 198 158 191 198 158 191 198 158 191 198 158 191 198 158 191 198 158 191 198 158 191 198 158 191 198 158 191 198 158 191 198 158 191 198 158 191 198 158 0 0 255 195 202 168 195 202 168 195 202 168 195 202 168 195 202 168 195 202 168 195 202 168 195 202 168 195 202 168 195 202 168 195 202 168 195 202 168 195 202 168 195 202 168 195 202 168 195 202 168 195 202 168 195 202 168 195 202 168 195 202 168 195 202 168 195 202 168 195 202 168 195 202 168 0 0 255 0 0 255 194 202 169 194 202 169 194 202 169 194 202 169 194 202 169 194 202 169 194 202 169 194 202 169 194 202 169 194 202 169 194 202 169 194 202 169 194 202 169 194 202 169 194 202 169 194 202 169 194 202 169 194 202 169 194 202 169 194 202 169 194 202 169 194 202 169 194 202 169 194 202 169 194 202 169 194 202 169 194 202 169 194 202 169 194 202 169 194 202 169 194 202 169 194 202 169 194 202 169 194 202 169 194 202 169 0 0 255 193 202 171 193 202 171 193 202 171 193 202 171 193 202 171 193 202 171 193 202 171 193 202 171 193 202 171 193 202 171 193 202 171 193 202 171 193 202 171 193 202 171 193 202 171 193 202 171 193 202 171 193 202 171 193 202 171 193 202 171 193 202 171 193 202 171 193 202 171 193 202 171 193 202 171 193 202 171 193 202 171 193 202 171 193 202 171 193 202 171 193 202 171 193 202 171 193 202 171 0 0 255 192 200 169 192 200 169 192 200 169 192 200 169 192 200 169 192 200 169 192 200 169 192 200 169 192 200 169 192 200 169 192 200 169 192 200 169 192 200 169 192 200 169 192 200 169 192 200 169 192 200 169 192 200 169 192 200 169 192 200 169 192 200 169 192 200 169 192 200 169 0 0 255 191 194 159 191 194 159 191 194 159 191 194 159 191 194 159 191 194 159 191 194 159 191 194 159 191 194 159 191 194 159 191 194 159 191 194 159 191 194 159 191 194 159 191 194 159 191 194 159 191 194 159 191 194 159 191 194 159 191 194 159 191 194 159 191 194 159 191 194 159 191 194 159 191 194 159 191 194 159 191 194 159 191 194 159 191 194 159 191 194 159 191 194 159 
183 181 129 183 181 129 183 181 129 183 181 129 183 181 129 183 181 129 183 181 129 183 181 129 183 181 129 183 181 129 183 181 129 183 181 129 183 181 129 183 181 129 183 181 129 183 181 129 183 181 129 183 181 129 183 181 129 183 181 129 183 181 129 183 181 129 183 181 129 0 0 255 189 192 145 189 192 145 189 192 145 189 192 145 189 192 145 189 192 145 189 192 145 189 192 145 189 192 145 189 192 145 189 192 145 189 192 145 189 192 145 189 192 145 189 192 145 189 192 145 189 192 145 189 192 145 189 192 145 189 192 145 189 192 145 189 192 145 189 192 145 189 192 145 189 192 145 0 0 255 192 199 158 192 199 158 192 199 158 192 199 158 192 199 158 192 199 158 192 199 158 192 199 158 192 199 158 192 199 158 192 199 158 192 199 158 192 199 158 192 199 158 192 199 158 192 199 158 192 199 158 192 199 158 192 199 158 192 199 158 192 199 158 192 199 158 192 199 158 192 199 158 192 199 158 192 199 158 192 199 158 192 199 158 192 199 158 192 199 158 0 0 255 194 200 164 194 200 164 194 200 164 0 0 255 0 0 255 0 0 255 0 0 255 0 0 255 0 0 255 0 0 255 0 0 255 0 0 255 0 0 255 0 0 255 191 198 158 191 198 158 191 198 158 191 198 158 191 198 158 191 198 158 191 198 158 191 198 158 191 198 158 0 0 255 195 202 168 195 202 168 195 202 168 195 202 168 195 202 168 195 202 168 195 202 168 195 202 168 195 202 168 195 202 168 195 202 168 195 202 168 195 202 168 195 202 168 195 202 168 195 202 168 195 202 168 195 202 168 195 202 168 195 202 168 195 202 168 195 202 168 195 202 168 195 202 168 195 202 168 0 0 255 0 0 255 194 202 169 194 202 169 194 202 169 194 202 169 194 202 169 194 202 169 194 202 169 194 202 169 194 202 169 194 202 169 194 202 169 194 202 169 194 202 169 194 202 169 194 202 169 194 202 169 194 202 169 194 202 169 194 202 169 194 202 169 194 202 169 194 202 169 194 202 169 194 202 169 194 202 169 194 202 169 194 202 169 194 202 169 194 202 169 194 202 169 194 202 169 194 202 169 194 202 169 194 202 169 0 0 255 193 202 171 193 202 171 193 202 171 193 202 171 193 202 171 193 202 171 193 202 171 193 202 171 193 202 171 193 202 171 193 202 171 193 202 171 193 202 171 193 202 171 193 202 171 193 202 171 193 202 171 193 202 171 193 202 171 193 202 171 193 202 171 193 202 171 193 202 171 193 202 171 193 202 171 193 202 171 193 202 171 193 202 171 193 202 171 193 202 171 193 202 171 193 202 171 0 0 255 192 200 169 192 200 169 192 200 169 192 200 169 192 200 169 192 200 169 192 200 169 192 200 169 192 200 169 192 200 169 192 200 169 192 200 169 192 200 169 192 200 169 192 200 169 192 200 169 192 200 169 192 200 169 192 200 169 192 200 169 192 200 169 192 200 169 192 200 169 192 200 169 0 0 255 191 194 159 191 194 159 191 194 159 191 194 159 191 194 159 191 194 159 191 194 159 191 194 159 191 194 159 191 194 159 191 194 159 191 194 159 191 194 159 191 194 159 191 194 159 191 194 159 191 194 159 191 194 159 191 194 159 191 194 159 191 194 159 191 194 159 191 194 159 191 194 159 191 194 159 191 194 159 191 194 159 191 194 159 191 194 159 191 194 159 191 194 159 
183 181 129 183 181 129 183 181 129 183 181 129 183 181 129 183 181 129 183 181 129 183 181 129 183 181 129 183 181 129 183 181 129 183 181 129 183 181 129 183 181 129 183 181 129 183 181 129 183 181 129 183 181 129 183 181 129 183 181 129 183 181 129 183 181 129 183 181 129 0 0 255 189 192 145 189 192 145 189 192 145 189 192 145 189 192 145 189 192 145 189 192 145 189 192 145 189 192 145 189 192 145 189 192 145 189 192 145 189 192 145 189 192 145 189 192 145 189 192 145 189 192 145 189 192 145 189 192 145 189 192 145 189 192 145 189 192 145 189 192 145 189 192 145 189 192 145 0 0 255 192 199 158 192 199 158 192 199 158 192 199 158 192 199 158 192 199 158 192 199 158 192 199 158 192 199 158 192 199 158 192 199 158 192 199 158 192 199 158 192 199 158 192 199 158 192 199 158 192 199 158 192 199 158 192 199 158 192 199 158 192 199 158 192 199 158 192 199 158 192 199 158 192 199 158 192 199 158 192 199 158 192 199 158 192 199 158 0 0 255 194 200 164 194 200 164 194 200 164 194 200 164 194 200 164 194 200 164 194 200 164 194 200 164 194 200 164 194 200 164 194 200 164 194 200 164 194 200 164 194 200 164 0 0 255 0 0 255 0 0 255 0 0 255 0 0 255 0 0 255 0 0 255 0 0 255 0 0 255 0 0 255 195 202 168 195 202 168 195 202 168 195 202 168 195 202 168 195 202 168 195 202 168 195 202 168 195 202 168 195 202 168 195 202 168 195 202 168 195 202 168 195 202 168 195 202 168 195 202 168 195 202 168 195 202 168 195 202 168 195 202 168 195 202 168 195 202 168 195 202 168 195 202 168 195 202 168 195 202 168 195 202 168 0 0 255 194 202 169 194 202 169 194 202 169 194 202 169 194 202 169 194 202 169 194 202 169 194 202 169 194 202 169 194 202 169 194 202 169 194 202 169 194 202 169 194 202 169 194 202 169 194 202 169 194 202 169 194 202 169 194 202 169 194 202 169 194 202 169 194 202 169 194 202 169 194 202 169 194 202 169 194 202 169 194 202 169 194 202 169 194 202 169 194 202 169 194 202 169 194 202 169 194 202 169 0 0 255 193 202 171 193 202 171 193 202 171 193 202 171 193 202 171 193 202 171 193 202 171 193 202 171 193 202 171 193 202 171 193 202 171 193 202 171 193 202 171 193 202 171 193 202 171 193 202 171 193 202 171 193 202 171 193 202 171 193 202 171 193 202 171 193 202 171 193 202 171 193 202 171 193 202 171 193 202 171 193 202 171 193 202 171 193 202 171 193 202 171 193 202 171 193 202 171 193 202 171 0 0 255 192 200 169 192 200 169 192 200 169 192 200 169 192 200 169 192 200 169 192 200 169 192 200 169 192 200 169 192 200 169 192 200 169 192 200 169 192 200 169 192 200 169 192 200 169 192 200 169 192 200 169 192 200 169 192 200 169 192 200 169 192 200 169 192 200 169 192 200 169 192 200 169 0 0 255 0 0 255 191 194 159 191 194 159 191 194 159 191 194 159 191 194 159 191 194 159 191 194 159 191 194 159 191 194 159 191 194 159 191 194 159 191 194 159 191 194 159 191 194 159 191 194 159 191 194 159 191 194 159 191 194 159 191 194 159 191 194 159 191 194 159 191 194 159 191 194 159 191 194 159 191 194 159 191 194 159 191 194 159 191 194 159 191 194 159 191 194 159 
183 181 129 183 181 129 183 181 129 183 181 129 183 181 129 183 181 129 183 181 129 183 181 129 183 181 129 183 181 129 183 181 129 183 181 129 183 181 129 183 181 129 183 181 129 183 181 129 183 181 129 183 181 129 183 181 129 183 181 129 183 181 129 183 181 129 0 0 255 189 192 145 189 192 145 189 192 145 189 192 145 189 192 145 189 192 145 189 192 145 189 192 145 189 192 145 189 192 145 189 192 145 189 192 145 189 192 145 189 192 145 189 192 145 189 192 145 189 192 145 189 192 145 189 192 145 189 192 145 189 192 145 189 192 145 189 192 145 189 192 145 189 192 145 189 192 145 0 0 255 192 199 158 192 199 158 192 199 158 192 199 158 192 199 158 192 199 158 192 199 158 192 199 158 192 199 158 192 199 158 192 199 158 192 199 158 192 199 158 192 199 158 192 199 158 192 199 158 192 199 158 192 199 158 192 199 158 192 199 158 192 199 158 192 199 158 192 199 158 192 199 158 192 199 158 192 199 158 192 199 158 192 199 158 0 0 255 194 200 164 194 200 164 194 200 164 194 200 164 194 200 164 194 200 164 194 200 164 194 200 164 194 200 164 194 200 164 194 200 164 194 200 164 194 200 164 194 200 164 194 200 164 194 200 164 194 200 164 194 200 164 194 200 164 194 200 164 194 200 164 194 200 164 0 0 255 195 202 168 195 202 168 195 202 168 195 202 168 195 202 168 195 202 168 195 202 168 195 202 168 195 202 168 195 202 168 195 202 168 195 202 168 195 202 168 195 202 168 195 202 168 195 202 168 195 202 168 195 202 168 195 202 168 195 202 168 195 202 168 195 202 168 195 202 168 195 202 168 195 202 168 195 202 168 195 202 168 195 202 168 195 202 168 0 0 255 0 0 255 194 202 169 194 202 169 194 202 169 194 202 169 194 202 169 194 202 169 194 202 169 194 202 169 194 202 169 194 202 169 194 202 169 194 202 169 194 202 169 194 202 169 194 202 169 194 202 169 194 202 169 194 202 169 194 202 169 194 202 169 194 202 169 194 202 169 194 202 169 194 202 169 194 202 169 194 202 169 194 202 169 194 202 169 194 202 169 194 202 169 194 202 169 194 202 169 0 0 255 193 202 171 193 202 171 193 202 171 193 202 171 193 202 171 193 202 171 193 202 171 193 202 171 193 202 171 193 202 171 193 202 171 193 202 171 193 202 171 193 202 171 193 202 171 193 202 171 193 202 171 193 202 171 193 202 171 193 202 171 193 202 171 193 202 171 193 202 171 193 202 171 193 202 171 193 202 171 193 202 171 193 202 171 193 202 171 193 202 171 193 202 171 193 202 171 193 202 171 0 0 255 192 200 169 192 200 169 192 200 169 192 200 169 192 200 169 192 200 169 192 200 169 192 200 169 192 200 169 192 200 169 192 200 169 192 200 169 192 200 169 192 200 169 192 200 169 192 200 169 192 200 169 192 200 169 192 200 169 192 200 169 192 200 169 192 200 169 192 200 169 192 200 169 192 200 169 0 0 255 0 0 255 191 194 159 191 194 159 191 194 159 191 194 159 191 194 159 191 194 159 191 194 159 191 194 159 191 194 159 191 194 159 191 194 159 191 194 159 191 194 159 191 194 159 191 194 159 191 194 159 191 194 159 191 194 159 191 194 159 191 194 159 191 194 159 191 194 159 191 194 159 191 194 159 191 194 159 191 194 159 191 194 159 191 194 159 191 194 159 
183 181 129 183 181 129 183 181 129 183 181 129 183 181 129 183 181 129 183 181 129 183 181 129 183 181 129 183 181 129 183 181 129 183 181 129 183 181 129 183 181 129 183 181 129 183 181 129 183 181 129 183 181 129 183 181 129 183 181 129 183 181 129 183 181 129 0 0 255 189 192 145 189 192 145 189 192 145 189 192 145 189 192 145 189 192 145 189 192 145 189 192 145 189 192 145 189 192 145 189 192 145 189 192 145 189 192 145 189 192 145 189 192 145 189 192 145 189 192 145 189 192 145 189 192 145 189 192 145 189 192 145 189 192 145 189 192 145 189 192 145 189 192 145 189 192 145 0 0 255 192 199 158 192 199 158 192 199 158 192 199 158 192 199 158 192 199 158 192 199 158 192 199 158 192 199 158 192 199 158 192 199 158 192 199 158 192 199 158 192 199 158 192 199 158 192 199 158 192 199 158 192 199 158 192 199 158 192 199 158 192 199 158 192 199 158 192 199 158 192 199 158 192 199 158 192 199 158 192 199 158 192 199 158 0 0 255 194 200 164 194 200 164 194 200 164 194 200 164 194 200 164 194 200 164 194 200 164 194 200 164 194 200 164 194 200 164 194 200 164 194 200 164 194 200 164 194 200 164 194 200 164 194 200 164 194 200 164 194 200 164 194 200 164 194 200 164 194 200 164 194 200 164 0 0 255 195 202 168 195 202 168 195 202 168 195 202 168 195 202 168 195 202 168 195 202 168 195 202 168 195 202 168 195 202 168 195 202 168 195 202 168 195 202 168 195 202 168 195 202 168 195 202 168 195 202 168 195 202 168 195 202 168 195 202 168 195 202 168 195 202 168 195 202 168 195 202 168 195 202 168 195 202 168 195 202 168 195 202 168 195 202 168 195 202 168 0 0 255 0 0 255 194 202 169 194 202 169 194 202 169 194 202 169 194 202 169 194 202 169 194 202 169 194 202 169 194 202 169 194 202 169 194 202 169 194 202 169 194 202 169 194 202 169 194 202 169 194 202 169 194 202 169 194 202 169 194 202 169 194 202 169 194 202 169 194 202 169 194 202 169 194 202 169 194 202 169 194 202 169 194 202 169 194 202 169 194 202 169 194 202 169 194 202 169 0 0 255 193 202 171 193 202 171 193 202 171 193 202 171 193 202 171 193 202 171 193 202 171 193 202 171 193 202 171 193 202 171 193 202 171 193 202 171 193 202 171 193 202 171 193 202 171 193 202 171 193 202 171 193 202 171 193 202 171 193 202 171 193 202 171 193 202 171 193 202 171 193 202 171 193 202 171 193 202 171 193 202 171 193 202 171 193 202 171 193 202 171 193 202 171 193 202 171 193 202 171 0 0 255 192 200 169 192 200 169 192 200 169 192 200 169 192 200 169 192 200 169 192 200 169 192 200 169 192 200 169 192 200 169 192 200 169 192 200 169 192 200 169 192 200 169 192 200 169 192 200 169 192 200 169 192 200 169 192 200 169 192 200 169 192 200 169 192 200 169 192 200 169 192 200 169 192 200 169 192 200 169 0 0 255 191 194 159 191 194 159 191 194 159 191 194 159 191 194 159 191 194 159 191 194 159 191 194 159 191 194 159 191 194 159 191 194 159 191 194 159 191 194 159 191 194 159 191 194 159 191 194 159 191 194 159 191 194 159 191 194 159 191 194 159 191 194 159 191 194 159 191 194 159 191 194 159 191 194 159 191 194 159 191 194 159 191 194 159 191 194 159 
183 181 129 183 181 129 183 181 129 183 181 129 183 181 129 183 181 129 183 181 129 183 181 129 183 181 129 183 181 129 183 181 129 183 181 129 183 181 129 183 181 129 183 181 129 183 181 129 183 181 129 183 181 129 183 181 129 183 181 129 183 181 129 183 181 129 0 0 255 189 192 145 189 192 145 189 192 145 189 192 145 189 192 145 189 192 145 189 192 145 189 192 145 189 192 145 189 192 145 189 192 145 189 192 145 189 192 145 189 192 145 189 192 145 189 192 145 189 192 145 189 192 145 189 192 145 189 192 145 189 192 145 189 192 145 189 192 145 189 192 145 189 192 145 0 0 255 192 199 158 192 199 158 192 199 158 192 199 158 192 199 158 192 199 158 192 199 158 192 199 158 192 199 158 192 199 158 192 199 158 192 199 158 192 199 158 192 199 158 192 199 158 192 199 158 192 199 158 192 199 158 192 199 158 192 199 158 192 199 158 192 199 158 192 199 158 192 199 158 192 199 158 192 199 158 192 199 158 192 199 158 0 0 255 194 200 164 194 200 164 194 200 164 194 200 164 194 200 164 194 200 164 194 200 164 194 200 164 194 200 164 194 200 164 194 200 164 194 200 164 194 200 164 194 200 164 194 200 164 194 200 164 194 200 164 194 200 164 194 200 164 194 200 164 194 200 164 194 200 164 194 200 164 0 0 255 195 202 168 195 202 168 195 202 168 195 202 168 195 202 168 195 202 168 195 202 168 195 202 168 195 202 168 195 202 168 195 202 168 195 202 168 195 202 168 195 202 168 195 202 168 195 202 168 195 202 168 195 202 168 195 202 168 195 202 168 195 202 168 195 202 168 195 202 168 195 202 168 195 202 168 195 202 168 195 202 168 195 202 168 195 202 168 195 202 168 195 202 168 0 0 255 194 202 169 194 202 169 194 202 169 194 202 169 194 202 169 194 202 169 194 202 169 194 202 169 194 202 169 194 202 169 194 202 169 194 202 169 194 202 169 194 202 169 194 202 169 194 202 169 194 202 169 194 202 169 194 202 169 194 202 169 194 202 169 194 202 169 194 202 169 194 202 169 194 202 169 194 202 169 194 202 169 194 202 169 0 0 255 0 0 255 0 0 255 0 0 255 193 202 171 193 202 171 193 202 171 193 202 171 193 202 171 193 202 171 193 202 171 193 202 171 193 202 171 193 202 171 193 202 171 193 202 171 193 202 171 193 202 171 193 202 171 193 202 171 193 202 171 193 202 171 193 202 171 193 202 171 193 202 171 193 202 171 193 202 171 193 202 171 193 202 171 193 202 171 193 202 171 193 202 171 193 202 171 193 202 171 193 202 171 193 202 171 193 202 171 0 0 255 192 200 169 192 200 169 192 200 169 192 200 169 192 200 169 192 200 169 192 200 169 192 200 169 192 200 169 192 200 169 192 200 169 192 200 169 192 200 169 192 200 169 192 200 169 192 200 169 192 200 169 192 200 169 192 200 169 192 200 169 192 200 169 192 200 169 192 200 169 192 200 169 192 200 169 192 200 169 0 0 255 191 194 159 191 194 159 191 194 159 191 194 159 191 194 159 191 194 159 191 194 159 191 194 159 191 194 159 191 194 159 191 194 159 191 194 159 191 194 159 191 194 159 191 194 159 191 194 159 191 194 159 191 194 159 191 194 159 191 194 159 191 194 159 191 194 159 191 194 159 191 194 159 191 194 159 191 194 159 191 194 159 191 194 159 191 194 159 
183 181 129 183 181 129 183 181 129 183 181 129 183 181 129 183 181 129 183 181 129 183 181 129 183 181 129 183 181 129 183 181 129 183 181 129 183 181 129 183 181 129 183 181 129 183 181 129 183 181 129 183 181 129 183 181 129 183 181 129 183 181 129 183 181 129 0 0 255 189 192 145 189 192 145 189 192 145 189 192 145 189 192 145 189 192 145 189 192 145 189 192 145 189 192 145 189 192 145 189 192 145 189 192 145 189 192 145 189 192 145 189 192 145 189 192 145 189 192 145 189 192 145 189 192 145 189 192 145 189 192 145 189 192 145 189 192 145 189 192 145 189 192 145 0 0 255 192 199 158 192 199 158 192 199 158 192 199 158 192 199 158 192 199 158 192 199 158 192 199 158 192 199 158 192 199 158 192 199 158 192 199 158 192 199 158 192 199 158 192 199 158 192 199 158 192 199 158 192 199 158 192 199 158 192 199 158 192 199 158 192 199 158 192 199 158 192 199 158 192 199 158 192 199 158 192 199 158 192 199 158 0 0 255 194 200 164 194 200 164 194 200 164 194 200 164 194 200 164 194 200 164 194 200 164 194 200 164 194 200 164 194 200 164 194 200 164 194 200 164 194 200 164 194 200 164 194 200 164 194 200 164 194 200 164 194 200 164 194 200 164 194 200 164 194 200 164 194 200 164 194 200 164 0 0 255 195 202 168 195 202 168 195 202 168 195 202 168 195 202 168 195 202 168 195 202 168 195 202 168 195 202 168 195 202 168 195 202 168 195 202 168 195 202 168 195 202 168 195 202 168 195 202 168 195 202 168 195 202 168 195 202 168 195 202 168 195 202 168 195 202 168 195 202 168 195 202 168 195 202 168 195 202 168 195 202 168 195 202 168 195 202 168 195 202 168 195 202 168 0 0 255 0 0 255 194 202 169 194 202 169 194 202 169 194 202 169 194 202 169 194 202 169 194 202 169 194 202 169 194 202 169 194 202 169 194 202 169 194 202 169 194 202 169 194 202 169 194 202 169 194 202 169 194 202 169 194 202 169 194 202 169 194 202 169 194 202 169 194 202 169 194 202 169 194 202 169 194 202 169 0 0 255 0 0 255 197 203 172 197 203 172 197 203 172 0 0 255 0 0 255 193 202 171 193 202 171 193 202 171 193 202 171 193 202 171 193 202 171 193 202 171 193 202 171 193 202 171 193 202 171 193 202 171 193 202 171 193 202 171 193 202 171 193 202 171 193 202 171 193 202 171 193 202 171 193 202 171 193 202 171 193 202 171 193 202 171 193 202 171 193 202 171 193 202 171 193 202 171 193 202 171 193 202 171 193 202 171 193 202 171 193 202 171 0 0 255 192 200 169 192 200 169 192 200 169 192 200 169 192 200 169 192 200 169 192 200 169 192 200 169 192 200 169 192 200 169 192 200 169 192 200 169 192 200 169 192 200 169 192 200 169 192 200 169 192 200 169 192 200 169 192 200 169 192 200 169 192 200 169 192 200 169 192 200 169 192 200 169 192 200 169 192 200 169 192 200 169 0 0 255 0 0 255 191 194 159 191 194 159 191 194 159 191 194 159 191 194 159 191 194 159 191 194 159 191 194 159 191 194 159 191 194 159 191 194 159 191 194 159 191 194 159 191 194 159 191 194 159 191 194 159 191 194 159 191 194 159 191 194 159 191 194 159 191 194 159 191 194 159 191 194 159 191 194 159 191 194 159 191 194 159 191 194 159 191 194 159 
183 181 129 183 181 129 183 181 129 183 181 129 183 181 129 183 181 129 183 181 129 183 181 129 183 181 129 183 181 129 183 181 129 183 181 129 183 181 129 183 181 129 183 181 129 183 181 129 183 181 129 183 181 129 183 181 129 183 181 129 183 181 129 0 0 255 189 192 145 189 192 145 189 192 145 189 192 145 189 192 145 189 192 145 189 192 145 189 192 145 189 192 145 189 192 145 189 192 145 189 192 145 189 192 145 189 192 145 189 192 145 189 192 145 189 192 145 189 192 145 189 192 145 189 192 145 189 192 145 189 192 145 189 192 145 189 192 145 189 192 145 0 0 255 192 199 158 192 199 158 192 199 158 192 199 158 192 199 158 192 199 158 192 199 158 192 199 158 192 199 158 192 199 158 192 199 158 192 199 158 192 199 158 192 199 158 192 199 158 192 199 158 192 199 158 192 199 158 192 199 158 192 199 158 192 199 158 192 199 158 192 199 158 192 199 158 192 199 158 192 199 158 192 199 158 192 199 158 192 199 158 0 0 255 194 200 164 194 200 164 194 200 164 194 200 164 194 200 164 194 200 164 194 200 164 194 200 164 194 200 164 194 200 164 194 200 164 194 200 164 194 200 164 194 200 164 194 200 164 194 200 164 194 200 164 194 200 164 194 200 164 194 200 164 194 200 164 194 200 164 194 200 164 0 0 255 195 202 168 195 202 168 195 202 168 195 202 168 195 202 168 195 202 168 195 202 168 195 202 168 195 202 168 195 202 168 195 202 168 195 202 168 195 202 168 195 202 168 195 202 168 195 202 168 195 202 168 195 202 168 195 202 168 195 202 168 195 202 168 195 202 168 195 202 168 195 202 168 195 202 168 195 202 168 195 202 168 195 202 168 195 202 168 195 202 168 195 202 168 195 202 168 0 0 255 0 0 255 194 202 169 194 202 169 194 202 169 194 202 169 194 202 169 194 202 169 194 202 169 194 202 169 194 202 169 194 202 169 194 202 169 194 202 169 194 202 169 194 202 169 194 202 169 194 202 169 194 202 169 194 202 169 194 202 169 194 202 169 194 202 169 0 0 255 0 0 255 0 0 255 197 203 172 197 203 172 197 203 172 197 203 172 197 203 172 197 203 172 0 0 255 193 202 171 193 202 171 193 202 171 193 202 171 193 202 171 193 202 171 193 202 171 193 202 171 193 202 171 193 202 171 193 202 171 193 202 171 193 202 171 193 202 171 193 202 171 193 202 171 193 202 171 193 202 171 193 202 171 193 202 171 193 202 171 193 202 171 193 202 171 193 202 171 193 202 171 193 202 171 193 202 171 193 202 171 193 202 171 193 202 171 193 202 171 0 0 255 192 200 169 192 200 169 192 200 169 192 200 169 192 200 169 192 200 169 192 200 169 192 200 169 192 200 169 192 200 169 192 200 169 192 200 169 192 200 169 192 200 169 192 200 169 192 200 169 192 200 169 192 200 169 192 200 169 192 200 169 192 200 169 192 200 169 192 200 169 192 200 169 192 200 169 192 200 169 192 200 169 192 200 169 0 0 255 191 194 159 191 194 159 191 194 159 191 194 159 191 194 159 191 194 159 191 194 159 191 194 159 191 194 159 191 194 159 191 194 159 191 194 159 191 194 159 191 194 159 191 194 159 191 194 159 191 194 159 191 194 159 191 194 159 191 194 159 191 194 159 191 194 159 191 194 159 191 194 159 191 194 159 191 194 159 191 194 159 191 194 159 
183 181 129 183 181 129 183 181 129 183 181 129 183 181 129 183 181 129 183 181 129 183 181 129 183 181 129 183 181 129 183 181 129 183 181 129 183 181 129 183 181 129 183 181 129 183 181 129 183 181 129 183 181 129 183 181 129 183 181 129 183 181 129 0 0 255 189 192 145 189 192 145 189 192 145 189 192 145 189 192 145 189 192 145 189 192 145 189 192 145 189 192 145 189 192 145 189 192 145 189 192 145 189 192 145 189 192 145 189 192 145 189 192 145 189 192 145 189 192 145 189 192 145 189 192 145 189 192 145 189 192 145 189 192 145 189 192 145 189 192 145 0 0 255 192 199 158 192 199 158 192 199 158 192 199 158 192 199 158 192 199 158 192 199 158 192 199 158 192 199 158 192 199 158 192 199 158 192 199 158 192 199 158 192 199 158 192 199 158 192 199 158 192 199 158 192 199 158 192 199 158 192 199 158 192 199 158 192 199 158 192 199 158 192 199 158 192 199 158 192 199 158 192 199 158 192 199 158 0 0 255 194 200 164 194 200 164 194 200 164 194 200 164 194 200 164 194 200 164 194 200 164 194 200 164 194 200 164 194 200 164 194 200 164 194 200 164 194 200 164 194 200 164 194 200 164 194 200 164 194 200 164 194 200 164 194 200 164 194 200 164 194 200 164 194 200 164 194 200 164 194 200 164 0 0 255 0 0 255 195 202 168 195 202 168 195 202 168 195 202 168 195 202 168 195 202 168 195 202 168 195 202 168 195 202 168 195 202 168 195 202 168 195 202 168 195 202 168 195 202 168 195 202 168 195 202 168 195 202 168 195 202 168 195 202 168 195 202 168 195 202 168 195 202 168 195 202 168 195 202 168 195 202 168 195 202 168 195 202 168 195 202 168 195 202 168 195 202 168 195 202 168 195 202 168 0 0 255 194 202 169 194 202 169 194 202 169 194 202 169 194 202 169 194 202 169 194 202 169 194 202 169 194 202 169 194 202 169 194 202 169 194 202 169 194 202 169 194 202 169 194 202 169 194 202 169 194 202 169 194 202 169 0 0 255 0 0 255 0 0 255 197 203 172 197 203 172 197 203 172 197 203 172 197 203 172 197 203 172 197 203 172 197 203 172 197 203 172 0 0 255 0 0 255 193 202 171 193 202 171 193 202 171 193 202 171 193 202 171 193 202 171 193 202 171 193 202 171 193 202 171 193 202 171 193 202 171 193 202 171 193 202 171 193 202 171 193 202 171 193 202 171 193 202 171 193 202 171 193 202 171 193 202 171 193 202 171 193 202 171 193 202 171 193 202 171 193 202 171 193 202 171 193 202 171 193 202 171 193 202 171 193 202 171 0 0 255 192 200 169 192 200 169 192 200 169 192 200 169 192 200 169 192 200 169 192 200 169 192 200 169 192 200 169 192 200 169 192 200 169 192 200 169 192 200 169 192 200 169 192 200 169 192 200 169 192 200 169 192 200 169 192 200 169 192 200 169 192 200 169 192 200 169 192 200 169 192 200 169 192 200 169 192 200 169 192 200 169 192 200 169 0 0 255 191 194 159 191 194 159 191 194 159 191 194 159 191 194 159 191 194 159 191 194 159 191 194 159 191 194 159 191 194 159 191 194 159 191 194 159 191 194 159 191 194 159 191 194 159 191 194 159 191 194 159 191 194 159 191 194 159 191 194 159 191 194 159 191 194 159 191 194 159 191 194 159 191 194 159 191 194 159 191 194 159 191 194 159 
183 181 129 183 181 129 183 181 129 183 181 129 183 181 129 183 181 129 183 181 129 183 181 129 183 181 129 183 181 129 183 181 129 183 181 129 183 181 129 183 181 129 183 181 129 183 181 129 183 181 129 183 181 129 183 181 129 183 181 129 183 181 129 0 0 255 189 192 145 189 192 145 189 192 145 189 192 145 189 192 145 189 192 145 189 192 145 189 192 145 189 192 145 189 192 145 189 192 145 189 192 145 189 192 145 189 192 145 189 192 145 189 192 145 189 192 145 189 192 145 189 192 145 189 192 145 189 192 145 189 192 145 189 192 145 189 192 145 189 192 145 0 0 255 192 199 158 192 199 158 192 199 158 192 199 158 192 199 158 192 199 158 192 199 158 192 199 158 192 199 158 192 199 158 192 199 158 192 199 158 192 199 158 192 199 158 192 199 158 192 199 158 192 199 158 192 199 158 192 199 158 192 199 158 192 199 158 192 199 158 192 199 158 192 199 158 192 199 158 192 199 158 192 199 158 192 199 158 0 0 255 194 200 164 194 200 164 194 200 164 194 200 164 194 200 164 194 200 164 194 200 164 194 200 164 194 200 164 194 200 164 194 200 164 194 200 164 194 200 164 194 200 164 194 200 164 194 200 164 194 200 164 194 200 164 194 200 164 194 200 164 194 200 164 194 200 164 194 200 164 194 200 164 194 200 164 0 0 255 195 202 168 195 202 168 195 202 168 195 202 168 195 202 168 195 202 168 195 202 168 195 202 168 195 202 168 195 202 168 195 202 168 195 202 168 195 202 168 195 202 168 195 202 168 195 202 168 195 202 168 195 202 168 195 202 168 195 202 168 195 202 168 195 202 168 195 202 168 195 202 168 195 202 168 195 202 168 195 202 168 195 202 168 195 202 168 195 202 168 195 202 168 195 202 168 0 0 255 0 0 255 194 202 169 194 202 169 194 202 169 194 202 169 194 202 169 194 202 169 194 202 169 194 202 169 194 202 169 194 202 169 194 202 169 194 202 169 194 202 169 194 202 169 0 0 255 0 0 255 0 0 255 197 203 172 197 203 172 197 203 172 197 203 172 197 203 172 197 203 172 197 203 172 197 203 172 197 203 172 197 203 172 197 203 172 197 203 172 197 203 172 0 0 255 193 202 171 193 202 171 193 202 171 193 202 171 193 202 171 193 202 171 193 202 171 193 202 171 193 202 171 193 202 171 193 202 171 193 202 171 193 202 171 193 202 171 193 202 171 193 202 171 193 202 171 193 202 171 193 202 171 193 202 171 193 202 171 193 202 171 193 202 171 193 202 171 193 202 171 193 202 171 193 202 171 193 202 171 193 202 171 193 202 171 0 0 255 192 200 169 192 200 169 192 200 169 192 200 169 192 200 169 192 200 169 192 200 169 192 200 169 192 200 169 192 200 169 192 200 169 192 200 169 192 200 169 192 200 169 192 200 169 192 200 169 192 200 169 192 200 169 192 200 169 192 200 169 192 200 169 192 200 169 192 200 169 192 200 169 192 200 169 192 200 169 192 200 169 192 200 169 0 0 255 0 0 255 191 194 159 191 194 159 191 194 159 191 194 159 191 194 159 191 194 159 191 194 159 191 194 159 191 194 159 191 194 159 191 194 159 191 194 159 191 194 159 191 194 159 191 194 159 191 194 159 191 194 159 191 194 159 191 194 159 191 194 159 191 194 159 191 194 159 191 194 159 191 194 159 191 194 159 191 194 159 191 194 159 
183 181 129 183 181 129 183 181 129 183 181 129 183 181 129 183 181 129 183 181 129 183 181 129 183 181 129 183 181 129 183 181 129 183 181 129 183 181 129 183 181 129 183 181 129 183 181 129 183 181 129 183 181 129 183 181 129 183 181 129 183 181 129 0 0 255 189 192 145 189 192 145 189 192 145 189 192 145 189 192 145 189 192 145 189 192 145 189 192 145 189 192 145 189 192 145 189 192 145 189 192 145 189 192 145 189 192 145 189 192 145 189 192 145 189 192 145 189 192 145 189 192 145 189 192 145 189 192 145 189 192 145 189 192 145 189 192 145 189 192 145 0 0 255 192 199 158 192 199 158 192 199 158 192 199 158 192 199 158 192 199 158 192 199 158 192 199 158 192 199 158 192 199 158 192 199 158 192 199 158 192 199 158 192 199 158 192 199 158 192 199 158 192 199 158 192 199 158 192 199 158 192 199 158 192 199 158 192 199 158 192 199 158 192 199 158 192 199 158 192 199 158 192 199 158 192 199 158 0 0 255 194 200 164 194 200 164 194 200 164 194 200 164 194 200 164 194 200 164 194 200 164 194 200 164 194 200 164 194 200 164 194 200 164 194 200 164 194 200 164 194 200 164 194 200 164 194 200 164 194 200 164 194 200 164 194 200 164 194 200 164 194 200 164 194 200 164 194 200 164 194 200 164 194 200 164 0 0 255 195 202 168 195 202 168 195 202 168 195 202 168 195 202 168 195 202 168 195 202 168 195 202 168 195 202 168 195 202 168 195 202 168 195 202 168 195 202 168 195 202 168 195 202 168 195 202 168 195 202 168 195 202 168 195 202 168 195 202 168 195 202 168 195 202 168 195 202 168 195 202 168 195 202 168 195 202 168 195 202 168 195 202 168 195 202 168 195 202 168 195 202 168 195 202 168 195 202 168 0 0 255 0 0 255 194 202 169 194 202 169 194 202 169 194 202 169 194 202 169 194 202 169 194 202 169 194 202 169 194 202 169 194 202 169 194 202 169 0 0 255 0 0 255 197 203 172 197 203 172 197 203 172 197 203 172 197 203 172 197 203 172 197 203 172 197 203 172 197 203 172 197 203 172 197 203 172 197 203 172 197 203 172 197 203 172 197 203 172 197 203 172 0 0 255 0 0 255 193 202 171 193 202 171 193 202 171 193 202 171 193 202 171 193 202 171 193 202 171 193 202 171 193 202 171 193 202 171 193 202 171 193 202 171 193 202 171 193 202 171 193 202 171 193 202 171 193 202 171 193 202 171 193 202 171 193 202 171 193 202 171 193 202 171 193 202 171 193 202 171 193 202 171 193 202 171 193 202 171 193 202 171 193 202 171 0 0 255 192 200 169 192 200 169 192 200 169 192 200 169 192 200 169 192 200 169 192 200 169 192 200 169 192 200 169 192 200 169 192 200 169 192 200 169 192 200 169 192 200 169 192 200 169 192 200 169 192 200 169 192 200 169 192 200 169 192 200 169 192 200 169 192 200 169 192 200 169 192 200 169 192 200 169 192 200 169 192 200 169 192 200 169 192 200 169 0 0 255 191 194 159 191 194 159 191 194 159 191 194 159 191 194 159 191 194 159 191 194 159 191 194 159 191 194 159 191 194 159 191 194 159 191 194 159 191 194 159 191 194 159 191 194 159 191 194 159 191 194 159 191 194 159 191 194 159 191 194 159 191 194 159 191 194 159 191 194 159 191 194 159 191 194 159 191 194 159 191 194 159 
183 181 129 183 181 129 183 181 129 183 181 129 183 181 129 183 181 129 183 181 129 183 181 129 183 181 129 183 181 129 183 181 129 183 181 129 183 181 129 183 181 129 183 181 129 183 181 129 183 181 129 183 181 129 183 181 129 183 181 129 183 181 129 0 0 255 189 192 145 189 192 145 189 192 145 189 192 145 189 192 145 189 192 145 189 192 145 189 192 145 189 192 145 189 192 145 189 192 145 189 192 145 189 192 145 189 192 145 189 192 145 189 192 145 189 192 145 189 192 145 189 192 145 189 192 145 189 192 145 189 192 145 189 192 145 189 192 145 189 192 145 0 0 255 192 199 158 192 199 158 192 199 158 192 199 158 192 199 158 192 199 158 192 199 158 192 199 158 192 199 158 192 199 158 192 199 158 192 199 158 192 199 158 192 199 158 192 199 158 192 199 158 192 199 158 192 199 158 192 199 158 192 199 158 192 199 158 192 199 158 192 199 158 192 199 158 192 199 158 192 199 158 192 199 158 0 0 255 194 200 164 194 200 164 194 200 164 194 200 164 194 200 164 194 200 164 194 200 164 194 200 164 194 200 164 194 200 164 194 200 164 194 200 164 194 200 164 194 200 164 194 200 164 194 200 164 194 200 164 194 200 164 194 200 164 194 200 164 194 200 164 194 200 164 194 200 164 194 200 164 194 200 164 194 200 164 0 0 255 195 202 168 195 202 168 195 202 168 195 202 168 195 202 168 195 202 168 195 202 168 195 202 168 195 202 168 195 202 168 195 202 168 195 202 168 195 202 168 195 202 168 195 202 168 195 202 168 195 202 168 195 202 168 195 202 168 195 202 168 195 202 168 195 202 168 195 202 168 195 202 168 195 202 168 195 202 168 195 202 168 195 202 168 195 202 168 195 202 168 195 202 168 195 202 168 195 202 168 195 202 168 0 0 255 194 202 169 194 202 169 194 202 169 194 202 169 194 202 169 194 202 169 194 202 169 194 202 169 0 0 255 0 0 255 0 0 255 197 203 172 197 203 172 197 203 172 197 203 172 197 203 172 197 203 172 197 203 172 197 203 172 197 203 172 197 203 172 197 203 172 197 203 172 197 203 172 197 203 172 197 203 172 197 203 172 197 203 172 197 203 172 197 203 172 0 0 255 0 0 255 193 202 171 193 202 171 193 202 171 193 202 171 193 202 171 193 202 171 193 202 171 193 202 171 193 202 171 193 202 171 193 202 171 193 202 171 193 202 171 193 202 171 193 202 171 193 202 171 193 202 171 193 202 171 193 202 171 193 202 171 193 202 171 193 202 171 193 202 171 193 202 171 193 202 171 193 202 171 193 202 171 193 202 171 0 0 255 192 200 169 192 200 169 192 200 169 192 200 169 192 200 169 192 200 169 192 200 169 192 200 169 192 200 169 192 200 169 192 200 169 192 200 169 192 200 169 192 200 169 192 200 169 192 200 169 192 200 169 192 200 169 192 200 169 192 200 169 192 200 169 192 200 169 192 200 169 192 200 169 192 200 169 192 200 169 192 200 169 192 200 169 192 200 169 0 0 255 191 194 159 191 194 159 191 194 159 191 194 159 191 194 159 191 194 159 191 194 159 191 194 159 191 194 159 191 194 159 191 194 159 191 194 159 191 194 159 191 194 159 191 194 159 191 194 159 191 194 159 191 194 159 191 194 159 191 194 159 191 194 159 191 194 159 191 194 159 191 194 159 191 194 159 191 194 159 191 194 159 
183 181 129 183 181 129 183 181 129 183 181 129 183 181 129 183 181 129 183 181 129 183 181 129 183 181 129 183 181 129 183 181 129 183 181 129 183 181 129 183 181 129 183 181 129 183 181 129 183 181 129 183 181 129 183 181 129 183 181 129 0 0 255 189 192 145 189 192 145 189 192 145 189 192 145 189 192 145 189 192 145 189 192 145 189 192 145 189 192 145 189 192 145 189 192 145 189 192 145 189 192 145 189 192 145 189 192 145 189 192 145 189 192 145 189 192 145 189 192 145 189 192 145 189 192 145 189 192 145 189 192 145 189 192 145 189 192 145 189 192 145 0 0 255 192 199 158 192 199 158 192 199 158 192 199 158 192 199 158 192 199 158 192 199 158 192 199 158 192 199 158 192 199 158 192 199 158 192 199 158 192 199 158 192 199 158 192 199 158 192 199 158 192 199 158 192 199 158 192 199 158 192 199 158 192 199 158 192 199 158 192 199 158 192 199 158 192 199 158 192 199 158 0 0 255 194 200 164 194 200 164 194 200 164 194 200 164 194 200 164 194 200 164 194 200 164 194 200 164 194 200 164 194 200 164 194 200 164 194 200 164 194 200 164 194 200 164 194 200 164 194 200 164 194 200 164 194 200 164 194 200 164 194 200 164 194 200 164 194 200 164 194 200 164 194 200 164 194 200 164 194 200 164 194 200 164 0 0 255 195 202 168 195 202 168 195 202 168 195 202 168 195 202 168 195 202 168 195 202 168 195 202 168 195 202 168 195 202 168 195 202 168 195 202 168 195 202 168 195 202 168 195 202 168 195 202 168 195 202 168 195 202 168 195 202 168 195 202 168 195 202 168 195 202 168 195 202 168 195 202 168 195 202 168 195 202 168 195 202 168 195 202 168 195 202 168 195 202 168 195 202 168 195 202 168 195 202 168 195 202 168 0 0 255 0 0 255 194 202 169 194 202 169 194 202 169 0 0 255 0 0 255 0 0 255 0 0 255 197 203 172 197 203 172 197 203 172 197 203 172 197 203 172 197 203 172 197 203 172 197 203 172 197 203 172 197 203 172 197 203 172 197 203 172 197 203 172 197 203 172 197 203 172 197 203 172 197 203 172 197 203 172 197 203 172 197 203 172 197 203 172 197 203 172 197 203 172 0 0 255 193 202 171 193 202 171 193 202 171 193 202 171 193 202 171 193 202 171 193 202 171 193 202 171 193 202 171 193 202 171 193 202 171 193 202 171 193 202 171 193 202 171 193 202 171 193 202 171 193 202 171 193 202 171 193 202 171 193 202 171 193 202 171 193 202 171 193 202 171 193 202 171 193 202 171 193 202 171 193 202 171 0 0 255 192 200 169 192 200 169 192 200 169 192 200 169 192 200 169 192 200 169 192 200 169 192 200 169 192 200 169 192 200 169 192 200 169 192 200 169 192 200 169 192 200 169 192 200 169 192 200 169 192 200 169 192 200 169 192 200 169 192 200 169 192 200 169 192 200 169 192 200 169 192 200 169 192 200 169 192 200 169 192 200 169 192 200 169 192 200 169 192 200 169 0 0 255 0 0 255 191 194 159 191 194 159 191 194 159 191 194 159 191 194 159 191 194 159 191 194 159 191 194 159 191 194 159 191 194 159 191 194 159 191 194 159 191 194 159 191 194 159 191 194 159 191 194 159 191 194 159 191 194 159 191 194 159 191 194 159 191 194 159 191 194 159 191 194 159 191 194 159 191 194 159 191 194 159 
183 181 129 183 181 129 183 181 129 183 181 129 183 181 129 183 181 129 183 181 129 183 181 129 183 181 129 183 181 129 183 181 129 183 181 129 183 181 129 183 181 129 183 181 129 183 181 129 183 181 129 183 181 129 183 181 129 183 181 129 0 0 255 189 192 145 189 192 145 189 192 145 189 192 145 189 192 145 189 192 145 189 192 145 189 192 145 189 192 145 189 192 145 189 192 145 189 192 145 189 192 145 189 192 145 189 192 145 189 192 145 189 192 145 189 192 145 189 192 145 189 192 145 189 192 145 189 192 145 189 192 145 189 192 145 189 192 145 189 192 145 0 0 255 192 199 158 192 199 158 192 199 158 192 199 158 192 199 158 192 199 158 192 199 158 192 199 158 192 199 158 192 199 158 192 199 158 192 199 158 192 199 158 192 199 158 192 199 158 192 199 158 192 199 158 192 199 158 192 199 158 192 199 158 192 199 158 192 199 158 192 199 158 192 199 158 192 199 158 192 199 158 0 0 255 194 200 164 194 200 164 194 200 164 194 200 164 194 200 164 194 200 164 194 200 164 194 200 164 194 200 164 194 200 164 194 200 164 194 200 164 194 200 164 194 200 164 194 200 164 194 200 164 194 200 164 194 200 164 194 200 164 194 200 164 194 200 164 194 200 164 194 200 164 194 200 164 194 200 164 194 200 164 194 200 164 0 0 255 195 202 168 195 202 168 195 202 168 195 202 168 195 202 168 195 202 168 195 202 168 195 202 168 195 202 168 195 202 168 195 202 168 195 202 168 195 202 168 195 202 168 195 202 168 195 202 168 195 202 168 195 202 168 195 202 168 195 202 168 195 202 168 195 202 168 195 202 168 195 202 168 195 202 168 195 202 168 195 202 168 195 202 168 195 202 168 195 202 168 195 202 168 195 202 168 195 202 168 195 202 168 195 202 168 0 0 255 0 0 255 0 0 255 0 0 255 197 203 172 197 203 172 197 203 172 197 203 172 197 203 172 197 203 172 197 203 172 197 203 172 197 203 172 197 203 172 197 203 172 197 203 172 197 203 172 197 203 172 197 203 172 197 203 172 197 203 172 197 203 172 197 203 172 197 203 172 197 203 172 197 203 172 197 203 172 197 203 172 197 203 172 197 203 172 197 203 172 0 0 255 193 202 171 193 202 171 193 202 171 193 202 171 193 202 171 193 202 171 193 202 171 193 202 171 193 202 171 193 202 171 193 202 171 193 202 171 193 202 171 193 202 171 193 202 171 193 202 171 193 202 171 193 202 171 193 202 171 193 202 171 193 202 171 193 202 171 193 202 171 193 202 171 193 202 171 193 202 171 193 202 171 0 0 255 192 200 169 192 200 169 192 200 169 192 200 169 192 200 169 192 200 169 192 200 169 192 200 169 192 200 169 192 200 169 192 200 169 192 200 169 192 200 169 192 200 169 192 200 169 192 200 169 192 200 169 192 200 169 192 200 169 192 200 169 192 200 169 192 200 169 192 200 169 192 200 169 192 200 169 192 200 169 192 200 169 192 200 169 192 200 169 192 200 169 192 200 169 0 0 255 191 194 159 191 194 159 191 194 159 191 194 159 191 194 159 191 194 159 191 194 159 191 194 159 191 194 159 191 194 159 191 194 159 191 194 159 191 194 159 191 194 159 191 194 159 191 194 159 191 194 159 191 194 159 191 194 159 191 194 159 191 194 159 191 194 159 191 194 159 191 194 159 191 194 159 191 194 159 
183 181 129 183 181 129 183 181 129 183 181 129 183 181 129 183 181 129 183 181 129 183 181 129 183 181 129 183 181 129 183 181 129 183 181 129 183 181 129 183 181 129 183 181 129 183 181 129 183 181 129 183 181 129 183 181 129 0 0 255 189 192 145 189 192 145 189 192 145 189 192 145 189 192 145 189 192 145 189 192 145 189 192 145 189 192 145 189 192 145 189 192 145 189 192 145 189 192 145 189 192 145 189 192 145 189 192 145 189 192 145 189 192 145 189 192 145 189 192 145 189 192 145 189 192 145 189 192 145 189 192 145 189 192 145 189 192 145 189 192 145 0 0 255 192 199 158 192 199 158 192 199 158 192 199 158 192 199 158 192 199 158 192 199 158 192 199 158 192 199 158 192 199 158 192 199 158 192 199 158 192 199 158 192 199 158 192 199 158 192 199 158 192 199 158 192 199 158 192 199 158 192 199 158 192 199 158 192 199 158 192 199 158 192 199 158 192 199 158 0 0 255 194 200 164 194 200 164 194 200 164 194 200 164 194 200 164 194 200 164 194 200 164 194 200 164 194 200 164 194 200 164 194 200 164 194 200 164 194 200 164 194 200 164 194 200 164 194 200 164 194 200 164 194 200 164 194 200 164 194 200 164 194 200 164 194 200 164 194 200 164 194 200 164 194 200 164 194 200 164 194 200 164 194 200 164 0 0 255 195 202 168 195 202 168 195 202 168 195 202 168 195 202 168 195 202 168 195 202 168 195 202 168 195 202 168 195 202 168 195 202 168 195 202 168 195 202 168 195 202 168 195 202 168 195 202 168 195 202 168 195 202 168 195 202 168 195 202 168 195 202 168 195 202 168 195 202 168 195 202 168 195 202 168 195 202 168 195 202 168 195 202 168 195 202 168 195 202 168 195 202 168 195 202 168 195 202 168 195 202 168 195 202 168 195 202 168 0 0 255 197 203 172 197 203 172 197 203 172 197 203 172 197 203 172 197 203 172 197 203 172 197 203 172 197 203 172 197 203 172 197 203 172 197 203 172 197 203 172 197 203 172 197 203 172 197 203 172 197 203 172 197 203 172 197 203 172 197 203 172 197 203 172 197 203 172 197 203 172 197 203 172 197 203 172 197 203 172 197 203 172 197 203 172 197 203 172 0 0 255 0 0 255 0 0 255 193 202 171 193 202 171 193 202 171 193 202 171 193 202 171 193 202 171 193 202 171 193 202 171 193 202 171 193 202 171 193 202 171 193 202 171 193 202 171 193 202 171 193 202 171 193 202 171 193 202 171 193 202 171 193 202 171 193 202 171 193 202 171 193 202 171 193 202 171 193 202 171 193 202 171 0 0 255 192 200 169 192 200 169 192 200 169 192 200 169 192 200 169 192 200 169 192 200 169 192 200 169 192 200 169 192 200 169 192 200 169 192 200 169 192 200 169 192 200 169 192 200 169 192 200 169 192 200 169 192 200 169 192 200 169 192 200 169 192 200 169 192 200 169 192 200 169 192 200 169 192 200 169 192 200 169 192 200 169 192 200 169 192 200 169 192 200 169 192 200 169 0 0 255 191 194 159 191 194 159 191 194 159 191 194 159 191 194 159 191 194 159 191 194 159 191 194 159 191 194 159 191 194 159 191 194 159 191 194 159 191 194 159 191 194 159 191 194 159 191 194 159 191 194 159 191 194 159 191 194 159 191 194 159 191 194 159 191 194 159 191 194 159 191 194 159 191 194 159 191 194 159 
183 181 129 183 181 129 183 181 129 183 181 129 183 181 129 183 181 129 183 181 129 183 181 129 183 181 129 183 181 129 183 181 129 183 181 129 183 181 129 183 181 129 183 181 129 183 181 129 183 181 129 183 181 129 0 0 255 0 0 255 189 192 145 189 192 145 189 192 145 189 192 145 189 192 145 189 192 145 189 192 145 189 192 145 189 192 145 189 192 145 189 192 145 189 192 145 189 192 145 189 192 145 189 192 145 189 192 145 189 192 145 189 192 145 189 192 145 189 192 145 189 192 145 189 192 145 189 192 145 189 192 145 189 192 145 189 192 145 0 0 255 192 199 158 192 199 158 192 199 158 192 199 158 192 199 158 192 199 158 192 199 158 192 199 158 192 199 158 192 199 158 192 199 158 192 199 158 192 199 158 192 199 158 192 199 158 192 199 158 192 199 158 192 199 158 192 199 158 192 199 158 192 199 158 192 199 158 192 199 158 192 199 158 192 199 158 192 199 158 0 0 255 194 200 164 194 200 164 194 200 164 194 200 164 194 200 164 194 200 164 194 200 164 194 200 164 194 200 164 194 200 164 194 200 164 194 200 164 194 200 164 194 200 164 194 200 164 194 200 164 194 200 164 194 200 164 194 200 164 194 200 164 194 200 164 194 200 164 194 200 164 194 200 164 194 200 164 194 200 164 194 200 164 194 200 164 0 0 255 195 202 168 195 202 168 195 202 168 195 202 168 195 202 168 195 202 168 195 202 168 195 202 168 195 202 168 195 202 168 195 202 168 195 202 168 195 202 168 195 202 168 195 202 168 195 202 168 195 202 168 195 202 168 195 202 168 195 202 168 195 202 168 195 202 168 195 202 168 195 202 168 195 202 168 195 202 168 195 202 168 195 202 168 195 202 168 195 202 168 195 202 168 195 202 168 195 202 168 195 202 168 195 202 168 0 0 255 197 203 172 197 203 172 197 203 172 197 203 172 197 203 172 197 203 172 197 203 172 197 203 172 197 203 172 197 203 172 197 203 172 197 203 172 197 203 172 197 203 172 197 203 172 197 203 172 197 203 172 197 203 172 197 203 172 197 203 172 197 203 172 197 203 172 197 203 172 197 203 172 197 203 172 197 203 172 197 203 172 197 203 172 197 203 172 197 203 172 197 203 172 197 203 172 0 0 255 193 202 171 193 202 171 193 202 171 193 202 171 193 202 171 193 202 171 193 202 171 193 202 171 193 202 171 193 202 171 193 202 171 193 202 171 193 202 171 193 202 171 193 202 171 193 202 171 193 202 171 193 202 171 193 202 171 193 202 171 193 202 171 193 202 171 193 202 171 193 202 171 193 202 171 0 0 255 192 200 169 192 200 169 192 200 169 192 200 169 192 200 169 192 200 169 192 200 169 192 200 169 192 200 169 192 200 169 192 200 169 192 200 169 192 200 169 192 200 169 192 200 169 192 200 169 192 200 169 192 200 169 192 200 169 192 200 169 192 200 169 192 200 169 192 200 169 192 200 169 192 200 169 192 200 169 192 200 169 192 200 169 192 200 169 192 200 169 192 200 169 0 0 255 191 194 159 191 194 159 191 194 159 191 194 159 191 194 159 191 194 159 191 194 159 191 194 159 191 194 159 191 194 159 191 194 159 191 194 159 191 194 159 191 194 159 191 194 159 191 194 159 191 194 159 191 194 159 191 194 159 191 194 159 191 194 159 191 194 159 191 194 159 191 194 159 191 194 159 191 194 159 
183 181 129 183 181 129 183 181 129 183 181 129 183 181 129 183 181 129 183 181 129 183 181 129 183 181 129 183 181 129 183 181 129 183 181 129 183 181 129 183 181 129 183 181 129 0 0 255 0 0 255 0 0 255 186 184 133 0 0 255 189 192 145 189 192 145 189 192 145 189 192 145 189 192 145 189 192 145 189 192 145 189 192 145 189 192 145 189 192 145 189 192 145 189 192 145 189 192 145 189 192 145 189 192 145 189 192 145 189 192 145 189 192 145 189 192 145 189 192 145 189 192 145 189 192 145 189 192 145 189 192 145 189 192 145 0 0 255 0 0 255 192 199 158 192 199 158 192 199 158 192 199 158 192 199 158 192 199 158 192 199 158 192 199 158 192 199 158 192 199 158 192 199 158 192 199 158 192 199 158 192 199 158 192 199 158 192 199 158 192 199 158 192 199 158 192 199 158 192 199 158 192 199 158 192 199 158 192 199 158 192 199 158 192 199 158 0 0 255 194 200 164 194 200 164 194 200 164 194 200 164 194 200 164 194 200 164 194 200 164 194 200 164 194 200 164 194 200 164 194 200 164 194 200 164 194 200 164 194 200 164 194 200 164 194 200 164 194 200 164 194 200 164 194 200 164 194 200 164 194 200 164 194 200 164 194 200 164 194 200 164 194 200 164 194 200 164 194 200 164 194 200 164 194 200 164 0 0 255 195 202 168 195 202 168 195 202 168 195 202 168 195 202 168 195 202 168 195 202 168 195 202 168 195 202 168 195 202 168 195 202 168 195 202 168 195 202 168 195 202 168 195 202 168 195 202 168 195 202 168 195 202 168 195 202 168 195 202 168 195 202 168 195 202 168 195 202 168 195 202 168 195 202 168 195 202 168 195 202 168 195 202 168 195 202 168 195 202 168 195 202 168 195 202 168 195 202 168 195 202 168 195 202 168 0 0 255 197 203 172 197 203 172 197 203 172 197 203 172 197 203 172 197 203 172 197 203 172 197 203 172 197 203 172 197 203 172 197 203 172 197 203 172 197 203 172 197 203 172 197 203 172 197 203 172 197 203 172 197 203 172 197 203 172 197 203 172 197 203 172 197 203 172 197 203 172 197 203 172 197 203 172 197 203 172 197 203 172 197 203 172 197 203 172 197 203 172 197 203 172 0 0 255 0 0 255 193 202 171 193 202 171 193 202 171 193 202 171 193 202 171 193 202 171 193 202 171 193 202 171 193 202 171 193 202 171 193 202 171 193 202 171 193 202 171 193 202 171 193 202 171 193 202 171 193 202 171 193 202 171 193 202 171 193 202 171 193 202 171 193 202 171 193 202 171 193 202 171 193 202 171 0 0 255 192 200 169 192 200 169 192 200 169 192 200 169 192 200 169 192 200 169 192 200 169 192 200 169 192 200 169 192 200 169 192 200 169 192 200 169 192 200 169 192 200 169 192 200 169 192 200 169 192 200 169 192 200 169 192 200 169 192 200 169 192 200 169 192 200 169 192 200 169 192 200 169 192 200 169 192 200 169 192 200 169 192 200 169 192 200 169 192 200 169 192 200 169 0 0 255 0 0 255 0 0 255 0 0 255 0 0 255 191 194 159 191 194 159 0 0 255 191 194 159 191 194 159 191 194 159 191 194 159 191 194 159 191 194 159 191 194 159 191 194 159 191 194 159 191 194 159 191 194 159 191 194 159 191 194 159 191 194 159 191 194 159 191 194 159 191 194 159 191 194 159 191 194 159 
183 181 129 183 181 129 183 181 129 183 181 129 183 181 129 183 181 129 183 181 129 183 181 129 183 181 129 183 181 129 183 181 129 0 0 255 0 0 255 0 0 255 0 0 255 186 184 133 186 184 133 186 184 133 186 184 133 0 0 255 0 0 255 189 192 145 189 192 145 189 192 145 189 192 145 189 192 145 189 192 145 189 192 145 189 192 145 189 192 145 189 192 145 189 192 145 189 192 145 189 192 145 189 192 145 189 192 145 189 192 145 189 192 145 189 192 145 189 192 145 189 192 145 189 192 145 189 192 145 189 192 145 0 0 255 193 195 150 0 0 255 0 0 255 0 0 255 192 199 158 192 199 158 192 199 158 192 199 158 192 199 158 192 199 158 192 199 158 192 199 158 192 199 158 192 199 158 192 199 158 192 199 158 192 199 158 192 199 158 192 199 158 192 199 158 192 199 158 192 199 158 192 199 158 192 199 158 192 199 158 192 199 158 192 199 158 0 0 255 194 200 164 194 200 164 194 200 164 194 200 164 194 200 164 194 200 164 194 200 164 194 200 164 194 200 164 194 200 164 194 200 164 194 200 164 194 200 164 194 200 164 194 200 164 194 200 164 194 200 164 194 200 164 194 200 164 194 200 164 194 200 164 194 200 164 194 200 164 194 200 164 194 200 164 194 200 164 194 200 164 194 200 164 194 200 164 0 0 255 195 202 168 195 202 168 195 202 168 195 202 168 195 202 168 195 202 168 195 202 168 195 202 168 195 202 168 195 202 168 195 202 168 195 202 168 195 202 168 195 202 168 195 202 168 195 202 168 195 202 168 195 202 168 195 202 168 195 202 168 195 202 168 195 202 168 195 202 168 195 202 168 195 202 168 195 202 168 195 202 168 195 202 168 195 202 168 195 202 168 195 202 168 195 202 168 195 202 168 195 202 168 195 202 168 0 0 255 197 203 172 197 203 172 197 203 172 197 203 172 197 203 172 197 203 172 197 203 172 197 203 172 197 203 172 197 203 172 197 203 172 197 203 172 197 203 172 197 203 172 197 203 172 197 203 172 197 203 172 197 203 172 197 203 172 197 203 172 197 203 172 197 203 172 197 203 172 197 203 172 197 203 172 197 203 172 197 203 172 197 203 172 197 203 172 197 203 172 197 203 172 197 203 172 0 0 255 0 0 255 193 202 171 193 202 171 193 202 171 193 202 171 193 202 171 193 202 171 193 202 171 193 202 171 193 202 171 193 202 171 193 202 171 193 202 171 193 202 171 193 202 171 193 202 171 193 202 171 193 202 171 193 202 171 193 202 171 193 202 171 193 202 171 193 202 171 193 202 171 0 0 255 192 200 169 192 200 169 192 200 169 192 200 169 192 200 169 192 200 169 192 200 169 192 200 169 192 200 169 192 200 169 192 200 169 192 200 169 192 200 169 192 200 169 192 200 169 192 200 169 192 200 169 192 200 169 192 200 169 192 200 169 192 200 169 192 200 169 192 200 169 192 200 169 192 200 169 192 200 169 192 200 169 192 200 169 192 200 169 192 200 169 192 200 169 192 200 169 0 0 255 193 197 166 193 197 166 193 197 166 0 0 255 0 0 255 0 0 255 0 0 255 0 0 255 0 0 255 191 194 159 191 194 159 191 194 159 191 194 159 191 194 159 191 194 159 191 194 159 191 194 159 191 194 159 191 194 159 191 194 159 191 194 159 191 194 159 191 194 159 191 194 159 191 194 159 191 194 159 
183 181 129 183 181 129 183 181 129 183 181 129 183 181 129 183 181 129 0 0 255 0 0 255 0 0 255 0 0 255 0 0 255 186 184 133 186 184 133 186 184 133 186 184 133 186 184 133 186 184 133 186 184 133 186 184 133 186 184 133 0 0 255 189 192 145 189 192 145 189 192 145 189 192 145 189 192 145 189 192 145 189 192 145 189 192 145 189 192 145 189 192 145 189 192 145 189 192 145 189 192 145 189 192 145 189 192 145 189 192 145 189 192 145 189 192 145 189 192 145 189 192 145 0 0 255 0 0 255 0 0 255 193 195 150 193 195 150 193 195 150 193 195 150 0 0 255 0 0 255 192 199 158 192 199 158 192 199 158 192 199 158 192 199 158 192 199 158 192 199 158 192 199 158 192 199 158 192 199 158 192 199 158 192 199 158 192 199 158 192 199 158 192 199 158 192 199 158 192 199 158 192 199 158 192 199 158 192 199 158 192 199 158 0 0 255 194 200 164 194 200 164 194 200 164 194 200 164 194 200 164 194 200 164 194 200 164 194 200 164 194 200 164 194 200 164 194 200 164 194 200 164 194 200 164 194 200 164 194 200 164 194 200 164 194 200 164 194 200 164 194 200 164 194 200 164 194 200 164 194 200 164 194 200 164 194 200 164 194 200 164 194 200 164 194 200 164 194 200 164 194 200 164 194 200 164 0 0 255 195 202 168 195 202 168 195 202 168 195 202 168 195 202 168 195 202 168 195 202 168 195 202 168 195 202 168 195 202 168 195 202 168 195 202 168 195 202 168 195 202 168 195 202 168 195 202 168 195 202 168 195 202 168 195 202 168 195 202 168 195 202 168 195 202 168 195 202 168 195 202 168 195 202 168 195 202 168 195 202 168 195 202 168 195 202 168 195 202 168 195 202 168 195 202 168 195 202 168 195 202 168 195 202 168 0 0 255 197 203 172 197 203 172 197 203 172 197 203 172 197 203 172 197 203 172 197 203 172 197 203 172 197 203 172 197 203 172 197 203 172 197 203 172 197 203 172 197 203 172 197 203 172 197 203 172 197 203 172 197 203 172 197 203 172 197 203 172 197 203 172 197 203 172 197 203 172 197 203 172 197 203 172 197 203 172 197 203 172 197 203 172 197 203 172 197 203 172 197 203 172 197 203 172 197 203 172 0 0 255 193 202 171 193 202 171 193 202 171 193 202 171 193 202 171 193 202 171 193 202 171 193 202 171 193 202 171 193 202 171 193 202 171 193 202 171 193 202 171 193 202 171 193 202 171 193 202 171 193 202 171 193 202 171 193 202 171 193 202 171 193 202 171 193 202 171 193 202 171 0 0 255 192 200 169 192 200 169 192 200 169 192 200 169 192 200 169 192 200 169 192 200 169 192 200 169 192 200 169 192 200 169 192 200 169 192 200 169 192 200 169 192 200 169 192 200 169 192 200 169 192 200 169 192 200 169 192 200 169 192 200 169 192 200 169 192 200 169 192 200 169 192 200 169 192 200 169 192 200 169 192 200 169 192 200 169 192 200 169 192 200 169 192 200 169 0 0 255 193 197 166 193 197 166 193 197 166 193 197 166 193 197 166 193 197 166 193 197 166 193 197 166 193 197 166 0 0 255 0 0 255 0 0 255 0 0 255 0 0 255 0 0 255 0 0 255 0 0 255 191 194 159 191 194 159 191 194 159 191 194 159 191 194 159 191 194 159 191 194 159 191 194 159 191 194 159 191 194 159 
0 0 255 0 0 255 0 0 255 0 0 255 0 0 255 0 0 255 186 184 133 186 184 133 186 184 133 186 184 133 186 184 133 186 184 133 186 184 133 186 184 133 186 184 133 186 184 133 186 184 133 186 184 133 186 184 133 186 184 133 0 0 255 0 0 255 189 192 145 189 192 145 189 192 145 189 192 145 189 192 145 189 192 145 189 192 145 189 192 145 189 192 145 189 192 145 189 192 145 189 192 145 189 192 145 189 192 145 189 192 145 189 192 145 189 192 145 0 0 255 0 0 255 193 195 150 193 195 150 193 195 150 193 195 150 193 195 150 193 195 150 193 195 150 193 195 150 0 0 255 0 0 255 0 0 255 192 199 158 192 199 158 192 199 158 192 199 158 192 199 158 192 199 158 192 199 158 192 199 158 192 199 158 192 199 158 192 199 158 192 199 158 192 199 158 192 199 158 192 199 158 192 199 158 192 199 158 192 199 158 192 199 158 0 0 255 194 200 164 194 200 164 194 200 164 194 200 164 194 200 164 194 200 164 194 200 164 194 200 164 194 200 164 194 200 164 194 200 164 194 200 164 194 200 164 194 200 164 194 200 164 194 200 164 194 200 164 194 200 164 194 200 164 194 200 164 194 200 164 194 200 164 194 200 164 194 200 164 194 200 164 194 200 164 194 200 164 194 200 164 194 200 164 194 200 164 0 0 255 195 202 168 195 202 168 195 202 168 195 202 168 195 202 168 195 202 168 195 202 168 195 202 168 195 202 168 195 202 168 195 202 168 195 202 168 195 202 168 195 202 168 195 202 168 195 202 168 195 202 168 195 202 168 195 202 168 195 202 168 195 202 168 195 202 168 195 202 168 195 202 168 195 202 168 195 202 168 195 202 168 195 202 168 195 202 168 195 202 168 195 202 168 195 202 168 195 202 168 195 202 168 195 202 168 0 0 255 197 203 172 197 203 172 197 203 172 197 203 172 197 203 172 197 203 172 197 203 172 197 203 172 197 203 172 197 203 172 197 203 172 197 203 172 197 203 172 197 203 172 197 203 172 197 203 172 197 203 172 197 203 172 197 203 172 197 203 172 197 203 172 197 203 172 197 203 172 197 203 172 197 203 172 197 203 172 197 203 172 197 203 172 197 203 172 197 203 172 197 203 172 197 203 172 197 203 172 0 0 255 0 0 255 193 202 171 193 202 171 0 0 255 0 0 255 0 0 255 0 0 255 0 0 255 0 0 255 0 0 255 193 202 171 193 202 171 193 202 171 193 202 171 193 202 171 193 202 171 193 202 171 193 202 171 193 202 171 193 202 171 193 202 171 193 202 171 193 202 171 0 0 255 192 200 169 192 200 169 192 200 169 192 200 169 192 200 169 192 200 169 192 200 169 192 200 169 192 200 169 192 200 169 192 200 169 192 200 169 192 200 169 192 200 169 192 200 169 192 200 169 192 200 169 192 200 169 192 200 169 192 200 169 192 200 169 192 200 169 192 200 169 192 200 169 192 200 169 192 200 169 192 200 169 192 200 169 192 200 169 192 200 169 0 0 255 193 197 166 193 197 166 193 197 166 193 197 166 193 197 166 193 197 166 193 197 166 193 197 166 193 197 166 193 197 166 193 197 166 193 197 166 193 197 166 193 197 166 193 197 166 193 197 166 193 197 166 0 0 255 0 0 255 0 0 255 0 0 255 0 0 255 191 194 159 191 194 159 191 194 159 191 194 159 191 194 159 191 194 159 
186 184 133 186 184 133 186 184 133 186 184 133 186 184 133 186 184 133 186 184 133 186 184 133 186 184 133 186 184 133 186 184 133 186 184 133 186 184 133 186 184 133 186 184 133 186 184 133 186 184 133 186 184 133 186 184 133 186 184 133 186 184 133 0 0 255 189 192 145 189 192 145 189 192 145 189 192 145 189 192 145 189 192 145 189 192 145 189 192 145 189 192 145 189 192 145 189 192 145 189 192 145 189 192 145 189 192 145 189 192 145 189 192 145 0 0 255 193 195 150 193 195 150 193 195 150 193 195 150 193 195 150 193 195 150 193 195 150 193 195 150 193 195 150 193 195 150 193 195 150 193 195 150 0 0 255 0 0 255 0 0 255 192 199 158 192 199 158 192 199 158 192 199 158 192 199 158 192 199 158 192 199 158 192 199 158 192 199 158 192 199 158 192 199 158 192 199 158 192 199 158 192 199 158 192 199 158 192 199 158 192 199 158 0 0 255 194 200 164 194 200 164 194 200 164 194 200 164 194 200 164 194 200 164 194 200 164 194 200 164 194 200 164 194 200 164 194 200 164 194 200 164 194 200 164 194 200 164 194 200 164 194 200 164 194 200 164 194 200 164 194 200 164 194 200 164 194 200 164 194 200 164 194 200 164 194 200 164 194 200 164 194 200 164 194 200 164 194 200 164 194 200 164 194 200 164 0 0 255 0 0 255 195 202 168 195 202 168 195 202 168 195 202 168 195 202 168 195 202 168 195 202 168 195 202 168 195 202 168 195 202 168 195 202 168 195 202 168 195 202 168 195 202 168 195 202 168 195 202 168 195 202 168 195 202 168 195 202 168 195 202 168 195 202 168 195 202 168 195 202 168 195 202 168 195 202 168 195 202 168 195 202 168 195 202 168 195 202 168 195 202 168 195 202 168 195 202 168 195 202 168 0 0 255 197 203 172 197 203 172 197 203 172 197 203 172 197 203 172 197 203 172 197 203 172 197 203 172 197 203 172 197 203 172 197 203 172 197 203 172 197 203 172 197 203 172 197 203 172 197 203 172 197 203 172 197 203 172 197 203 172 197 203 172 197 203 172 197 203 172 197 203 172 197 203 172 197 203 172 197 203 172 197 203 172 197 203 172 197 203 172 197 203 172 197 203 172 197 203 172 197 203 172 197 203 172 197 203 172 0 0 255 0 0 255 0 0 255 0 0 255 0 0 255 0 0 255 0 0 255 0 0 255 0 0 255 0 0 255 0 0 255 193 202 171 193 202 171 193 202 171 193 202 171 193 202 171 193 202 171 193 202 171 193 202 171 193 202 171 193 202 171 193 202 171 193 202 171 0 0 255 192 200 169 192 200 169 192 200 169 192 200 169 192 200 169 192 200 169 192 200 169 192 200 169 192 200 169 192 200 169 192 200 169 192 200 169 192 200 169 192 200 169 192 200 169 192 200 169 192 200 169 192 200 169 192 200 169 192 200 169 192 200 169 192 200 169 192 200 169 192 200 169 192 200 169 192 200 169 192 200 169 192 200 169 192 200 169 192 200 169 0 0 255 193 197 166 193 197 166 193 197 166 193 197 166 193 197 166 193 197 166 193 197 166 193 197 166 193 197 166 193 197 166 193 197 166 193 197 166 193 197 166 193 197 166 193 197 166 193 197 166 193 197 166 193 197 166 193 197 166 193 197 166 193 197 166 0 0 255 0 0 255 0 0 255 0 0 255 0 0 255 0 0 255 0 0 255 
186 184 133 186 184 133 186 184 133 186 184 133 186 184 133 186 184 133 186 184 133 186 184 133 186 184 133 186 184 133 186 184 133 186 184 133 186 184 133 186 184 133 186 184 133 186 184 133 186 184 133 186 184 133 186 184 133 186 184 133 186 184 133 0 0 255 0 0 255 189 192 145 189 192 145 189 192 145 189 192 145 189 192 145 189 192 145 189 192 145 189 192 145 189 192 145 189 192 145 189 192 145 189 192 145 189 192 145 189 192 145 189 192 145 0 0 255 193 195 150 193 195 150 193 195 150 193 195 150 193 195 150 193 195 150 193 195 150 193 195 150 193 195 150 193 195 150 193 195 150 193 195 150 193 195 150 193 195 150 0 0 255 192 199 158 192 199 158 192 199 158 192 199 158 192 199 158 192 199 158 192 199 158 192 199 158 192 199 158 192 199 158 192 199 158 192 199 158 192 199 158 192 199 158 192 199 158 192 199 158 192 199 158 0 0 255 194 200 164 194 200 164 194 200 164 194 200 164 194 200 164 194 200 164 194 200 164 194 200 164 194 200 164 194 200 164 194 200 164 194 200 164 194 200 164 194 200 164 194 200 164 194 200 164 194 200 164 194 200 164 194 200 164 194 200 164 194 200 164 194 200 164 194 200 164 194 200 164 194 200 164 194 200 164 194 200 164 194 200 164 194 200 164 194 200 164 194 200 164 0 0 255 195 202 168 195 202 168 195 202 168 195 202 168 195 202 168 195 202 168 195 202 168 195 202 168 195 202 168 195 202 168 195 202 168 195 202 168 195 202 168 195 202 168 195 202 168 195 202 168 195 202 168 195 202 168 195 202 168 195 202 168 195 202 168 195 202 168 195 202 168 195 202 168 195 202 168 195 202 168 195 202 168 195 202 168 195 202 168 195 202 168 195 202 168 195 202 168 195 202 168 0 0 255 197 203 172 197 203 172 197 203 172 197 203 172 197 203 172 197 203 172 197 203 172 197 203 172 197 203 172 197 203 172 197 203 172 197 203 172 197 203 172 197 203 172 197 203 172 197 203 172 197 203 172 197 203 172 197 203 172 197 203 172 197 203 172 197 203 172 197 203 172 197 203 172 197 203 172 197 203 172 197 203 172 197 203 172 197 203 172 197 203 172 197 203 172 197 203 172 197 203 172 197 203 172 197 203 172 0 0 255 0 0 255 0 0 255 0 0 255 72 37 42 72 37 42 72 37 42 0 0 255 0 0 255 0 0 255 0 0 255 0 0 255 193 202 171 193 202 171 193 202 171 193 202 171 193 202 171 193 202 171 193 202 171 193 202 171 193 202 171 193 202 171 0 0 255 192 200 169 192 200 169 192 200 169 192 200 169 192 200 169 192 200 169 192 200 169 192 200 169 192 200 169 192 200 169 192 200 169 192 200 169 192 200 169 192 200 169 192 200 169 192 200 169 192 200 169 192 200 169 192 200 169 192 200 169 192 200 169 192 200 169 192 200 169 192 200 169 192 200 169 192 200 169 192 200 169 192 200 169 192 200 169 192 200 169 0 0 255 193 197 166 193 197 166 193 197 166 193 197 166 193 197 166 193 197 166 193 197 166 193 197 166 193 197 166 193 197 166 193 197 166 193 197 166 193 197 166 193 197 166 193 197 166 193 197 166 193 197 166 193 197 166 193 197 166 193 197 166 193 197 166 193 197 166 193 197 166 193 197 166 193 197 166 193 197 166 193 197 166 193 197 166 193 197 166 
186 184 133 186 184 133 186 184 133 186 184 133 186 184 133 186 184 133 186 184 133 186 184 133 186 184 133 186 184 133 186 184 133 186 184 133 186 184 133 186 184 133 186 184 133 186 184 133 186 184 133 186 184 133 186 184 133 186 184 133 186 184 133 186 184 133 0 0 255 0 0 255 189 192 145 189 192 145 189 192 145 189 192 145 189 192 145 189 192 145 189 192 145 189 192 145 189 192 145 189 192 145 189 192 145 0 0 255 189 192 145 0 0 255 193 195 150 193 195 150 193 195 150 193 195 150 193 195 150 193 195 150 193 195 150 193 195 150 193 195 150 193 195 150 193 195 150 193 195 150 193 195 150 193 195 150 193 195 150 0 0 255 0 0 255 192 199 158 192 199 158 192 199 158 192 199 158 192 199 158 192 199 158 192 199 158 192 199 158 192 199 158 192 199 158 192 199 158 192 199 158 192 199 158 192 199 158 192 199 158 192 199 158 0 0 255 194 200 164 194 200 164 194 200 164 194 200 164 194 200 164 194 200 164 194 200 164 194 200 164 194 200 164 194 200 164 194 200 164 194 200 164 194 200 164 194 200 164 194 200 164 194 200 164 194 200 164 194 200 164 194 200 164 194 200 164 194 200 164 194 200 164 194 200 164 194 200 164 194 200 164 194 200 164 194 200 164 194 200 164 194 200 164 194 200 164 0 0 255 0 0 255 195 202 168 195 202 168 195 202 168 195 202 168 195 202 168 195 202 168 195 202 168 195 202 168 195 202 168 195 202 168 195 202 168 195 202 168 195 202 168 195 202 168 195 202 168 195 202 168 195 202 168 195 202 168 195 202 168 195 202 168 195 202 168 195 202 168 195 202 168 195 202 168 195 202 168 195 202 168 195 202 168 195 202 168 195 202 168 195 202 168 195 202 168 195 202 168 195 202 168 0 0 255 197 203 172 197 203 172 197 203 172 197 203 172 197 203 172 197 203 172 197 203 172 197 203 172 197 203 172 197 203 172 197 203 172 197 203 172 197 203 172 197 203 172 197 203 172 197 203 172 197 203 172 197 203 172 197 203 172 197 203 172 197 203 172 197 203 172 197 203 172 197 203 172 197 203 172 197 203 172 197 203 172 197 203 172 197 203 172 197 203 172 197 203 172 197 203 172 197 203 172 197 203 172 0 0 255 0 0 255 0 0 255 72 37 42 72 37 42 72 37 42 0 0 255 0 0 255 114 89 58 0 0 255 72 37 42 0 0 255 0 0 255 0 0 255 193 202 171 193 202 171 193 202 171 193 202 171 193 202 171 193 202 171 193 202 171 193 202 171 193 202 171 0 0 255 192 200 169 192 200 169 192 200 169 192 200 169 192 200 169 192 200 169 192 200 169 192 200 169 192 200 169 192 200 169 192 200 169 192 200 169 192 200 169 192 200 169 192 200 169 192 200 169 192 200 169 192 200 169 192 200 169 192 200 169 192 200 169 192 200 169 192 200 169 192 200 169 192 200 169 192 200 169 192 200 169 192 200 169 192 200 169 0 0 255 193 197 166 193 197 166 193 197 166 193 197 166 193 197 166 193 197 166 193 197 166 193 197 166 193 197 166 193 197 166 193 197 166 193 197 166 193 197 166 193 197 166 193 197 166 193 197 166 193 197 166 193 197 166 193 197 166 193 197 166 193 197 166 193 197 166 193 197 166 193 197 166 193 197 166 193 197 166 193 197 166 193 197 166 193 197 166 193 197 166 
186 184 133 186 184 133 186 184 133 186 184 133 186 184 133 186 184 133 186 184 133 186 184 133 186 184 133 186 184 133 186 184 133 186 184 133 186 184 133 186 184 133 186 184 133 186 184 133 186 184 133 186 184 133 186 184 133 186 184 133 186 184 133 186 184 133 186 184 133 0 0 255 0 0 255 189 192 145 189 192 145 189 192 145 189 192 145 189 192 145 189 192 145 189 192 145 189 192 145 0 0 255 0 0 255 0 0 255 0 0 255 193 195 150 193 195 150 193 195 150 193 195 150 193 195 150 193 195 150 193 195 150 193 195 150 193 195 150 193 195 150 193 195 150 193 195 150 193 195 150 193 195 150 193 195 150 193 195 150 193 195 150 0 0 255 0 0 255 0 0 255 0 0 255 192 199 158 192 199 158 192 199 158 192 199 158 192 199 158 192 199 158 192 199 158 192 199 158 192 199 158 192 199 158 192 199 158 192 199 158 0 0 255 194 200 164 194 200 164 194 200 164 194 200 164 194 200 164 194 200 164 194 200 164 194 200 164 194 200 164 194 200 164 194 200 164 194 200 164 194 200 164 194 200 164 194 200 164 194 200 164 194 200 164 194 200 164 194 200 164 194 200 164 194 200 164 194 200 164 194 200 164 194 200 164 194 200 164 194 200 164 194 200 164 194 200 164 194 200 164 194 200 164 194 200 164 194 200 164 0 0 255 195 202 168 195 202 168 195 202 168 195 202 168 195 202 168 195 202 168 195 202 168 195 202 168 195 202 168 195 202 168 195 202 168 195 202 168 0 0 255 0 0 255 0 0 255 0 0 255 0 0 255 0 0 255 0 0 255 0 0 255 195 202 168 195 202 168 195 202 168 195 202 168 195 202 168 195 202 168 195 202 168 195 202 168 195 202 168 195 202 168 195 202 168 195 202 168 195 202 168 0 0 255 197 203 172 197 203 172 197 203 172 197 203 172 197 203 172 197 203 172 197 203 172 197 203 172 197 203 172 197 203 172 197 203 172 197 203 172 197 203 172 197 203 172 197 203 172 197 203 172 197 203 172 197 203 172 197 203 172 197 203 172 197 203 172 197 203 172 197 203 172 197 203 172 197 203 172 197 203 172 197 203 172 197 203 172 197 203 172 197 203 172 197 203 172 197 203 172 197 203 172 0 0 255 0 0 255 0 0 255 72 37 42 72 37 42 72 37 42 0 0 255 0 0 255 0 0 255 0 0 255 0 0 255 72 37 42 0 0 255 0 0 255 0 0 255 193 202 171 193 202 171 193 202 171 193 202 171 193 202 171 193 202 171 193 202 171 193 202 171 193 202 171 0 0 255 192 200 169 192 200 169 192 200 169 192 200 169 0 0 255 0 0 255 0 0 255 192 200 169 192 200 169 192 200 169 192 200 169 192 200 169 192 200 169 192 200 169 192 200 169 192 200 169 192 200 169 192 200 169 192 200 169 192 200 169 192 200 169 192 200 169 192 200 169 192 200 169 192 200 169 192 200 169 192 200 169 192 200 169 0 0 255 193 197 166 193 197 166 193 197 166 193 197 166 193 197 166 193 197 166 193 197 166 193 197 166 193 197 166 193 197 166 193 197 166 193 197 166 193 197 166 193 197 166 193 197 166 193 197 166 193 197 166 193 197 166 193 197 166 193 197 166 193 197 166 193 197 166 193 197 166 193 197 166 193 197 166 193 197 166 193 197 166 193 197 166 193 197 166 193 197 166 193 197 166 
186 184 133 186 184 133 186 184 133 186 184 133 186 184 133 186 184 133 186 184 133 186 184 133 186 184 133 186 184 133 186 184 133 186 184 133 186 184 133 186 184 133 186 184 133 186 184 133 186 184 133 186 184 133 186 184 133 186 184 133 186 184 133 186 184 133 186 184 133 186 184 133 0 0 255 0 0 255 189 192 145 189 192 145 189 192 145 189 192 145 189 192 145 189 192 145 0 0 255 193 195 150 193 195 150 193 195 150 193 195 150 193 195 150 193 195 150 193 195 150 193 195 150 193 195 150 193 195 150 193 195 150 193 195 150 193 195 150 193 195 150 193 195 150 193 195 150 193 195 150 193 195 150 193 195 150 193 195 150 193 195 150 193 195 150 193 195 150 193 195 150 0 0 255 0 0 255 0 0 255 0 0 255 0 0 255 0 0 255 0 0 255 192 199 158 192 199 158 192 199 158 192 199 158 192 199 158 0 0 255 0 0 255 194 200 164 194 200 164 194 200 164 194 200 164 194 200 164 194 200 164 194 200 164 194 200 164 194 200 164 194 200 164 194 200 164 194 200 164 194 200 164 194 200 164 194 200 164 194 200 164 194 200 164 194 200 164 194 200 164 194 200 164 194 200 164 194 200 164 194 200 164 194 200 164 194 200 164 194 200 164 0 0 255 0 0 255 194 200 164 194 200 164 194 200 164 0 0 255 0 0 255 195 202 168 195 202 168 195 202 168 195 202 168 195 202 168 195 202 168 195 202 168 195 202 168 195 202 168 195 202 168 195 202 168 0 0 255 0 0 255 0 0 255 0 0 255 0 0 255 0 0 255 0 0 255 0 0 255 0 0 255 0 0 255 195 202 168 195 202 168 195 202 168 195 202 168 195 202 168 195 202 168 195 202 168 195 202 168 195 202 168 195 202 168 195 202 168 195 202 168 0 0 255 0 0 255 0 0 255 197 203 172 197 203 172 197 203 172 197 203 172 197 203 172 197 203 172 197 203 172 197 203 172 197 203 172 197 203 172 197 203 172 197 203 172 197 203 172 197 203 172 197 203 172 197 203 172 197 203 172 197 203 172 197 203 172 197 203 172 197 203 172 197 203 172 197 203 172 197 203 172 197 203 172 197 203 172 197 203 172 197 203 172 197 203 172 197 203 172 197 203 172 0 0 255 0 0 255 72 37 42 72 37 42 72 37 42 72 37 42 72 37 42 72 37 42 72 37 42 72 37 42 72 37 42 72 37 42 72 37 42 0 0 255 0 0 255 193 202 171 193 202 171 193 202 171 193 202 171 193 202 171 193 202 171 193 202 171 193 202 171 0 0 255 192 200 169 192 200 169 0 0 255 0 0 255 0 0 255 0 0 255 0 0 255 0 0 255 0 0 255 0 0 255 0 0 255 192 200 169 192 200 169 192 200 169 192 200 169 192 200 169 192 200 169 192 200 169 192 200 169 192 200 169 192 200 169 192 200 169 192 200 169 192 200 169 192 200 169 192 200 169 192 200 169 192 200 169 0 0 255 193 197 166 193 197 166 193 197 166 193 197 166 193 197 166 193 197 166 193 197 166 193 197 166 193 197 166 193 197 166 193 197 166 193 197 166 193 197 166 193 197 166 193 197 166 193 197 166 193 197 166 193 197 166 193 197 166 193 197 166 193 197 166 193 197 166 193 197 166 193 197 166 193 197 166 193 197 166 193 197 166 193 197 166 193 197 166 193 197 166 193 197 166 193 197 166 
186 184 133 186 184 133 186 184 133 186 184 133 186 184 133 186 184 133 186 184 133 186 184 133 186 184 133 186 184 133 186 184 133 186 184 133 186 184 133 186 184 133 186 184 133 186 184 133 186 184 133 186 184 133 186 184 133 186 184 133 186 184 133 186 184 133 186 184 133 186 184 133 186 184 133 0 0 255 0 0 255 189 192 145 189 192 145 189 192 145 0 0 255 0 0 255 193 195 150 193 195 150 193 195 150 193 195 150 193 195 150 193 195 150 193 195 150 193 195 150 193 195 150 193 195 150 193 195 150 193 195 150 193 195 150 193 195 150 193 195 150 193 195 150 193 195 150 193 195 150 193 195 150 193 195 150 193 195 150 193 195 150 193 195 150 193 195 150 193 195 150 193 195 150 193 195 150 193 195 150 193 195 150 193 195 150 193 195 150 0 0 255 0 0 255 192 199 158 192 199 158 192 199 158 0 0 255 194 200 164 194 200 164 194 200 164 194 200 164 194 200 164 194 200 164 194 200 164 194 200 164 194 200 164 194 200 164 194 200 164 194 200 164 194 200 164 194 200 164 194 200 164 194 200 164 194 200 164 194 200 164 194 200 164 194 200 164 194 200 164 194 200 164 194 200 164 194 200 164 194 200 164 0 0 255 0 0 255 0 0 255 0 0 255 0 0 255 0 0 255 0 0 255 194 200 164 194 200 164 0 0 255 195 202 168 195 202 168 195 202 168 195 202 168 195 202 168 195 202 168 195 202 168 195 202 168 195 202 168 195 202 168 0 0 255 0 0 255 70 35 42 70 35 42 70 35 42 70 35 42 70 35 42 70 35 42 0 0 255 0 0 255 0 0 255 0 0 255 195 202 168 195 202 168 195 202 168 195 202 168 195 202 168 195 202 168 195 202 168 195 202 168 195 202 168 195 202 168 195 202 168 195 202 168 0 0 255 0 0 255 0 0 255 0 0 255 0 0 255 197 203 172 197 203 172 197 203 172 197 203 172 197 203 172 197 203 172 197 203 172 197 203 172 197 203 172 197 203 172 197 203 172 197 203 172 197 203 172 197 203 172 197 203 172 197 203 172 197 203 172 197 203 172 197 203 172 197 203 172 197 203 172 197 203 172 197 203 172 197 203 172 197 203 172 197 203 172 197 203 172 0 0 255 0 0 255 0 0 255 72 37 42 72 37 42 72 37 42 72 37 42 72 37 42 0 0 255 0 0 255 0 0 255 72 37 42 72 37 42 72 37 42 0 0 255 0 0 255 193 202 171 193 202 171 193 202 171 193 202 171 193 202 171 193 202 171 193 202 171 193 202 171 0 0 255 192 200 169 0 0 255 161 168 113 0 0 255 0 0 255 91 155 74 91 155 74 0 0 255 0 0 255 0 0 255 0 0 255 0 0 255 0 0 255 192 200 169 192 200 169 192 200 169 192 200 169 192 200 169 192 200 169 192 200 169 192 200 169 192 200 169 192 200 169 192 200 169 192 200 169 192 200 169 192 200 169 192 200 169 0 0 255 193 197 166 193 197 166 193 197 166 193 197 166 193 197 166 193 197 166 193 197 166 193 197 166 193 197 166 193 197 166 193 197 166 193 197 166 193 197 166 193 197 166 193 197 166 193 197 166 193 197 166 193 197 166 193 197 166 193 197 166 193 197 166 193 197 166 193 197 166 193 197 166 193 197 166 193 197 166 193 197 166 193 197 166 193 197 166 193 197 166 193 197 166 193 197 166 
186 184 133 186 184 133 186 184 133 186 184 133 186 184 133 186 184 133 186 184 133 186 184 133 186 184 133 186 184 133 186 184 133 186 184 133 186 184 133 186 184 133 186 184 133 186 184 133 186 184 133 186 184 133 186 184 133 186 184 133 186 184 133 186 184 133 186 184 133 186 184 133 186 184 133 186 184 133 0 0 255 0 0 255 0 0 255 0 0 255 193 195 150 193 195 150 193 195 150 193 195 150 193 195 150 193 195 150 193 195 150 193 195 150 193 195 150 193 195 150 193 195 150 193 195 150 193 195 150 193 195 150 193 195 150 193 195 150 193 195 150 193 195 150 193 195 150 193 195 150 193 195 150 193 195 150 193 195 150 193 195 150 193 195 150 193 195 150 193 195 150 193 195 150 193 195 150 193 195 150 0 0 255 0 0 255 0 0 255 0 0 255 0 0 255 0 0 255 0 0 255 192 199 158 0 0 255 194 200 164 194 200 164 194 200 164 194 200 164 194 200 164 194 200 164 194 200 164 194 200 164 194 200 164 194 200 164 194 200 164 194 200 164 194 200 164 194 200 164 194 200 164 194 200 164 194 200 164 194 200 164 194 200 164 194 200 164 194 200 164 194 200 164 194 200 164 0 0 255 0 0 255 0 0 255 0 0 255 70 35 42 0 0 255 0 0 255 0 0 255 0 0 255 0 0 255 194 200 164 0 0 255 195 202 168 195 202 168 195 202 168 195 202 168 195 202 168 195 202 168 195 202 168 195 202 168 195 202 168 0 0 255 0 0 255 70 35 42 70 35 42 70 35 42 70 35 42 70 35 42 70 35 42 70 35 42 70 35 42 70 35 42 0 0 255 0 0 255 195 202 168 195 202 168 195 202 168 195 202 168 195 202 168 195 202 168 195 202 168 195 202 168 195 202 168 195 202 168 195 202 168 0 0 255 0 0 255 0 0 255 0 0 255 0 0 255 0 0 255 0 0 255 0 0 255 197 203 172 197 203 172 197 203 172 197 203 172 197 203 172 197 203 172 197 203 172 197 203 172 197 203 172 197 203 172 197 203 172 197 203 172 197 203 172 197 203 172 197 203 172 197 203 172 197 203 172 197 203 172 197 203 172 197 203 172 197 203 172 197 203 172 197 203 172 197 203 172 0 0 255 0 0 255 0 0 255 72 37 42 72 37 42 72 37 42 72 37 42 72 37 42 0 0 255 0 0 255 161 168 113 0 0 255 72 37 42 72 37 42 72 37 42 0 0 255 0 0 255 193 202 171 193 202 171 193 202 171 193 202 171 193 202 171 193 202 171 193 202 171 193 202 171 0 0 255 0 0 255 161 168 113 0 0 255 91 155 74 91 155 74 91 155 74 91 155 74 91 155 74 91 155 74 0 0 255 0 0 255 161 168 113 0 0 255 192 200 169 192 200 169 192 200 169 192 200 169 192 200 169 192 200 169 192 200 169 192 200 169 192 200 169 192 200 169 192 200 169 192 200 169 192 200 169 192 200 169 0 0 255 193 197 166 193 197 166 193 197 166 193 197 166 193 197 166 193 197 166 193 197 166 193 197 166 193 197 166 193 197 166 193 197 166 193 197 166 193 197 166 193 197 166 193 197 166 193 197 166 193 197 166 193 197 166 193 197 166 193 197 166 193 197 166 193 197 166 193 197 166 193 197 166 193 197 166 193 197 166 193 197 166 193 197 166 193 197 166 193 197 166 193 197 166 193 197 166 193 197 166 
186 184 133 186 184 133 186 184 133 186 184 133 186 184 133 186 184 133 186 184 133 186 184 133 186 184 133 186 184 133 186 184 133 186 184 133 186 184 133 186 184 133 186 184 133 186 184 133 186 184 133 186 184 133 186 184 133 186 184 133 186 184 133 186 184 133 186 184 133 186 184 133 186 184 133 186 184 133 186 184 133 0 0 255 193 195 150 193 195 150 193 195 150 193 195 150 193 195 150 193 195 150 193 195 150 193 195 150 193 195 150 193 195 150 193 195 150 193 195 150 193 195 150 193 195 150 193 195 150 193 195 150 193 195 150 193 195 150 193 195 150 193 195 150 193 195 150 193 195 150 193 195 150 193 195 150 193 195 150 193 195 150 193 195 150 193 195 150 193 195 150 193 195 150 0 0 255 0 0 255 0 0 255 0 0 255 0 0 255 0 0 255 0 0 255 0 0 255 0 0 255 0 0 255 0 0 255 194 200 164 194 200 164 194 200 164 194 200 164 194 200 164 194 200 164 194 200 164 194 200 164 194 200 164 194 200 164 194 200 164 194 200 164 194 200 164 194 200 164 194 200 164 194 200 164 194 200 164 194 200 164 194 200 164 194 200 164 194 200 164 194 200 164 0 0 255 0 0 255 0 0 255 70 35 42 70 35 42 70 35 42 70 35 42 70 35 42 0 0 255 0 0 255 0 0 255 0 0 255 0 0 255 0 0 255 195 202 168 195 202 168 195 202 168 195 202 168 195 202 168 195 202 168 195 202 168 0 0 255 0 0 255 70 35 42 70 35 42 70 35 42 70 35 42 70 35 42 70 35 42 0 0 255 0 0 255 0 0 255 70 35 42 0 0 255 0 0 255 0 0 255 195 202 168 195 202 168 195 202 168 195 202 168 195 202 168 195 202 168 195 202 168 195 202 168 0 0 255 0 0 255 0 0 255 191 60 41 191 60 41 191 60 41 0 0 255 0 0 255 0 0 255 0 0 255 0 0 255 197 203 172 197 203 172 197 203 172 197 203 172 197 203 172 197 203 172 197 203 172 197 203 172 197 203 172 197 203 172 197 203 172 197 203 172 197 203 172 197 203 172 197 203 172 197 203 172 197 203 172 197 203 172 197 203 172 197 203 172 197 203 172 197 203 172 0 0 255 161 168 113 0 0 255 0 0 255 72 37 42 72 37 42 72 37 42 72 37 42 72 37 42 0 0 255 0 0 255 0 0 255 0 0 255 72 37 42 72 37 42 72 37 42 0 0 255 0 0 255 193 202 171 193 202 171 193 202 171 193 202 171 193 202 171 193 202 171 193 202 171 193 202 171 0 0 255 0 0 255 0 0 255 91 155 74 91 155 74 91 155 74 91 155 74 91 155 74 91 155 74 91 155 74 91 155 74 0 0 255 0 0 255 0 0 255 0 0 255 192 200 169 192 200 169 192 200 169 192 200 169 192 200 169 192 200 169 192 200 169 192 200 169 192 200 169 192 200 169 192 200 169 192 200 169 0 0 255 193 197 166 193 197 166 193 197 166 193 197 166 193 197 166 193 197 166 193 197 166 193 197 166 193 197 166 193 197 166 193 197 166 193 197 166 193 197 166 193 197 166 193 197 166 193 197 166 193 197 166 193 197 166 193 197 166 193 197 166 193 197 166 193 197 166 193 197 166 193 197 166 193 197 166 193 197 166 193 197 166 193 197 166 193 197 166 193 197 166 193 197 166 193 197 166 193 197 166 193 197 166 
186 184 133 186 184 133 186 184 133 186 184 133 186 184 133 186 184 133 186 184 133 186 184 133 186 184 133 186 184 133 186 184 133 186 184 133 186 184 133 186 184 133 186 184 133 186 184 133 186 184 133 186 184 133 186 184 133 186 184 133 186 184 133 186 184 133 186 184 133 186 184 133 186 184 133 186 184 133 186 184 133 0 0 255 193 195 150 193 195 150 193 195 150 193 195 150 193 195 150 193 195 150 193 195 150 193 195 150 193 195 150 193 195 150 193 195 150 193 195 150 193 195 150 193 195 150 193 195 150 193 195 150 193 195 150 193 195 150 193 195 150 193 195 150 193 195 150 193 195 150 193 195 150 193 195 150 193 195 150 193 195 150 193 195 150 193 195 150 193 195 150 0 0 255 0 0 255 186 59 41 186 59 41 186 59 41 186 59 41 186 59 41 186 59 41 0 0 255 0 0 255 0 0 255 0 0 255 0 0 255 194 200 164 194 200 164 194 200 164 194 200 164 194 200 164 194 200 164 194 200 164 194 200 164 194 200 164 194 200 164 194 200 164 194 200 164 194 200 164 194 200 164 194 200 164 194 200 164 194 200 164 194 200 164 194 200 164 194 200 164 194 200 164 0 0 255 0 0 255 70 35 42 70 35 42 70 35 42 70 35 42 70 35 42 70 35 42 70 35 42 70 35 42 0 0 255 0 0 255 0 0 255 0 0 255 0 0 255 195 202 168 195 202 168 195 202 168 195 202 168 195 202 168 195 202 168 0 0 255 0 0 255 70 35 42 70 35 42 70 35 42 70 35 42 70 35 42 0 0 255 114 89 58 0 0 255 0 0 255 70 35 42 70 35 42 0 0 255 0 0 255 195 202 168 195 202 168 195 202 168 195 202 168 195 202 168 195 202 168 195 202 168 0 0 255 0 0 255 191 60 41 191 60 41 191 60 41 191 60 41 191 60 41 191 60 41 191 60 41 191 60 41 0 0 255 0 0 255 0 0 255 197 203 172 197 203 172 197 203 172 197 203 172 197 203 172 197 203 172 197 203 172 197 203 172 197 203 172 197 203 172 197 203 172 197 203 172 197 203 172 197 203 172 197 203 172 197 203 172 197 203 172 197 203 172 197 203 172 197 203 172 0 0 255 161 168 113 0 0 255 0 0 255 0 0 255 72 37 42 72 37 42 72 37 42 72 37 42 72 37 42 0 0 255 0 0 255 0 0 255 72 37 42 72 37 42 72 37 42 72 37 42 0 0 255 0 0 255 0 0 255 0 0 255 0 0 255 193 202 171 193 202 171 193 202 171 0 0 255 0 0 255 0 0 255 0 0 255 91 155 74 91 155 74 91 155 74 91 155 74 91 155 74 91 155 74 91 155 74 91 155 74 91 155 74 91 155 74 91 155 74 0 0 255 0 0 255 0 0 255 192 200 169 192 200 169 192 200 169 192 200 169 192 200 169 192 200 169 192 200 169 192 200 169 192 200 169 192 200 169 0 0 255 193 197 166 193 197 166 193 197 166 193 197 166 193 197 166 193 197 166 193 197 166 193 197 166 193 197 166 193 197 166 193 197 166 193 197 166 193 197 166 193 197 166 193 197 166 193 197 166 193 197 166 193 197 166 193 197 166 193 197 166 193 197 166 193 197 166 193 197 166 193 197 166 193 197 166 193 197 166 193 197 166 193 197 166 193 197 166 193 197 166 193 197 166 193 197 166 193 197 166 193 197 166 193 197 166 
186 184 133 186 184 133 186 184 133 186 184 133 186 184 133 186 184 133 186 184 133 186 184 133 186 184 133 186 184 133 186 184 133 186 184 133 186 184 133 186 184 133 186 184 133 186 184 133 186 184 133 186 184 133 186 184 133 186 184 133 186 184 133 186 184 133 186 184 133 186 184 133 186 184 133 186 184 133 186 184 133 0 0 255 193 195 150 193 195 150 193 195 150 193 195 150 193 195 150 193 195 150 193 195 150 193 195 150 193 195 150 193 195 150 193 195 150 193 195 150 193 195 150 193 195 150 193 195 150 193 195 150 193 195 150 193 195 150 193 195 150 193 195 150 193 195 150 193 195 150 193 195 150 193 195 150 193 195 150 193 195 150 193 195 150 193 195 150 0 0 255 0 0 255 186 59 41 186 59 41 186 59 41 186 59 41 186 59 41 186 59 41 186 59 41 186 59 41 186 59 41 0 0 255 0 0 255 0 0 255 0 0 255 194 200 164 194 200 164 194 200 164 194 200 164 194 200 164 194 200 164 194 200 164 194 200 164 194 200 164 194 200 164 194 200 164 194 200 164 194 200 164 194 200 164 194 200 164 194 200 164 194 200 164 194 200 164 194 200 164 0 0 255 0 0 255 70 35 42 70 35 42 70 35 42 70 35 42 70 35 42 70 35 42 0 0 255 0 0 255 0 0 255 70 35 42 0 0 255 0 0 255 0 0 255 0 0 255 195 202 168 195 202 168 195 202 168 195 202 168 195 202 168 0 0 255 0 0 255 70 35 42 70 35 42 70 35 42 70 35 42 70 35 42 0 0 255 0 0 255 0 0 255 0 0 255 0 0 255 70 35 42 70 35 42 0 0 255 0 0 255 195 202 168 195 202 168 195 202 168 195 202 168 195 202 168 195 202 168 195 202 168 0 0 255 0 0 255 191 60 41 191 60 41 191 60 41 191 60 41 191 60 41 191 60 41 191 60 41 191 60 41 191 60 41 0 0 255 0 0 255 197 203 172 197 203 172 197 203 172 197 203 172 197 203 172 197 203 172 197 203 172 197 203 172 197 203 172 197 203 172 197 203 172 197 203 172 197 203 172 197 203 172 197 203 172 197 203 172 197 203 172 197 203 172 197 203 172 197 203 172 0 0 255 161 168 113 0 0 255 114 89 58 0 0 255 72 37 42 72 37 42 72 37 42 72 37 42 72 37 42 72 37 42 72 37 42 72 37 42 72 37 42 72 37 42 72 37 42 72 37 42 0 0 255 0 0 255 0 0 255 0 0 255 0 0 255 0 0 255 0 0 255 0 0 255 0 0 255 0 0 255 161 168 113 0 0 255 0 0 255 91 155 74 91 155 74 91 155 74 91 155 74 91 155 74 91 155 74 0 0 255 0 0 255 0 0 255 91 155 74 0 0 255 0 0 255 0 0 255 192 200 169 192 200 169 192 200 169 192 200 169 192 200 169 192 200 169 192 200 169 192 200 169 192 200 169 192 200 169 0 0 255 193 197 166 193 197 166 193 197 166 193 197 166 193 197 166 193 197 166 193 197 166 193 197 166 193 197 166 193 197 166 193 197 166 193 197 166 193 197 166 193 197 166 193 197 166 193 197 166 193 197 166 193 197 166 193 197 166 193 197 166 193 197 166 193 197 166 193 197 166 193 197 166 193 197 166 193 197 166 193 197 166 193 197 166 193 197 166 193 197 166 193 197 166 193 197 166 193 197 166 193 197 166 193 197 166 
186 184 133 186 184 133 186 184 133 186 184 133 186 184 133 186 184 133 186 184 133 186 184 133 186 184 133 186 184 133 186 184 133 186 184 133 186 184 133 186 184 133 186 184 133 186 184 133 186 184 133 186 184 133 186 184 133 186 184 133 186 184 133 186 184 133 186 184 133 186 184 133 186 184 133 186 184 133 0 0 255 0 0 255 193 195 150 193 195 150 193 195 150 193 195 150 193 195 150 193 195 150 193 195 150 193 195 150 193 195 150 193 195 150 193 195 150 193 195 150 193 195 150 193 195 150 193 195 150 193 195 150 193 195 150 193 195 150 193 195 150 193 195 150 193 195 150 193 195 150 193 195 150 193 195 150 193 195 150 193 195 150 193 195 150 193 195 150 0 0 255 186 59 41 186 59 41 186 59 41 186 59 41 186 59 41 186 59 41 186 59 41 186 59 41 186 59 41 186 59 41 186 59 41 0 0 255 0 0 255 0 0 255 0 0 255 194 200 164 194 200 164 194 200 164 194 200 164 194 200 164 194 200 164 194 200 164 194 200 164 194 200 164 194 200 164 194 200 164 194 200 164 194 200 164 194 200 164 194 200 164 194 200 164 194 200 164 194 200 164 0 0 255 0 0 255 70 35 42 70 35 42 70 35 42 70 35 42 70 35 42 0 0 255 0 0 255 0 0 255 0 0 255 70 35 42 70 35 42 0 0 255 0 0 255 0 0 255 195 202 168 195 202 168 195 202 168 195 202 168 0 0 255 0 0 255 0 0 255 70 35 42 70 35 42 70 35 42 70 35 42 70 35 42 70 35 42 0 0 255 0 0 255 0 0 255 70 35 42 70 35 42 70 35 42 0 0 255 0 0 255 195 202 168 195 202 168 195 202 168 195 202 168 195 202 168 195 202 168 0 0 255 0 0 255 191 60 41 191 60 41 191 60 41 191 60 41 191 60 41 191 60 41 191 60 41 191 60 41 191 60 41 191 60 41 0 0 255 0 0 255 0 0 255 197 203 172 197 203 172 197 203 172 197 203 172 197 203 172 197 203 172 197 203 172 197 203 172 197 203 172 197 203 172 197 203 172 197 203 172 197 203 172 197 203 172 197 203 172 197 203 172 197 203 172 197 203 172 197 203 172 0 0 255 0 0 255 0 0 255 114 89 58 0 0 255 0 0 255 72 37 42 72 37 42 72 37 42 72 37 42 72 37 42 72 37 42 72 37 42 72 37 42 72 37 42 72 37 42 72 37 42 0 0 255 91 155 74 91 155 74 0 0 255 0 0 255 0 0 255 0 0 255 0 0 255 0 0 255 161 168 113 0 0 255 0 0 255 0 0 255 91 155 74 91 155 74 91 155 74 91 155 74 91 155 74 0 0 255 0 0 255 161 168 113 0 0 255 91 155 74 91 155 74 0 0 255 0 0 255 192 200 169 192 200 169 192 200 169 192 200 169 192 200 169 192 200 169 192 200 169 192 200 169 192 200 169 0 0 255 193 197 166 193 197 166 193 197 166 193 197 166 193 197 166 193 197 166 193 197 166 193 197 166 193 197 166 193 197 166 193 197 166 193 197 166 193 197 166 193 197 166 193 197 166 193 197 166 193 197 166 193 197 166 193 197 166 193 197 166 193 197 166 193 197 166 193 197 166 193 197 166 193 197 166 193 197 166 193 197 166 193 197 166 193 197 166 193 197 166 193 197 166 193 197 166 193 197 166 193 197 166 193 197 166 193 197 166 
186 184 133 186 184 133 186 184 133 186 184 133 186 184 133 186 184 133 186 184 133 186 184 133 186 184 133 186 184 133 186 184 133 186 184 133 186 184 133 186 184 133 186 184 133 186 184 133 186 184 133 186 184 133 186 184 133 186 184 133 186 184 133 186 184 133 186 184 133 186 184 133 186 184 133 186 184 133 186 184 133 0 0 255 193 195 150 193 195 150 193 195 150 193 195 150 193 195 150 193 195 150 193 195 150 193 195 150 193 195 150 193 195 150 193 195 150 193 195 150 193 195 150 193 195 150 193 195 150 193 195 150 193 195 150 193 195 150 193 195 150 193 195 150 193 195 150 193 195 150 193 195 150 193 195 150 193 195 150 193 195 150 193 195 150 0 0 255 0 0 255 186 59 41 186 59 41 186 59 41 186 59 41 186 59 41 186 59 41 186 59 41 186 59 41 186 59 41 186 59 41 186 59 41 186 59 41 0 0 255 0 0 255 0 0 255 194 200 164 194 200 164 194 200 164 194 200 164 194 200 164 194 200 164 194 200 164 194 200 164 194 200 164 194 200 164 194 200 164 194 200 164 194 200 164 194 200 164 194 200 164 194 200 164 194 200 164 0 0 255 0 0 255 0 0 255 70 35 42 70 35 42 70 35 42 70 35 42 70 35 42 0 0 255 0 0 255 0 0 255 0 0 255 70 35 42 70 35 42 0 0 255 0 0 255 0 0 255 195 202 168 195 202 168 195 202 168 0 0 255 0 0 255 114 89 58 0 0 255 70 35 42 70 35 42 70 35 42 70 35 42 70 35 42 70 35 42 70 35 42 70 35 42 70 35 42 70 35 42 70 35 42 0 0 255 0 0 255 195 202 168 195 202 168 195 202 168 195 202 168 195 202 168 195 202 168 195 202 168 0 0 255 0 0 255 0 0 255 191 60 41 191 60 41 191 60 41 191 60 41 191 60 41 0 0 255 0 0 255 0 0 255 191 60 41 191 60 41 0 0 255 0 0 255 197 203 172 197 203 172 197 203 172 197 203 172 197 203 172 197 203 172 197 203 172 197 203 172 0 0 255 0 0 255 0 0 255 0 0 255 197 203 172 197 203 172 197 203 172 197 203 172 197 203 172 197 203 172 197 203 172 0 0 255 0 0 255 0 0 255 114 89 58 114 89 58 0 0 255 0 0 255 72 37 42 72 37 42 72 37 42 72 37 42 72 37 42 72 37 42 72 37 42 72 37 42 72 37 42 0 0 255 91 155 74 91 155 74 91 155 74 91 155 74 91 155 74 91 155 74 91 155 74 91 155 74 0 0 255 0 0 255 91 155 74 0 0 255 0 0 255 0 0 255 91 155 74 91 155 74 91 155 74 91 155 74 91 155 74 0 0 255 0 0 255 0 0 255 91 155 74 91 155 74 0 0 255 0 0 255 192 200 169 192 200 169 192 200 169 192 200 169 192 200 169 192 200 169 192 200 169 192 200 169 0 0 255 193 197 166 193 197 166 193 197 166 193 197 166 193 197 166 193 197 166 193 197 166 193 197 166 193 197 166 193 197 166 193 197 166 193 197 166 193 197 166 193 197 166 193 197 166 193 197 166 193 197 166 193 197 166 193 197 166 193 197 166 193 197 166 193 197 166 193 197 166 193 197 166 193 197 166 193 197 166 193 197 166 193 197 166 193 197 166 193 197 166 193 197 166 193 197 166 193 197 166 193 197 166 193 197 166 193 197 166 193 197 166 
186 184 133 186 184 133 186 184 133 186 184 133 186 184 133 186 184 133 186 184 133 186 184 133 186 184 133 186 184 133 186 184 133 186 184 133 186 184 133 186 184 133 186 184 133 186 184 133 186 184 133 186 184 133 186 184 133 186 184 133 186 184 133 186 184 133 186 184 133 186 184 133 186 184 133 186 184 133 186 184 133 0 0 255 193 195 150 193 195 150 193 195 150 193 195 150 193 195 150 193 195 150 193 195 150 193 195 150 193 195 150 193 195 150 193 195 150 193 195 150 193 195 150 193 195 150 193 195 150 193 195 150 193 195 150 193 195 150 193 195 150 193 195 150 193 195 150 193 195 150 193 195 150 193 195 150 193 195 150 193 195 150 193 195 150 0 0 255 0 0 255 186 59 41 186 59 41 186 59 41 186 59 41 186 59 41 186 59 41 186 59 41 186 59 41 186 59 41 186 59 41 0 0 255 186 59 41 186 59 41 0 0 255 0 0 255 194 200 164 194 200 164 194 200 164 194 200 164 194 200 164 194 200 164 194 200 164 0 0 255 0 0 255 0 0 255 0 0 255 0 0 255 0 0 255 194 200 164 194 200 164 194 200 164 0 0 255 0 0 255 0 0 255 0 0 255 70 35 42 70 35 42 70 35 42 70 35 42 70 35 42 70 35 42 0 0 255 0 0 255 70 35 42 70 35 42 70 35 42 0 0 255 0 0 255 0 0 255 195 202 168 195 202 168 195 202 168 0 0 255 0 0 255 114 89 58 0 0 255 0 0 255 70 35 42 70 35 42 70 35 42 70 35 42 70 35 42 70 35 42 70 35 42 70 35 42 70 35 42 70 35 42 0 0 255 0 0 255 195 202 168 195 202 168 195 202 168 195 202 168 195 202 168 195 202 168 0 0 255 0 0 255 114 89 58 0 0 255 191 60 41 191 60 41 191 60 41 191 60 41 0 0 255 0 0 255 198 182 74 0 0 255 191 60 41 191 60 41 0 0 255 0 0 255 197 203 172 197 203 172 197 203 172 197 203 172 197 203 172 197 203 172 0 0 255 0 0 255 0 0 255 0 0 255 0 0 255 0 0 255 0 0 255 0 0 255 197 203 172 197 203 172 197 203 172 197 203 172 197 203 172 0 0 255 0 0 255 0 0 255 0 0 255 114 89 58 114 89 58 0 0 255 0 0 255 0 0 255 72 37 42 72 37 42 72 37 42 72 37 42 72 37 42 72 37 42 72 37 42 0 0 255 91 155 74 91 155 74 91 155 74 91 155 74 91 155 74 91 155 74 91 155 74 91 155 74 91 155 74 91 155 74 91 155 74 0 0 255 72 37 42 0 0 255 0 0 255 91 155 74 91 155 74 91 155 74 91 155 74 91 155 74 91 155 74 91 155 74 91 155 74 91 155 74 0 0 255 0 0 255 192 200 169 192 200 169 192 200 169 192 200 169 192 200 169 192 200 169 192 200 169 0 0 255 193 197 166 193 197 166 193 197 166 193 197 166 193 197 166 193 197 166 193 197 166 193 197 166 193 197 166 193 197 166 193 197 166 193 197 166 193 197 166 193 197 166 193 197 166 193 197 166 193 197 166 193 197 166 193 197 166 193 197 166 193 197 166 193 197 166 193 197 166 193 197 166 193 197 166 193 197 166 193 197 166 193 197 166 193 197 166 193 197 166 193 197 166 193 197 166 193 197 166 193 197 166 193 197 166 193 197 166 193 197 166 193 197 166 
186 184 133 186 184 133 186 184 133 186 184 133 186 184 133 186 184 133 186 184 133 186 184 133 186 184 133 186 184 133 186 184 133 186 184 133 186 184 133 186 184 133 186 184 133 186 184 133 186 184 133 186 184 133 186 184 133 186 184 133 186 184 133 186 184 133 186 184 133 186 184 133 186 184 133 186 184 133 0 0 255 193 195 150 193 195 150 193 195 150 193 195 150 193 195 150 193 195 150 193 195 150 193 195 150 193 195 150 193 195 150 193 195 150 193 195 150 193 195 150 193 195 150 193 195 150 193 195 150 193 195 150 193 195 150 193 195 150 193 195 150 193 195 150 193 195 150 193 195 150 193 195 150 193 195 150 193 195 150 193 195 150 0 0 255 0 0 255 186 59 41 186 59 41 186 59 41 186 59 41 186 59 41 186 59 41 186 59 41 186 59 41 186 59 41 186 59 41 0 0 255 0 0 255 186 59 41 186 59 41 0 0 255 0 0 255 0 0 255 194 200 164 194 200 164 194 200 164 194 200 164 194 200 164 0 0 255 0 0 255 0 0 255 0 0 255 0 0 255 0 0 255 0 0 255 0 0 255 0 0 255 0 0 255 0 0 255 0 0 255 114 89 58 0 0 255 70 35 42 70 35 42 70 35 42 70 35 42 70 35 42 70 35 42 70 35 42 70 35 42 70 35 42 70 35 42 70 35 42 70 35 42 0 0 255 0 0 255 195 202 168 195 202 168 0 0 255 0 0 255 0 0 255 114 89 58 114 89 58 0 0 255 70 35 42 70 35 42 70 35 42 70 35 42 70 35 42 70 35 42 70 35 42 70 35 42 70 35 42 0 0 255 0 0 255 195 202 168 195 202 168 195 202 168 195 202 168 195 202 168 195 202 168 0 0 255 0 0 255 0 0 255 114 89 58 0 0 255 191 60 41 191 60 41 191 60 41 191 60 41 191 60 41 0 0 255 0 0 255 0 0 255 191 60 41 191 60 41 0 0 255 0 0 255 197 203 172 197 203 172 197 203 172 197 203 172 197 203 172 0 0 255 0 0 255 0 0 255 191 60 41 191 60 41 191 60 41 191 60 41 0 0 255 0 0 255 0 0 255 0 0 255 197 203 172 197 203 172 197 203 172 197 203 172 0 0 255 0 0 255 0 0 255 0 0 255 114 89 58 0 0 255 0 0 255 0 0 255 0 0 255 72 37 42 72 37 42 72 37 42 72 37 42 72 37 42 0 0 255 91 155 74 91 155 74 91 155 74 91 155 74 91 155 74 91 155 74 91 155 74 91 155 74 91 155 74 91 155 74 91 155 74 91 155 74 0 0 255 0 0 255 72 37 42 0 0 255 91 155 74 91 155 74 91 155 74 91 155 74 91 155 74 91 155 74 91 155 74 91 155 74 91 155 74 0 0 255 0 0 255 192 200 169 192 200 169 192 200 169 192 200 169 192 200 169 192 200 169 0 0 255 193 197 166 193 197 166 193 197 166 193 197 166 193 197 166 193 197 166 193 197 166 193 197 166 193 197 166 193 197 166 193 197 166 193 197 166 193 197 166 193 197 166 193 197 166 193 197 166 193 197 166 193 197 166 193 197 166 193 197 166 193 197 166 193 197 166 193 197 166 193 197 166 193 197 166 193 197 166 193 197 166 193 197 166 193 197 166 193 197 166 193 197 166 193 197 166 193 197 166 193 197 166 193 197 166 193 197 166 193 197 166 193 197 166 193 197 166 
186 184 133 186 184 133 186 184 133 186 184 133 186 184 133 186 184 133 186 184 133 186 184 133 186 184 133 186 184 133 186 184 133 186 184 133 186 184 133 186 184 133 186 184 133 186 184 133 186 184 133 186 184 133 186 184 133 186 184 133 186 184 133 186 184 133 186 184 133 186 184 133 186 184 133 186 184 133 0 0 255 0 0 255 193 195 150 193 195 150 193 195 150 193 195 150 193 195 150 193 195 150 193 195 150 193 195 150 193 195 150 193 195 150 193 195 150 193 195 150 193 195 150 193 195 150 193 195 150 193 195 150 193 195 150 193 195 150 193 195 150 193 195 150 193 195 150 193 195 150 193 195 150 193 195 150 193 195 150 0 0 255 0 0 255 0 0 255 0 0 255 186 59 41 186 59 41 186 59 41 186 59 41 186 59 41 186 59 41 186 59 41 186 59 41 186 59 41 186 59 41 186 59 41 186 59 41 186 59 41 186 59 41 0 0 255 0 0 255 194 200 164 194 200 164 194 200 164 194 200 164 0 0 255 0 0 255 70 35 42 70 35 42 70 35 42 70 35 42 70 35 42 0 0 255 0 0 255 0 0 255 0 0 255 0 0 255 0 0 255 114 89 58 0 0 255 70 35 42 70 35 42 70 35 42 70 35 42 70 35 42 70 35 42 70 35 42 70 35 42 70 35 42 70 35 42 70 35 42 0 0 255 0 0 255 0 0 255 0 0 255 0 0 255 0 0 255 0 0 255 0 0 255 114 89 58 114 89 58 0 0 255 0 0 255 70 35 42 70 35 42 70 35 42 70 35 42 70 35 42 70 35 42 0 0 255 0 0 255 0 0 255 0 0 255 195 202 168 195 202 168 195 202 168 195 202 168 195 202 168 0 0 255 0 0 255 0 0 255 114 89 58 114 89 58 0 0 255 0 0 255 191 60 41 191 60 41 191 60 41 191 60 41 191 60 41 191 60 41 191 60 41 191 60 41 191 60 41 0 0 255 0 0 255 197 203 172 197 203 172 197 203 172 197 203 172 0 0 255 0 0 255 191 60 41 191 60 41 191 60 41 191 60 41 191 60 41 191 60 41 191 60 41 191 60 41 0 0 255 0 0 255 0 0 255 197 203 172 197 203 172 197 203 172 197 203 172 0 0 255 0 0 255 0 0 255 0 0 255 0 0 255 0 0 255 114 89 58 0 0 255 72 37 42 72 37 42 72 37 42 72 37 42 72 37 42 0 0 255 91 155 74 91 155 74 91 155 74 91 155 74 91 155 74 91 155 74 91 155 74 0 0 255 91 155 74 91 155 74 91 155 74 91 155 74 91 155 74 0 0 255 0 0 255 0 0 255 0 0 255 91 155 74 91 155 74 91 155 74 91 155 74 91 155 74 91 155 74 91 155 74 91 155 74 0 0 255 0 0 255 192 200 169 192 200 169 192 200 169 192 200 169 192 200 169 0 0 255 193 197 166 193 197 166 193 197 166 193 197 166 193 197 166 193 197 166 193 197 166 193 197 166 193 197 166 193 197 166 193 197 166 193 197 166 193 197 166 193 197 166 193 197 166 193 197 166 193 197 166 193 197 166 193 197 166 193 197 166 193 197 166 193 197 166 193 197 166 193 197 166 193 197 166 193 197 166 193 197 166 193 197 166 193 197 166 193 197 166 193 197 166 193 197 166 193 197 166 193 197 166 193 197 166 193 197 166 193 197 166 193 197 166 193 197 166 193 197 166 
186 184 133 186 184 133 186 184 133 186 184 133 186 184 133 186 184 133 186 184 133 186 184 133 186 184 133 186 184 133 186 184 133 186 184 133 186 184 133 186 184 133 186 184 133 186 184 133 186 184 133 186 184 133 186 184 133 186 184 133 186 184 133 186 184 133 186 184 133 186 184 133 186 184 133 186 184 133 186 184 133 0 0 255 193 195 150 193 195 150 193 195 150 193 195 150 193 195 150 193 195 150 193 195 150 193 195 150 193 195 150 193 195 150 193 195 150 193 195 150 193 195 150 193 195 150 193 195 150 193 195 150 193 195 150 193 195 150 193 195 150 193 195 150 193 195 150 193 195 150 193 195 150 193 195 150 0 0 255 0 0 255 0 0 255 123 87 55 0 0 255 0 0 255 186 59 41 186 59 41 186 59 41 186 59 41 186 59 41 186 59 41 186 59 41 186 59 41 186 59 41 186 59 41 186 59 41 186 59 41 186 59 41 0 0 255 0 0 255 194 200 164 194 200 164 194 200 164 0 0 255 0 0 255 70 35 42 70 35 42 70 35 42 70 35 42 70 35 42 70 35 42 70 35 42 0 0 255 0 0 255 0 0 255 0 0 255 0 0 255 114 89 58 0 0 255 0 0 255 0 0 255 70 35 42 70 35 42 70 35 42 70 35 42 70 35 42 70 35 42 70 35 42 70 35 42 70 35 42 0 0 255 0 0 255 0 0 255 0 0 255 0 0 255 0 0 255 0 0 255 0 0 255 0 0 255 114 89 58 114 89 58 0 0 255 0 0 255 0 0 255 0 0 255 0 0 255 0 0 255 0 0 255 114 89 58 0 0 255 0 0 255 195 202 168 195 202 168 195 202 168 195 202 168 195 202 168 0 0 255 0 0 255 0 0 255 0 0 255 0 0 255 114 89 58 114 89 58 0 0 255 191 60 41 191 60 41 191 60 41 191 60 41 191 60 41 191 60 41 191 60 41 191 60 41 191 60 41 0 0 255 0 0 255 197 203 172 197 203 172 197 203 172 0 0 255 0 0 255 191 60 41 191 60 41 191 60 41 191 60 41 191 60 41 191 60 41 191 60 41 191 60 41 191 60 41 191 60 41 0 0 255 0 0 255 197 203 172 197 203 172 197 203 172 197 203 172 197 203 172 0 0 255 0 0 255 0 0 255 0 0 255 0 0 255 0 0 255 0 0 255 0 0 255 0 0 255 0 0 255 72 37 42 72 37 42 0 0 255 91 155 74 91 155 74 91 155 74 91 155 74 91 155 74 91 155 74 0 0 255 0 0 255 0 0 255 91 155 74 91 155 74 91 155 74 91 155 74 91 155 74 91 155 74 0 0 255 0 0 255 91 155 74 91 155 74 91 155 74 91 155 74 91 155 74 91 155 74 91 155 74 0 0 255 161 168 113 0 0 255 192 200 169 192 200 169 192 200 169 192 200 169 0 0 255 193 197 166 193 197 166 193 197 166 193 197 166 193 197 166 193 197 166 193 197 166 193 197 166 193 197 166 193 197 166 193 197 166 193 197 166 193 197 166 193 197 166 193 197 166 193 197 166 193 197 166 193 197 166 193 197 166 193 197 166 193 197 166 193 197 166 193 197 166 193 197 166 193 197 166 193 197 166 193 197 166 193 197 166 193 197 166 193 197 166 193 197 166 193 197 166 193 197 166 193 197 166 193 197 166 193 197 166 193 197 166 193 197 166 193 197 166 193 197 166 193 197 166 
186 184 133 186 184 133 186 184 133 186 184 133 186 184 133 186 184 133 186 184 133 186 184 133 186 184 133 186 184 133 186 184 133 186 184 133 186 184 133 186 184 133 186 184 133 186 184 133 186 184 133 186 184 133 186 184 133 186 184 133 186 184 133 186 184 133 186 184 133 186 184 133 186 184 133 186 184 133 0 0 255 193 195 150 193 195 150 193 195 150 193 195 150 193 195 150 193 195 150 193 195 150 193 195 150 0 0 255 0 0 255 0 0 255 0 0 255 0 0 255 0 0 255 193 195 150 193 195 150 193 195 150 193 195 150 193 195 150 193 195 150 193 195 150 193 195 150 193 195 150 193 195 150 193 195 150 0 0 255 0 0 255 0 0 255 0 0 255 123 87 55 0 0 255 186 59 41 186 59 41 186 59 41 186 59 41 186 59 41 186 59 41 186 59 41 186 59 41 186 59 41 186 59 41 186 59 41 186 59 41 186 59 41 0 0 255 0 0 255 194 200 164 194 200 164 0 0 255 0 0 255 70 35 42 70 35 42 70 35 42 70 35 42 70 35 42 70 35 42 70 35 42 70 35 42 70 35 42 70 35 42 0 0 255 0 0 255 114 89 58 0 0 255 114 89 58 114 89 58 0 0 255 70 35 42 70 35 42 70 35 42 70 35 42 70 35 42 70 35 42 70 35 42 70 35 42 70 35 42 70 35 42 70 35 42 0 0 255 0 0 255 0 0 255 0 0 255 0 0 255 0 0 255 0 0 255 0 0 255 0 0 255 114 89 58 114 89 58 114 89 58 114 89 58 114 89 58 114 89 58 0 0 255 0 0 255 0 0 255 195 202 168 195 202 168 195 202 168 195 202 168 0 0 255 0 0 255 0 0 255 0 0 255 91 155 74 91 155 74 0 0 255 0 0 255 114 89 58 0 0 255 0 0 255 191 60 41 191 60 41 191 60 41 191 60 41 191 60 41 191 60 41 191 60 41 0 0 255 0 0 255 197 203 172 197 203 172 197 203 172 0 0 255 0 0 255 191 60 41 191 60 41 191 60 41 191 60 41 191 60 41 191 60 41 191 60 41 191 60 41 191 60 41 191 60 41 191 60 41 191 60 41 0 0 255 0 0 255 197 203 172 197 203 172 197 203 172 197 203 172 197 203 172 197 203 172 0 0 255 0 0 255 0 0 255 0 0 255 0 0 255 0 0 255 0 0 255 0 0 255 72 37 42 72 37 42 0 0 255 0 0 255 91 155 74 91 155 74 91 155 74 91 155 74 0 0 255 0 0 255 161 168 113 0 0 255 91 155 74 91 155 74 91 155 74 91 155 74 91 155 74 91 155 74 91 155 74 91 155 74 91 155 74 91 155 74 91 155 74 91 155 74 91 155 74 91 155 74 0 0 255 161 168 113 0 0 255 192 200 169 192 200 169 192 200 169 192 200 169 0 0 255 193 197 166 193 197 166 193 197 166 193 197 166 193 197 166 193 197 166 193 197 166 193 197 166 193 197 166 193 197 166 193 197 166 193 197 166 193 197 166 193 197 166 193 197 166 193 197 166 193 197 166 193 197 166 193 197 166 193 197 166 193 197 166 193 197 166 193 197 166 193 197 166 193 197 166 193 197 166 193 197 166 193 197 166 193 197 166 193 197 166 193 197 166 193 197 166 193 197 166 193 197 166 193 197 166 193 197 166 193 197 166 193 197 166 193 197 166 193 197 166 193 197 166 193 197 166 
186 184 133 186 184 133 186 184 133 186 184 133 186 184 133 186 184 133 186 184 133 186 184 133 186 184 133 186 184 133 186 184 133 186 184 133 186 184 133 186 184 133 186 184 133 186 184 133 186 184 133 186 184 133 186 184 133 186 184 133 186 184 133 186 184 133 186 184 133 186 184 133 0 0 255 0 0 255 193 195 150 193 195 150 193 195 150 193 195 150 193 195 150 193 195 150 193 195 150 0 0 255 0 0 255 0 0 255 0 0 255 0 0 255 0 0 255 0 0 255 0 0 255 0 0 255 193 195 150 193 195 150 193 195 150 193 195 150 193 195 150 193 195 150 193 195 150 193 195 150 193 195 150 193 195 150 0 0 255 0 0 255 0 0 255 0 0 255 123 87 55 0 0 255 0 0 255 186 59 41 186 59 41 186 59 41 186 59 41 186 59 41 186 59 41 186 59 41 186 59 41 186 59 41 186 59 41 186 59 41 186 59 41 0 0 255 0 0 255 0 0 255 0 0 255 0 0 255 0 0 255 70 35 42 70 35 42 70 35 42 70 35 42 70 35 42 70 35 42 70 35 42 70 35 42 70 35 42 70 35 42 70 35 42 0 0 255 0 0 255 0 0 255 0 0 255 0 0 255 0 0 255 0 0 255 70 35 42 70 35 42 70 35 42 70 35 42 70 35 42 70 35 42 70 35 42 70 35 42 70 35 42 70 35 42 70 35 42 70 35 42 0 0 255 0 0 255 0 0 255 195 202 168 195 202 168 0 0 255 0 0 255 0 0 255 0 0 255 0 0 255 0 0 255 0 0 255 0 0 255 0 0 255 195 202 168 195 202 168 195 202 168 195 202 168 195 202 168 0 0 255 0 0 255 91 155 74 91 155 74 91 155 74 91 155 74 91 155 74 91 155 74 0 0 255 0 0 255 114 89 58 0 0 255 0 0 255 191 60 41 191 60 41 191 60 41 191 60 41 191 60 41 191 60 41 0 0 255 0 0 255 197 203 172 197 203 172 197 203 172 0 0 255 0 0 255 191 60 41 191 60 41 191 60 41 191 60 41 191 60 41 191 60 41 191 60 41 0 0 255 0 0 255 191 60 41 191 60 41 191 60 41 0 0 255 0 0 255 197 203 172 197 203 172 197 203 172 197 203 172 197 203 172 197 203 172 197 203 172 197 203 172 197 203 172 197 203 172 0 0 255 0 0 255 0 0 255 0 0 255 72 37 42 72 37 42 72 37 42 0 0 255 91 155 74 91 155 74 91 155 74 91 155 74 91 155 74 0 0 255 0 0 255 0 0 255 91 155 74 91 155 74 91 155 74 0 0 255 91 155 74 91 155 74 91 155 74 91 155 74 91 155 74 91 155 74 91 155 74 91 155 74 91 155 74 0 0 255 0 0 255 161 168 113 0 0 255 192 200 169 192 200 169 192 200 169 192 200 169 0 0 255 193 197 166 193 197 166 193 197 166 193 197 166 193 197 166 193 197 166 193 197 166 193 197 166 193 197 166 193 197 166 193 197 166 193 197 166 193 197 166 193 197 166 193 197 166 193 197 166 193 197 166 193 197 166 193 197 166 193 197 166 193 197 166 193 197 166 193 197 166 193 197 166 193 197 166 193 197 166 193 197 166 193 197 166 193 197 166 193 197 166 193 197 166 193 197 166 193 197 166 193 197 166 193 197 166 193 197 166 193 197 166 193 197 166 193 197 166 193 197 166 193 197 166 193 197 166 
186 184 133 186 184 133 186 184 133 186 184 133 186 184 133 186 184 133 186 184 133 186 184 133 186 184 133 186 184 133 186 184 133 186 184 133 186 184 133 186 184 133 186 184 133 186 184 133 186 184 133 186 184 133 186 184 133 186 184 133 186 184 133 186 184 133 186 184 133 0 0 255 0 0 255 0 0 255 193 195 150 193 195 150 193 195 150 193 195 150 193 195 150 193 195 150 0 0 255 0 0 255 0 0 255 65 38 45 65 38 45 65 38 45 65 38 45 0 0 255 0 0 255 0 0 255 0 0 255 193 195 150 193 195 150 193 195 150 193 195 150 193 195 150 193 195 150 193 195 150 193 195 150 193 195 150 193 195 150 0 0 255 0 0 255 0 0 255 0 0 255 123 87 55 0 0 255 186 59 41 186 59 41 186 59 41 186 59 41 186 59 41 186 59 41 186 59 41 186 59 41 186 59 41 186 59 41 186 59 41 0 0 255 0 0 255 193 195 150 193 195 150 0 0 255 0 0 255 0 0 255 70 35 42 70 35 42 70 35 42 70 35 42 70 35 42 70 35 42 70 35 42 0 0 255 0 0 255 70 35 42 70 35 42 0 0 255 0 0 255 0 0 255 0 0 255 0 0 255 0 0 255 0 0 255 0 0 255 0 0 255 0 0 255 0 0 255 70 35 42 70 35 42 70 35 42 70 35 42 70 35 42 70 35 42 70 35 42 70 35 42 70 35 42 0 0 255 0 0 255 0 0 255 195 202 168 195 202 168 195 202 168 195 202 168 195 202 168 195 202 168 195 202 168 195 202 168 195 202 168 195 202 168 195 202 168 195 202 168 195 202 168 195 202 168 0 0 255 0 0 255 91 155 74 91 155 74 91 155 74 91 155 74 91 155 74 91 155 74 91 155 74 91 155 74 0 0 255 114 89 58 114 89 58 0 0 255 0 0 255 191 60 41 191 60 41 191 60 41 0 0 255 0 0 255 0 0 255 197 203 172 197 203 172 197 203 172 0 0 255 0 0 255 191 60 41 191 60 41 191 60 41 191 60 41 191 60 41 191 60 41 191 60 41 0 0 255 198 182 74 0 0 255 191 60 41 191 60 41 191 60 41 0 0 255 0 0 255 197 203 172 197 203 172 197 203 172 197 203 172 197 203 172 197 203 172 197 203 172 197 203 172 197 203 172 197 203 172 197 203 172 0 0 255 0 0 255 0 0 255 72 37 42 72 37 42 72 37 42 0 0 255 0 0 255 0 0 255 91 155 74 91 155 74 91 155 74 91 155 74 91 155 74 91 155 74 91 155 74 91 155 74 0 0 255 0 0 255 0 0 255 0 0 255 0 0 255 0 0 255 0 0 255 0 0 255 0 0 255 0 0 255 0 0 255 161 168 113 161 168 113 0 0 255 192 200 169 192 200 169 192 200 169 192 200 169 0 0 255 193 197 166 193 197 166 193 197 166 193 197 166 193 197 166 193 197 166 193 197 166 193 197 166 193 197 166 193 197 166 193 197 166 193 197 166 193 197 166 193 197 166 193 197 166 193 197 166 193 197 166 193 197 166 193 197 166 193 197 166 193 197 166 193 197 166 193 197 166 193 197 166 193 197 166 193 197 166 193 197 166 193 197 166 193 197 166 193 197 166 193 197 166 193 197 166 193 197 166 193 197 166 193 197 166 193 197 166 193 197 166 193 197 166 193 197 166 193 197 166 193 197 166 193 197 166 193 197 166 
186 184 133 186 184 133 186 184 133 186 184 133 186 184 133 186 184 133 186 184 133 186 184 133 186 184 133 186 184 133 186 184 133 186 184 133 186 184 133 186 184 133 186 184 133 186 184 133 186 184 133 186 184 133 186 184 133 186 184 133 186 184 133 186 184 133 186 184 133 0 0 255 193 195 150 193 195 150 193 195 150 193 195 150 193 195 150 193 195 150 193 195 150 0 0 255 0 0 255 0 0 255 65 38 45 65 38 45 65 38 45 65 38 45 65 38 45 65 38 45 0 0 255 0 0 255 0 0 255 193 195 150 193 195 150 193 195 150 193 195 150 193 195 150 193 195 150 193 195 150 193 195 150 193 195 150 193 195 150 0 0 255 0 0 255 0 0 255 0 0 255 0 0 255 0 0 255 0 0 255 0 0 255 186 59 41 186 59 41 186 59 41 186 59 41 186 59 41 186 59 41 186 59 41 186 59 41 0 0 255 0 0 255 193 195 150 193 195 150 0 0 255 0 0 255 0 0 255 70 35 42 70 35 42 70 35 42 70 35 42 70 35 42 70 35 42 70 35 42 0 0 255 0 0 255 0 0 255 0 0 255 70 35 42 70 35 42 0 0 255 0 0 255 194 200 164 0 0 255 0 0 255 0 0 255 0 0 255 0 0 255 0 0 255 0 0 255 70 35 42 70 35 42 70 35 42 70 35 42 70 35 42 70 35 42 70 35 42 70 35 42 70 35 42 70 35 42 0 0 255 0 0 255 195 202 168 195 202 168 195 202 168 195 202 168 195 202 168 195 202 168 195 202 168 195 202 168 195 202 168 195 202 168 195 202 168 195 202 168 195 202 168 0 0 255 0 0 255 0 0 255 91 155 74 91 155 74 91 155 74 91 155 74 91 155 74 91 155 74 91 155 74 91 155 74 0 0 255 0 0 255 114 89 58 114 89 58 0 0 255 0 0 255 191 60 41 0 0 255 0 0 255 198 182 74 0 0 255 0 0 255 0 0 255 0 0 255 198 182 74 0 0 255 191 60 41 191 60 41 191 60 41 191 60 41 191 60 41 191 60 41 191 60 41 0 0 255 0 0 255 191 60 41 191 60 41 191 60 41 191 60 41 0 0 255 0 0 255 197 203 172 197 203 172 197 203 172 197 203 172 197 203 172 197 203 172 197 203 172 197 203 172 197 203 172 197 203 172 197 203 172 0 0 255 0 0 255 0 0 255 72 37 42 72 37 42 72 37 42 72 37 42 72 37 42 0 0 255 91 155 74 91 155 74 91 155 74 91 155 74 91 155 74 91 155 74 91 155 74 91 155 74 0 0 255 161 168 113 161 168 113 161 168 113 161 168 113 161 168 113 0 0 255 0 0 255 0 0 255 161 168 113 161 168 113 161 168 113 0 0 255 0 0 255 192 200 169 192 200 169 192 200 169 0 0 255 193 197 166 193 197 166 193 197 166 193 197 166 193 197 166 193 197 166 193 197 166 193 197 166 0 0 255 0 0 255 193 197 166 193 197 166 193 197 166 193 197 166 193 197 166 193 197 166 193 197 166 193 197 166 193 197 166 193 197 166 193 197 166 193 197 166 193 197 166 193 197 166 193 197 166 193 197 166 193 197 166 193 197 166 193 197 166 193 197 166 193 197 166 193 197 166 193 197 166 193 197 166 193 197 166 193 197 166 193 197 166 193 197 166 193 197 166 193 197 166 193 197 166 193 197 166 193 197 166 193 197 166 
186 184 133 186 184 133 186 184 133 186 184 133 186 184 133 186 184 133 186 184 133 186 184 133 186 184 133 186 184 133 186 184 133 186 184 133 186 184 133 186 184 133 186 184 133 186 184 133 186 184 133 186 184 133 186 184 133 186 184 133 186 184 133 186 184 133 0 0 255 0 0 255 193 195 150 193 195 150 193 195 150 193 195 150 193 195 150 193 195 150 0 0 255 0 0 255 0 0 255 65 38 45 65 38 45 65 38 45 65 38 45 65 38 45 65 38 45 65 38 45 65 38 45 0 0 255 0 0 255 193 195 150 193 195 150 193 195 150 193 195 150 193 195 150 193 195 150 193 195 150 193 195 150 193 195 150 193 195 150 193 195 150 193 195 150 0 0 255 0 0 255 0 0 255 0 0 255 123 87 55 0 0 255 0 0 255 0 0 255 186 59 41 186 59 41 186 59 41 186 59 41 186 59 41 0 0 255 0 0 255 193 195 150 193 195 150 193 195 150 0 0 255 0 0 255 0 0 255 0 0 255 70 35 42 70 35 42 70 35 42 70 35 42 70 35 42 0 0 255 0 0 255 0 0 255 0 0 255 0 0 255 70 35 42 70 35 42 0 0 255 0 0 255 194 200 164 194 200 164 194 200 164 194 200 164 194 200 164 0 0 255 0 0 255 0 0 255 70 35 42 70 35 42 70 35 42 70 35 42 70 35 42 70 35 42 70 35 42 70 35 42 70 35 42 70 35 42 0 0 255 0 0 255 0 0 255 195 202 168 195 202 168 195 202 168 195 202 168 195 202 168 195 202 168 195 202 168 195 202 168 195 202 168 195 202 168 195 202 168 195 202 168 0 0 255 114 89 58 0 0 255 91 155 74 91 155 74 91 155 74 91 155 74 0 0 255 0 0 255 91 155 74 91 155 74 91 155 74 0 0 255 0 0 255 0 0 255 0 0 255 0 0 255 0 0 255 0 0 255 198 182 74 198 182 74 198 182 74 198 182 74 198 182 74 198 182 74 0 0 255 0 0 255 191 60 41 191 60 41 191 60 41 191 60 41 191 60 41 191 60 41 191 60 41 191 60 41 191 60 41 191 60 41 191 60 41 191 60 41 191 60 41 0 0 255 0 0 255 197 203 172 197 203 172 197 203 172 197 203 172 197 203 172 197 203 172 197 203 172 197 203 172 197 203 172 197 203 172 197 203 172 0 0 255 0 0 255 0 0 255 72 37 42 72 37 42 72 37 42 72 37 42 72 37 42 0 0 255 0 0 255 91 155 74 91 155 74 91 155 74 91 155 74 91 155 74 91 155 74 0 0 255 161 168 113 161 168 113 161 168 113 161 168 113 0 0 255 0 0 255 195 181 74 195 181 74 0 0 255 0 0 255 0 0 255 0 0 255 0 0 255 0 0 255 0 0 255 0 0 255 0 0 255 0 0 255 193 197 166 193 197 166 193 197 166 193 197 166 193 197 166 0 0 255 0 0 255 0 0 255 0 0 255 0 0 255 0 0 255 0 0 255 0 0 255 193 197 166 193 197 166 193 197 166 193 197 166 193 197 166 193 197 166 193 197 166 193 197 166 193 197 166 193 197 166 193 197 166 193 197 166 193 197 166 193 197 166 193 197 166 193 197 166 193 197 166 193 197 166 193 197 166 193 197 166 193 197 166 193 197 166 193 197 166 193 197 166 193 197 166 193 197 166 193 197 166 193 197 166 193 197 166 193 197 166 193 197 166 
186 184 133 186 184 133 186 184 133 186 184 133 186 184 133 186 184 133 186 184 133 186 184 133 186 184 133 186 184 133 186 184 133 186 184 133 186 184 133 186 184 133 186 184 133 186 184 133 186 184 133 186 184 133 186 184 133 0 0 255 0 0 255 0 0 255 192 191 140 0 0 255 0 0 255 193 195 150 0 0 255 0 0 255 0 0 255 0 0 255 186 184 133 0 0 255 65 38 45 65 38 45 65 38 45 65 38 45 65 38 45 65 38 45 65 38 45 65 38 45 65 38 45 0 0 255 0 0 255 0 0 255 193 195 150 193 195 150 193 195 150 193 195 150 193 195 150 193 195 150 193 195 150 193 195 150 193 195 150 193 195 150 193 195 150 193 195 150 0 0 255 0 0 255 0 0 255 0 0 255 0 0 255 0 0 255 0 0 255 0 0 255 0 0 255 0 0 255 0 0 255 0 0 255 0 0 255 0 0 255 193 195 150 193 195 150 0 0 255 0 0 255 0 0 255 123 87 55 0 0 255 70 35 42 70 35 42 70 35 42 70 35 42 70 35 42 70 35 42 0 0 255 0 0 255 0 0 255 0 0 255 70 35 42 70 35 42 0 0 255 0 0 255 194 200 164 194 200 164 194 200 164 194 200 164 194 200 164 0 0 255 0 0 255 0 0 255 70 35 42 70 35 42 70 35 42 70 35 42 70 35 42 70 35 42 0 0 255 0 0 255 70 35 42 70 35 42 70 35 42 0 0 255 0 0 255 195 202 168 195 202 168 195 202 168 195 202 168 195 202 168 195 202 168 195 202 168 195 202 168 195 202 168 195 202 168 195 202 168 0 0 255 0 0 255 114 89 58 0 0 255 91 155 74 91 155 74 91 155 74 0 0 255 0 0 255 0 0 255 91 155 74 91 155 74 91 155 74 0 0 255 0 0 255 0 0 255 0 0 255 198 182 74 198 182 74 198 182 74 198 182 74 198 182 74 198 182 74 198 182 74 198 182 74 198 182 74 198 182 74 0 0 255 0 0 255 191 60 41 191 60 41 191 60 41 191 60 41 191 60 41 191 60 41 191 60 41 191 60 41 191 60 41 191 60 41 191 60 41 191 60 41 0 0 255 0 0 255 0 0 255 0 0 255 0 0 255 0 0 255 197 203 172 197 203 172 197 203 172 197 203 172 197 203 172 197 203 172 0 0 255 0 0 255 0 0 255 72 37 42 72 37 42 72 37 42 72 37 42 72 37 42 72 37 42 72 37 42 0 0 255 91 155 74 91 155 74 91 155 74 91 155 74 91 155 74 91 155 74 0 0 255 161 168 113 161 168 113 161 168 113 0 0 255 195 181 74 195 181 74 195 181 74 195 181 74 195 181 74 195 181 74 195 181 74 0 0 255 0 0 255 0 0 255 0 0 255 193 197 166 193 197 166 193 197 166 193 197 166 193 197 166 193 197 166 193 197 166 0 0 255 0 0 255 0 0 255 72 37 42 72 37 42 0 0 255 0 0 255 0 0 255 0 0 255 0 0 255 193 197 166 193 197 166 193 197 166 193 197 166 193 197 166 193 197 166 193 197 166 193 197 166 193 197 166 193 197 166 193 197 166 193 197 166 193 197 166 193 197 166 193 197 166 193 197 166 193 197 166 193 197 166 193 197 166 193 197 166 193 197 166 193 197 166 193 197 166 193 197 166 193 197 166 193 197 166 193 197 166 193 197 166 193 197 166 193 197 166 
186 184 133 186 184 133 186 184 133 186 184 133 186 184 133 186 184 133 186 184 133 186 184 133 186 184 133 186 184 133 186 184 133 186 184 133 186 184 133 186 184 133 186 184 133 186 184 133 186 184 133 186 184 133 0 0 255 192 191 140 192 191 140 192 191 140 192 191 140 192 191 140 0 0 255 0 0 255 192 191 140 0 0 255 186 184 133 186 184 133 0 0 255 0 0 255 65 38 45 65 38 45 65 38 45 65 38 45 65 38 45 0 0 255 0 0 255 65 38 45 65 38 45 65 38 45 0 0 255 0 0 255 193 195 150 193 195 150 193 195 150 193 195 150 193 195 150 193 195 150 193 195 150 193 195 150 193 195 150 193 195 150 193 195 150 193 195 150 193 195 150 193 195 150 193 195 150 0 0 255 0 0 255 0 0 255 0 0 255 0 0 255 0 0 255 0 0 255 0 0 255 0 0 255 193 195 150 193 195 150 193 195 150 0 0 255 0 0 255 0 0 255 0 0 255 0 0 255 0 0 255 70 35 42 70 35 42 70 35 42 70 35 42 70 35 42 70 35 42 0 0 255 0 0 255 0 0 255 0 0 255 0 0 255 0 0 255 0 0 255 0 0 255 194 200 164 194 200 164 194 200 164 194 200 164 0 0 255 0 0 255 0 0 255 0 0 255 70 35 42 70 35 42 70 35 42 70 35 42 70 35 42 0 0 255 0 0 255 0 0 255 0 0 255 70 35 42 70 35 42 0 0 255 0 0 255 195 202 168 0 0 255 0 0 255 0 0 255 0 0 255 0 0 255 0 0 255 0 0 255 0 0 255 0 0 255 0 0 255 0 0 255 114 89 58 114 89 58 0 0 255 91 155 74 91 155 74 91 155 74 91 155 74 91 155 74 91 155 74 91 155 74 91 155 74 91 155 74 0 0 255 0 0 255 197 203 172 0 0 255 198 182 74 198 182 74 198 182 74 198 182 74 198 182 74 198 182 74 198 182 74 198 182 74 198 182 74 198 182 74 198 182 74 0 0 255 0 0 255 0 0 255 191 60 41 191 60 41 191 60 41 191 60 41 191 60 41 191 60 41 191 60 41 191 60 41 191 60 41 191 60 41 0 0 255 0 0 255 0 0 255 0 0 255 0 0 255 0 0 255 0 0 255 0 0 255 197 203 172 197 203 172 197 203 172 0 0 255 0 0 255 0 0 255 72 37 42 72 37 42 72 37 42 72 37 42 72 37 42 72 37 42 72 37 42 72 37 42 0 0 255 91 155 74 91 155 74 91 155 74 91 155 74 91 155 74 0 0 255 161 168 113 161 168 113 161 168 113 0 0 255 0 0 255 195 181 74 195 181 74 195 181 74 195 181 74 195 181 74 195 181 74 195 181 74 195 181 74 0 0 255 0 0 255 0 0 255 193 197 166 193 197 166 193 197 166 193 197 166 193 197 166 193 197 166 0 0 255 0 0 255 72 37 42 72 37 42 72 37 42 72 37 42 72 37 42 72 37 42 72 37 42 0 0 255 0 0 255 0 0 255 193 197 166 193 197 166 193 197 166 193 197 166 193 197 166 193 197 166 193 197 166 193 197 166 193 197 166 193 197 166 193 197 166 193 197 166 193 197 166 193 197 166 193 197 166 193 197 166 193 197 166 193 197 166 193 197 166 193 197 166 193 197 166 193 197 166 193 197 166 193 197 166 193 197 166 193 197 166 193 197 166 193 197 166 193 197 166 
186 184 133 186 184 133 186 184 133 186 184 133 186 184 133 186 184 133 186 184 133 186 184 133 186 184 133 186 184 133 186 184 133 186 184 133 186 184 133 186 184 133 186 184 133 186 184 133 0 0 255 0 0 255 192 191 140 192 191 140 192 191 140 192 191 140 192 191 140 192 191 140 192 191 140 192 191 140 192 191 140 0 0 255 186 184 133 186 184 133 0 0 255 65 38 45 65 38 45 65 38 45 65 38 45 65 38 45 0 0 255 0 0 255 0 0 255 65 38 45 65 38 45 65 38 45 0 0 255 0 0 255 193 195 150 193 195 150 193 195 150 193 195 150 193 195 150 193 195 150 0 0 255 0 0 255 0 0 255 0 0 255 0 0 255 0 0 255 0 0 255 0 0 255 193 195 150 193 195 150 193 195 150 193 195 150 193 195 150 193 195 150 193 195 150 193 195 150 193 195 150 193 195 150 193 195 150 0 0 255 0 0 255 0 0 255 0 0 255 0 0 255 186 59 41 0 0 255 0 0 255 0 0 255 70 35 42 70 35 42 70 35 42 70 35 42 70 35 42 70 35 42 70 35 42 0 0 255 0 0 255 0 0 255 0 0 255 194 178 79 0 0 255 0 0 255 0 0 255 0 0 255 0 0 255 0 0 255 0 0 255 114 89 58 0 0 255 70 35 42 70 35 42 70 35 42 70 35 42 70 35 42 0 0 255 0 0 255 0 0 255 0 0 255 70 35 42 70 35 42 0 0 255 0 0 255 0 0 255 194 178 79 194 178 79 194 178 79 0 0 255 198 182 74 198 182 74 198 182 74 198 182 74 198 182 74 198 182 74 0 0 255 0 0 255 114 89 58 0 0 255 0 0 255 91 155 74 91 155 74 91 155 74 91 155 74 91 155 74 91 155 74 91 155 74 0 0 255 0 0 255 0 0 255 0 0 255 0 0 255 198 182 74 198 182 74 198 182 74 198 182 74 198 182 74 198 182 74 198 182 74 198 182 74 198 182 74 198 182 74 198 182 74 198 182 74 198 182 74 0 0 255 191 60 41 191 60 41 191 60 41 191 60 41 191 60 41 191 60 41 191 60 41 191 60 41 191 60 41 0 0 255 72 37 42 72 37 42 72 37 42 0 0 255 0 0 255 0 0 255 0 0 255 0 0 255 0 0 255 197 203 172 197 203 172 0 0 255 0 0 255 72 37 42 72 37 42 72 37 42 72 37 42 72 37 42 72 37 42 72 37 42 72 37 42 72 37 42 0 0 255 0 0 255 91 155 74 91 155 74 0 0 255 0 0 255 161 168 113 161 168 113 161 168 113 0 0 255 0 0 255 195 181 74 195 181 74 195 181 74 195 181 74 195 181 74 195 181 74 195 181 74 195 181 74 195 181 74 195 181 74 0 0 255 0 0 255 0 0 255 193 197 166 193 197 166 193 197 166 193 197 166 0 0 255 0 0 255 72 37 42 72 37 42 72 37 42 72 37 42 72 37 42 72 37 42 72 37 42 72 37 42 0 0 255 0 0 255 0 0 255 193 197 166 193 197 166 193 197 166 193 197 166 193 197 166 193 197 166 193 197 166 193 197 166 193 197 166 193 197 166 193 197 166 193 197 166 193 197 166 193 197 166 193 197 166 193 197 166 193 197 166 193 197 166 193 197 166 193 197 166 193 197 166 193 197 166 193 197 166 193 197 166 193 197 166 193 197 166 193 197 166 193 197 166 193 197 166 
186 184 133 186 184 133 186 184 133 186 184 133 186 184 133 186 184 133 186 184 133 186 184 133 186 184 133 186 184 133 186 184 133 186 184 133 186 184 133 0 0 255 0 0 255 0 0 255 192 191 140 192 191 140 192 191 140 192 191 140 192 191 140 192 191 140 192 191 140 192 191 140 192 191 140 192 191 140 0 0 255 186 184 133 186 184 133 0 0 255 0 0 255 65 38 45 65 38 45 65 38 45 65 38 45 65 38 45 0 0 255 0 0 255 0 0 255 65 38 45 65 38 45 0 0 255 0 0 255 0 0 255 193 195 150 193 195 150 193 195 150 193 195 150 0 0 255 0 0 255 0 0 255 0 0 255 0 0 255 0 0 255 0 0 255 0 0 255 0 0 255 0 0 255 0 0 255 193 195 150 193 195 150 193 195 150 193 195 150 193 195 150 193 195 150 193 195 150 193 195 150 0 0 255 0 0 255 0 0 255 186 59 41 186 59 41 186 59 41 186 59 41 186 59 41 186 59 41 0 0 255 0 0 255 70 35 42 70 35 42 70 35 42 70 35 42 70 35 42 0 0 255 0 0 255 0 0 255 194 178 79 194 178 79 194 178 79 194 178 79 194 178 79 194 178 79 194 178 79 194 178 79 194 178 79 0 0 255 0 0 255 114 89 58 0 0 255 70 35 42 70 35 42 70 35 42 70 35 42 70 35 42 0 0 255 0 0 255 0 0 255 70 35 42 70 35 42 70 35 42 0 0 255 0 0 255 194 178 79 194 178 79 194 178 79 0 0 255 198 182 74 198 182 74 198 182 74 198 182 74 198 182 74 198 182 74 198 182 74 0 0 255 0 0 255 0 0 255 114 89 58 0 0 255 0 0 255 91 155 74 91 155 74 91 155 74 91 155 74 0 0 255 0 0 255 198 182 74 198 182 74 198 182 74 198 182 74 198 182 74 198 182 74 198 182 74 198 182 74 198 182 74 198 182 74 198 182 74 198 182 74 198 182 74 198 182 74 198 182 74 198 182 74 198 182 74 198 182 74 0 0 255 0 0 255 191 60 41 191 60 41 191 60 41 191 60 41 191 60 41 191 60 41 0 0 255 0 0 255 72 37 42 72 37 42 72 37 42 72 37 42 72 37 42 72 37 42 72 37 42 0 0 255 0 0 255 0 0 255 0 0 255 0 0 255 0 0 255 72 37 42 72 37 42 72 37 42 72 37 42 72 37 42 72 37 42 72 37 42 72 37 42 72 37 42 72 37 42 72 37 42 0 0 255 91 155 74 0 0 255 161 168 113 161 168 113 161 168 113 161 168 113 161 168 113 0 0 255 0 0 255 0 0 255 195 181 74 195 181 74 195 181 74 195 181 74 195 181 74 195 181 74 195 181 74 195 181 74 195 181 74 195 181 74 0 0 255 0 0 255 0 0 255 193 197 166 193 197 166 0 0 255 0 0 255 72 37 42 72 37 42 72 37 42 72 37 42 72 37 42 72 37 42 72 37 42 72 37 42 72 37 42 72 37 42 0 0 255 0 0 255 0 0 255 193 197 166 193 197 166 193 197 166 193 197 166 193 197 166 193 197 166 193 197 166 193 197 166 193 197 166 193 197 166 193 197 166 193 197 166 193 197 166 193 197 166 193 197 166 193 197 166 193 197 166 193 197 166 193 197 166 193 197 166 193 197 166 193 197 166 193 197 166 193 197 166 193 197 166 193 197 166 193 197 166 193 197 166 
186 184 133 186 184 133 186 184 133 186 184 133 186 184 133 186 184 133 186 184 133 186 184 133 186 184 133 186 184 133 186 184 133 0 0 255 0 0 255 192 191 140 192 191 140 192 191 140 192 191 140 192 191 140 192 191 140 192 191 140 192 191 140 192 191 140 192 191 140 192 191 140 192 191 140 192 191 140 0 0 255 186 184 133 0 0 255 0 0 255 0 0 255 65 38 45 65 38 45 65 38 45 65 38 45 65 38 45 65 38 45 65 38 45 65 38 45 65 38 45 65 38 45 0 0 255 0 0 255 193 195 150 193 195 150 193 195 150 193 195 150 0 0 255 0 0 255 0 0 255 65 38 45 65 38 45 65 38 45 65 38 45 65 38 45 65 38 45 0 0 255 0 0 255 0 0 255 0 0 255 193 195 150 193 195 150 193 195 150 193 195 150 193 195 150 193 195 150 0 0 255 0 0 255 186 59 41 186 59 41 186 59 41 186 59 41 186 59 41 186 59 41 186 59 41 186 59 41 186 59 41 0 0 255 0 0 255 70 35 42 70 35 42 70 35 42 0 0 255 0 0 255 194 178 79 194 178 79 194 178 79 194 178 79 194 178 79 194 178 79 194 178 79 194 178 79 194 178 79 194 178 79 194 178 79 0 0 255 0 0 255 114 89 58 0 0 255 70 35 42 70 35 42 70 35 42 70 35 42 70 35 42 70 35 42 70 35 42 70 35 42 70 35 42 70 35 42 70 35 42 0 0 255 0 0 255 194 178 79 194 178 79 0 0 255 198 182 74 198 182 74 198 182 74 198 182 74 198 182 74 198 182 74 198 182 74 198 182 74 198 182 74 0 0 255 0 0 255 114 89 58 114 89 58 0 0 255 0 0 255 0 0 255 0 0 255 0 0 255 198 182 74 198 182 74 198 182 74 198 182 74 198 182 74 198 182 74 198 182 74 198 182 74 198 182 74 198 182 74 198 182 74 198 182 74 198 182 74 198 182 74 198 182 74 198 182 74 198 182 74 198 182 74 198 182 74 198 182 74 198 182 74 0 0 255 0 0 255 191 60 41 191 60 41 191 60 41 0 0 255 0 0 255 72 37 42 72 37 42 72 37 42 72 37 42 72 37 42 72 37 42 0 0 255 0 0 255 72 37 42 72 37 42 0 0 255 0 0 255 161 168 113 0 0 255 0 0 255 72 37 42 72 37 42 72 37 42 72 37 42 72 37 42 72 37 42 72 37 42 72 37 42 72 37 42 72 37 42 72 37 42 0 0 255 0 0 255 0 0 255 0 0 255 0 0 255 161 168 113 161 168 113 0 0 255 158 116 60 158 116 60 0 0 255 195 181 74 195 181 74 195 181 74 195 181 74 195 181 74 195 181 74 195 181 74 195 181 74 195 181 74 195 181 74 195 181 74 0 0 255 0 0 255 0 0 255 0 0 255 0 0 255 72 37 42 72 37 42 72 37 42 72 37 42 72 37 42 72 37 42 72 37 42 0 0 255 0 0 255 72 37 42 72 37 42 72 37 42 0 0 255 0 0 255 193 197 166 193 197 166 193 197 166 193 197 166 193 197 166 193 197 166 193 197 166 193 197 166 193 197 166 193 197 166 193 197 166 193 197 166 193 197 166 193 197 166 193 197 166 193 197 166 193 197 166 193 197 166 193 197 166 193 197 166 193 197 166 193 197 166 193 197 166 193 197 166 193 197 166 193 197 166 193 197 166 193 197 166 
186 184 133 186 184 133 186 184 133 186 184 133 186 184 133 186 184 133 186 184 133 186 184 133 0 0 255 0 0 255 0 0 255 192 191 140 192 191 140 192 191 140 192 191 140 192 191 140 192 191 140 192 191 140 192 191 140 192 191 140 192 191 140 192 191 140 192 191 140 192 191 140 192 191 140 192 191 140 0 0 255 186 184 133 0 0 255 0 0 255 0 0 255 65 38 45 65 38 45 65 38 45 65 38 45 65 38 45 65 38 45 65 38 45 65 38 45 65 38 45 65 38 45 0 0 255 0 0 255 193 195 150 193 195 150 193 195 150 0 0 255 0 0 255 65 38 45 65 38 45 65 38 45 65 38 45 65 38 45 65 38 45 65 38 45 65 38 45 65 38 45 65 38 45 0 0 255 0 0 255 0 0 255 193 195 150 193 195 150 193 195 150 193 195 150 193 195 150 0 0 255 186 59 41 186 59 41 186 59 41 186 59 41 186 59 41 186 59 41 186 59 41 186 59 41 186 59 41 186 59 41 186 59 41 0 0 255 70 35 42 70 35 42 0 0 255 0 0 255 194 178 79 194 178 79 194 178 79 194 178 79 194 178 79 194 178 79 194 178 79 194 178 79 194 178 79 194 178 79 194 178 79 194 178 79 194 178 79 0 0 255 0 0 255 0 0 255 70 35 42 70 35 42 70 35 42 70 35 42 70 35 42 70 35 42 70 35 42 70 35 42 70 35 42 70 35 42 0 0 255 0 0 255 194 178 79 194 178 79 194 178 79 0 0 255 198 182 74 198 182 74 198 182 74 198 182 74 198 182 74 198 182 74 198 182 74 198 182 74 198 182 74 198 182 74 0 0 255 0 0 255 114 89 58 114 89 58 114 89 58 0 0 255 0 0 255 198 182 74 198 182 74 198 182 74 198 182 74 198 182 74 198 182 74 198 182 74 198 182 74 198 182 74 198 182 74 198 182 74 198 182 74 198 182 74 198 182 74 198 182 74 198 182 74 198 182 74 198 182 74 198 182 74 198 182 74 198 182 74 198 182 74 198 182 74 0 0 255 0 0 255 0 0 255 0 0 255 72 37 42 72 37 42 72 37 42 72 37 42 72 37 42 72 37 42 72 37 42 0 0 255 0 0 255 0 0 255 0 0 255 72 37 42 72 37 42 0 0 255 0 0 255 0 0 255 72 37 42 72 37 42 72 37 42 72 37 42 72 37 42 72 37 42 72 37 42 72 37 42 0 0 255 0 0 255 72 37 42 72 37 42 0 0 255 0 0 255 0 0 255 0 0 255 0 0 255 161 168 113 0 0 255 158 116 60 158 116 60 158 116 60 0 0 255 0 0 255 195 181 74 195 181 74 195 181 74 195 181 74 195 181 74 195 181 74 195 181 74 195 181 74 195 181 74 195 181 74 195 181 74 0 0 255 161 168 113 161 168 113 0 0 255 72 37 42 72 37 42 72 37 42 72 37 42 72 37 42 72 37 42 0 0 255 161 168 113 0 0 255 72 37 42 72 37 42 72 37 42 0 0 255 0 0 255 193 197 166 193 197 166 193 197 166 193 197 166 193 197 166 193 197 166 193 197 166 193 197 166 193 197 166 193 197 166 193 197 166 193 197 166 193 197 166 193 197 166 193 197 166 193 197 166 193 197 166 193 197 166 193 197 166 193 197 166 193 197 166 193 197 166 193 197 166 193 197 166 193 197 166 193 197 166 193 197 166 193 197 166 
186 184 133 186 184 133 186 184 133 186 184 133 186 184 133 186 184 133 186 184 133 0 0 255 192 191 140 192 191 140 192 191 140 192 191 140 192 191 140 192 191 140 192 191 140 192 191 140 192 191 140 192 191 140 192 191 140 192 191 140 192 191 140 192 191 140 192 191 140 192 191 140 192 191 140 192 191 140 0 0 255 186 184 133 0 0 255 0 0 255 0 0 255 0 0 255 65 38 45 65 38 45 65 38 45 65 38 45 65 38 45 65 38 45 65 38 45 65 38 45 0 0 255 0 0 255 0 0 255 193 195 150 193 195 150 0 0 255 0 0 255 65 38 45 65 38 45 65 38 45 65 38 45 65 38 45 65 38 45 65 38 45 65 38 45 65 38 45 65 38 45 65 38 45 65 38 45 0 0 255 0 0 255 0 0 255 193 195 150 193 195 150 193 195 150 0 0 255 0 0 255 186 59 41 186 59 41 186 59 41 186 59 41 186 59 41 186 59 41 186 59 41 186 59 41 186 59 41 186 59 41 186 59 41 0 0 255 0 0 255 0 0 255 0 0 255 0 0 255 194 178 79 194 178 79 194 178 79 194 178 79 194 178 79 194 178 79 194 178 79 194 178 79 194 178 79 194 178 79 194 178 79 194 178 79 194 178 79 0 0 255 0 0 255 0 0 255 0 0 255 70 35 42 70 35 42 70 35 42 70 35 42 70 35 42 70 35 42 70 35 42 70 35 42 70 35 42 0 0 255 0 0 255 194 178 79 194 178 79 194 178 79 0 0 255 198 182 74 198 182 74 198 182 74 198 182 74 198 182 74 198 182 74 198 182 74 198 182 74 198 182 74 198 182 74 198 182 74 0 0 255 114 89 58 114 89 58 114 89 58 0 0 255 198 182 74 198 182 74 198 182 74 198 182 74 198 182 74 198 182 74 198 182 74 198 182 74 198 182 74 198 182 74 198 182 74 198 182 74 198 182 74 198 182 74 198 182 74 198 182 74 198 182 74 198 182 74 198 182 74 198 182 74 198 182 74 198 182 74 198 182 74 198 182 74 198 182 74 0 0 255 0 0 255 0 0 255 0 0 255 72 37 42 72 37 42 72 37 42 72 37 42 72 37 42 0 0 255 0 0 255 161 168 113 0 0 255 0 0 255 72 37 42 72 37 42 0 0 255 0 0 255 0 0 255 72 37 42 72 37 42 72 37 42 72 37 42 72 37 42 72 37 42 72 37 42 0 0 255 158 116 60 0 0 255 72 37 42 72 37 42 0 0 255 0 0 255 0 0 255 0 0 255 0 0 255 161 168 113 0 0 255 158 116 60 158 116 60 158 116 60 158 116 60 0 0 255 195 181 74 195 181 74 195 181 74 195 181 74 195 181 74 195 181 74 195 181 74 195 181 74 195 181 74 195 181 74 195 181 74 0 0 255 0 0 255 0 0 255 0 0 255 72 37 42 72 37 42 72 37 42 72 37 42 72 37 42 72 37 42 0 0 255 0 0 255 0 0 255 72 37 42 72 37 42 72 37 42 0 0 255 0 0 255 193 197 166 193 197 166 193 197 166 193 197 166 193 197 166 193 197 166 193 197 166 193 197 166 193 197 166 193 197 166 193 197 166 193 197 166 193 197 166 193 197 166 193 197 166 193 197 166 193 197 166 193 197 166 193 197 166 193 197 166 193 197 166 193 197 166 193 197 166 193 197 166 193 197 166 193 197 166 193 197 166 193 197 166 
186 184 133 186 184 133 186 184 133 186 184 133 186 184 133 186 184 133 0 0 255 0 0 255 192 191 140 192 191 140 192 191 140 192 191 140 192 191 140 192 191 140 192 191 140 192 191 140 192 191 140 192 191 140 192 191 140 192 191 140 192 191 140 192 191 140 192 191 140 192 191 140 192 191 140 192 191 140 0 0 255 0 0 255 0 0 255 0 0 255 123 87 55 0 0 255 65 38 45 65 38 45 65 38 45 65 38 45 65 38 45 65 38 45 65 38 45 0 0 255 0 0 255 0 0 255 193 195 150 193 195 150 0 0 255 0 0 255 65 38 45 65 38 45 65 38 45 65 38 45 65 38 45 65 38 45 65 38 45 65 38 45 65 38 45 65 38 45 65 38 45 0 0 255 65 38 45 65 38 45 0 0 255 0 0 255 0 0 255 193 195 150 0 0 255 0 0 255 186 59 41 186 59 41 186 59 41 186 59 41 186 59 41 186 59 41 186 59 41 186 59 41 186 59 41 186 59 41 186 59 41 186 59 41 186 59 41 0 0 255 0 0 255 0 0 255 194 178 79 194 178 79 194 178 79 194 178 79 194 178 79 194 178 79 194 178 79 194 178 79 194 178 79 194 178 79 194 178 79 194 178 79 194 178 79 194 178 79 194 178 79 0 0 255 114 89 58 0 0 255 70 35 42 70 35 42 70 35 42 70 35 42 70 35 42 70 35 42 70 35 42 70 35 42 70 35 42 0 0 255 0 0 255 194 178 79 194 178 79 194 178 79 0 0 255 198 182 74 198 182 74 198 182 74 198 182 74 198 182 74 198 182 74 198 182 74 198 182 74 198 182 74 198 182 74 198 182 74 0 0 255 0 0 255 0 0 255 0 0 255 198 182 74 198 182 74 198 182 74 198 182 74 198 182 74 198 182 74 198 182 74 198 182 74 198 182 74 198 182 74 198 182 74 198 182 74 198 182 74 198 182 74 198 182 74 198 182 74 198 182 74 198 182 74 198 182 74 198 182 74 198 182 74 198 182 74 198 182 74 198 182 74 198 182 74 198 182 74 198 182 74 0 0 255 0 0 255 0 0 255 72 37 42 72 37 42 72 37 42 72 37 42 72 37 42 0 0 255 0 0 255 0 0 255 0 0 255 0 0 255 72 37 42 72 37 42 72 37 42 0 0 255 0 0 255 72 37 42 72 37 42 72 37 42 72 37 42 72 37 42 72 37 42 72 37 42 0 0 255 0 0 255 0 0 255 72 37 42 72 37 42 0 0 255 0 0 255 0 0 255 0 0 255 0 0 255 161 168 113 0 0 255 158 116 60 158 116 60 158 116 60 158 116 60 0 0 255 195 181 74 195 181 74 195 181 74 195 181 74 195 181 74 195 181 74 195 181 74 195 181 74 195 181 74 195 181 74 195 181 74 195 181 74 0 0 255 0 0 255 72 37 42 72 37 42 72 37 42 72 37 42 72 37 42 72 37 42 72 37 42 72 37 42 72 37 42 72 37 42 72 37 42 72 37 42 72 37 42 0 0 255 0 0 255 193 197 166 193 197 166 193 197 166 193 197 166 193 197 166 193 197 166 193 197 166 193 197 166 193 197 166 193 197 166 193 197 166 193 197 166 193 197 166 193 197 166 193 197 166 193 197 166 193 197 166 193 197 166 193 197 166 193 197 166 193 197 166 193 197 166 193 197 166 193 197 166 193 197 166 193 197 166 193 197 166 193 197 166 
0 0 255 0 0 255 186 184 133 0 0 255 0 0 255 0 0 255 192 191 140 192 191 140 192 191 140 192 191 140 192 191 140 192 191 140 192 191 140 192 191 140 192 191 140 192 191 140 192 191 140 192 191 140 192 191 140 192 191 140 192 191 140 192 191 140 192 191 140 192 191 140 192 191 140 192 191 140 192 191 140 0 0 255 0 0 255 0 0 255 0 0 255 0 0 255 65 38 45 65 38 45 65 38 45 65 38 45 65 38 45 0 0 255 0 0 255 0 0 255 0 0 255 193 195 150 193 195 150 193 195 150 0 0 255 0 0 255 65 38 45 65 38 45 65 38 45 65 38 45 65 38 45 65 38 45 65 38 45 65 38 45 65 38 45 65 38 45 0 0 255 0 0 255 0 0 255 65 38 45 65 38 45 0 0 255 0 0 255 0 0 255 0 0 255 0 0 255 186 59 41 186 59 41 186 59 41 186 59 41 186 59 41 186 59 41 186 59 41 186 59 41 186 59 41 186 59 41 186 59 41 186 59 41 186 59 41 0 0 255 0 0 255 0 0 255 194 178 79 194 178 79 194 178 79 194 178 79 194 178 79 194 178 79 194 178 79 194 178 79 194 178 79 194 178 79 194 178 79 194 178 79 194 178 79 194 178 79 194 178 79 0 0 255 0 0 255 0 0 255 0 0 255 70 35 42 70 35 42 70 35 42 70 35 42 70 35 42 70 35 42 70 35 42 0 0 255 0 0 255 0 0 255 0 0 255 194 178 79 194 178 79 0 0 255 198 182 74 198 182 74 198 182 74 198 182 74 198 182 74 198 182 74 198 182 74 198 182 74 198 182 74 198 182 74 198 182 74 0 0 255 0 0 255 0 0 255 0 0 255 198 182 74 198 182 74 198 182 74 198 182 74 198 182 74 198 182 74 198 182 74 198 182 74 198 182 74 198 182 74 198 182 74 198 182 74 198 182 74 198 182 74 198 182 74 198 182 74 198 182 74 198 182 74 198 182 74 198 182 74 198 182 74 198 182 74 198 182 74 198 182 74 198 182 74 198 182 74 198 182 74 0 0 255 0 0 255 0 0 255 72 37 42 72 37 42 72 37 42 72 37 42 72 37 42 72 37 42 0 0 255 0 0 255 0 0 255 72 37 42 72 37 42 72 37 42 72 37 42 0 0 255 0 0 255 0 0 255 72 37 42 72 37 42 72 37 42 72 37 42 72 37 42 72 37 42 72 37 42 72 37 42 72 37 42 72 37 42 72 37 42 72 37 42 0 0 255 0 0 255 0 0 255 0 0 255 161 168 113 0 0 255 158 116 60 158 116 60 158 116 60 158 116 60 0 0 255 195 181 74 195 181 74 195 181 74 195 181 74 195 181 74 195 181 74 195 181 74 195 181 74 195 181 74 195 181 74 195 181 74 0 0 255 158 116 60 0 0 255 72 37 42 72 37 42 72 37 42 72 37 42 72 37 42 72 37 42 72 37 42 72 37 42 72 37 42 72 37 42 72 37 42 72 37 42 72 37 42 0 0 255 0 0 255 0 0 255 0 0 255 0 0 255 193 197 166 0 0 255 0 0 255 0 0 255 0 0 255 0 0 255 0 0 255 0 0 255 0 0 255 0 0 255 0 0 255 0 0 255 0 0 255 0 0 255 0 0 255 0 0 255 0 0 255 0 0 255 0 0 255 0 0 255 0 0 255 0 0 255 0 0 255 0 0 255 0 0 255 
192 191 140 0 0 255 0 0 255 192 191 140 192 191 140 192 191 140 192 191 140 192 191 140 192 191 140 192 191 140 192 191 140 192 191 140 192 191 140 192 191 140 192 191 140 192 191 140 192 191 140 192 191 140 192 191 140 192 191 140 192 191 140 192 191 140 192 191 140 192 191 140 192 191 140 192 191 140 192 191 140 0 0 255 0 0 255 0 0 255 0 0 255 0 0 255 0 0 255 0 0 255 65 38 45 65 38 45 0 0 255 0 0 255 0 0 255 0 0 255 0 0 255 193 195 150 0 0 255 0 0 255 0 0 255 0 0 255 65 38 45 65 38 45 65 38 45 65 38 45 65 38 45 65 38 45 65 38 45 65 38 45 65 38 45 0 0 255 0 0 255 0 0 255 0 0 255 65 38 45 65 38 45 0 0 255 0 0 255 0 0 255 0 0 255 0 0 255 186 59 41 186 59 41 186 59 41 186 59 41 186 59 41 186 59 41 186 59 41 186 59 41 186 59 41 186 59 41 186 59 41 186 59 41 186 59 41 186 59 41 0 0 255 194 178 79 194 178 79 194 178 79 194 178 79 194 178 79 194 178 79 194 178 79 194 178 79 194 178 79 194 178 79 194 178 79 194 178 79 194 178 79 194 178 79 194 178 79 194 178 79 194 178 79 0 0 255 0 0 255 0 0 255 0 0 255 70 35 42 70 35 42 70 35 42 70 35 42 70 35 42 70 35 42 0 0 255 0 0 255 0 0 255 0 0 255 194 178 79 0 0 255 0 0 255 198 182 74 198 182 74 198 182 74 198 182 74 198 182 74 198 182 74 198 182 74 198 182 74 198 182 74 198 182 74 198 182 74 198 182 74 198 182 74 198 182 74 198 182 74 198 182 74 198 182 74 198 182 74 198 182 74 198 182 74 198 182 74 198 182 74 198 182 74 198 182 74 198 182 74 198 182 74 198 182 74 198 182 74 198 182 74 198 182 74 198 182 74 198 182 74 198 182 74 198 182 74 198 182 74 198 182 74 198 182 74 198 182 74 198 182 74 198 182 74 198 182 74 198 182 74 0 0 255 114 89 58 0 0 255 72 37 42 72 37 42 72 37 42 72 37 42 72 37 42 72 37 42 72 37 42 72 37 42 72 37 42 72 37 42 72 37 42 72 37 42 72 37 42 0 0 255 0 0 255 0 0 255 0 0 255 0 0 255 0 0 255 0 0 255 72 37 42 72 37 42 72 37 42 72 37 42 72 37 42 72 37 42 72 37 42 0 0 255 0 0 255 0 0 255 0 0 255 161 168 113 161 168 113 0 0 255 0 0 255 0 0 255 0 0 255 0 0 255 0 0 255 195 181 74 195 181 74 195 181 74 195 181 74 195 181 74 195 181 74 195 181 74 195 181 74 195 181 74 195 181 74 195 181 74 0 0 255 0 0 255 0 0 255 0 0 255 72 37 42 72 37 42 72 37 42 72 37 42 72 37 42 72 37 42 72 37 42 72 37 42 72 37 42 72 37 42 72 37 42 0 0 255 0 0 255 0 0 255 195 199 167 195 199 167 0 0 255 0 0 255 195 199 167 195 199 167 195 199 167 195 199 167 195 199 167 195 199 167 195 199 167 195 199 167 195 199 167 195 199 167 195 199 167 195 199 167 195 199 167 195 199 167 195 199 167 195 199 167 195 199 167 195 199 167 195 199 167 195 199 167 195 199 167 195 199 167 195 199 167 195 199 167 
192 191 140 192 191 140 192 191 140 192 191 140 192 191 140 192 191 140 192 191 140 192 191 140 192 191 140 192 191 140 192 191 140 192 191 140 192 191 140 192 191 140 192 191 140 192 191 140 192 191 140 192 191 140 192 191 140 192 191 140 192 191 140 192 191 140 192 191 140 192 191 140 192 191 140 192 191 140 192 191 140 192 191 140 192 191 140 0 0 255 0 0 255 0 0 255 0 0 255 0 0 255 0 0 255 0 0 255 0 0 255 0 0 255 0 0 255 0 0 255 193 195 150 0 0 255 0 0 255 0 0 255 98 138 73 0 0 255 65 38 45 65 38 45 65 38 45 65 38 45 65 38 45 65 38 45 65 38 45 65 38 45 65 38 45 65 38 45 0 0 255 0 0 255 0 0 255 65 38 45 65 38 45 65 38 45 0 0 255 0 0 255 123 87 55 0 0 255 186 59 41 186 59 41 186 59 41 186 59 41 186 59 41 186 59 41 0 0 255 0 0 255 186 59 41 186 59 41 186 59 41 186 59 41 186 59 41 186 59 41 0 0 255 194 178 79 194 178 79 194 178 79 194 178 79 194 178 79 194 178 79 194 178 79 194 178 79 194 178 79 194 178 79 194 178 79 194 178 79 194 178 79 194 178 79 194 178 79 194 178 79 194 178 79 0 0 255 0 0 255 0 0 255 0 0 255 70 35 42 70 35 42 70 35 42 70 35 42 70 35 42 70 35 42 70 35 42 0 0 255 0 0 255 0 0 255 0 0 255 194 178 79 0 0 255 198 182 74 198 182 74 198 182 74 198 182 74 198 182 74 198 182 74 198 182 74 198 182 74 198 182 74 198 182 74 198 182 74 198 182 74 198 182 74 198 182 74 198 182 74 198 182 74 198 182 74 198 182 74 198 182 74 198 182 74 198 182 74 198 182 74 198 182 74 198 182 74 198 182 74 198 182 74 198 182 74 198 182 74 198 182 74 198 182 74 198 182 74 198 182 74 198 182 74 198 182 74 198 182 74 198 182 74 198 182 74 198 182 74 198 182 74 198 182 74 198 182 74 198 182 74 0 0 255 114 89 58 0 0 255 72 37 42 72 37 42 72 37 42 72 37 42 72 37 42 72 37 42 72 37 42 72 37 42 72 37 42 72 37 42 72 37 42 72 37 42 0 0 255 191 60 41 191 60 41 191 60 41 191 60 41 191 60 41 191 60 41 0 0 255 0 0 255 0 0 255 72 37 42 72 37 42 72 37 42 72 37 42 72 37 42 0 0 255 161 168 113 161 168 113 161 168 113 0 0 255 0 0 255 195 181 74 195 181 74 195 181 74 195 181 74 195 181 74 195 181 74 195 181 74 195 181 74 195 181 74 195 181 74 195 181 74 195 181 74 195 181 74 195 181 74 195 181 74 195 181 74 195 181 74 0 0 255 0 0 255 158 116 60 0 0 255 0 0 255 72 37 42 72 37 42 72 37 42 72 37 42 72 37 42 72 37 42 72 37 42 72 37 42 72 37 42 72 37 42 0 0 255 0 0 255 195 199 167 195 199 167 195 199 167 195 199 167 195 199 167 195 199 167 195 199 167 195 199 167 195 199 167 195 199 167 195 199 167 195 199 167 195 199 167 195 199 167 195 199 167 195 199 167 195 199 167 195 199 167 195 199 167 195 199 167 195 199 167 195 199 167 195 199 167 195 199 167 195 199 167 195 199 167 195 199 167 195 199 167 195 199 167 
192 191 140 192 191 140 192 191 140 192 191 140 192 191 140 192 191 140 192 191 140 192 191 140 192 191 140 192 191 140 192 191 140 192 191 140 192 191 140 192 191 140 192 191 140 192 191 140 192 191 140 192 191 140 192 191 140 192 191 140 192 191 140 192 191 140 192 191 140 192 191 140 192 191 140 192 191 140 192 191 140 192 191 140 192 191 140 192 191 140 0 0 255 0 0 255 0 0 255 0 0 255 0 0 255 0 0 255 0 0 255 0 0 255 193 195 150 193 195 150 193 195 150 0 0 255 0 0 255 98 138 73 0 0 255 0 0 255 0 0 255 65 38 45 65 38 45 65 38 45 65 38 45 65 38 45 65 38 45 65 38 45 65 38 45 65 38 45 65 38 45 65 38 45 65 38 45 65 38 45 65 38 45 65 38 45 0 0 255 123 87 55 0 0 255 0 0 255 186 59 41 186 59 41 186 59 41 186 59 41 186 59 41 0 0 255 194 178 79 0 0 255 186 59 41 186 59 41 186 59 41 186 59 41 186 59 41 186 59 41 0 0 255 0 0 255 194 178 79 194 178 79 194 178 79 194 178 79 194 178 79 194 178 79 194 178 79 194 178 79 194 178 79 194 178 79 194 178 79 194 178 79 194 178 79 194 178 79 194 178 79 0 0 255 0 0 255 0 0 255 0 0 255 0 0 255 70 35 42 70 35 42 70 35 42 70 35 42 70 35 42 70 35 42 70 35 42 0 0 255 0 0 255 0 0 255 0 0 255 0 0 255 0 0 255 0 0 255 198 182 74 198 182 74 198 182 74 198 182 74 198 182 74 198 182 74 198 182 74 198 182 74 198 182 74 198 182 74 198 182 74 198 182 74 198 182 74 198 182 74 198 182 74 198 182 74 198 182 74 198 182 74 198 182 74 198 182 74 198 182 74 198 182 74 198 182 74 198 182 74 198 182 74 198 182 74 198 182 74 198 182 74 0 0 255 198 182 74 198 182 74 198 182 74 198 182 74 198 182 74 198 182 74 198 182 74 198 182 74 198 182 74 198 182 74 198 182 74 198 182 74 0 0 255 0 0 255 0 0 255 0 0 255 0 0 255 72 37 42 72 37 42 72 37 42 72 37 42 72 37 42 72 37 42 72 37 42 72 37 42 72 37 42 0 0 255 191 60 41 191 60 41 191 60 41 191 60 41 191 60 41 191 60 41 191 60 41 191 60 41 191 60 41 0 0 255 0 0 255 72 37 42 72 37 42 72 37 42 0 0 255 0 0 255 161 168 113 0 0 255 0 0 255 195 181 74 195 181 74 195 181 74 195 181 74 195 181 74 195 181 74 195 181 74 195 181 74 195 181 74 195 181 74 195 181 74 195 181 74 195 181 74 195 181 74 195 181 74 195 181 74 195 181 74 195 181 74 0 0 255 0 0 255 0 0 255 0 0 255 158 116 60 0 0 255 72 37 42 72 37 42 72 37 42 72 37 42 72 37 42 72 37 42 72 37 42 72 37 42 0 0 255 0 0 255 0 0 255 0 0 255 195 199 167 195 199 167 195 199 167 195 199 167 195 199 167 195 199 167 195 199 167 195 199 167 195 199 167 195 199 167 195 199 167 195 199 167 195 199 167 195 199 167 195 199 167 195 199 167 195 199 167 195 199 167 195 199 167 195 199 167 195 199 167 195 199 167 195 199 167 195 199 167 195 199 167 195 199 167 195 199 167 195 199 167 195 199 167 
192 191 140 192 191 140 192 191 140 192 191 140 192 191 140 192 191 140 192 191 140 192 191 140 192 191 140 192 191 140 192 191 140 192 191 140 192 191 140 192 191 140 192 191 140 192 191 140 192 191 140 192 191 140 192 191 140 192 191 140 192 191 140 192 191 140 192 191 140 192 191 140 192 191 140 192 191 140 192 191 140 192 191 140 192 191 140 192 191 140 192 191 140 192 191 140 192 191 140 192 191 140 0 0 255 193 195 150 193 195 150 193 195 150 193 195 150 193 195 150 193 195 150 0 0 255 0 0 255 0 0 255 0 0 255 0 0 255 0 0 255 65 38 45 65 38 45 65 38 45 65 38 45 65 38 45 65 38 45 65 38 45 65 38 45 65 38 45 65 38 45 65 38 45 65 38 45 65 38 45 65 38 45 65 38 45 0 0 255 123 87 55 0 0 255 0 0 255 0 0 255 186 59 41 186 59 41 186 59 41 0 0 255 194 178 79 194 178 79 0 0 255 186 59 41 186 59 41 186 59 41 186 59 41 186 59 41 186 59 41 0 0 255 0 0 255 194 178 79 194 178 79 194 178 79 194 178 79 194 178 79 194 178 79 194 178 79 194 178 79 194 178 79 194 178 79 194 178 79 194 178 79 194 178 79 194 178 79 0 0 255 198 196 141 0 0 255 0 0 255 0 0 255 70 35 42 70 35 42 70 35 42 70 35 42 70 35 42 70 35 42 70 35 42 70 35 42 70 35 42 0 0 255 0 0 255 0 0 255 0 0 255 0 0 255 0 0 255 0 0 255 198 182 74 198 182 74 198 182 74 198 182 74 198 182 74 198 182 74 198 182 74 198 182 74 198 182 74 198 182 74 198 182 74 198 182 74 198 182 74 198 182 74 198 182 74 198 182 74 198 182 74 198 182 74 198 182 74 198 182 74 198 182 74 198 182 74 198 182 74 198 182 74 198 182 74 198 182 74 0 0 255 0 0 255 198 182 74 0 0 255 0 0 255 0 0 255 198 182 74 198 182 74 198 182 74 198 182 74 198 182 74 198 182 74 198 182 74 0 0 255 0 0 255 0 0 255 0 0 255 0 0 255 0 0 255 0 0 255 0 0 255 72 37 42 72 37 42 72 37 42 72 37 42 72 37 42 72 37 42 0 0 255 191 60 41 191 60 41 191 60 41 191 60 41 191 60 41 191 60 41 191 60 41 191 60 41 191 60 41 191 60 41 191 60 41 0 0 255 0 0 255 0 0 255 0 0 255 0 0 255 0 0 255 0 0 255 195 181 74 195 181 74 195 181 74 195 181 74 195 181 74 195 181 74 195 181 74 195 181 74 195 181 74 195 181 74 195 181 74 195 181 74 195 181 74 195 181 74 195 181 74 195 181 74 195 181 74 195 181 74 0 0 255 0 0 255 0 0 255 0 0 255 0 0 255 0 0 255 0 0 255 0 0 255 0 0 255 0 0 255 0 0 255 0 0 255 72 37 42 72 37 42 0 0 255 0 0 255 0 0 255 0 0 255 195 199 167 195 199 167 195 199 167 195 199 167 195 199 167 195 199 167 195 199 167 195 199 167 195 199 167 195 199 167 195 199 167 195 199 167 195 199 167 195 199 167 195 199 167 195 199 167 195 199 167 195 199 167 195 199 167 195 199 167 195 199 167 195 199 167 195 199 167 195 199 167 195 199 167 195 199 167 195 199 167 195 199 167 195 199 167 195 199 167 195 199 167 
192 191 140 192 191 140 192 191 140 192 191 140 192 191 140 192 191 140 192 191 140 192 191 140 192 191 140 192 191 140 192 191 140 192 191 140 192 191 140 192 191 140 192 191 140 192 191 140 192 191 140 192 191 140 192 191 140 192 191 140 192 191 140 192 191 140 192 191 140 192 191 140 192 191 140 192 191 140 192 191 140 192 191 140 192 191 140 192 191 140 192 191 140 192 191 140 192 191 140 0 0 255 193 195 150 193 195 150 193 195 150 193 195 150 193 195 150 193 195 150 0 0 255 0 0 255 0 0 255 98 138 73 98 138 73 0 0 255 0 0 255 0 0 255 0 0 255 0 0 255 65 38 45 65 38 45 65 38 45 65 38 45 65 38 45 65 38 45 65 38 45 65 38 45 65 38 45 65 38 45 65 38 45 65 38 45 0 0 255 123 87 55 123 87 55 0 0 255 0 0 255 186 59 41 186 59 41 186 59 41 0 0 255 0 0 255 0 0 255 0 0 255 186 59 41 186 59 41 186 59 41 186 59 41 186 59 41 186 59 41 0 0 255 0 0 255 194 178 79 194 178 79 194 178 79 194 178 79 194 178 79 194 178 79 194 178 79 194 178 79 194 178 79 194 178 79 194 178 79 194 178 79 194 178 79 194 178 79 0 0 255 198 196 141 0 0 255 0 0 255 0 0 255 70 35 42 70 35 42 70 35 42 70 35 42 70 35 42 0 0 255 0 0 255 70 35 42 70 35 42 70 35 42 0 0 255 0 0 255 0 0 255 167 125 62 0 0 255 0 0 255 0 0 255 0 0 255 198 182 74 198 182 74 198 182 74 198 182 74 198 182 74 198 182 74 198 182 74 198 182 74 198 182 74 198 182 74 198 182 74 198 182 74 198 182 74 198 182 74 198 182 74 198 182 74 198 182 74 198 182 74 198 182 74 198 182 74 198 182 74 198 182 74 198 182 74 198 182 74 198 182 74 198 182 74 0 0 255 0 0 255 0 0 255 0 0 255 0 0 255 0 0 255 198 182 74 198 182 74 198 182 74 198 182 74 198 182 74 198 182 74 198 182 74 198 182 74 198 182 74 198 182 74 0 0 255 0 0 255 0 0 255 0 0 255 0 0 255 72 37 42 72 37 42 72 37 42 72 37 42 0 0 255 191 60 41 191 60 41 191 60 41 191 60 41 191 60 41 191 60 41 191 60 41 191 60 41 191 60 41 191 60 41 191 60 41 191 60 41 0 0 255 0 0 255 161 168 113 0 0 255 0 0 255 195 181 74 195 181 74 195 181 74 195 181 74 195 181 74 195 181 74 195 181 74 195 181 74 195 181 74 195 181 74 195 181 74 195 181 74 195 181 74 195 181 74 195 181 74 195 181 74 195 181 74 0 0 255 0 0 255 0 0 255 195 199 167 195 199 167 195 199 167 0 0 255 161 168 113 0 0 255 158 116 60 158 116 60 0 0 255 191 60 41 0 0 255 0 0 255 0 0 255 158 116 60 0 0 255 0 0 255 195 199 167 195 199 167 195 199 167 195 199 167 195 199 167 195 199 167 195 199 167 195 199 167 195 199 167 195 199 167 195 199 167 195 199 167 195 199 167 195 199 167 195 199 167 195 199 167 195 199 167 195 199 167 195 199 167 195 199 167 195 199 167 195 199 167 195 199 167 195 199 167 195 199 167 195 199 167 195 199 167 195 199 167 195 199 167 195 199 167 195 199 167 195 199 167 
192 191 140 192 191 140 192 191 140 192 191 140 192 191 140 192 191 140 192 191 140 192 191 140 192 191 140 192 191 140 192 191 140 192 191 140 192 191 140 192 191 140 192 191 140 192 191 140 192 191 140 192 191 140 192 191 140 192 191 140 192 191 140 192 191 140 192 191 140 192 191 140 192 191 140 192 191 140 192 191 140 192 191 140 192 191 140 192 191 140 192 191 140 192 191 140 192 191 140 0 0 255 193 195 150 193 195 150 193 195 150 193 195 150 193 195 150 193 195 150 193 195 150 0 0 255 0 0 255 98 138 73 98 138 73 98 138 73 98 138 73 98 138 73 98 138 73 0 0 255 0 0 255 0 0 255 65 38 45 65 38 45 65 38 45 65 38 45 65 38 45 65 38 45 65 38 45 65 38 45 65 38 45 0 0 255 123 87 55 123 87 55 123 87 55 0 0 255 0 0 255 186 59 41 186 59 41 186 59 41 186 59 41 186 59 41 186 59 41 186 59 41 186 59 41 186 59 41 186 59 41 186 59 41 186 59 41 186 59 41 186 59 41 0 0 255 0 0 255 194 178 79 194 178 79 194 178 79 194 178 79 194 178 79 194 178 79 194 178 79 194 178 79 194 178 79 194 178 79 194 178 79 194 178 79 194 178 79 0 0 255 0 0 255 0 0 255 0 0 255 70 35 42 70 35 42 70 35 42 70 35 42 70 35 42 0 0 255 0 0 255 0 0 255 70 35 42 70 35 42 70 35 42 0 0 255 0 0 255 0 0 255 0 0 255 0 0 255 0 0 255 0 0 255 0 0 255 198 182 74 198 182 74 198 182 74 198 182 74 198 182 74 198 182 74 198 182 74 198 182 74 198 182 74 198 182 74 198 182 74 198 182 74 198 182 74 198 182 74 198 182 74 198 182 74 198 182 74 198 182 74 198 182 74 198 182 74 198 182 74 198 182 74 198 182 74 198 182 74 198 182 74 0 0 255 0 0 255 0 0 255 0 0 255 0 0 255 0 0 255 0 0 255 0 0 255 0 0 255 198 182 74 198 182 74 198 182 74 198 182 74 198 182 74 198 182 74 198 182 74 198 182 74 198 182 74 198 182 74 0 0 255 0 0 255 0 0 255 72 37 42 72 37 42 72 37 42 0 0 255 191 60 41 191 60 41 191 60 41 191 60 41 191 60 41 191 60 41 191 60 41 191 60 41 191 60 41 191 60 41 191 60 41 191 60 41 191 60 41 191 60 41 0 0 255 0 0 255 0 0 255 0 0 255 0 0 255 195 181 74 195 181 74 195 181 74 195 181 74 195 181 74 195 181 74 195 181 74 195 181 74 195 181 74 195 181 74 195 181 74 195 181 74 195 181 74 0 0 255 0 0 255 0 0 255 0 0 255 0 0 255 195 199 167 195 199 167 195 199 167 195 199 167 0 0 255 0 0 255 0 0 255 0 0 255 0 0 255 191 60 41 191 60 41 191 60 41 191 60 41 0 0 255 0 0 255 0 0 255 195 199 167 195 199 167 195 199 167 195 199 167 195 199 167 195 199 167 195 199 167 195 199 167 195 199 167 195 199 167 195 199 167 195 199 167 195 199 167 195 199 167 195 199 167 195 199 167 195 199 167 195 199 167 195 199 167 195 199 167 195 199 167 195 199 167 195 199 167 195 199 167 195 199 167 195 199 167 195 199 167 195 199 167 195 199 167 195 199 167 195 199 167 195 199 167 195 199 167 
192 191 140 192 191 140 192 191 140 192 191 140 192 191 140 192 191 140 192 191 140 192 191 140 192 191 140 192 191 140 192 191 140 192 191 140 192 191 140 192 191 140 192 191 140 192 191 140 192 191 140 192 191 140 192 191 140 192 191 140 192 191 140 192 191 140 192 191 140 192 191 140 192 191 140 192 191 140 192 191 140 192 191 140 192 191 140 192 191 140 192 191 140 192 191 140 192 191 140 0 0 255 0 0 255 0 0 255 0 0 255 193 195 150 193 195 150 193 195 150 0 0 255 0 0 255 98 138 73 98 138 73 98 138 73 98 138 73 98 138 73 98 138 73 98 138 73 98 138 73 98 138 73 0 0 255 0 0 255 65 38 45 65 38 45 65 38 45 65 38 45 65 38 45 65 38 45 65 38 45 0 0 255 0 0 255 0 0 255 123 87 55 123 87 55 123 87 55 0 0 255 186 59 41 186 59 41 186 59 41 186 59 41 186 59 41 186 59 41 186 59 41 186 59 41 186 59 41 186 59 41 186 59 41 186 59 41 186 59 41 186 59 41 0 0 255 0 0 255 0 0 255 194 178 79 194 178 79 194 178 79 194 178 79 194 178 79 194 178 79 194 178 79 194 178 79 194 178 79 194 178 79 194 178 79 194 178 79 194 178 79 194 178 79 0 0 255 0 0 255 70 35 42 70 35 42 70 35 42 70 35 42 70 35 42 0 0 255 0 0 255 0 0 255 70 35 42 70 35 42 70 35 42 70 35 42 0 0 255 114 89 58 114 89 58 114 89 58 114 89 58 0 0 255 0 0 255 198 182 74 198 182 74 198 182 74 198 182 74 198 182 74 198 182 74 198 182 74 198 182 74 198 182 74 198 182 74 198 182 74 198 182 74 198 182 74 198 182 74 198 182 74 198 182 74 198 182 74 198 182 74 198 182 74 198 182 74 198 182 74 198 182 74 198 182 74 198 182 74 0 0 255 0 0 255 0 0 255 70 35 42 70 35 42 70 35 42 0 0 255 0 0 255 0 0 255 0 0 255 0 0 255 198 182 74 198 182 74 198 182 74 198 182 74 198 182 74 198 182 74 198 182 74 198 182 74 198 182 74 198 182 74 0 0 255 0 0 255 0 0 255 0 0 255 0 0 255 191 60 41 191 60 41 191 60 41 191 60 41 191 60 41 191 60 41 191 60 41 191 60 41 191 60 41 191 60 41 191 60 41 191 60 41 191 60 41 191 60 41 191 60 41 0 0 255 0 0 255 0 0 255 158 116 60 0 0 255 195 181 74 195 181 74 195 181 74 195 181 74 195 181 74 195 181 74 195 181 74 195 181 74 195 181 74 195 181 74 195 181 74 195 181 74 0 0 255 0 0 255 195 199 167 195 199 167 195 199 167 195 199 167 195 199 167 195 199 167 195 199 167 195 199 167 0 0 255 0 0 255 191 60 41 191 60 41 191 60 41 191 60 41 191 60 41 191 60 41 191 60 41 191 60 41 0 0 255 0 0 255 0 0 255 195 199 167 195 199 167 195 199 167 195 199 167 195 199 167 195 199 167 195 199 167 195 199 167 195 199 167 195 199 167 195 199 167 195 199 167 195 199 167 195 199 167 195 199 167 195 199 167 195 199 167 195 199 167 195 199 167 195 199 167 195 199 167 195 199 167 195 199 167 195 199 167 195 199 167 195 199 167 195 199 167 195 199 167 195 199 167 195 199 167 195 199 167 195 199 167 
192 191 140 192 191 140 192 191 140 192 191 140 192 191 140 192 191 140 192 191 140 192 191 140 192 191 140 192 191 140 192 191 140 192 191 140 192 191 140 192 191 140 192 191 140 192 191 140 192 191 140 192 191 140 192 191 140 192 191 140 192 191 140 192 191 140 192 191 140 192 191 140 192 191 140 192 191 140 192 191 140 192 191 140 192 191 140 192 191 140 192 191 140 192 191 140 0 0 255 0 0 255 198 198 148 198 198 148 0 0 255 0 0 255 0 0 255 0 0 255 0 0 255 98 138 73 98 138 73 98 138 73 98 138 73 98 138 73 98 138 73 98 138 73 98 138 73 98 138 73 98 138 73 98 138 73 0 0 255 0 0 255 65 38 45 65 38 45 65 38 45 65 38 45 0 0 255 0 0 255 0 0 255 0 0 255 0 0 255 0 0 255 0 0 255 123 87 55 0 0 255 186 59 41 186 59 41 186 59 41 186 59 41 186 59 41 186 59 41 186 59 41 186 59 41 186 59 41 186 59 41 186 59 41 186 59 41 186 59 41 186 59 41 186 59 41 0 0 255 0 0 255 0 0 255 0 0 255 194 178 79 194 178 79 194 178 79 194 178 79 194 178 79 194 178 79 194 178 79 194 178 79 194 178 79 194 178 79 194 178 79 194 178 79 0 0 255 0 0 255 70 35 42 70 35 42 70 35 42 70 35 42 70 35 42 70 35 42 70 35 42 70 35 42 70 35 42 70 35 42 70 35 42 70 35 42 0 0 255 0 0 255 114 89 58 114 89 58 114 89 58 0 0 255 0 0 255 0 0 255 198 182 74 198 182 74 198 182 74 198 182 74 198 182 74 198 182 74 198 182 74 198 182 74 198 182 74 198 182 74 198 182 74 0 0 255 0 0 255 0 0 255 0 0 255 198 182 74 198 182 74 198 182 74 198 182 74 198 182 74 198 182 74 198 182 74 0 0 255 0 0 255 0 0 255 70 35 42 70 35 42 70 35 42 70 35 42 70 35 42 70 35 42 0 0 255 0 0 255 0 0 255 198 182 74 0 0 255 198 182 74 198 182 74 198 182 74 198 182 74 198 182 74 198 182 74 198 182 74 198 182 74 198 182 74 0 0 255 0 0 255 0 0 255 0 0 255 191 60 41 191 60 41 191 60 41 191 60 41 191 60 41 191 60 41 191 60 41 191 60 41 191 60 41 0 0 255 0 0 255 191 60 41 191 60 41 191 60 41 191 60 41 191 60 41 191 60 41 0 0 255 0 0 255 0 0 255 195 181 74 195 181 74 195 181 74 195 181 74 195 181 74 195 181 74 195 181 74 195 181 74 195 181 74 195 181 74 195 181 74 195 181 74 0 0 255 195 199 167 195 199 167 195 199 167 195 199 167 195 199 167 195 199 167 195 199 167 195 199 167 0 0 255 0 0 255 0 0 255 191 60 41 191 60 41 191 60 41 191 60 41 191 60 41 0 0 255 0 0 255 191 60 41 0 0 255 0 0 255 0 0 255 195 199 167 195 199 167 195 199 167 195 199 167 195 199 167 195 199 167 195 199 167 195 199 167 195 199 167 195 199 167 195 199 167 195 199 167 195 199 167 195 199 167 195 199 167 195 199 167 195 199 167 195 199 167 195 199 167 195 199 167 195 199 167 195 199 167 195 199 167 195 199 167 195 199 167 195 199 167 195 199 167 195 199 167 195 199 167 195 199 167 195 199 167 195 199 167 
192 191 140 192 191 140 192 191 140 192 191 140 192 191 140 192 191 140 192 191 140 192 191 140 192 191 140 192 191 140 192 191 140 192 191 140 192 191 140 192 191 140 192 191 140 192 191 140 192 191 140 192 191 140 192 191 140 192 191 140 192 191 140 192 191 140 192 191 140 192 191 140 192 191 140 192 191 140 192 191 140 192 191 140 192 191 140 192 191 140 192 191 140 0 0 255 198 198 148 198 198 148 198 198 148 198 198 148 198 198 148 198 198 148 0 0 255 0 0 255 0 0 255 98 138 73 98 138 73 98 138 73 98 138 73 98 138 73 98 138 73 98 138 73 98 138 73 98 138 73 98 138 73 98 138 73 98 138 73 0 0 255 65 38 45 65 38 45 0 0 255 0 0 255 0 0 255 186 59 41 186 59 41 186 59 41 186 59 41 186 59 41 0 0 255 0 0 255 0 0 255 186 59 41 186 59 41 186 59 41 186 59 41 186 59 41 186 59 41 186 59 41 186 59 41 186 59 41 186 59 41 186 59 41 186 59 41 186 59 41 186 59 41 186 59 41 186 59 41 0 0 255 0 0 255 0 0 255 194 178 79 194 178 79 194 178 79 194 178 79 194 178 79 194 178 79 194 178 79 194 178 79 194 178 79 194 178 79 194 178 79 194 178 79 0 0 255 0 0 255 0 0 255 70 35 42 70 35 42 70 35 42 70 35 42 70 35 42 70 35 42 70 35 42 70 35 42 70 35 42 70 35 42 0 0 255 0 0 255 0 0 255 114 89 58 114 89 58 114 89 58 0 0 255 0 0 255 0 0 255 198 182 74 198 182 74 198 182 74 198 182 74 198 182 74 198 182 74 198 182 74 198 182 74 198 182 74 198 182 74 0 0 255 167 125 62 0 0 255 0 0 255 0 0 255 0 0 255 0 0 255 0 0 255 198 182 74 198 182 74 198 182 74 198 182 74 0 0 255 0 0 255 70 35 42 70 35 42 70 35 42 70 35 42 70 35 42 70 35 42 70 35 42 70 35 42 0 0 255 0 0 255 0 0 255 0 0 255 0 0 255 198 182 74 198 182 74 198 182 74 198 182 74 198 182 74 198 182 74 198 182 74 198 182 74 198 182 74 0 0 255 158 116 60 0 0 255 191 60 41 191 60 41 191 60 41 191 60 41 191 60 41 191 60 41 191 60 41 191 60 41 0 0 255 195 181 74 0 0 255 0 0 255 191 60 41 191 60 41 191 60 41 191 60 41 191 60 41 191 60 41 0 0 255 0 0 255 0 0 255 195 181 74 195 181 74 195 181 74 195 181 74 195 181 74 195 181 74 195 181 74 195 181 74 195 181 74 195 181 74 195 181 74 0 0 255 195 199 167 195 199 167 195 199 167 195 199 167 195 199 167 195 199 167 195 199 167 0 0 255 0 0 255 0 0 255 191 60 41 191 60 41 191 60 41 191 60 41 191 60 41 0 0 255 0 0 255 0 0 255 191 60 41 191 60 41 0 0 255 0 0 255 195 199 167 195 199 167 195 199 167 195 199 167 195 199 167 195 199 167 195 199 167 195 199 167 195 199 167 195 199 167 195 199 167 195 199 167 195 199 167 195 199 167 195 199 167 195 199 167 195 199 167 195 199 167 195 199 167 195 199 167 195 199 167 195 199 167 195 199 167 195 199 167 195 199 167 195 199 167 195 199 167 195 199 167 195 199 167 195 199 167 195 199 167 195 199 167 
192 191 140 192 191 140 192 191 140 192 191 140 192 191 140 192 191 140 192 191 140 192 191 140 192 191 140 192 191 140 192 191 140 192 191 140 192 191 140 192 191 140 192 191 140 192 191 140 192 191 140 192 191 140 192 191 140 192 191 140 192 191 140 192 191 140 192 191 140 192 191 140 192 191 140 192 191 140 192 191 140 192 191 140 192 191 140 192 191 140 0 0 255 198 198 148 198 198 148 198 198 148 198 198 148 198 198 148 198 198 148 198 198 148 0 0 255 0 0 255 98 138 73 0 0 255 98 138 73 98 138 73 98 138 73 98 138 73 98 138 73 98 138 73 98 138 73 98 138 73 98 138 73 98 138 73 98 138 73 0 0 255 0 0 255 0 0 255 123 87 55 0 0 255 186 59 41 186 59 41 186 59 41 186 59 41 186 59 41 186 59 41 186 59 41 186 59 41 186 59 41 186 59 41 186 59 41 186 59 41 186 59 41 186 59 41 186 59 41 186 59 41 186 59 41 186 59 41 0 0 255 0 0 255 186 59 41 186 59 41 186 59 41 186 59 41 186 59 41 186 59 41 0 0 255 0 0 255 0 0 255 194 178 79 194 178 79 194 178 79 194 178 79 194 178 79 194 178 79 194 178 79 194 178 79 194 178 79 194 178 79 194 178 79 194 178 79 0 0 255 0 0 255 0 0 255 70 35 42 70 35 42 70 35 42 70 35 42 70 35 42 70 35 42 70 35 42 70 35 42 70 35 42 0 0 255 0 0 255 0 0 255 0 0 255 114 89 58 114 89 58 114 89 58 0 0 255 0 0 255 198 182 74 198 182 74 198 182 74 198 182 74 198 182 74 198 182 74 198 182 74 198 182 74 198 182 74 198 182 74 0 0 255 0 0 255 191 60 41 191 60 41 191 60 41 191 60 41 0 0 255 0 0 255 0 0 255 0 0 255 198 182 74 0 0 255 0 0 255 70 35 42 70 35 42 70 35 42 70 35 42 70 35 42 70 35 42 70 35 42 70 35 42 70 35 42 0 0 255 0 0 255 114 89 58 0 0 255 0 0 255 198 182 74 198 182 74 198 182 74 198 182 74 198 182 74 198 182 74 198 182 74 198 182 74 198 182 74 0 0 255 0 0 255 0 0 255 191 60 41 191 60 41 191 60 41 191 60 41 191 60 41 191 60 41 191 60 41 191 60 41 0 0 255 0 0 255 0 0 255 0 0 255 191 60 41 191 60 41 191 60 41 191 60 41 191 60 41 191 60 41 0 0 255 0 0 255 0 0 255 195 181 74 195 181 74 195 181 74 195 181 74 195 181 74 195 181 74 195 181 74 195 181 74 195 181 74 195 181 74 195 181 74 0 0 255 195 199 167 195 199 167 195 199 167 195 199 167 195 199 167 195 199 167 0 0 255 0 0 255 0 0 255 0 0 255 191 60 41 191 60 41 191 60 41 191 60 41 191 60 41 0 0 255 0 0 255 0 0 255 191 60 41 191 60 41 0 0 255 0 0 255 195 199 167 195 199 167 195 199 167 195 199 167 195 199 167 195 199 167 195 199 167 195 199 167 195 199 167 195 199 167 195 199 167 195 199 167 195 199 167 195 199 167 195 199 167 195 199 167 195 199 167 195 199 167 195 199 167 195 199 167 195 199 167 195 199 167 195 199 167 195 199 167 195 199 167 195 199 167 195 199 167 195 199 167 195 199 167 195 199 167 195 199 167 195 199 167 
192 191 140 192 191 140 192 191 140 192 191 140 192 191 140 192 191 140 192 191 140 192 191 140 192 191 140 192 191 140 192 191 140 192 191 140 192 191 140 192 191 140 192 191 140 192 191 140 192 191 140 192 191 140 192 191 140 192 191 140 192 191 140 192 191 140 192 191 140 192 191 140 192 191 140 192 191 140 192 191 140 192 191 140 192 191 140 0 0 255 198 198 148 198 198 148 198 198 148 198 198 148 198 198 148 198 198 148 0 0 255 0 0 255 192 191 140 0 0 255 0 0 255 0 0 255 98 138 73 98 138 73 98 138 73 98 138 73 98 138 73 98 138 73 98 138 73 98 138 73 98 138 73 98 138 73 98 138 73 98 138 73 0 0 255 0 0 255 0 0 255 186 59 41 186 59 41 186 59 41 186 59 41 186 59 41 186 59 41 186 59 41 186 59 41 186 59 41 186 59 41 186 59 41 186 59 41 186 59 41 186 59 41 186 59 41 186 59 41 186 59 41 186 59 41 0 0 255 194 178 79 0 0 255 186 59 41 186 59 41 186 59 41 186 59 41 186 59 41 186 59 41 186 59 41 0 0 255 0 0 255 194 178 79 194 178 79 194 178 79 194 178 79 194 178 79 194 178 79 194 178 79 194 178 79 194 178 79 194 178 79 194 178 79 194 178 79 194 178 79 0 0 255 0 0 255 0 0 255 70 35 42 70 35 42 70 35 42 70 35 42 70 35 42 70 35 42 70 35 42 70 35 42 70 35 42 70 35 42 70 35 42 0 0 255 0 0 255 0 0 255 0 0 255 0 0 255 0 0 255 198 182 74 198 182 74 198 182 74 198 182 74 198 182 74 198 182 74 198 182 74 198 182 74 198 182 74 0 0 255 0 0 255 191 60 41 191 60 41 191 60 41 191 60 41 191 60 41 191 60 41 191 60 41 0 0 255 0 0 255 0 0 255 0 0 255 0 0 255 70 35 42 70 35 42 70 35 42 70 35 42 70 35 42 70 35 42 70 35 42 0 0 255 70 35 42 0 0 255 0 0 255 0 0 255 0 0 255 0 0 255 198 182 74 198 182 74 198 182 74 198 182 74 198 182 74 198 182 74 198 182 74 198 182 74 198 182 74 198 182 74 0 0 255 0 0 255 191 60 41 191 60 41 191 60 41 191 60 41 191 60 41 191 60 41 191 60 41 191 60 41 191 60 41 0 0 255 0 0 255 191 60 41 191 60 41 191 60 41 191 60 41 191 60 41 191 60 41 191 60 41 191 60 41 0 0 255 0 0 255 0 0 255 195 181 74 195 181 74 195 181 74 195 181 74 195 181 74 195 181 74 195 181 74 195 181 74 195 181 74 195 181 74 0 0 255 195 199 167 195 199 167 195 199 167 195 199 167 195 199 167 0 0 255 195 181 74 0 0 255 158 116 60 0 0 255 191 60 41 191 60 41 191 60 41 191 60 41 191 60 41 191 60 41 191 60 41 191 60 41 191 60 41 191 60 41 0 0 255 0 0 255 195 199 167 195 199 167 195 199 167 195 199 167 195 199 167 195 199 167 195 199 167 195 199 167 195 199 167 195 199 167 195 199 167 195 199 167 195 199 167 195 199 167 195 199 167 195 199 167 195 199 167 195 199 167 195 199 167 195 199 167 195 199 167 195 199 167 195 199 167 195 199 167 195 199 167 195 199 167 195 199 167 195 199 167 195 199 167 195 199 167 195 199 167 195 199 167 
192 191 140 192 191 140 192 191 140 192 191 140 192 191 140 192 191 140 192 191 140 192 191 140 192 191 140 192 191 140 192 191 140 192 191 140 192 191 140 192 191 140 192 191 140 192 191 140 192 191 140 192 191 140 192 191 140 192 191 140 192 191 140 192 191 140 192 191 140 192 191 140 192 191 140 192 191 140 192 191 140 192 191 140 0 0 255 198 198 148 198 198 148 198 198 148 198 198 148 198 198 148 198 198 148 0 0 255 192 191 140 192 191 140 0 0 255 0 0 255 0 0 255 0 0 255 98 138 73 98 138 73 98 138 73 98 138 73 98 138 73 98 138 73 98 138 73 98 138 73 98 138 73 98 138 73 98 138 73 0 0 255 0 0 255 0 0 255 186 59 41 186 59 41 186 59 41 186 59 41 186 59 41 186 59 41 186 59 41 186 59 41 186 59 41 186 59 41 186 59 41 186 59 41 186 59 41 186 59 41 186 59 41 186 59 41 186 59 41 186 59 41 186 59 41 0 0 255 194 178 79 0 0 255 186 59 41 186 59 41 186 59 41 186 59 41 186 59 41 186 59 41 0 0 255 0 0 255 0 0 255 194 178 79 194 178 79 194 178 79 194 178 79 194 178 79 194 178 79 194 178 79 194 178 79 194 178 79 194 178 79 194 178 79 194 178 79 194 178 79 194 178 79 0 0 255 0 0 255 70 35 42 70 35 42 70 35 42 70 35 42 70 35 42 70 35 42 70 35 42 0 0 255 70 35 42 70 35 42 70 35 42 70 35 42 70 35 42 70 35 42 0 0 255 0 0 255 0 0 255 0 0 255 198 182 74 198 182 74 198 182 74 198 182 74 198 182 74 198 182 74 198 182 74 198 182 74 0 0 255 0 0 255 191 60 41 191 60 41 191 60 41 191 60 41 191 60 41 191 60 41 191 60 41 191 60 41 0 0 255 0 0 255 0 0 255 70 35 42 70 35 42 70 35 42 70 35 42 70 35 42 70 35 42 70 35 42 0 0 255 0 0 255 0 0 255 0 0 255 72 37 42 0 0 255 0 0 255 0 0 255 198 182 74 198 182 74 198 182 74 198 182 74 198 182 74 198 182 74 198 182 74 198 182 74 198 182 74 198 182 74 0 0 255 0 0 255 0 0 255 191 60 41 191 60 41 191 60 41 191 60 41 191 60 41 191 60 41 191 60 41 191 60 41 191 60 41 191 60 41 191 60 41 191 60 41 191 60 41 191 60 41 191 60 41 191 60 41 191 60 41 191 60 41 0 0 255 158 116 60 0 0 255 0 0 255 195 181 74 195 181 74 195 181 74 195 181 74 195 181 74 195 181 74 195 181 74 195 181 74 195 181 74 0 0 255 0 0 255 0 0 255 0 0 255 0 0 255 0 0 255 195 181 74 0 0 255 0 0 255 158 116 60 0 0 255 191 60 41 191 60 41 191 60 41 191 60 41 191 60 41 191 60 41 191 60 41 0 0 255 0 0 255 0 0 255 0 0 255 0 0 255 0 0 255 0 0 255 0 0 255 195 199 167 195 199 167 195 199 167 195 199 167 195 199 167 195 199 167 195 199 167 195 199 167 195 199 167 195 199 167 195 199 167 195 199 167 195 199 167 195 199 167 195 199 167 195 199 167 195 199 167 195 199 167 195 199 167 195 199 167 195 199 167 195 199 167 195 199 167 195 199 167 195 199 167 195 199 167 195 199 167 195 199 167 195 199 167 
192 191 140 192 191 140 192 191 140 192 191 140 192 191 140 192 191 140 192 191 140 192 191 140 192 191 140 192 191 140 192 191 140 192 191 140 192 191 140 192 191 140 192 191 140 192 191 140 192 191 140 192 191 140 192 191 140 192 191 140 192 191 140 192 191 140 192 191 140 192 191 140 192 191 140 0 0 255 0 0 255 0 0 255 0 0 255 198 198 148 198 198 148 198 198 148 198 198 148 198 198 148 198 198 148 0 0 255 192 191 140 0 0 255 0 0 255 0 0 255 0 0 255 0 0 255 98 138 73 98 138 73 98 138 73 98 138 73 98 138 73 98 138 73 98 138 73 98 138 73 98 138 73 98 138 73 98 138 73 0 0 255 0 0 255 0 0 255 186 59 41 186 59 41 186 59 41 186 59 41 186 59 41 0 0 255 0 0 255 186 59 41 186 59 41 186 59 41 186 59 41 186 59 41 186 59 41 186 59 41 186 59 41 186 59 41 186 59 41 186 59 41 186 59 41 0 0 255 0 0 255 186 59 41 186 59 41 186 59 41 186 59 41 186 59 41 186 59 41 186 59 41 186 59 41 0 0 255 0 0 255 194 178 79 194 178 79 194 178 79 194 178 79 194 178 79 194 178 79 194 178 79 194 178 79 194 178 79 194 178 79 194 178 79 194 178 79 194 178 79 194 178 79 0 0 255 0 0 255 0 0 255 70 35 42 70 35 42 70 35 42 0 0 255 0 0 255 0 0 255 0 0 255 70 35 42 70 35 42 70 35 42 70 35 42 70 35 42 70 35 42 0 0 255 114 89 58 0 0 255 0 0 255 0 0 255 198 182 74 198 182 74 198 182 74 198 182 74 198 182 74 198 182 74 0 0 255 0 0 255 191 60 41 191 60 41 191 60 41 191 60 41 191 60 41 191 60 41 191 60 41 191 60 41 191 60 41 191 60 41 0 0 255 0 0 255 70 35 42 70 35 42 70 35 42 70 35 42 70 35 42 70 35 42 0 0 255 0 0 255 0 0 255 0 0 255 0 0 255 72 37 42 72 37 42 0 0 255 0 0 255 0 0 255 198 182 74 198 182 74 198 182 74 198 182 74 198 182 74 198 182 74 198 182 74 198 182 74 198 182 74 0 0 255 158 116 60 0 0 255 191 60 41 191 60 41 191 60 41 191 60 41 191 60 41 191 60 41 191 60 41 191 60 41 191 60 41 191 60 41 191 60 41 191 60 41 191 60 41 191 60 41 191 60 41 191 60 41 191 60 41 191 60 41 0 0 255 158 116 60 158 116 60 0 0 255 0 0 255 195 181 74 195 181 74 195 181 74 195 181 74 195 181 74 195 181 74 195 181 74 195 181 74 195 181 74 195 181 74 195 181 74 195 181 74 195 181 74 195 181 74 195 181 74 195 181 74 0 0 255 158 116 60 0 0 255 191 60 41 191 60 41 191 60 41 191 60 41 191 60 41 191 60 41 0 0 255 72 37 42 72 37 42 72 37 42 72 37 42 0 0 255 0 0 255 0 0 255 0 0 255 0 0 255 195 199 167 195 199 167 195 199 167 195 199 167 195 199 167 195 199 167 195 199 167 195 199 167 195 199 167 195 199 167 195 199 167 195 199 167 195 199 167 195 199 167 195 199 167 195 199 167 195 199 167 195 199 167 195 199 167 195 199 167 195 199 167 195 199 167 195 199 167 195 199 167 195 199 167 195 199 167 195 199 167 195 199 167 
192 191 140 192 191 140 192 191 140 192 191 140 192 191 140 192 191 140 192 191 140 192 191 140 192 191 140 192 191 140 192 191 140 192 191 140 192 191 140 192 191 140 192 191 140 192 191 140 192 191 140 192 191 140 192 191 140 192 191 140 192 191 140 192 191 140 192 191 140 192 191 140 0 0 255 0 0 255 0 0 255 192 191 140 0 0 255 198 198 148 198 198 148 198 198 148 198 198 148 198 198 148 198 198 148 0 0 255 192 191 140 0 0 255 0 0 255 123 87 55 123 87 55 0 0 255 98 138 73 98 138 73 98 138 73 98 138 73 98 138 73 98 138 73 98 138 73 98 138 73 98 138 73 98 138 73 98 138 73 0 0 255 0 0 255 0 0 255 186 59 41 186 59 41 186 59 41 186 59 41 0 0 255 0 0 255 0 0 255 186 59 41 186 59 41 186 59 41 186 59 41 186 59 41 186 59 41 186 59 41 186 59 41 186 59 41 186 59 41 186 59 41 186 59 41 186 59 41 186 59 41 186 59 41 186 59 41 186 59 41 186 59 41 186 59 41 186 59 41 186 59 41 186 59 41 0 0 255 0 0 255 0 0 255 194 178 79 194 178 79 194 178 79 194 178 79 194 178 79 194 178 79 194 178 79 194 178 79 194 178 79 194 178 79 194 178 79 194 178 79 194 178 79 194 178 79 0 0 255 0 0 255 70 35 42 70 35 42 0 0 255 114 89 58 114 89 58 114 89 58 0 0 255 70 35 42 70 35 42 70 35 42 0 0 255 0 0 255 70 35 42 0 0 255 0 0 255 114 89 58 0 0 255 0 0 255 0 0 255 198 182 74 198 182 74 198 182 74 198 182 74 0 0 255 0 0 255 191 60 41 191 60 41 191 60 41 191 60 41 191 60 41 191 60 41 0 0 255 0 0 255 191 60 41 191 60 41 191 60 41 0 0 255 0 0 255 70 35 42 70 35 42 70 35 42 70 35 42 70 35 42 70 35 42 0 0 255 0 0 255 0 0 255 0 0 255 0 0 255 72 37 42 0 0 255 114 89 58 0 0 255 0 0 255 198 182 74 198 182 74 198 182 74 198 182 74 198 182 74 198 182 74 198 182 74 198 182 74 198 182 74 0 0 255 158 116 60 0 0 255 0 0 255 0 0 255 0 0 255 191 60 41 191 60 41 191 60 41 191 60 41 191 60 41 191 60 41 191 60 41 191 60 41 191 60 41 191 60 41 191 60 41 191 60 41 191 60 41 0 0 255 0 0 255 0 0 255 158 116 60 158 116 60 158 116 60 0 0 255 0 0 255 0 0 255 0 0 255 195 181 74 195 181 74 195 181 74 195 181 74 195 181 74 195 181 74 195 181 74 195 181 74 195 181 74 195 181 74 195 181 74 195 181 74 195 181 74 0 0 255 0 0 255 0 0 255 0 0 255 191 60 41 191 60 41 191 60 41 0 0 255 0 0 255 72 37 42 72 37 42 72 37 42 72 37 42 72 37 42 72 37 42 72 37 42 72 37 42 0 0 255 0 0 255 0 0 255 195 199 167 195 199 167 195 199 167 195 199 167 195 199 167 195 199 167 195 199 167 195 199 167 195 199 167 195 199 167 195 199 167 195 199 167 195 199 167 195 199 167 195 199 167 195 199 167 195 199 167 195 199 167 195 199 167 195 199 167 195 199 167 195 199 167 195 199 167 195 199 167 195 199 167 195 199 167 195 199 167 
192 191 140 192 191 140 192 191 140 192 191 140 192 191 140 192 191 140 192 191 140 192 191 140 192 191 140 192 191 140 192 191 140 192 191 140 192 191 140 192 191 140 192 191 140 192 191 140 192 191 140 192 191 140 192 191 140 192 191 140 192 191 140 192 191 140 192 191 140 192 191 140 0 0 255 0 0 255 0 0 255 0 0 255 198 198 148 198 198 148 198 198 148 198 198 148 198 198 148 0 0 255 0 0 255 0 0 255 0 0 255 0 0 255 123 87 55 123 87 55 0 0 255 0 0 255 0 0 255 98 138 73 98 138 73 98 138 73 98 138 73 98 138 73 98 138 73 98 138 73 98 138 73 98 138 73 0 0 255 0 0 255 123 87 55 0 0 255 186 59 41 186 59 41 186 59 41 186 59 41 186 59 41 186 59 41 186 59 41 186 59 41 186 59 41 186 59 41 186 59 41 186 59 41 186 59 41 186 59 41 186 59 41 186 59 41 186 59 41 186 59 41 186 59 41 186 59 41 186 59 41 186 59 41 186 59 41 186 59 41 186 59 41 186 59 41 186 59 41 186 59 41 0 0 255 0 0 255 167 125 62 0 0 255 194 178 79 194 178 79 194 178 79 194 178 79 194 178 79 194 178 79 194 178 79 194 178 79 194 178 79 194 178 79 194 178 79 194 178 79 194 178 79 194 178 79 0 0 255 0 0 255 0 0 255 0 0 255 0 0 255 0 0 255 0 0 255 0 0 255 70 35 42 70 35 42 70 35 42 0 0 255 0 0 255 0 0 255 0 0 255 70 35 42 0 0 255 114 89 58 0 0 255 167 125 62 0 0 255 0 0 255 198 182 74 198 182 74 0 0 255 0 0 255 191 60 41 191 60 41 191 60 41 191 60 41 191 60 41 191 60 41 0 0 255 0 0 255 0 0 255 191 60 41 191 60 41 191 60 41 0 0 255 0 0 255 70 35 42 70 35 42 70 35 42 70 35 42 70 35 42 70 35 42 0 0 255 0 0 255 0 0 255 0 0 255 0 0 255 72 37 42 0 0 255 114 89 58 0 0 255 0 0 255 0 0 255 198 182 74 198 182 74 198 182 74 198 182 74 198 182 74 198 182 74 198 182 74 198 182 74 0 0 255 0 0 255 158 116 60 158 116 60 158 116 60 0 0 255 0 0 255 0 0 255 191 60 41 191 60 41 191 60 41 191 60 41 191 60 41 191 60 41 191 60 41 191 60 41 191 60 41 191 60 41 0 0 255 72 37 42 72 37 42 0 0 255 0 0 255 158 116 60 158 116 60 158 116 60 158 116 60 158 116 60 0 0 255 0 0 255 0 0 255 0 0 255 0 0 255 195 181 74 195 181 74 195 181 74 195 181 74 195 181 74 195 181 74 195 181 74 195 181 74 195 181 74 195 181 74 0 0 255 158 116 60 0 0 255 0 0 255 191 60 41 0 0 255 72 37 42 72 37 42 72 37 42 72 37 42 72 37 42 72 37 42 72 37 42 72 37 42 72 37 42 72 37 42 72 37 42 0 0 255 0 0 255 195 199 167 195 199 167 195 199 167 195 199 167 195 199 167 195 199 167 195 199 167 195 199 167 195 199 167 195 199 167 195 199 167 195 199 167 195 199 167 195 199 167 195 199 167 195 199 167 195 199 167 195 199 167 195 199 167 195 199 167 195 199 167 195 199 167 195 199 167 195 199 167 195 199 167 195 199 167 195 199 167 
192 191 140 192 191 140 192 191 140 192 191 140 192 191 140 192 191 140 192 191 140 192 191 140 192 191 140 192 191 140 192 191 140 192 191 140 192 191 140 192 191 140 192 191 140 192 191 140 192 191 140 192 191 140 192 191 140 192 191 140 192 191 140 192 191 140 192 191 140 0 0 255 0 0 255 192 191 140 0 0 255 198 198 148 198 198 148 198 198 148 198 198 148 198 198 148 0 0 255 0 0 255 0 0 255 0 0 255 0 0 255 0 0 255 0 0 255 0 0 255 123 87 55 123 87 55 0 0 255 0 0 255 98 138 73 98 138 73 98 138 73 98 138 73 98 138 73 98 138 73 98 138 73 0 0 255 0 0 255 0 0 255 123 87 55 0 0 255 186 59 41 186 59 41 186 59 41 186 59 41 186 59 41 186 59 41 186 59 41 186 59 41 186 59 41 186 59 41 186 59 41 186 59 41 186 59 41 186 59 41 186 59 41 186 59 41 186 59 41 186 59 41 186 59 41 186 59 41 186 59 41 186 59 41 186 59 41 186 59 41 186 59 41 186 59 41 0 0 255 0 0 255 0 0 255 0 0 255 0 0 255 0 0 255 194 178 79 194 178 79 194 178 79 194 178 79 194 178 79 194 178 79 194 178 79 194 178 79 194 178 79 194 178 79 194 178 79 194 178 79 194 178 79 194 178 79 0 0 255 0 0 255 0 0 255 0 0 255 70 35 42 70 35 42 70 35 42 70 35 42 70 35 42 70 35 42 0 0 255 0 0 255 167 125 62 0 0 255 0 0 255 70 35 42 0 0 255 0 0 255 0 0 255 167 125 62 167 125 62 0 0 255 0 0 255 0 0 255 0 0 255 0 0 255 191 60 41 191 60 41 191 60 41 191 60 41 191 60 41 0 0 255 0 0 255 0 0 255 0 0 255 191 60 41 191 60 41 191 60 41 0 0 255 0 0 255 70 35 42 70 35 42 70 35 42 70 35 42 70 35 42 70 35 42 70 35 42 0 0 255 0 0 255 70 35 42 0 0 255 72 37 42 0 0 255 114 89 58 0 0 255 158 116 60 0 0 255 0 0 255 198 182 74 198 182 74 198 182 74 198 182 74 198 182 74 198 182 74 198 182 74 198 182 74 0 0 255 0 0 255 0 0 255 0 0 255 0 0 255 0 0 255 0 0 255 0 0 255 0 0 255 191 60 41 191 60 41 191 60 41 191 60 41 191 60 41 191 60 41 0 0 255 0 0 255 72 37 42 72 37 42 72 37 42 72 37 42 0 0 255 0 0 255 158 116 60 158 116 60 158 116 60 158 116 60 158 116 60 158 116 60 158 116 60 158 116 60 0 0 255 195 181 74 195 181 74 195 181 74 195 181 74 195 181 74 195 181 74 195 181 74 195 181 74 195 181 74 195 181 74 0 0 255 0 0 255 158 116 60 0 0 255 0 0 255 72 37 42 72 37 42 72 37 42 72 37 42 72 37 42 72 37 42 72 37 42 72 37 42 0 0 255 0 0 255 72 37 42 72 37 42 0 0 255 0 0 255 0 0 255 195 199 167 195 199 167 195 199 167 195 199 167 195 199 167 195 199 167 195 199 167 195 199 167 195 199 167 195 199 167 195 199 167 195 199 167 195 199 167 195 199 167 195 199 167 195 199 167 195 199 167 195 199 167 195 199 167 195 199 167 195 199 167 195 199 167 195 199 167 195 199 167 195 199 167 195 199 167 
192 191 140 192 191 140 192 191 140 192 191 140 192 191 140 192 191 140 192 191 140 192 191 140 192 191 140 192 191 140 192 191 140 192 191 140 192 191 140 192 191 140 192 191 140 192 191 140 192 191 140 192 191 140 192 191 140 192 191 140 192 191 140 192 191 140 0 0 255 198 198 148 0 0 255 0 0 255 198 198 148 198 198 148 198 198 148 198 198 148 0 0 255 0 0 255 0 0 255 186 59 41 186 59 41 186 59 41 186 59 41 186 59 41 186 59 41 0 0 255 0 0 255 123 87 55 123 87 55 0 0 255 0 0 255 98 138 73 98 138 73 98 138 73 98 138 73 0 0 255 0 0 255 0 0 255 0 0 255 123 87 55 123 87 55 0 0 255 0 0 255 0 0 255 0 0 255 0 0 255 0 0 255 0 0 255 0 0 255 186 59 41 186 59 41 186 59 41 0 0 255 0 0 255 186 59 41 186 59 41 186 59 41 186 59 41 186 59 41 186 59 41 186 59 41 186 59 41 186 59 41 186 59 41 186 59 41 186 59 41 0 0 255 0 0 255 194 178 79 194 178 79 194 178 79 194 178 79 194 178 79 194 178 79 194 178 79 194 178 79 194 178 79 194 178 79 194 178 79 194 178 79 194 178 79 194 178 79 194 178 79 194 178 79 194 178 79 194 178 79 194 178 79 194 178 79 194 178 79 0 0 255 0 0 255 0 0 255 70 35 42 70 35 42 70 35 42 70 35 42 70 35 42 70 35 42 0 0 255 0 0 255 0 0 255 0 0 255 70 35 42 70 35 42 70 35 42 0 0 255 0 0 255 167 125 62 167 125 62 167 125 62 167 125 62 167 125 62 0 0 255 0 0 255 191 60 41 191 60 41 191 60 41 191 60 41 191 60 41 191 60 41 0 0 255 0 0 255 191 60 41 191 60 41 191 60 41 191 60 41 0 0 255 0 0 255 70 35 42 70 35 42 70 35 42 70 35 42 70 35 42 70 35 42 70 35 42 70 35 42 70 35 42 0 0 255 72 37 42 72 37 42 0 0 255 0 0 255 0 0 255 0 0 255 0 0 255 0 0 255 198 182 74 198 182 74 198 182 74 198 182 74 198 182 74 198 182 74 198 182 74 0 0 255 0 0 255 91 155 74 91 155 74 91 155 74 91 155 74 0 0 255 0 0 255 0 0 255 0 0 255 0 0 255 0 0 255 0 0 255 191 60 41 191 60 41 0 0 255 72 37 42 72 37 42 72 37 42 72 37 42 72 37 42 72 37 42 72 37 42 0 0 255 0 0 255 0 0 255 0 0 255 158 116 60 158 116 60 158 116 60 158 116 60 158 116 60 0 0 255 195 181 74 195 181 74 195 181 74 195 181 74 195 181 74 195 181 74 195 181 74 195 181 74 195 181 74 195 181 74 195 181 74 0 0 255 0 0 255 0 0 255 0 0 255 0 0 255 72 37 42 72 37 42 72 37 42 72 37 42 72 37 42 72 37 42 0 0 255 0 0 255 0 0 255 72 37 42 72 37 42 72 37 42 0 0 255 0 0 255 195 199 167 195 199 167 195 199 167 195 199 167 195 199 167 195 199 167 195 199 167 195 199 167 195 199 167 195 199 167 195 199 167 195 199 167 195 199 167 195 199 167 195 199 167 195 199 167 195 199 167 195 199 167 195 199 167 195 199 167 195 199 167 195 199 167 195 199 167 195 199 167 195 199 167 195 199 167 
192 191 140 192 191 140 192 191 140 192 191 140 192 191 140 192 191 140 192 191 140 192 191 140 192 191 140 192 191 140 192 191 140 192 191 140 192 191 140 192 191 140 192 191 140 192 191 140 192 191 140 192 191 140 192 191 140 192 191 140 192 191 140 0 0 255 198 198 148 198 198 148 198 198 148 198 198 148 198 198 148 198 198 148 198 198 148 0 0 255 192 191 140 0 0 255 186 59 41 186 59 41 186 59 41 186 59 41 186 59 41 186 59 41 186 59 41 186 59 41 0 0 255 0 0 255 123 87 55 0 0 255 0 0 255 98 138 73 0 0 255 0 0 255 0 0 255 0 0 255 0 0 255 0 0 255 0 0 255 0 0 255 123 87 55 123 87 55 0 0 255 0 0 255 0 0 255 0 0 255 0 0 255 0 0 255 0 0 255 0 0 255 0 0 255 0 0 255 123 87 55 0 0 255 0 0 255 186 59 41 186 59 41 186 59 41 186 59 41 186 59 41 186 59 41 186 59 41 186 59 41 186 59 41 186 59 41 0 0 255 194 178 79 194 178 79 194 178 79 194 178 79 194 178 79 194 178 79 194 178 79 194 178 79 194 178 79 194 178 79 194 178 79 194 178 79 194 178 79 194 178 79 194 178 79 194 178 79 194 178 79 194 178 79 194 178 79 194 178 79 194 178 79 194 178 79 0 0 255 0 0 255 114 89 58 0 0 255 70 35 42 70 35 42 70 35 42 70 35 42 70 35 42 70 35 42 70 35 42 0 0 255 0 0 255 0 0 255 70 35 42 70 35 42 0 0 255 0 0 255 0 0 255 0 0 255 0 0 255 0 0 255 0 0 255 0 0 255 0 0 255 0 0 255 191 60 41 191 60 41 191 60 41 191 60 41 191 60 41 191 60 41 191 60 41 191 60 41 191 60 41 191 60 41 191 60 41 191 60 41 0 0 255 0 0 255 0 0 255 70 35 42 70 35 42 70 35 42 70 35 42 70 35 42 70 35 42 70 35 42 70 35 42 0 0 255 72 37 42 0 0 255 0 0 255 0 0 255 0 0 255 0 0 255 198 182 74 198 182 74 198 182 74 198 182 74 198 182 74 198 182 74 198 182 74 0 0 255 0 0 255 0 0 255 91 155 74 91 155 74 91 155 74 91 155 74 91 155 74 91 155 74 0 0 255 0 0 255 0 0 255 158 116 60 158 116 60 0 0 255 0 0 255 0 0 255 72 37 42 72 37 42 72 37 42 72 37 42 72 37 42 72 37 42 72 37 42 72 37 42 72 37 42 72 37 42 72 37 42 0 0 255 0 0 255 158 116 60 0 0 255 158 116 60 158 116 60 0 0 255 195 181 74 195 181 74 195 181 74 195 181 74 195 181 74 195 181 74 195 181 74 195 181 74 195 181 74 195 181 74 195 181 74 195 181 74 0 0 255 0 0 255 158 116 60 0 0 255 72 37 42 72 37 42 72 37 42 72 37 42 72 37 42 72 37 42 0 0 255 0 0 255 0 0 255 72 37 42 72 37 42 72 37 42 0 0 255 0 0 255 195 199 167 195 199 167 195 199 167 195 199 167 195 199 167 195 199 167 195 199 167 195 199 167 195 199 167 195 199 167 195 199 167 195 199 167 195 199 167 195 199 167 195 199 167 195 199 167 195 199 167 195 199 167 195 199 167 195 199 167 195 199 167 195 199 167 195 199 167 195 199 167 195 199 167 195 199 167 
192 191 140 192 191 140 192 191 140 192 191 140 192 191 140 192 191 140 192 191 140 192 191 140 192 191 140 192 191 140 192 191 140 192 191 140 192 191 140 192 191 140 192 191 140 192 191 140 192 191 140 192 191 140 192 191 140 192 191 140 0 0 255 198 198 148 198 198 148 198 198 148 198 198 148 198 198 148 198 198 148 198 198 148 198 198 148 0 0 255 0 0 255 0 0 255 186 59 41 186 59 41 186 59 41 186 59 41 186 59 41 186 59 41 186 59 41 186 59 41 186 59 41 0 0 255 0 0 255 0 0 255 0 0 255 0 0 255 0 0 255 0 0 255 0 0 255 198 198 148 198 198 148 0 0 255 0 0 255 0 0 255 0 0 255 0 0 255 98 138 73 98 138 73 98 138 73 98 138 73 98 138 73 98 138 73 98 138 73 98 138 73 0 0 255 0 0 255 123 87 55 123 87 55 0 0 255 0 0 255 0 0 255 186 59 41 186 59 41 186 59 41 186 59 41 186 59 41 186 59 41 186 59 41 0 0 255 194 178 79 194 178 79 194 178 79 194 178 79 194 178 79 194 178 79 194 178 79 194 178 79 194 178 79 194 178 79 194 178 79 194 178 79 194 178 79 194 178 79 194 178 79 194 178 79 194 178 79 194 178 79 194 178 79 194 178 79 194 178 79 194 178 79 194 178 79 0 0 255 0 0 255 114 89 58 0 0 255 70 35 42 70 35 42 70 35 42 70 35 42 70 35 42 70 35 42 70 35 42 70 35 42 70 35 42 70 35 42 70 35 42 0 0 255 0 0 255 0 0 255 198 182 74 198 182 74 198 182 74 198 182 74 198 182 74 198 182 74 0 0 255 0 0 255 0 0 255 191 60 41 191 60 41 191 60 41 191 60 41 191 60 41 191 60 41 191 60 41 191 60 41 191 60 41 191 60 41 191 60 41 0 0 255 114 89 58 0 0 255 0 0 255 70 35 42 70 35 42 70 35 42 70 35 42 70 35 42 70 35 42 70 35 42 0 0 255 0 0 255 0 0 255 0 0 255 198 182 74 198 182 74 198 182 74 198 182 74 198 182 74 198 182 74 198 182 74 198 182 74 198 182 74 0 0 255 0 0 255 91 155 74 91 155 74 91 155 74 91 155 74 91 155 74 91 155 74 91 155 74 91 155 74 91 155 74 0 0 255 0 0 255 0 0 255 0 0 255 0 0 255 0 0 255 0 0 255 72 37 42 72 37 42 72 37 42 72 37 42 72 37 42 72 37 42 72 37 42 72 37 42 72 37 42 72 37 42 72 37 42 72 37 42 0 0 255 0 0 255 0 0 255 158 116 60 158 116 60 0 0 255 195 181 74 195 181 74 195 181 74 195 181 74 195 181 74 195 181 74 195 181 74 195 181 74 195 181 74 195 181 74 195 181 74 195 181 74 195 181 74 0 0 255 158 116 60 0 0 255 72 37 42 72 37 42 72 37 42 72 37 42 72 37 42 72 37 42 72 37 42 0 0 255 0 0 255 72 37 42 72 37 42 72 37 42 0 0 255 0 0 255 195 199 167 195 199 167 195 199 167 195 199 167 195 199 167 195 199 167 195 199 167 195 199 167 195 199 167 195 199 167 195 199 167 195 199 167 195 199 167 195 199 167 195 199 167 195 199 167 195 199 167 195 199 167 195 199 167 195 199 167 195 199 167 195 199 167 195 199 167 195 199 167 195 199 167 195 199 167 
192 191 140 192 191 140 192 191 140 192 191 140 192 191 140 192 191 140 192 191 140 192 191 140 192 191 140 192 191 140 192 191 140 192 191 140 192 191 140 192 191 140 192 191 140 192 191 140 192 191 140 192 191 140 192 191 140 192 191 140 0 0 255 198 198 148 198 198 148 198 198 148 198 198 148 198 198 148 198 198 148 198 198 148 0 0 255 0 0 255 123 87 55 0 0 255 186 59 41 186 59 41 186 59 41 186 59 41 186 59 41 186 59 41 186 59 41 186 59 41 186 59 41 186 59 41 0 0 255 0 0 255 198 198 148 198 198 148 198 198 148 198 198 148 198 198 148 198 198 148 198 198 148 0 0 255 0 0 255 0 0 255 98 138 73 98 138 73 98 138 73 98 138 73 98 138 73 98 138 73 98 138 73 98 138 73 98 138 73 98 138 73 98 138 73 0 0 255 0 0 255 0 0 255 123 87 55 123 87 55 0 0 255 0 0 255 0 0 255 0 0 255 0 0 255 0 0 255 0 0 255 0 0 255 0 0 255 194 178 79 194 178 79 194 178 79 194 178 79 194 178 79 194 178 79 194 178 79 194 178 79 194 178 79 194 178 79 194 178 79 194 178 79 194 178 79 194 178 79 194 178 79 194 178 79 194 178 79 194 178 79 194 178 79 194 178 79 0 0 255 0 0 255 0 0 255 0 0 255 0 0 255 0 0 255 0 0 255 0 0 255 70 35 42 70 35 42 70 35 42 70 35 42 70 35 42 70 35 42 70 35 42 70 35 42 70 35 42 0 0 255 0 0 255 0 0 255 0 0 255 0 0 255 0 0 255 0 0 255 198 182 74 198 182 74 198 182 74 198 182 74 0 0 255 0 0 255 0 0 255 191 60 41 191 60 41 191 60 41 191 60 41 191 60 41 0 0 255 0 0 255 0 0 255 0 0 255 0 0 255 0 0 255 0 0 255 0 0 255 0 0 255 0 0 255 70 35 42 70 35 42 70 35 42 70 35 42 70 35 42 70 35 42 0 0 255 0 0 255 0 0 255 198 182 74 198 182 74 198 182 74 198 182 74 198 182 74 198 182 74 198 182 74 198 182 74 198 182 74 0 0 255 0 0 255 91 155 74 91 155 74 91 155 74 91 155 74 91 155 74 91 155 74 91 155 74 91 155 74 91 155 74 91 155 74 91 155 74 0 0 255 0 0 255 161 168 113 0 0 255 0 0 255 0 0 255 72 37 42 72 37 42 72 37 42 72 37 42 72 37 42 72 37 42 72 37 42 72 37 42 72 37 42 0 0 255 72 37 42 72 37 42 0 0 255 0 0 255 0 0 255 158 116 60 158 116 60 0 0 255 195 181 74 195 181 74 195 181 74 195 181 74 195 181 74 195 181 74 195 181 74 195 181 74 195 181 74 195 181 74 195 181 74 195 181 74 0 0 255 158 116 60 158 116 60 0 0 255 72 37 42 72 37 42 72 37 42 72 37 42 72 37 42 72 37 42 72 37 42 72 37 42 72 37 42 72 37 42 72 37 42 72 37 42 0 0 255 0 0 255 195 199 167 195 199 167 195 199 167 195 199 167 195 199 167 195 199 167 195 199 167 195 199 167 195 199 167 195 199 167 195 199 167 195 199 167 195 199 167 195 199 167 195 199 167 195 199 167 195 199 167 195 199 167 195 199 167 195 199 167 195 199 167 195 199 167 195 199 167 195 199 167 195 199 167 195 199 167 
192 191 140 192 191 140 192 191 140 192 191 140 192 191 140 192 191 140 192 191 140 192 191 140 192 191 140 192 191 140 192 191 140 192 191 140 192 191 140 192 191 140 192 191 140 192 191 140 192 191 140 192 191 140 192 191 140 0 0 255 198 198 148 198 198 148 198 198 148 198 198 148 198 198 148 198 198 148 198 198 148 0 0 255 0 0 255 0 0 255 0 0 255 186 59 41 186 59 41 186 59 41 186 59 41 186 59 41 186 59 41 186 59 41 186 59 41 186 59 41 186 59 41 186 59 41 0 0 255 0 0 255 198 198 148 198 198 148 198 198 148 198 198 148 198 198 148 198 198 148 198 198 148 198 198 148 0 0 255 0 0 255 98 138 73 98 138 73 98 138 73 98 138 73 98 138 73 98 138 73 98 138 73 98 138 73 98 138 73 98 138 73 98 138 73 98 138 73 98 138 73 0 0 255 0 0 255 0 0 255 0 0 255 0 0 255 0 0 255 0 0 255 0 0 255 0 0 255 0 0 255 167 125 62 0 0 255 194 178 79 194 178 79 194 178 79 194 178 79 194 178 79 194 178 79 194 178 79 194 178 79 194 178 79 194 178 79 194 178 79 194 178 79 194 178 79 194 178 79 194 178 79 194 178 79 194 178 79 194 178 79 194 178 79 0 0 255 198 196 141 198 196 141 0 0 255 0 0 255 167 125 62 0 0 255 114 89 58 0 0 255 0 0 255 70 35 42 70 35 42 70 35 42 70 35 42 70 35 42 70 35 42 70 35 42 0 0 255 0 0 255 0 0 255 201 185 72 201 185 72 201 185 72 201 185 72 0 0 255 0 0 255 0 0 255 198 182 74 198 182 74 198 182 74 0 0 255 0 0 255 191 60 41 191 60 41 191 60 41 191 60 41 0 0 255 0 0 255 198 182 74 198 182 74 198 182 74 198 182 74 198 182 74 0 0 255 0 0 255 0 0 255 0 0 255 0 0 255 0 0 255 70 35 42 70 35 42 70 35 42 0 0 255 0 0 255 198 182 74 198 182 74 198 182 74 198 182 74 198 182 74 198 182 74 198 182 74 198 182 74 198 182 74 198 182 74 198 182 74 0 0 255 0 0 255 91 155 74 91 155 74 91 155 74 91 155 74 91 155 74 91 155 74 91 155 74 91 155 74 91 155 74 91 155 74 91 155 74 91 155 74 0 0 255 161 168 113 161 168 113 0 0 255 0 0 255 72 37 42 72 37 42 72 37 42 72 37 42 72 37 42 72 37 42 72 37 42 72 37 42 0 0 255 0 0 255 0 0 255 72 37 42 72 37 42 0 0 255 0 0 255 158 116 60 158 116 60 0 0 255 195 181 74 195 181 74 195 181 74 195 181 74 195 181 74 195 181 74 195 181 74 195 181 74 195 181 74 195 181 74 195 181 74 195 181 74 0 0 255 158 116 60 158 116 60 0 0 255 72 37 42 72 37 42 72 37 42 72 37 42 72 37 42 72 37 42 72 37 42 72 37 42 72 37 42 72 37 42 72 37 42 72 37 42 0 0 255 0 0 255 195 199 167 195 199 167 195 199 167 195 199 167 195 199 167 195 199 167 195 199 167 195 199 167 195 199 167 195 199 167 195 199 167 195 199 167 195 199 167 195 199 167 195 199 167 195 199 167 195 199 167 195 199 167 195 199 167 195 199 167 195 199 167 195 199 167 195 199 167 195 199 167 195 199 167 195 199 167 
192 191 140 192 191 140 192 191 140 192 191 140 192 191 140 192 191 140 192 191 140 192 191 140 192 191 140 192 191 140 192 191 140 192 191 140 192 191 140 192 191 140 192 191 140 192 191 140 192 191 140 192 191 140 0 0 255 198 198 148 198 198 148 198 198 148 198 198 148 198 198 148 198 198 148 198 198 148 0 0 255 0 0 255 0 0 255 0 0 255 0 0 255 186 59 41 186 59 41 186 59 41 186 59 41 186 59 41 186 59 41 186 59 41 186 59 41 186 59 41 186 59 41 186 59 41 0 0 255 0 0 255 198 198 148 198 198 148 198 198 148 198 198 148 198 198 148 198 198 148 198 198 148 198 198 148 0 0 255 0 0 255 98 138 73 98 138 73 98 138 73 98 138 73 98 138 73 98 138 73 98 138 73 98 138 73 98 138 73 98 138 73 98 138 73 98 138 73 0 0 255 0 0 255 0 0 255 0 0 255 0 0 255 0 0 255 0 0 255 0 0 255 0 0 255 0 0 255 0 0 255 0 0 255 0 0 255 194 178 79 194 178 79 194 178 79 194 178 79 194 178 79 194 178 79 194 178 79 194 178 79 194 178 79 194 178 79 194 178 79 194 178 79 194 178 79 194 178 79 194 178 79 194 178 79 194 178 79 194 178 79 0 0 255 198 196 141 198 196 141 198 196 141 0 0 255 0 0 255 0 0 255 0 0 255 0 0 255 114 89 58 0 0 255 0 0 255 70 35 42 70 35 42 70 35 42 70 35 42 70 35 42 0 0 255 0 0 255 0 0 255 201 185 72 201 185 72 201 185 72 201 185 72 201 185 72 201 185 72 201 185 72 0 0 255 198 182 74 198 182 74 198 182 74 0 0 255 0 0 255 0 0 255 191 60 41 191 60 41 0 0 255 0 0 255 198 182 74 198 182 74 198 182 74 198 182 74 198 182 74 198 182 74 198 182 74 198 182 74 0 0 255 0 0 255 114 89 58 0 0 255 70 35 42 70 35 42 0 0 255 0 0 255 0 0 255 198 182 74 198 182 74 198 182 74 198 182 74 198 182 74 198 182 74 198 182 74 198 182 74 198 182 74 198 182 74 198 182 74 0 0 255 91 155 74 91 155 74 91 155 74 91 155 74 91 155 74 91 155 74 91 155 74 91 155 74 91 155 74 91 155 74 91 155 74 91 155 74 91 155 74 0 0 255 161 168 113 0 0 255 158 116 60 0 0 255 72 37 42 72 37 42 72 37 42 72 37 42 72 37 42 72 37 42 72 37 42 72 37 42 0 0 255 0 0 255 0 0 255 72 37 42 72 37 42 72 37 42 0 0 255 158 116 60 0 0 255 0 0 255 195 181 74 195 181 74 195 181 74 195 181 74 195 181 74 195 181 74 195 181 74 195 181 74 195 181 74 195 181 74 195 181 74 195 181 74 0 0 255 158 116 60 158 116 60 0 0 255 72 37 42 72 37 42 72 37 42 72 37 42 72 37 42 72 37 42 72 37 42 72 37 42 72 37 42 72 37 42 72 37 42 0 0 255 0 0 255 0 0 255 195 199 167 195 199 167 195 199 167 195 199 167 195 199 167 195 199 167 195 199 167 195 199 167 195 199 167 195 199 167 195 199 167 195 199 167 195 199 167 195 199 167 195 199 167 195 199 167 195 199 167 195 199 167 195 199 167 195 199 167 195 199 167 195 199 167 195 199 167 195 199 167 195 199 167 195 199 167 
192 191 140 192 191 140 192 191 140 192 191 140 192 191 140 192 191 140 192 191 140 192 191 140 192 191 140 192 191 140 192 191 140 192 191 140 192 191 140 192 191 140 192 191 140 192 191 140 192 191 140 0 0 255 198 198 148 198 198 148 198 198 148 198 198 148 198 198 148 198 198 148 198 198 148 0 0 255 0 0 255 0 0 255 0 0 255 123 87 55 0 0 255 186 59 41 186 59 41 186 59 41 186 59 41 186 59 41 186 59 41 186 59 41 186 59 41 186 59 41 186 59 41 186 59 41 0 0 255 0 0 255 198 198 148 198 198 148 198 198 148 198 198 148 198 198 148 198 198 148 198 198 148 198 198 148 0 0 255 98 138 73 0 0 255 98 138 73 98 138 73 98 138 73 98 138 73 98 138 73 98 138 73 0 0 255 0 0 255 0 0 255 98 138 73 98 138 73 98 138 73 0 0 255 0 0 255 198 196 141 198 196 141 198 196 141 198 196 141 198 196 141 198 196 141 0 0 255 0 0 255 0 0 255 0 0 255 194 178 79 194 178 79 194 178 79 194 178 79 194 178 79 194 178 79 194 178 79 194 178 79 194 178 79 194 178 79 194 178 79 194 178 79 194 178 79 194 178 79 194 178 79 194 178 79 194 178 79 0 0 255 198 196 141 198 196 141 198 196 141 198 196 141 198 196 141 0 0 255 0 0 255 167 125 62 0 0 255 114 89 58 114 89 58 0 0 255 0 0 255 70 35 42 70 35 42 70 35 42 70 35 42 0 0 255 0 0 255 0 0 255 201 185 72 201 185 72 201 185 72 201 185 72 201 185 72 201 185 72 201 185 72 0 0 255 0 0 255 0 0 255 198 182 74 198 182 74 0 0 255 0 0 255 0 0 255 0 0 255 0 0 255 198 182 74 198 182 74 198 182 74 198 182 74 198 182 74 198 182 74 198 182 74 198 182 74 198 182 74 198 182 74 0 0 255 0 0 255 0 0 255 0 0 255 0 0 255 0 0 255 0 0 255 198 182 74 198 182 74 198 182 74 198 182 74 198 182 74 198 182 74 198 182 74 198 182 74 198 182 74 198 182 74 198 182 74 198 182 74 0 0 255 91 155 74 91 155 74 91 155 74 91 155 74 91 155 74 91 155 74 91 155 74 91 155 74 91 155 74 0 0 255 0 0 255 91 155 74 91 155 74 0 0 255 161 168 113 0 0 255 158 116 60 0 0 255 72 37 42 72 37 42 72 37 42 72 37 42 72 37 42 72 37 42 72 37 42 72 37 42 0 0 255 0 0 255 0 0 255 72 37 42 72 37 42 72 37 42 0 0 255 0 0 255 0 0 255 0 0 255 195 181 74 195 181 74 195 181 74 195 181 74 195 181 74 195 181 74 195 181 74 195 181 74 195 181 74 195 181 74 0 0 255 0 0 255 0 0 255 0 0 255 158 116 60 0 0 255 72 37 42 72 37 42 72 37 42 72 37 42 72 37 42 72 37 42 72 37 42 72 37 42 72 37 42 72 37 42 72 37 42 0 0 255 0 0 255 195 199 167 195 199 167 195 199 167 195 199 167 195 199 167 195 199 167 195 199 167 195 199 167 195 199 167 195 199 167 195 199 167 195 199 167 195 199 167 195 199 167 195 199 167 195 199 167 195 199 167 195 199 167 195 199 167 195 199 167 195 199 167 195 199 167 195 199 167 195 199 167 195 199 167 195 199 167 195 199 167 
192 191 140 192 191 140 192 191 140 192 191 140 192 191 140 192 191 140 192 191 140 192 191 140 192 191 140 192 191 140 192 191 140 192 191 140 192 191 140 192 191 140 192 191 140 192 191 140 0 0 255 0 0 255 198 198 148 198 198 148 198 198 148 198 198 148 198 198 148 198 198 148 0 0 255 0 0 255 0 0 255 0 0 255 0 0 255 123 87 55 0 0 255 186 59 41 186 59 41 186 59 41 186 59 41 186 59 41 186 59 41 186 59 41 186 59 41 186 59 41 186 59 41 186 59 41 0 0 255 0 0 255 198 198 148 198 198 148 198 198 148 198 198 148 198 198 148 198 198 148 198 198 148 0 0 255 0 0 255 0 0 255 0 0 255 0 0 255 98 138 73 98 138 73 98 138 73 98 138 73 0 0 255 150 161 101 0 0 255 0 0 255 98 138 73 98 138 73 98 138 73 0 0 255 0 0 255 198 196 141 198 196 141 198 196 141 198 196 141 198 196 141 0 0 255 0 0 255 0 0 255 0 0 255 0 0 255 0 0 255 194 178 79 194 178 79 194 178 79 194 178 79 194 178 79 194 178 79 194 178 79 194 178 79 194 178 79 194 178 79 194 178 79 194 178 79 194 178 79 194 178 79 194 178 79 0 0 255 198 196 141 198 196 141 198 196 141 198 196 141 198 196 141 198 196 141 0 0 255 0 0 255 0 0 255 0 0 255 0 0 255 114 89 58 114 89 58 0 0 255 0 0 255 70 35 42 70 35 42 70 35 42 0 0 255 167 125 62 0 0 255 201 185 72 201 185 72 201 185 72 201 185 72 201 185 72 201 185 72 201 185 72 201 185 72 201 185 72 0 0 255 198 182 74 198 182 74 0 0 255 167 125 62 167 125 62 0 0 255 198 182 74 198 182 74 198 182 74 198 182 74 198 182 74 198 182 74 198 182 74 198 182 74 198 182 74 198 182 74 198 182 74 0 0 255 0 0 255 0 0 255 0 0 255 0 0 255 0 0 255 0 0 255 198 182 74 198 182 74 198 182 74 198 182 74 198 182 74 198 182 74 198 182 74 198 182 74 198 182 74 198 182 74 198 182 74 198 182 74 0 0 255 91 155 74 0 0 255 91 155 74 91 155 74 91 155 74 91 155 74 91 155 74 91 155 74 0 0 255 161 168 113 0 0 255 91 155 74 91 155 74 0 0 255 161 168 113 0 0 255 0 0 255 0 0 255 0 0 255 72 37 42 72 37 42 72 37 42 72 37 42 72 37 42 72 37 42 72 37 42 72 37 42 72 37 42 72 37 42 72 37 42 72 37 42 72 37 42 0 0 255 0 0 255 0 0 255 0 0 255 0 0 255 195 181 74 195 181 74 195 181 74 195 181 74 195 181 74 195 181 74 195 181 74 195 181 74 0 0 255 195 199 167 0 0 255 0 0 255 0 0 255 158 116 60 0 0 255 0 0 255 72 37 42 72 37 42 72 37 42 72 37 42 72 37 42 72 37 42 72 37 42 72 37 42 0 0 255 0 0 255 0 0 255 195 199 167 195 199 167 195 199 167 195 199 167 195 199 167 195 199 167 195 199 167 195 199 167 195 199 167 195 199 167 195 199 167 195 199 167 195 199 167 195 199 167 195 199 167 195 199 167 195 199 167 195 199 167 195 199 167 195 199 167 195 199 167 195 199 167 195 199 167 195 199 167 195 199 167 195 199 167 195 199 167 195 199 167 
0 0 255 0 0 255 192 191 140 192 191 140 0 0 255 192 191 140 192 191 140 192 191 140 192 191 140 192 191 140 192 191 140 192 191 140 192 191 140 192 191 140 192 191 140 0 0 255 198 198 148 198 198 148 198 198 148 198 198 148 198 198 148 198 198 148 198 198 148 198 198 148 0 0 255 0 0 255 0 0 255 0 0 255 123 87 55 123 87 55 0 0 255 186 59 41 186 59 41 186 59 41 186 59 41 186 59 41 186 59 41 186 59 41 186 59 41 186 59 41 186 59 41 186 59 41 0 0 255 0 0 255 198 198 148 198 198 148 198 198 148 198 198 148 198 198 148 198 198 148 0 0 255 0 0 255 0 0 255 0 0 255 65 38 45 0 0 255 98 138 73 98 138 73 98 138 73 98 138 73 0 0 255 0 0 255 0 0 255 0 0 255 98 138 73 98 138 73 98 138 73 0 0 255 0 0 255 198 196 141 198 196 141 198 196 141 0 0 255 0 0 255 0 0 255 0 0 255 0 0 255 0 0 255 0 0 255 0 0 255 194 178 79 194 178 79 194 178 79 194 178 79 194 178 79 194 178 79 194 178 79 194 178 79 194 178 79 194 178 79 194 178 79 194 178 79 194 178 79 194 178 79 194 178 79 0 0 255 198 196 141 198 196 141 198 196 141 198 196 141 198 196 141 198 196 141 198 196 141 0 0 255 0 0 255 0 0 255 0 0 255 0 0 255 114 89 58 114 89 58 0 0 255 0 0 255 70 35 42 70 35 42 0 0 255 167 125 62 0 0 255 201 185 72 201 185 72 201 185 72 201 185 72 201 185 72 201 185 72 201 185 72 201 185 72 201 185 72 0 0 255 0 0 255 198 182 74 0 0 255 167 125 62 0 0 255 198 182 74 198 182 74 198 182 74 198 182 74 198 182 74 198 182 74 198 182 74 198 182 74 198 182 74 198 182 74 198 182 74 198 182 74 198 182 74 198 182 74 0 0 255 0 0 255 0 0 255 0 0 255 198 182 74 198 182 74 198 182 74 198 182 74 198 182 74 198 182 74 198 182 74 198 182 74 198 182 74 198 182 74 198 182 74 198 182 74 198 182 74 0 0 255 0 0 255 0 0 255 0 0 255 91 155 74 91 155 74 91 155 74 91 155 74 0 0 255 0 0 255 0 0 255 0 0 255 91 155 74 91 155 74 0 0 255 0 0 255 0 0 255 0 0 255 0 0 255 0 0 255 72 37 42 72 37 42 72 37 42 72 37 42 72 37 42 72 37 42 72 37 42 72 37 42 72 37 42 72 37 42 72 37 42 72 37 42 72 37 42 0 0 255 158 116 60 158 116 60 158 116 60 0 0 255 195 181 74 195 181 74 195 181 74 195 181 74 195 181 74 195 181 74 195 181 74 0 0 255 195 199 167 195 199 167 195 199 167 0 0 255 0 0 255 0 0 255 0 0 255 0 0 255 72 37 42 72 37 42 72 37 42 72 37 42 72 37 42 72 37 42 0 0 255 0 0 255 0 0 255 0 0 255 195 199 167 195 199 167 195 199 167 195 199 167 195 199 167 195 199 167 195 199 167 195 199 167 195 199 167 195 199 167 195 199 167 195 199 167 195 199 167 195 199 167 195 199 167 195 199 167 195 199 167 195 199 167 195 199 167 195 199 167 195 199 167 195 199 167 195 199 167 195 199 167 195 199 167 195 199 167 195 199 167 195 199 167 195 199 167 
191 185 134 0 0 255 0 0 255 0 0 255 0 0 255 0 0 255 0 0 255 0 0 255 192 191 140 192 191 140 192 191 140 192 191 140 192 191 140 192 191 140 192 191 140 0 0 255 198 198 148 198 198 148 198 198 148 198 198 148 198 198 148 198 198 148 198 198 148 198 198 148 0 0 255 191 185 134 0 0 255 123 87 55 123 87 55 123 87 55 0 0 255 0 0 255 186 59 41 186 59 41 186 59 41 186 59 41 186 59 41 186 59 41 186 59 41 186 59 41 186 59 41 186 59 41 0 0 255 0 0 255 198 198 148 198 198 148 198 198 148 198 198 148 198 198 148 0 0 255 0 0 255 0 0 255 123 87 55 0 0 255 0 0 255 0 0 255 0 0 255 98 138 73 98 138 73 98 138 73 98 138 73 0 0 255 150 161 101 0 0 255 98 138 73 98 138 73 98 138 73 0 0 255 0 0 255 0 0 255 0 0 255 0 0 255 0 0 255 0 0 255 0 0 255 0 0 255 123 87 55 123 87 55 0 0 255 0 0 255 0 0 255 194 178 79 194 178 79 194 178 79 194 178 79 194 178 79 194 178 79 194 178 79 194 178 79 194 178 79 194 178 79 194 178 79 194 178 79 194 178 79 194 178 79 0 0 255 198 196 141 198 196 141 198 196 141 198 196 141 198 196 141 198 196 141 198 196 141 198 196 141 0 0 255 0 0 255 167 125 62 0 0 255 0 0 255 0 0 255 0 0 255 0 0 255 0 0 255 0 0 255 0 0 255 167 125 62 0 0 255 201 185 72 201 185 72 201 185 72 201 185 72 201 185 72 201 185 72 201 185 72 201 185 72 201 185 72 201 185 72 0 0 255 0 0 255 0 0 255 0 0 255 198 182 74 198 182 74 198 182 74 198 182 74 198 182 74 198 182 74 198 182 74 198 182 74 198 182 74 198 182 74 198 182 74 198 182 74 198 182 74 198 182 74 198 182 74 198 182 74 198 182 74 198 182 74 198 182 74 198 182 74 198 182 74 198 182 74 198 182 74 198 182 74 198 182 74 198 182 74 198 182 74 198 182 74 198 182 74 198 182 74 198 182 74 198 182 74 0 0 255 0 0 255 81 111 57 0 0 255 0 0 255 91 155 74 91 155 74 91 155 74 91 155 74 91 155 74 91 155 74 91 155 74 91 155 74 91 155 74 0 0 255 0 0 255 0 0 255 0 0 255 0 0 255 0 0 255 0 0 255 0 0 255 72 37 42 72 37 42 72 37 42 72 37 42 72 37 42 72 37 42 72 37 42 72 37 42 72 37 42 72 37 42 72 37 42 0 0 255 158 116 60 158 116 60 0 0 255 0 0 255 195 181 74 195 181 74 195 181 74 195 181 74 195 181 74 195 181 74 195 181 74 0 0 255 195 199 167 195 199 167 195 199 167 195 199 167 0 0 255 0 0 255 0 0 255 0 0 255 0 0 255 0 0 255 72 37 42 72 37 42 72 37 42 0 0 255 0 0 255 0 0 255 0 0 255 195 199 167 195 199 167 195 199 167 195 199 167 195 199 167 195 199 167 195 199 167 195 199 167 195 199 167 195 199 167 195 199 167 195 199 167 195 199 167 195 199 167 195 199 167 195 199 167 195 199 167 195 199 167 195 199 167 195 199 167 195 199 167 195 199 167 195 199 167 195 199 167 195 199 167 195 199 167 195 199 167 195 199 167 195 199 167 195 199 167 
191 185 134 191 185 134 191 185 134 191 185 134 191 185 134 191 185 134 191 185 134 0 0 255 0 0 255 0 0 255 0 0 255 0 0 255 192 191 140 192 191 140 0 0 255 198 198 148 198 198 148 198 198 148 198 198 148 198 198 148 198 198 148 198 198 148 198 198 148 198 198 148 0 0 255 191 185 134 0 0 255 123 87 55 123 87 55 123 87 55 123 87 55 0 0 255 186 59 41 186 59 41 186 59 41 186 59 41 186 59 41 186 59 41 186 59 41 186 59 41 186 59 41 186 59 41 0 0 255 0 0 255 198 198 148 198 198 148 198 198 148 198 198 148 198 198 148 0 0 255 0 0 255 0 0 255 123 87 55 123 87 55 0 0 255 65 38 45 0 0 255 98 138 73 98 138 73 98 138 73 98 138 73 0 0 255 0 0 255 0 0 255 98 138 73 98 138 73 98 138 73 98 138 73 0 0 255 0 0 255 0 0 255 0 0 255 0 0 255 0 0 255 0 0 255 0 0 255 0 0 255 123 87 55 123 87 55 0 0 255 0 0 255 0 0 255 194 178 79 194 178 79 194 178 79 194 178 79 194 178 79 194 178 79 194 178 79 194 178 79 194 178 79 194 178 79 194 178 79 194 178 79 194 178 79 0 0 255 198 196 141 198 196 141 198 196 141 198 196 141 198 196 141 198 196 141 198 196 141 198 196 141 0 0 255 167 125 62 0 0 255 189 59 42 189 59 42 189 59 42 189 59 42 189 59 42 0 0 255 0 0 255 0 0 255 167 125 62 0 0 255 201 185 72 201 185 72 201 185 72 201 185 72 201 185 72 201 185 72 201 185 72 201 185 72 201 185 72 201 185 72 201 185 72 0 0 255 198 182 74 198 182 74 198 182 74 198 182 74 198 182 74 198 182 74 198 182 74 198 182 74 198 182 74 198 182 74 198 182 74 198 182 74 198 182 74 198 182 74 198 182 74 198 182 74 198 182 74 198 182 74 0 0 255 0 0 255 0 0 255 198 182 74 198 182 74 198 182 74 198 182 74 198 182 74 198 182 74 198 182 74 198 182 74 198 182 74 198 182 74 198 182 74 198 182 74 198 182 74 0 0 255 0 0 255 0 0 255 81 111 57 0 0 255 0 0 255 91 155 74 91 155 74 91 155 74 91 155 74 91 155 74 91 155 74 91 155 74 91 155 74 0 0 255 0 0 255 0 0 255 0 0 255 91 155 74 91 155 74 0 0 255 0 0 255 0 0 255 72 37 42 72 37 42 72 37 42 72 37 42 72 37 42 72 37 42 72 37 42 72 37 42 72 37 42 0 0 255 158 116 60 158 116 60 0 0 255 195 181 74 195 181 74 195 181 74 195 181 74 195 181 74 195 181 74 195 181 74 195 181 74 0 0 255 195 199 167 195 199 167 195 199 167 195 199 167 195 199 167 195 199 167 0 0 255 0 0 255 0 0 255 0 0 255 0 0 255 0 0 255 0 0 255 0 0 255 0 0 255 0 0 255 161 168 113 0 0 255 195 199 167 195 199 167 195 199 167 195 199 167 195 199 167 195 199 167 195 199 167 195 199 167 195 199 167 195 199 167 195 199 167 195 199 167 195 199 167 195 199 167 195 199 167 195 199 167 195 199 167 195 199 167 195 199 167 195 199 167 195 199 167 195 199 167 195 199 167 195 199 167 195 199 167 195 199 167 195 199 167 195 199 167 195 199 167 195 199 167 
191 185 134 191 185 134 191 185 134 191 185 134 191 185 134 191 185 134 191 185 134 191 185 134 191 185 134 191 185 134 191 185 134 0 0 255 0 0 255 0 0 255 198 198 148 198 198 148 198 198 148 198 198 148 198 198 148 198 198 148 198 198 148 198 198 148 198 198 148 198 198 148 0 0 255 191 185 134 0 0 255 0 0 255 123 87 55 123 87 55 123 87 55 0 0 255 186 59 41 186 59 41 186 59 41 186 59 41 186 59 41 186 59 41 186 59 41 186 59 41 186 59 41 186 59 41 0 0 255 198 198 148 198 198 148 198 198 148 198 198 148 198 198 148 198 198 148 0 0 255 0 0 255 123 87 55 123 87 55 123 87 55 0 0 255 65 38 45 0 0 255 0 0 255 98 138 73 98 138 73 98 138 73 98 138 73 98 138 73 98 138 73 98 138 73 98 138 73 98 138 73 0 0 255 65 38 45 65 38 45 65 38 45 65 38 45 65 38 45 65 38 45 65 38 45 65 38 45 0 0 255 123 87 55 123 87 55 0 0 255 0 0 255 0 0 255 0 0 255 194 178 79 194 178 79 194 178 79 194 178 79 194 178 79 194 178 79 194 178 79 194 178 79 194 178 79 194 178 79 194 178 79 194 178 79 0 0 255 198 196 141 198 196 141 198 196 141 198 196 141 198 196 141 198 196 141 198 196 141 0 0 255 167 125 62 0 0 255 189 59 42 189 59 42 189 59 42 189 59 42 189 59 42 189 59 42 189 59 42 0 0 255 0 0 255 167 125 62 0 0 255 0 0 255 201 185 72 201 185 72 201 185 72 201 185 72 201 185 72 201 185 72 201 185 72 201 185 72 201 185 72 201 185 72 0 0 255 0 0 255 198 182 74 198 182 74 198 182 74 198 182 74 198 182 74 198 182 74 198 182 74 198 182 74 198 182 74 198 182 74 198 182 74 198 182 74 198 182 74 198 182 74 198 182 74 198 182 74 0 0 255 167 125 62 167 125 62 0 0 255 198 182 74 198 182 74 198 182 74 198 182 74 198 182 74 198 182 74 198 182 74 198 182 74 198 182 74 198 182 74 198 182 74 198 182 74 198 182 74 0 0 255 158 116 60 0 0 255 0 0 255 0 0 255 0 0 255 0 0 255 0 0 255 91 155 74 91 155 74 91 155 74 91 155 74 0 0 255 91 155 74 91 155 74 91 155 74 91 155 74 91 155 74 91 155 74 91 155 74 91 155 74 0 0 255 0 0 255 0 0 255 72 37 42 72 37 42 72 37 42 72 37 42 72 37 42 72 37 42 0 0 255 0 0 255 0 0 255 158 116 60 0 0 255 195 181 74 195 181 74 195 181 74 195 181 74 195 181 74 195 181 74 195 181 74 195 181 74 0 0 255 195 199 167 195 199 167 195 199 167 195 199 167 195 199 167 195 199 167 195 199 167 195 199 167 195 199 167 0 0 255 0 0 255 91 155 74 91 155 74 91 155 74 91 155 74 91 155 74 0 0 255 0 0 255 0 0 255 0 0 255 195 199 167 195 199 167 195 199 167 195 199 167 195 199 167 195 199 167 195 199 167 195 199 167 195 199 167 195 199 167 195 199 167 195 199 167 195 199 167 195 199 167 195 199 167 195 199 167 195 199 167 195 199 167 195 199 167 195 199 167 195 199 167 195 199 167 195 199 167 195 199 167 195 199 167 195 199 167 195 199 167 195 199 167 195 199 167 
191 185 134 191 185 134 191 185 134 191 185 134 191 185 134 191 185 134 191 185 134 191 185 134 191 185 134 191 185 134 191 185 134 191 185 134 191 185 134 0 0 255 198 198 148 198 198 148 198 198 148 198 198 148 198 198 148 198 198 148 198 198 148 198 198 148 198 198 148 198 198 148 0 0 255 0 0 255 0 0 255 0 0 255 123 87 55 123 87 55 123 87 55 0 0 255 0 0 255 186 59 41 186 59 41 186 59 41 186 59 41 186 59 41 186 59 41 186 59 41 186 59 41 0 0 255 0 0 255 198 198 148 198 198 148 198 198 148 0 0 255 0 0 255 0 0 255 0 0 255 0 0 255 0 0 255 0 0 255 0 0 255 0 0 255 65 38 45 65 38 45 0 0 255 0 0 255 98 138 73 98 138 73 98 138 73 98 138 73 98 138 73 98 138 73 0 0 255 0 0 255 65 38 45 65 38 45 65 38 45 65 38 45 65 38 45 65 38 45 65 38 45 65 38 45 65 38 45 0 0 255 0 0 255 123 87 55 123 87 55 0 0 255 167 125 62 0 0 255 194 178 79 194 178 79 194 178 79 194 178 79 194 178 79 194 178 79 194 178 79 194 178 79 194 178 79 194 178 79 194 178 79 0 0 255 198 196 141 198 196 141 198 196 141 198 196 141 198 196 141 198 196 141 198 196 141 0 0 255 167 125 62 0 0 255 189 59 42 189 59 42 189 59 42 189 59 42 189 59 42 189 59 42 189 59 42 189 59 42 189 59 42 0 0 255 0 0 255 167 125 62 0 0 255 0 0 255 201 185 72 201 185 72 201 185 72 201 185 72 201 185 72 201 185 72 201 185 72 201 185 72 201 185 72 0 0 255 0 0 255 0 0 255 198 182 74 198 182 74 198 182 74 198 182 74 198 182 74 198 182 74 198 182 74 198 182 74 198 182 74 198 182 74 198 182 74 198 182 74 198 182 74 198 182 74 198 182 74 0 0 255 167 125 62 167 125 62 0 0 255 198 182 74 198 182 74 198 182 74 198 182 74 198 182 74 198 182 74 198 182 74 198 182 74 198 182 74 198 182 74 198 182 74 198 182 74 0 0 255 158 116 60 158 116 60 158 116 60 158 116 60 0 0 255 0 0 255 0 0 255 0 0 255 91 155 74 0 0 255 0 0 255 0 0 255 0 0 255 91 155 74 91 155 74 91 155 74 91 155 74 91 155 74 91 155 74 91 155 74 91 155 74 91 155 74 0 0 255 0 0 255 0 0 255 0 0 255 0 0 255 0 0 255 0 0 255 0 0 255 0 0 255 161 168 113 0 0 255 0 0 255 195 181 74 195 181 74 195 181 74 195 181 74 195 181 74 195 181 74 195 181 74 195 181 74 195 181 74 0 0 255 195 199 167 195 199 167 195 199 167 195 199 167 195 199 167 195 199 167 195 199 167 195 199 167 0 0 255 0 0 255 91 155 74 91 155 74 91 155 74 91 155 74 91 155 74 91 155 74 91 155 74 0 0 255 0 0 255 0 0 255 0 0 255 195 199 167 195 199 167 195 199 167 195 199 167 195 199 167 195 199 167 195 199 167 195 199 167 195 199 167 195 199 167 195 199 167 195 199 167 195 199 167 195 199 167 195 199 167 195 199 167 195 199 167 195 199 167 195 199 167 195 199 167 195 199 167 195 199 167 195 199 167 195 199 167 195 199 167 195 199 167 195 199 167 195 199 167 
191 185 134 191 185 134 191 185 134 191 185 134 191 185 134 191 185 134 191 185 134 191 185 134 191 185 134 191 185 134 191 185 134 191 185 134 191 185 134 0 0 255 0 0 255 198 198 148 198 198 148 198 198 148 198 198 148 198 198 148 198 198 148 198 198 148 198 198 148 198 198 148 198 198 148 0 0 255 0 0 255 0 0 255 0 0 255 123 87 55 123 87 55 123 87 55 0 0 255 0 0 255 186 59 41 186 59 41 186 59 41 186 59 41 186 59 41 186 59 41 0 0 255 0 0 255 0 0 255 198 198 148 0 0 255 0 0 255 0 0 255 0 0 255 0 0 255 0 0 255 0 0 255 65 38 45 65 38 45 65 38 45 65 38 45 65 38 45 65 38 45 65 38 45 0 0 255 0 0 255 0 0 255 98 138 73 98 138 73 98 138 73 0 0 255 0 0 255 65 38 45 65 38 45 65 38 45 65 38 45 65 38 45 65 38 45 65 38 45 65 38 45 65 38 45 65 38 45 65 38 45 0 0 255 123 87 55 123 87 55 0 0 255 0 0 255 0 0 255 0 0 255 194 178 79 194 178 79 194 178 79 194 178 79 194 178 79 194 178 79 194 178 79 194 178 79 194 178 79 194 178 79 0 0 255 198 196 141 198 196 141 198 196 141 198 196 141 198 196 141 198 196 141 0 0 255 0 0 255 0 0 255 0 0 255 189 59 42 189 59 42 189 59 42 189 59 42 189 59 42 189 59 42 189 59 42 189 59 42 189 59 42 189 59 42 0 0 255 167 125 62 167 125 62 0 0 255 201 185 72 201 185 72 201 185 72 201 185 72 201 185 72 201 185 72 201 185 72 201 185 72 0 0 255 0 0 255 167 125 62 0 0 255 0 0 255 198 182 74 198 182 74 198 182 74 198 182 74 198 182 74 198 182 74 198 182 74 198 182 74 198 182 74 198 182 74 198 182 74 198 182 74 198 182 74 198 182 74 0 0 255 167 125 62 167 125 62 0 0 255 0 0 255 198 182 74 198 182 74 198 182 74 198 182 74 198 182 74 198 182 74 198 182 74 198 182 74 198 182 74 0 0 255 0 0 255 0 0 255 0 0 255 0 0 255 0 0 255 0 0 255 0 0 255 0 0 255 0 0 255 0 0 255 0 0 255 81 111 57 81 111 57 81 111 57 0 0 255 91 155 74 91 155 74 91 155 74 91 155 74 91 155 74 0 0 255 0 0 255 91 155 74 91 155 74 91 155 74 91 155 74 0 0 255 0 0 255 0 0 255 0 0 255 0 0 255 0 0 255 161 168 113 0 0 255 158 116 60 0 0 255 195 181 74 195 181 74 195 181 74 195 181 74 195 181 74 195 181 74 195 181 74 195 181 74 195 181 74 0 0 255 0 0 255 195 199 167 195 199 167 195 199 167 195 199 167 195 199 167 195 199 167 0 0 255 0 0 255 91 155 74 91 155 74 91 155 74 91 155 74 91 155 74 91 155 74 91 155 74 91 155 74 91 155 74 0 0 255 0 0 255 0 0 255 195 199 167 195 199 167 195 199 167 195 199 167 195 199 167 195 199 167 195 199 167 195 199 167 195 199 167 195 199 167 195 199 167 195 199 167 195 199 167 195 199 167 195 199 167 195 199 167 195 199 167 195 199 167 195 199 167 195 199 167 195 199 167 0 0 255 0 0 255 0 0 255 0 0 255 0 0 255 0 0 255 0 0 255 
191 185 134 191 185 134 191 185 134 191 185 134 191 185 134 191 185 134 191 185 134 191 185 134 191 185 134 191 185 134 191 185 134 191 185 134 191 185 134 191 185 134 0 0 255 0 0 255 198 198 148 198 198 148 198 198 148 198 198 148 198 198 148 198 198 148 198 198 148 198 198 148 198 198 148 0 0 255 0 0 255 0 0 255 0 0 255 0 0 255 123 87 55 123 87 55 123 87 55 0 0 255 0 0 255 0 0 255 0 0 255 0 0 255 0 0 255 0 0 255 0 0 255 0 0 255 0 0 255 0 0 255 0 0 255 0 0 255 0 0 255 0 0 255 65 38 45 65 38 45 65 38 45 65 38 45 65 38 45 65 38 45 65 38 45 65 38 45 65 38 45 65 38 45 65 38 45 0 0 255 0 0 255 0 0 255 0 0 255 0 0 255 65 38 45 65 38 45 65 38 45 65 38 45 65 38 45 65 38 45 65 38 45 65 38 45 65 38 45 65 38 45 65 38 45 65 38 45 65 38 45 0 0 255 123 87 55 123 87 55 123 87 55 0 0 255 167 125 62 0 0 255 0 0 255 0 0 255 194 178 79 194 178 79 194 178 79 0 0 255 0 0 255 0 0 255 194 178 79 0 0 255 198 196 141 198 196 141 198 196 141 198 196 141 198 196 141 198 196 141 198 196 141 0 0 255 0 0 255 189 59 42 189 59 42 189 59 42 189 59 42 189 59 42 189 59 42 189 59 42 189 59 42 189 59 42 189 59 42 189 59 42 189 59 42 0 0 255 167 125 62 167 125 62 0 0 255 0 0 255 0 0 255 201 185 72 201 185 72 201 185 72 201 185 72 201 185 72 201 185 72 0 0 255 167 125 62 167 125 62 167 125 62 0 0 255 198 182 74 198 182 74 198 182 74 198 182 74 198 182 74 198 182 74 198 182 74 198 182 74 198 182 74 198 182 74 198 182 74 198 182 74 198 182 74 0 0 255 167 125 62 167 125 62 167 125 62 167 125 62 0 0 255 0 0 255 198 182 74 198 182 74 198 182 74 198 182 74 198 182 74 198 182 74 0 0 255 0 0 255 0 0 255 192 54 39 192 54 39 192 54 39 192 54 39 192 54 39 192 54 39 0 0 255 0 0 255 158 116 60 0 0 255 0 0 255 0 0 255 0 0 255 0 0 255 0 0 255 0 0 255 91 155 74 91 155 74 91 155 74 0 0 255 0 0 255 0 0 255 91 155 74 91 155 74 91 155 74 0 0 255 0 0 255 0 0 255 0 0 255 0 0 255 0 0 255 0 0 255 0 0 255 0 0 255 0 0 255 195 181 74 195 181 74 195 181 74 195 181 74 195 181 74 195 181 74 195 181 74 195 181 74 195 181 74 195 181 74 195 181 74 0 0 255 0 0 255 195 199 167 195 199 167 195 199 167 195 199 167 0 0 255 0 0 255 91 155 74 91 155 74 91 155 74 91 155 74 91 155 74 91 155 74 91 155 74 91 155 74 91 155 74 91 155 74 91 155 74 0 0 255 0 0 255 0 0 255 195 199 167 195 199 167 195 199 167 195 199 167 195 199 167 195 199 167 195 199 167 195 199 167 195 199 167 195 199 167 195 199 167 0 0 255 0 0 255 0 0 255 0 0 255 0 0 255 0 0 255 0 0 255 0 0 255 0 0 255 195 200 170 195 200 170 195 200 170 195 200 170 195 200 170 195 200 170 195 200 170 
191 185 134 191 185 134 191 185 134 191 185 134 191 185 134 191 185 134 191 185 134 191 185 134 191 185 134 191 185 134 191 185 134 191 185 134 191 185 134 191 185 134 191 185 134 0 0 255 198 198 148 198 198 148 198 198 148 198 198 148 198 198 148 198 198 148 198 198 148 198 198 148 198 198 148 198 198 148 198 198 148 0 0 255 0 0 255 0 0 255 0 0 255 123 87 55 123 87 55 123 87 55 123 87 55 123 87 55 123 87 55 123 87 55 123 87 55 0 0 255 0 0 255 0 0 255 0 0 255 0 0 255 65 38 45 65 38 45 65 38 45 65 38 45 65 38 45 65 38 45 65 38 45 65 38 45 65 38 45 65 38 45 65 38 45 65 38 45 65 38 45 65 38 45 65 38 45 65 38 45 65 38 45 65 38 45 65 38 45 65 38 45 65 38 45 65 38 45 65 38 45 65 38 45 65 38 45 65 38 45 65 38 45 65 38 45 65 38 45 65 38 45 65 38 45 65 38 45 65 38 45 0 0 255 0 0 255 123 87 55 0 0 255 0 0 255 167 125 62 167 125 62 167 125 62 0 0 255 194 178 79 194 178 79 0 0 255 201 185 72 201 185 72 0 0 255 0 0 255 0 0 255 0 0 255 198 196 141 198 196 141 198 196 141 198 196 141 198 196 141 0 0 255 0 0 255 0 0 255 189 59 42 189 59 42 189 59 42 189 59 42 189 59 42 189 59 42 189 59 42 189 59 42 189 59 42 189 59 42 189 59 42 189 59 42 0 0 255 167 125 62 167 125 62 167 125 62 167 125 62 0 0 255 201 185 72 201 185 72 201 185 72 201 185 72 201 185 72 0 0 255 167 125 62 167 125 62 167 125 62 167 125 62 0 0 255 0 0 255 198 182 74 198 182 74 198 182 74 198 182 74 198 182 74 198 182 74 198 182 74 198 182 74 198 182 74 198 182 74 198 182 74 198 182 74 0 0 255 167 125 62 167 125 62 167 125 62 167 125 62 167 125 62 0 0 255 0 0 255 0 0 255 198 182 74 198 182 74 198 182 74 0 0 255 0 0 255 192 54 39 192 54 39 192 54 39 192 54 39 192 54 39 192 54 39 192 54 39 192 54 39 192 54 39 0 0 255 158 116 60 0 0 255 0 0 255 0 0 255 91 155 74 0 0 255 81 111 57 0 0 255 91 155 74 91 155 74 91 155 74 0 0 255 0 0 255 0 0 255 91 155 74 91 155 74 91 155 74 0 0 255 183 183 126 0 0 255 0 0 255 183 183 126 183 183 126 0 0 255 0 0 255 158 116 60 0 0 255 0 0 255 195 181 74 195 181 74 195 181 74 195 181 74 195 181 74 195 181 74 195 181 74 195 181 74 195 181 74 195 181 74 195 181 74 0 0 255 195 199 167 195 199 167 195 199 167 0 0 255 0 0 255 91 155 74 91 155 74 91 155 74 91 155 74 91 155 74 91 155 74 91 155 74 91 155 74 91 155 74 91 155 74 91 155 74 91 155 74 91 155 74 0 0 255 0 0 255 0 0 255 195 199 167 195 199 167 0 0 255 0 0 255 0 0 255 0 0 255 0 0 255 0 0 255 0 0 255 0 0 255 195 200 170 195 200 170 195 200 170 195 200 170 195 200 170 195 200 170 195 200 170 195 200 170 195 200 170 195 200 170 195 200 170 195 200 170 195 200 170 195 200 170 195 200 170 195 200 170 
191 185 134 191 185 134 191 185 134 191 185 134 191 185 134 191 185 134 191 185 134 191 185 134 191 185 134 191 185 134 191 185 134 191 185 134 191 185 134 191 185 134 191 185 134 0 0 255 198 198 148 198 198 148 198 198 148 198 198 148 198 198 148 198 198 148 198 198 148 198 198 148 198 198 148 198 198 148 198 198 148 198 198 148 0 0 255 0 0 255 0 0 255 0 0 255 0 0 255 0 0 255 123 87 55 123 87 55 0 0 255 0 0 255 0 0 255 0 0 255 0 0 255 0 0 255 0 0 255 65 38 45 65 38 45 65 38 45 65 38 45 65 38 45 65 38 45 65 38 45 65 38 45 65 38 45 65 38 45 65 38 45 65 38 45 65 38 45 65 38 45 65 38 45 65 38 45 65 38 45 65 38 45 65 38 45 65 38 45 65 38 45 65 38 45 65 38 45 65 38 45 65 38 45 65 38 45 65 38 45 65 38 45 65 38 45 0 0 255 0 0 255 65 38 45 65 38 45 65 38 45 65 38 45 0 0 255 0 0 255 0 0 255 0 0 255 0 0 255 167 125 62 167 125 62 0 0 255 194 178 79 194 178 79 0 0 255 201 185 72 201 185 72 201 185 72 201 185 72 201 185 72 0 0 255 0 0 255 0 0 255 198 196 141 198 196 141 0 0 255 0 0 255 0 0 255 189 59 42 189 59 42 189 59 42 189 59 42 189 59 42 189 59 42 189 59 42 189 59 42 189 59 42 189 59 42 189 59 42 189 59 42 189 59 42 0 0 255 167 125 62 167 125 62 167 125 62 167 125 62 0 0 255 201 185 72 201 185 72 201 185 72 201 185 72 201 185 72 0 0 255 0 0 255 167 125 62 167 125 62 167 125 62 167 125 62 0 0 255 0 0 255 198 182 74 198 182 74 198 182 74 198 182 74 198 182 74 198 182 74 198 182 74 198 182 74 0 0 255 0 0 255 0 0 255 0 0 255 0 0 255 167 125 62 167 125 62 167 125 62 167 125 62 167 125 62 167 125 62 0 0 255 0 0 255 0 0 255 0 0 255 0 0 255 192 54 39 192 54 39 192 54 39 192 54 39 192 54 39 192 54 39 192 54 39 192 54 39 192 54 39 192 54 39 0 0 255 0 0 255 0 0 255 0 0 255 0 0 255 0 0 255 0 0 255 81 111 57 0 0 255 0 0 255 91 155 74 91 155 74 91 155 74 91 155 74 91 155 74 91 155 74 91 155 74 0 0 255 0 0 255 0 0 255 0 0 255 0 0 255 0 0 255 0 0 255 0 0 255 158 116 60 158 116 60 158 116 60 0 0 255 195 181 74 195 181 74 195 181 74 195 181 74 195 181 74 195 181 74 195 181 74 195 181 74 195 181 74 195 181 74 195 181 74 0 0 255 0 0 255 195 199 167 195 199 167 0 0 255 91 155 74 91 155 74 91 155 74 91 155 74 91 155 74 91 155 74 91 155 74 91 155 74 91 155 74 91 155 74 91 155 74 91 155 74 91 155 74 91 155 74 0 0 255 0 0 255 0 0 255 195 199 167 0 0 255 195 200 170 195 200 170 195 200 170 195 200 170 195 200 170 195 200 170 195 200 170 195 200 170 195 200 170 195 200 170 195 200 170 195 200 170 195 200 170 195 200 170 195 200 170 195 200 170 195 200 170 195 200 170 195 200 170 195 200 170 195 200 170 195 200 170 195 200 170 195 200 170 
191 185 134 191 185 134 191 185 134 191 185 134 191 185 134 191 185 134 191 185 134 191 185 134 191 185 134 191 185 134 191 185 134 191 185 134 191 185 134 191 185 134 191 185 134 0 0 255 198 198 148 198 198 148 198 198 148 198 198 148 198 198 148 198 198 148 198 198 148 198 198 148 198 198 148 198 198 148 198 198 148 198 198 148 198 198 148 0 0 255 0 0 255 0 0 255 0 0 255 0 0 255 0 0 255 0 0 255 0 0 255 0 0 255 0 0 255 0 0 255 0 0 255 65 38 45 65 38 45 65 38 45 65 38 45 65 38 45 65 38 45 65 38 45 65 38 45 65 38 45 65 38 45 65 38 45 65 38 45 65 38 45 65 38 45 65 38 45 65 38 45 65 38 45 65 38 45 65 38 45 65 38 45 65 38 45 65 38 45 65 38 45 65 38 45 65 38 45 65 38 45 65 38 45 65 38 45 65 38 45 65 38 45 0 0 255 0 0 255 0 0 255 65 38 45 65 38 45 65 38 45 0 0 255 0 0 255 0 0 255 0 0 255 0 0 255 0 0 255 167 125 62 0 0 255 194 178 79 194 178 79 0 0 255 201 185 72 201 185 72 201 185 72 201 185 72 201 185 72 201 185 72 201 185 72 201 185 72 0 0 255 0 0 255 0 0 255 0 0 255 167 125 62 0 0 255 189 59 42 189 59 42 189 59 42 189 59 42 189 59 42 189 59 42 0 0 255 0 0 255 0 0 255 189 59 42 189 59 42 189 59 42 189 59 42 0 0 255 167 125 62 167 125 62 167 125 62 0 0 255 201 185 72 201 185 72 201 185 72 201 185 72 201 185 72 201 185 72 201 185 72 0 0 255 0 0 255 167 125 62 167 125 62 167 125 62 167 125 62 0 0 255 198 182 74 198 182 74 198 182 74 198 182 74 0 0 255 0 0 255 0 0 255 0 0 255 0 0 255 0 0 255 91 155 74 91 155 74 0 0 255 0 0 255 0 0 255 167 125 62 167 125 62 167 125 62 167 125 62 167 125 62 0 0 255 0 0 255 192 54 39 192 54 39 192 54 39 192 54 39 192 54 39 192 54 39 192 54 39 192 54 39 192 54 39 192 54 39 192 54 39 192 54 39 192 54 39 0 0 255 0 0 255 0 0 255 0 0 255 0 0 255 81 111 57 81 111 57 0 0 255 0 0 255 0 0 255 91 155 74 91 155 74 91 155 74 91 155 74 91 155 74 91 155 74 0 0 255 0 0 255 0 0 255 0 0 255 0 0 255 0 0 255 0 0 255 158 116 60 158 116 60 158 116 60 158 116 60 0 0 255 195 181 74 195 181 74 195 181 74 195 181 74 195 181 74 195 181 74 195 181 74 195 181 74 195 181 74 195 181 74 195 181 74 195 181 74 0 0 255 0 0 255 0 0 255 0 0 255 0 0 255 91 155 74 91 155 74 91 155 74 91 155 74 91 155 74 91 155 74 91 155 74 0 0 255 0 0 255 0 0 255 91 155 74 91 155 74 91 155 74 91 155 74 0 0 255 0 0 255 0 0 255 195 200 170 195 200 170 195 200 170 195 200 170 195 200 170 195 200 170 195 200 170 195 200 170 195 200 170 195 200 170 195 200 170 195 200 170 195 200 170 195 200 170 195 200 170 195 200 170 195 200 170 195 200 170 195 200 170 195 200 170 195 200 170 195 200 170 195 200 170 195 200 170 195 200 170 
191 185 134 191 185 134 191 185 134 191 185 134 191 185 134 191 185 134 191 185 134 191 185 134 191 185 134 191 185 134 191 185 134 191 185 134 191 185 134 191 185 134 191 185 134 0 0 255 198 198 148 198 198 148 198 198 148 198 198 148 198 198 148 198 198 148 198 198 148 198 198 148 198 198 148 198 198 148 198 198 148 198 198 148 198 198 148 198 198 148 198 198 148 198 198 148 198 198 148 198 198 148 198 198 148 198 198 148 198 198 148 198 198 148 0 0 255 0 0 255 0 0 255 65 38 45 65 38 45 65 38 45 65 38 45 65 38 45 65 38 45 65 38 45 65 38 45 65 38 45 65 38 45 0 0 255 0 0 255 0 0 255 0 0 255 65 38 45 65 38 45 65 38 45 65 38 45 65 38 45 65 38 45 65 38 45 65 38 45 65 38 45 65 38 45 65 38 45 65 38 45 65 38 45 65 38 45 65 38 45 0 0 255 0 0 255 0 0 255 0 0 255 65 38 45 65 38 45 65 38 45 0 0 255 0 0 255 198 196 141 0 0 255 0 0 255 0 0 255 0 0 255 194 178 79 194 178 79 194 178 79 0 0 255 201 185 72 201 185 72 201 185 72 201 185 72 201 185 72 201 185 72 201 185 72 201 185 72 201 185 72 201 185 72 201 185 72 0 0 255 0 0 255 189 59 42 189 59 42 189 59 42 189 59 42 189 59 42 189 59 42 0 0 255 0 0 255 0 0 255 0 0 255 189 59 42 189 59 42 189 59 42 0 0 255 167 125 62 0 0 255 0 0 255 167 125 62 0 0 255 201 185 72 201 185 72 201 185 72 201 185 72 201 185 72 201 185 72 201 185 72 201 185 72 0 0 255 0 0 255 167 125 62 167 125 62 167 125 62 0 0 255 198 182 74 0 0 255 0 0 255 0 0 255 167 125 62 0 0 255 91 155 74 91 155 74 91 155 74 91 155 74 91 155 74 91 155 74 91 155 74 91 155 74 0 0 255 0 0 255 167 125 62 167 125 62 0 0 255 0 0 255 0 0 255 192 54 39 192 54 39 192 54 39 192 54 39 192 54 39 192 54 39 192 54 39 192 54 39 192 54 39 192 54 39 192 54 39 192 54 39 192 54 39 192 54 39 0 0 255 0 0 255 0 0 255 0 0 255 0 0 255 0 0 255 0 0 255 0 0 255 81 111 57 0 0 255 0 0 255 0 0 255 91 155 74 91 155 74 91 155 74 0 0 255 158 116 60 0 0 255 0 0 255 192 54 39 192 54 39 192 54 39 0 0 255 0 0 255 0 0 255 158 116 60 158 116 60 0 0 255 195 181 74 195 181 74 195 181 74 195 181 74 195 181 74 195 181 74 195 181 74 195 181 74 195 181 74 195 181 74 195 181 74 195 181 74 195 181 74 0 0 255 0 0 255 0 0 255 0 0 255 91 155 74 91 155 74 91 155 74 91 155 74 91 155 74 91 155 74 0 0 255 0 0 255 0 0 255 0 0 255 91 155 74 91 155 74 91 155 74 91 155 74 0 0 255 0 0 255 195 200 170 195 200 170 195 200 170 195 200 170 195 200 170 195 200 170 195 200 170 195 200 170 195 200 170 195 200 170 195 200 170 195 200 170 195 200 170 195 200 170 195 200 170 195 200 170 195 200 170 195 200 170 195 200 170 195 200 170 195 200 170 195 200 170 195 200 170 195 200 170 195 200 170 195 200 170 
191 185 134 191 185 134 191 185 134 191 185 134 191 185 134 191 185 134 191 185 134 191 185 134 191 185 134 191 185 134 191 185 134 191 185 134 191 185 134 191 185 134 191 185 134 0 0 255 0 0 255 0 0 255 198 198 148 198 198 148 198 198 148 198 198 148 198 198 148 198 198 148 198 198 148 198 198 148 198 198 148 198 198 148 198 198 148 198 198 148 198 198 148 198 198 148 198 198 148 198 198 148 198 198 148 198 198 148 198 198 148 0 0 255 0 0 255 0 0 255 65 38 45 65 38 45 65 38 45 65 38 45 65 38 45 65 38 45 65 38 45 65 38 45 65 38 45 65 38 45 0 0 255 0 0 255 0 0 255 0 0 255 0 0 255 65 38 45 65 38 45 65 38 45 65 38 45 65 38 45 65 38 45 65 38 45 65 38 45 65 38 45 65 38 45 65 38 45 65 38 45 65 38 45 65 38 45 0 0 255 0 0 255 0 0 255 0 0 255 0 0 255 65 38 45 65 38 45 65 38 45 0 0 255 0 0 255 198 196 141 198 196 141 0 0 255 0 0 255 194 178 79 194 178 79 194 178 79 0 0 255 201 185 72 201 185 72 201 185 72 201 185 72 201 185 72 201 185 72 201 185 72 201 185 72 201 185 72 201 185 72 201 185 72 0 0 255 167 125 62 0 0 255 189 59 42 189 59 42 189 59 42 189 59 42 189 59 42 189 59 42 0 0 255 0 0 255 0 0 255 0 0 255 189 59 42 189 59 42 189 59 42 0 0 255 0 0 255 0 0 255 0 0 255 0 0 255 201 185 72 201 185 72 201 185 72 201 185 72 201 185 72 201 185 72 201 185 72 201 185 72 201 185 72 201 185 72 0 0 255 0 0 255 167 125 62 0 0 255 0 0 255 0 0 255 167 125 62 167 125 62 0 0 255 0 0 255 91 155 74 91 155 74 91 155 74 91 155 74 91 155 74 91 155 74 0 0 255 91 155 74 91 155 74 91 155 74 0 0 255 0 0 255 0 0 255 0 0 255 0 0 255 192 54 39 192 54 39 192 54 39 192 54 39 192 54 39 192 54 39 192 54 39 192 54 39 0 0 255 0 0 255 192 54 39 192 54 39 192 54 39 192 54 39 192 54 39 192 54 39 0 0 255 0 0 255 0 0 255 158 116 60 158 116 60 0 0 255 0 0 255 0 0 255 0 0 255 0 0 255 0 0 255 0 0 255 0 0 255 0 0 255 158 116 60 0 0 255 192 54 39 192 54 39 192 54 39 192 54 39 192 54 39 192 54 39 192 54 39 0 0 255 0 0 255 0 0 255 0 0 255 195 181 74 195 181 74 195 181 74 195 181 74 195 181 74 195 181 74 195 181 74 195 181 74 195 181 74 195 181 74 195 181 74 195 181 74 195 181 74 0 0 255 158 116 60 0 0 255 0 0 255 0 0 255 0 0 255 91 155 74 91 155 74 91 155 74 91 155 74 0 0 255 0 0 255 0 0 255 0 0 255 91 155 74 91 155 74 91 155 74 91 155 74 0 0 255 0 0 255 195 200 170 195 200 170 195 200 170 195 200 170 195 200 170 195 200 170 195 200 170 195 200 170 195 200 170 195 200 170 195 200 170 195 200 170 195 200 170 195 200 170 195 200 170 195 200 170 195 200 170 195 200 170 195 200 170 195 200 170 195 200 170 195 200 170 195 200 170 195 200 170 195 200 170 195 200 170 
191 185 134 191 185 134 191 185 134 191 185 134 191 185 134 191 185 134 191 185 134 191 185 134 191 185 134 191 185 134 191 185 134 191 185 134 191 185 134 191 185 134 191 185 134 191 185 134 191 185 134 0 0 255 198 198 148 198 198 148 198 198 148 198 198 148 198 198 148 198 198 148 198 198 148 198 198 148 198 198 148 198 198 148 198 198 148 198 198 148 198 198 148 198 198 148 198 198 148 198 198 148 198 198 148 198 198 148 0 0 255 0 0 255 0 0 255 0 0 255 65 38 45 65 38 45 65 38 45 65 38 45 65 38 45 65 38 45 65 38 45 65 38 45 65 38 45 0 0 255 0 0 255 0 0 255 0 0 255 0 0 255 0 0 255 65 38 45 65 38 45 65 38 45 65 38 45 65 38 45 65 38 45 65 38 45 65 38 45 65 38 45 65 38 45 65 38 45 65 38 45 65 38 45 65 38 45 0 0 255 0 0 255 0 0 255 0 0 255 65 38 45 65 38 45 65 38 45 65 38 45 0 0 255 0 0 255 198 196 141 0 0 255 0 0 255 0 0 255 194 178 79 194 178 79 0 0 255 201 185 72 201 185 72 201 185 72 201 185 72 201 185 72 201 185 72 201 185 72 201 185 72 201 185 72 201 185 72 201 185 72 201 185 72 0 0 255 167 125 62 0 0 255 189 59 42 189 59 42 189 59 42 189 59 42 189 59 42 189 59 42 0 0 255 0 0 255 0 0 255 0 0 255 189 59 42 189 59 42 0 0 255 0 0 255 0 0 255 0 0 255 0 0 255 0 0 255 201 185 72 201 185 72 201 185 72 201 185 72 201 185 72 201 185 72 201 185 72 201 185 72 201 185 72 201 185 72 201 185 72 0 0 255 0 0 255 0 0 255 0 0 255 167 125 62 167 125 62 0 0 255 114 89 58 0 0 255 91 155 74 91 155 74 91 155 74 91 155 74 91 155 74 0 0 255 0 0 255 0 0 255 91 155 74 91 155 74 0 0 255 0 0 255 0 0 255 0 0 255 0 0 255 192 54 39 192 54 39 192 54 39 192 54 39 192 54 39 192 54 39 192 54 39 0 0 255 0 0 255 0 0 255 192 54 39 192 54 39 192 54 39 192 54 39 192 54 39 192 54 39 0 0 255 0 0 255 0 0 255 158 116 60 0 0 255 0 0 255 0 0 255 0 0 255 0 0 255 0 0 255 0 0 255 0 0 255 0 0 255 0 0 255 0 0 255 192 54 39 192 54 39 192 54 39 192 54 39 192 54 39 192 54 39 192 54 39 192 54 39 192 54 39 192 54 39 0 0 255 0 0 255 0 0 255 195 181 74 195 181 74 195 181 74 195 181 74 195 181 74 195 181 74 195 181 74 195 181 74 195 181 74 195 181 74 195 181 74 195 181 74 0 0 255 158 116 60 0 0 255 81 111 57 81 111 57 0 0 255 91 155 74 91 155 74 91 155 74 91 155 74 91 155 74 0 0 255 0 0 255 91 155 74 91 155 74 91 155 74 91 155 74 0 0 255 0 0 255 0 0 255 195 200 170 195 200 170 195 200 170 195 200 170 195 200 170 195 200 170 195 200 170 195 200 170 195 200 170 195 200 170 195 200 170 195 200 170 195 200 170 195 200 170 195 200 170 195 200 170 195 200 170 195 200 170 195 200 170 195 200 170 195 200 170 195 200 170 195 200 170 195 200 170 195 200 170 195 200 170 
191 185 134 191 185 134 191 185 134 191 185 134 191 185 134 191 185 134 191 185 134 191 185 134 191 185 134 191 185 134 191 185 134 191 185 134 191 185 134 191 185 134 191 185 134 191 185 134 191 185 134 0 0 255 198 198 148 198 198 148 198 198 148 198 198 148 198 198 148 198 198 148 198 198 148 198 198 148 198 198 148 198 198 148 198 198 148 198 198 148 198 198 148 198 198 148 198 198 148 198 198 148 198 198 148 0 0 255 191 185 134 0 0 255 0 0 255 65 38 45 65 38 45 65 38 45 65 38 45 65 38 45 65 38 45 65 38 45 65 38 45 65 38 45 65 38 45 0 0 255 0 0 255 0 0 255 0 0 255 0 0 255 65 38 45 65 38 45 65 38 45 65 38 45 65 38 45 65 38 45 65 38 45 65 38 45 65 38 45 65 38 45 65 38 45 65 38 45 65 38 45 65 38 45 65 38 45 65 38 45 65 38 45 65 38 45 65 38 45 65 38 45 65 38 45 65 38 45 65 38 45 0 0 255 198 196 141 198 196 141 0 0 255 0 0 255 0 0 255 194 178 79 0 0 255 201 185 72 201 185 72 201 185 72 201 185 72 201 185 72 201 185 72 201 185 72 201 185 72 201 185 72 201 185 72 201 185 72 201 185 72 201 185 72 0 0 255 167 125 62 0 0 255 189 59 42 189 59 42 189 59 42 189 59 42 189 59 42 189 59 42 189 59 42 189 59 42 189 59 42 189 59 42 189 59 42 189 59 42 0 0 255 0 0 255 0 0 255 0 0 255 0 0 255 201 185 72 201 185 72 201 185 72 201 185 72 201 185 72 201 185 72 201 185 72 201 185 72 201 185 72 201 185 72 201 185 72 201 185 72 201 185 72 201 185 72 201 185 72 0 0 255 0 0 255 0 0 255 0 0 255 0 0 255 0 0 255 0 0 255 91 155 74 91 155 74 91 155 74 91 155 74 0 0 255 132 169 96 0 0 255 91 155 74 91 155 74 0 0 255 0 0 255 0 0 255 0 0 255 0 0 255 192 54 39 192 54 39 192 54 39 192 54 39 192 54 39 192 54 39 192 54 39 0 0 255 198 182 74 0 0 255 192 54 39 192 54 39 192 54 39 192 54 39 192 54 39 192 54 39 0 0 255 0 0 255 0 0 255 0 0 255 192 54 39 192 54 39 192 54 39 192 54 39 192 54 39 0 0 255 0 0 255 0 0 255 0 0 255 0 0 255 192 54 39 192 54 39 192 54 39 192 54 39 192 54 39 192 54 39 0 0 255 192 54 39 192 54 39 192 54 39 192 54 39 0 0 255 158 116 60 0 0 255 195 181 74 195 181 74 195 181 74 195 181 74 195 181 74 195 181 74 195 181 74 195 181 74 195 181 74 195 181 74 195 181 74 0 0 255 0 0 255 158 116 60 0 0 255 81 111 57 81 111 57 0 0 255 0 0 255 91 155 74 91 155 74 91 155 74 91 155 74 91 155 74 91 155 74 91 155 74 91 155 74 91 155 74 91 155 74 0 0 255 0 0 255 195 200 170 195 200 170 195 200 170 195 200 170 195 200 170 195 200 170 195 200 170 195 200 170 195 200 170 195 200 170 195 200 170 195 200 170 195 200 170 195 200 170 195 200 170 195 200 170 195 200 170 195 200 170 195 200 170 195 200 170 195 200 170 195 200 170 195 200 170 195 200 170 195 200 170 195 200 170 195 200 170 
191 185 134 191 185 134 191 185 134 191 185 134 191 185 134 191 185 134 191 185 134 191 185 134 191 185 134 191 185 134 191 185 134 191 185 134 191 185 134 191 185 134 191 185 134 191 185 134 191 185 134 0 0 255 0 0 255 198 198 148 198 198 148 198 198 148 198 198 148 198 198 148 198 198 148 198 198 148 198 198 148 198 198 148 198 198 148 198 198 148 198 198 148 198 198 148 198 198 148 198 198 148 198 198 148 0 0 255 0 0 255 0 0 255 0 0 255 65 38 45 65 38 45 65 38 45 65 38 45 65 38 45 65 38 45 65 38 45 65 38 45 65 38 45 65 38 45 65 38 45 65 38 45 65 38 45 65 38 45 65 38 45 65 38 45 65 38 45 65 38 45 65 38 45 65 38 45 65 38 45 65 38 45 65 38 45 65 38 45 65 38 45 65 38 45 65 38 45 65 38 45 65 38 45 65 38 45 65 38 45 65 38 45 65 38 45 65 38 45 65 38 45 65 38 45 65 38 45 0 0 255 0 0 255 198 196 141 0 0 255 0 0 255 0 0 255 0 0 255 194 178 79 0 0 255 201 185 72 201 185 72 201 185 72 201 185 72 201 185 72 201 185 72 201 185 72 201 185 72 201 185 72 201 185 72 201 185 72 201 185 72 201 185 72 0 0 255 167 125 62 0 0 255 189 59 42 189 59 42 189 59 42 189 59 42 189 59 42 189 59 42 189 59 42 189 59 42 189 59 42 189 59 42 189 59 42 189 59 42 0 0 255 0 0 255 201 185 72 0 0 255 0 0 255 0 0 255 201 185 72 201 185 72 201 185 72 201 185 72 201 185 72 201 185 72 201 185 72 201 185 72 201 185 72 201 185 72 201 185 72 201 185 72 201 185 72 0 0 255 0 0 255 0 0 255 0 0 255 0 0 255 0 0 255 0 0 255 0 0 255 0 0 255 91 155 74 91 155 74 91 155 74 0 0 255 0 0 255 0 0 255 91 155 74 91 155 74 0 0 255 0 0 255 183 183 126 0 0 255 0 0 255 192 54 39 192 54 39 192 54 39 192 54 39 192 54 39 192 54 39 192 54 39 0 0 255 0 0 255 0 0 255 192 54 39 192 54 39 192 54 39 192 54 39 192 54 39 192 54 39 192 54 39 192 54 39 192 54 39 192 54 39 192 54 39 192 54 39 192 54 39 192 54 39 192 54 39 192 54 39 192 54 39 192 54 39 192 54 39 192 54 39 192 54 39 192 54 39 192 54 39 192 54 39 192 54 39 0 0 255 0 0 255 0 0 255 192 54 39 192 54 39 192 54 39 0 0 255 158 116 60 0 0 255 195 181 74 195 181 74 195 181 74 195 181 74 195 181 74 195 181 74 195 181 74 195 181 74 195 181 74 195 181 74 195 181 74 195 181 74 0 0 255 0 0 255 0 0 255 0 0 255 81 111 57 81 111 57 0 0 255 91 155 74 91 155 74 91 155 74 91 155 74 91 155 74 91 155 74 91 155 74 91 155 74 91 155 74 0 0 255 0 0 255 0 0 255 195 200 170 195 200 170 195 200 170 195 200 170 195 200 170 195 200 170 195 200 170 195 200 170 195 200 170 195 200 170 195 200 170 195 200 170 195 200 170 195 200 170 195 200 170 195 200 170 195 200 170 195 200 170 195 200 170 195 200 170 195 200 170 195 200 170 195 200 170 195 200 170 195 200 170 195 200 170 195 200 170 
191 185 134 191 185 134 191 185 134 191 185 134 191 185 134 191 185 134 191 185 134 191 185 134 191 185 134 191 185 134 191 185 134 191 185 134 191 185 134 191 185 134 191 185 134 191 185 134 191 185 134 191 185 134 0 0 255 0 0 255 198 198 148 198 198 148 198 198 148 198 198 148 198 198 148 198 198 148 198 198 148 198 198 148 198 198 148 198 198 148 198 198 148 198 198 148 198 198 148 198 198 148 0 0 255 0 0 255 0 0 255 123 87 55 0 0 255 65 38 45 65 38 45 65 38 45 65 38 45 65 38 45 65 38 45 65 38 45 65 38 45 65 38 45 65 38 45 65 38 45 65 38 45 65 38 45 65 38 45 65 38 45 65 38 45 65 38 45 65 38 45 65 38 45 65 38 45 65 38 45 65 38 45 65 38 45 65 38 45 65 38 45 65 38 45 65 38 45 65 38 45 65 38 45 65 38 45 65 38 45 65 38 45 65 38 45 65 38 45 65 38 45 65 38 45 0 0 255 0 0 255 0 0 255 0 0 255 0 0 255 0 0 255 0 0 255 0 0 255 0 0 255 0 0 255 201 185 72 201 185 72 201 185 72 201 185 72 201 185 72 201 185 72 201 185 72 201 185 72 201 185 72 201 185 72 201 185 72 201 185 72 201 185 72 0 0 255 167 125 62 0 0 255 0 0 255 189 59 42 189 59 42 189 59 42 189 59 42 189 59 42 189 59 42 189 59 42 189 59 42 189 59 42 189 59 42 189 59 42 0 0 255 0 0 255 0 0 255 167 125 62 167 125 62 0 0 255 201 185 72 201 185 72 201 185 72 201 185 72 201 185 72 201 185 72 201 185 72 201 185 72 201 185 72 201 185 72 201 185 72 201 185 72 0 0 255 198 196 141 0 0 255 0 0 255 0 0 255 167 125 62 0 0 255 0 0 255 0 0 255 0 0 255 0 0 255 91 155 74 91 155 74 91 155 74 91 155 74 91 155 74 91 155 74 91 155 74 91 155 74 0 0 255 0 0 255 0 0 255 0 0 255 192 54 39 192 54 39 192 54 39 192 54 39 192 54 39 192 54 39 192 54 39 192 54 39 192 54 39 192 54 39 192 54 39 192 54 39 192 54 39 192 54 39 192 54 39 192 54 39 192 54 39 192 54 39 192 54 39 192 54 39 192 54 39 192 54 39 192 54 39 192 54 39 192 54 39 192 54 39 192 54 39 192 54 39 192 54 39 192 54 39 192 54 39 192 54 39 192 54 39 192 54 39 0 0 255 0 0 255 0 0 255 0 0 255 192 54 39 192 54 39 192 54 39 0 0 255 158 116 60 0 0 255 195 181 74 195 181 74 195 181 74 195 181 74 195 181 74 195 181 74 195 181 74 195 181 74 195 181 74 195 181 74 195 181 74 195 181 74 195 181 74 195 181 74 0 0 255 0 0 255 0 0 255 81 111 57 0 0 255 0 0 255 91 155 74 91 155 74 91 155 74 91 155 74 91 155 74 91 155 74 91 155 74 0 0 255 132 169 96 0 0 255 195 200 170 195 200 170 195 200 170 195 200 170 195 200 170 195 200 170 195 200 170 195 200 170 195 200 170 195 200 170 195 200 170 195 200 170 195 200 170 195 200 170 195 200 170 195 200 170 195 200 170 195 200 170 195 200 170 195 200 170 195 200 170 195 200 170 195 200 170 195 200 170 195 200 170 195 200 170 195 200 170 195 200 170 
191 185 134 191 185 134 191 185 134 191 185 134 191 185 134 191 185 134 191 185 134 191 185 134 191 185 134 191 185 134 191 185 134 191 185 134 191 185 134 191 185 134 191 185 134 191 185 134 191 185 134 191 185 134 191 185 134 0 0 255 0 0 255 198 198 148 198 198 148 198 198 148 198 198 148 198 198 148 198 198 148 198 198 148 198 198 148 198 198 148 198 198 148 198 198 148 198 198 148 198 198 148 0 0 255 0 0 255 123 87 55 123 87 55 0 0 255 65 38 45 65 38 45 65 38 45 65 38 45 65 38 45 65 38 45 65 38 45 65 38 45 65 38 45 65 38 45 65 38 45 65 38 45 65 38 45 65 38 45 65 38 45 65 38 45 65 38 45 65 38 45 65 38 45 0 0 255 65 38 45 65 38 45 65 38 45 65 38 45 65 38 45 65 38 45 65 38 45 65 38 45 65 38 45 65 38 45 65 38 45 65 38 45 65 38 45 65 38 45 65 38 45 0 0 255 0 0 255 0 0 255 0 0 255 0 0 255 0 0 255 0 0 255 0 0 255 167 125 62 0 0 255 0 0 255 0 0 255 201 185 72 201 185 72 201 185 72 201 185 72 201 185 72 201 185 72 201 185 72 201 185 72 201 185 72 201 185 72 201 185 72 201 185 72 0 0 255 167 125 62 167 125 62 0 0 255 189 59 42 189 59 42 189 59 42 189 59 42 189 59 42 189 59 42 189 59 42 189 59 42 189 59 42 189 59 42 0 0 255 0 0 255 0 0 255 167 125 62 167 125 62 167 125 62 0 0 255 201 185 72 201 185 72 201 185 72 201 185 72 201 185 72 201 185 72 201 185 72 201 185 72 201 185 72 201 185 72 201 185 72 201 185 72 0 0 255 198 196 141 0 0 255 201 185 72 0 0 255 167 125 62 0 0 255 0 0 255 167 125 62 167 125 62 0 0 255 0 0 255 0 0 255 0 0 255 91 155 74 91 155 74 91 155 74 91 155 74 0 0 255 0 0 255 0 0 255 0 0 255 0 0 255 192 54 39 192 54 39 192 54 39 192 54 39 192 54 39 192 54 39 192 54 39 192 54 39 192 54 39 192 54 39 192 54 39 192 54 39 192 54 39 192 54 39 192 54 39 192 54 39 192 54 39 192 54 39 192 54 39 192 54 39 192 54 39 192 54 39 192 54 39 0 0 255 192 54 39 192 54 39 192 54 39 192 54 39 192 54 39 192 54 39 192 54 39 192 54 39 192 54 39 192 54 39 192 54 39 192 54 39 192 54 39 192 54 39 192 54 39 192 54 39 192 54 39 0 0 255 158 116 60 0 0 255 0 0 255 0 0 255 0 0 255 0 0 255 195 181 74 195 181 74 195 181 74 195 181 74 195 181 74 195 181 74 195 181 74 195 181 74 195 181 74 195 181 74 195 181 74 0 0 255 0 0 255 0 0 255 81 111 57 0 0 255 91 155 74 91 155 74 91 155 74 91 155 74 91 155 74 91 155 74 0 0 255 132 169 96 0 0 255 0 0 255 195 200 170 195 200 170 195 200 170 195 200 170 195 200 170 195 200 170 195 200 170 195 200 170 195 200 170 195 200 170 195 200 170 195 200 170 195 200 170 195 200 170 195 200 170 195 200 170 195 200 170 195 200 170 195 200 170 195 200 170 195 200 170 195 200 170 195 200 170 195 200 170 195 200 170 195 200 170 195 200 170 195 200 170 
191 185 134 191 185 134 191 185 134 191 185 134 191 185 134 191 185 134 191 185 134 191 185 134 191 185 134 191 185 134 191 185 134 191 185 134 191 185 134 191 185 134 191 185 134 191 185 134 191 185 134 191 185 134 191 185 134 191 185 134 0 0 255 198 198 148 198 198 148 198 198 148 198 198 148 198 198 148 198 198 148 198 198 148 198 198 148 198 198 148 198 198 148 198 198 148 198 198 148 0 0 255 0 0 255 0 0 255 123 87 55 123 87 55 0 0 255 65 38 45 65 38 45 65 38 45 65 38 45 65 38 45 65 38 45 65 38 45 65 38 45 65 38 45 65 38 45 65 38 45 65 38 45 65 38 45 65 38 45 65 38 45 65 38 45 65 38 45 0 0 255 0 0 255 0 0 255 0 0 255 65 38 45 65 38 45 65 38 45 65 38 45 65 38 45 65 38 45 65 38 45 65 38 45 65 38 45 65 38 45 65 38 45 65 38 45 0 0 255 0 0 255 0 0 255 0 0 255 198 196 141 198 196 141 0 0 255 0 0 255 123 87 55 0 0 255 0 0 255 167 125 62 0 0 255 0 0 255 0 0 255 201 185 72 201 185 72 201 185 72 201 185 72 201 185 72 201 185 72 201 185 72 201 185 72 201 185 72 201 185 72 201 185 72 0 0 255 0 0 255 167 125 62 0 0 255 0 0 255 189 59 42 189 59 42 0 0 255 0 0 255 0 0 255 0 0 255 0 0 255 0 0 255 0 0 255 0 0 255 167 125 62 167 125 62 167 125 62 167 125 62 167 125 62 0 0 255 201 185 72 201 185 72 201 185 72 201 185 72 201 185 72 201 185 72 201 185 72 201 185 72 201 185 72 201 185 72 201 185 72 201 185 72 0 0 255 198 196 141 0 0 255 0 0 255 0 0 255 0 0 255 192 54 39 0 0 255 0 0 255 0 0 255 0 0 255 0 0 255 0 0 255 0 0 255 91 155 74 91 155 74 91 155 74 91 155 74 0 0 255 0 0 255 167 125 62 0 0 255 0 0 255 192 54 39 192 54 39 192 54 39 192 54 39 192 54 39 192 54 39 192 54 39 192 54 39 192 54 39 192 54 39 192 54 39 192 54 39 192 54 39 192 54 39 192 54 39 192 54 39 192 54 39 192 54 39 192 54 39 192 54 39 192 54 39 192 54 39 0 0 255 0 0 255 0 0 255 192 54 39 192 54 39 192 54 39 192 54 39 192 54 39 192 54 39 192 54 39 192 54 39 192 54 39 192 54 39 192 54 39 192 54 39 192 54 39 192 54 39 192 54 39 0 0 255 158 116 60 158 116 60 158 116 60 158 116 60 158 116 60 158 116 60 0 0 255 195 181 74 195 181 74 195 181 74 195 181 74 195 181 74 195 181 74 195 181 74 195 181 74 195 181 74 195 181 74 195 181 74 195 181 74 0 0 255 0 0 255 0 0 255 0 0 255 91 155 74 91 155 74 91 155 74 91 155 74 91 155 74 0 0 255 132 169 96 0 0 255 0 0 255 195 200 170 195 200 170 195 200 170 195 200 170 195 200 170 195 200 170 195 200 170 195 200 170 195 200 170 195 200 170 195 200 170 195 200 170 195 200 170 195 200 170 195 200 170 195 200 170 195 200 170 195 200 170 195 200 170 195 200 170 195 200 170 195 200 170 195 200 170 195 200 170 195 200 170 195 200 170 195 200 170 195 200 170 195 200 170 
191 185 134 191 185 134 191 185 134 191 185 134 191 185 134 191 185 134 191 185 134 191 185 134 191 185 134 191 185 134 191 185 134 191 185 134 191 185 134 191 185 134 191 185 134 191 185 134 191 185 134 191 185 134 191 185 134 191 185 134 0 0 255 0 0 255 198 198 148 198 198 148 198 198 148 198 198 148 198 198 148 198 198 148 198 198 148 198 198 148 198 198 148 198 198 148 198 198 148 0 0 255 0 0 255 0 0 255 123 87 55 123 87 55 0 0 255 65 38 45 65 38 45 65 38 45 65 38 45 65 38 45 65 38 45 65 38 45 65 38 45 65 38 45 65 38 45 65 38 45 65 38 45 65 38 45 65 38 45 65 38 45 0 0 255 0 0 255 0 0 255 0 0 255 0 0 255 0 0 255 65 38 45 65 38 45 65 38 45 65 38 45 65 38 45 65 38 45 65 38 45 65 38 45 65 38 45 65 38 45 65 38 45 0 0 255 123 87 55 0 0 255 0 0 255 198 196 141 198 196 141 198 196 141 0 0 255 0 0 255 123 87 55 123 87 55 0 0 255 167 125 62 167 125 62 0 0 255 0 0 255 0 0 255 201 185 72 201 185 72 201 185 72 201 185 72 201 185 72 201 185 72 201 185 72 201 185 72 201 185 72 201 185 72 201 185 72 0 0 255 0 0 255 167 125 62 0 0 255 0 0 255 0 0 255 71 41 46 71 41 46 71 41 46 71 41 46 71 41 46 71 41 46 0 0 255 0 0 255 0 0 255 0 0 255 0 0 255 167 125 62 0 0 255 0 0 255 0 0 255 201 185 72 201 185 72 201 185 72 201 185 72 201 185 72 201 185 72 201 185 72 201 185 72 201 185 72 201 185 72 201 185 72 0 0 255 0 0 255 0 0 255 0 0 255 192 54 39 192 54 39 192 54 39 192 54 39 192 54 39 192 54 39 192 54 39 0 0 255 0 0 255 0 0 255 0 0 255 0 0 255 0 0 255 0 0 255 0 0 255 0 0 255 167 125 62 0 0 255 0 0 255 192 54 39 192 54 39 192 54 39 192 54 39 192 54 39 192 54 39 192 54 39 192 54 39 192 54 39 192 54 39 192 54 39 192 54 39 192 54 39 192 54 39 192 54 39 192 54 39 192 54 39 192 54 39 192 54 39 192 54 39 192 54 39 0 0 255 0 0 255 0 0 255 0 0 255 192 54 39 192 54 39 192 54 39 192 54 39 192 54 39 192 54 39 192 54 39 192 54 39 192 54 39 192 54 39 192 54 39 192 54 39 192 54 39 192 54 39 0 0 255 0 0 255 0 0 255 0 0 255 158 116 60 158 116 60 158 116 60 158 116 60 0 0 255 195 181 74 195 181 74 195 181 74 195 181 74 195 181 74 195 181 74 195 181 74 195 181 74 195 181 74 195 181 74 195 181 74 195 181 74 195 181 74 0 0 255 0 0 255 0 0 255 91 155 74 0 0 255 0 0 255 0 0 255 0 0 255 132 169 96 0 0 255 0 0 255 195 200 170 195 200 170 195 200 170 195 200 170 195 200 170 195 200 170 195 200 170 195 200 170 195 200 170 195 200 170 195 200 170 195 200 170 195 200 170 195 200 170 195 200 170 195 200 170 195 200 170 195 200 170 195 200 170 195 200 170 195 200 170 195 200 170 195 200 170 195 200 170 195 200 170 195 200 170 195 200 170 195 200 170 195 200 170 195 200 170 
191 185 134 191 185 134 191 185 134 191 185 134 191 185 134 191 185 134 191 185 134 191 185 134 191 185 134 191 185 134 191 185 134 191 185 134 191 185 134 191 185 134 191 185 134 191 185 134 191 185 134 191 185 134 191 185 134 191 185 134 191 185 134 0 0 255 198 198 148 198 198 148 198 198 148 198 198 148 198 198 148 198 198 148 198 198 148 198 198 148 198 198 148 198 198 148 198 198 148 198 198 148 0 0 255 0 0 255 0 0 255 123 87 55 0 0 255 0 0 255 65 38 45 65 38 45 65 38 45 65 38 45 65 38 45 65 38 45 65 38 45 65 38 45 65 38 45 65 38 45 65 38 45 65 38 45 65 38 45 0 0 255 0 0 255 0 0 255 0 0 255 0 0 255 0 0 255 0 0 255 65 38 45 65 38 45 65 38 45 65 38 45 65 38 45 65 38 45 65 38 45 65 38 45 65 38 45 0 0 255 0 0 255 0 0 255 0 0 255 0 0 255 198 196 141 198 196 141 198 196 141 198 196 141 0 0 255 0 0 255 0 0 255 123 87 55 0 0 255 0 0 255 0 0 255 0 0 255 0 0 255 0 0 255 201 185 72 201 185 72 201 185 72 201 185 72 201 185 72 201 185 72 201 185 72 201 185 72 201 185 72 201 185 72 201 185 72 201 185 72 0 0 255 0 0 255 167 125 62 0 0 255 0 0 255 71 41 46 71 41 46 71 41 46 71 41 46 71 41 46 71 41 46 71 41 46 71 41 46 71 41 46 0 0 255 0 0 255 0 0 255 0 0 255 167 125 62 0 0 255 0 0 255 201 185 72 201 185 72 201 185 72 201 185 72 201 185 72 201 185 72 201 185 72 201 185 72 201 185 72 201 185 72 201 185 72 0 0 255 0 0 255 192 54 39 192 54 39 192 54 39 192 54 39 192 54 39 192 54 39 192 54 39 192 54 39 192 54 39 0 0 255 0 0 255 0 0 255 0 0 255 0 0 255 183 183 126 183 183 126 0 0 255 0 0 255 0 0 255 0 0 255 192 54 39 192 54 39 192 54 39 192 54 39 192 54 39 192 54 39 192 54 39 192 54 39 192 54 39 192 54 39 192 54 39 192 54 39 192 54 39 192 54 39 192 54 39 192 54 39 192 54 39 192 54 39 192 54 39 192 54 39 192 54 39 192 54 39 192 54 39 192 54 39 192 54 39 192 54 39 192 54 39 192 54 39 192 54 39 192 54 39 192 54 39 192 54 39 192 54 39 192 54 39 192 54 39 192 54 39 192 54 39 0 0 255 0 0 255 0 0 255 0 0 255 0 0 255 0 0 255 0 0 255 0 0 255 158 116 60 158 116 60 0 0 255 195 181 74 195 181 74 195 181 74 195 181 74 195 181 74 195 181 74 195 181 74 195 181 74 195 181 74 195 181 74 195 181 74 195 181 74 195 181 74 195 181 74 0 0 255 0 0 255 0 0 255 0 0 255 0 0 255 132 169 96 132 169 96 0 0 255 0 0 255 195 200 170 195 200 170 195 200 170 195 200 170 195 200 170 195 200 170 195 200 170 195 200 170 195 200 170 195 200 170 195 200 170 195 200 170 195 200 170 195 200 170 195 200 170 195 200 170 195 200 170 195 200 170 195 200 170 195 200 170 195 200 170 195 200 170 195 200 170 195 200 170 195 200 170 195 200 170 195 200 170 195 200 170 195 200 170 195 200 170 195 200 170 
191 185 134 191 185 134 191 185 134 191 185 134 191 185 134 191 185 134 191 185 134 191 185 134 191 185 134 191 185 134 191 185 134 191 185 134 191 185 134 191 185 134 191 185 134 191 185 134 191 185 134 191 185 134 191 185 134 191 185 134 191 185 134 0 0 255 0 0 255 198 198 148 198 198 148 198 198 148 198 198 148 198 198 148 198 198 148 198 198 148 198 198 148 198 198 148 198 198 148 198 198 148 0 0 255 0 0 255 0 0 255 0 0 255 123 87 55 0 0 255 0 0 255 65 38 45 65 38 45 65 38 45 65 38 45 65 38 45 65 38 45 65 38 45 65 38 45 65 38 45 65 38 45 65 38 45 0 0 255 0 0 255 65 38 45 65 38 45 65 38 45 65 38 45 65 38 45 65 38 45 65 38 45 65 38 45 65 38 45 65 38 45 65 38 45 65 38 45 65 38 45 65 38 45 0 0 255 123 87 55 0 0 255 0 0 255 0 0 255 198 196 141 198 196 141 198 196 141 198 196 141 198 196 141 0 0 255 0 0 255 0 0 255 0 0 255 0 0 255 123 87 55 123 87 55 123 87 55 0 0 255 0 0 255 201 185 72 201 185 72 201 185 72 201 185 72 201 185 72 201 185 72 201 185 72 201 185 72 201 185 72 201 185 72 201 185 72 201 185 72 201 185 72 0 0 255 0 0 255 0 0 255 71 41 46 71 41 46 71 41 46 71 41 46 71 41 46 71 41 46 71 41 46 71 41 46 71 41 46 71 41 46 71 41 46 0 0 255 0 0 255 0 0 255 0 0 255 167 125 62 0 0 255 201 185 72 201 185 72 201 185 72 201 185 72 201 185 72 201 185 72 201 185 72 201 185 72 201 185 72 201 185 72 201 185 72 0 0 255 192 54 39 192 54 39 192 54 39 192 54 39 192 54 39 192 54 39 192 54 39 192 54 39 192 54 39 192 54 39 192 54 39 0 0 255 0 0 255 183 183 126 183 183 126 0 0 255 0 0 255 183 183 126 0 0 255 0 0 255 0 0 255 192 54 39 192 54 39 192 54 39 192 54 39 192 54 39 192 54 39 192 54 39 192 54 39 192 54 39 192 54 39 192 54 39 192 54 39 192 54 39 192 54 39 192 54 39 192 54 39 192 54 39 192 54 39 192 54 39 192 54 39 192 54 39 192 54 39 192 54 39 192 54 39 192 54 39 192 54 39 192 54 39 192 54 39 192 54 39 192 54 39 192 54 39 192 54 39 192 54 39 192 54 39 0 0 255 0 0 255 0 0 255 0 0 255 0 0 255 0 0 255 198 205 172 0 0 255 0 0 255 0 0 255 0 0 255 158 116 60 158 116 60 0 0 255 195 181 74 195 181 74 195 181 74 195 181 74 195 181 74 195 181 74 195 181 74 195 181 74 195 181 74 195 181 74 195 181 74 195 181 74 195 181 74 195 181 74 0 0 255 0 0 255 0 0 255 0 0 255 0 0 255 0 0 255 0 0 255 0 0 255 195 200 170 195 200 170 195 200 170 195 200 170 195 200 170 195 200 170 195 200 170 195 200 170 195 200 170 195 200 170 195 200 170 195 200 170 195 200 170 195 200 170 195 200 170 195 200 170 195 200 170 195 200 170 195 200 170 195 200 170 195 200 170 195 200 170 195 200 170 195 200 170 195 200 170 195 200 170 195 200 170 195 200 170 195 200 170 195 200 170 195 200 170 195 200 170 
191 185 134 191 185 134 191 185 134 191 185 134 191 185 134 191 185 134 191 185 134 191 185 134 191 185 134 191 185 134 191 185 134 191 185 134 191 185 134 191 185 134 191 185 134 191 185 134 191 185 134 191 185 134 191 185 134 191 185 134 191 185 134 191 185 134 0 0 255 198 198 148 0 0 255 198 198 148 198 198 148 198 198 148 198 198 148 198 198 148 198 198 148 198 198 148 198 198 148 198 198 148 198 198 148 0 0 255 0 0 255 0 0 255 0 0 255 0 0 255 0 0 255 0 0 255 0 0 255 65 38 45 65 38 45 65 38 45 65 38 45 65 38 45 65 38 45 65 38 45 65 38 45 65 38 45 65 38 45 65 38 45 65 38 45 65 38 45 65 38 45 65 38 45 65 38 45 65 38 45 65 38 45 65 38 45 65 38 45 65 38 45 65 38 45 0 0 255 0 0 255 0 0 255 0 0 255 0 0 255 0 0 255 198 196 141 198 196 141 198 196 141 198 196 141 198 196 141 198 196 141 198 196 141 198 196 141 0 0 255 0 0 255 0 0 255 0 0 255 0 0 255 0 0 255 123 87 55 0 0 255 0 0 255 201 185 72 201 185 72 201 185 72 201 185 72 201 185 72 201 185 72 201 185 72 201 185 72 201 185 72 201 185 72 201 185 72 201 185 72 201 185 72 201 185 72 0 0 255 0 0 255 71 41 46 71 41 46 71 41 46 71 41 46 71 41 46 71 41 46 71 41 46 71 41 46 71 41 46 71 41 46 71 41 46 71 41 46 0 0 255 114 89 58 0 0 255 0 0 255 0 0 255 0 0 255 201 185 72 201 185 72 201 185 72 201 185 72 201 185 72 201 185 72 201 185 72 201 185 72 201 185 72 0 0 255 0 0 255 192 54 39 192 54 39 192 54 39 192 54 39 192 54 39 192 54 39 0 0 255 0 0 255 0 0 255 0 0 255 192 54 39 0 0 255 0 0 255 183 183 126 0 0 255 197 206 175 0 0 255 183 183 126 0 0 255 0 0 255 0 0 255 0 0 255 192 54 39 192 54 39 192 54 39 192 54 39 192 54 39 192 54 39 192 54 39 192 54 39 192 54 39 192 54 39 192 54 39 192 54 39 192 54 39 192 54 39 192 54 39 192 54 39 192 54 39 192 54 39 192 54 39 192 54 39 192 54 39 192 54 39 192 54 39 192 54 39 192 54 39 192 54 39 192 54 39 192 54 39 192 54 39 192 54 39 192 54 39 192 54 39 0 0 255 158 116 60 158 116 60 0 0 255 0 0 255 0 0 255 198 205 172 198 205 172 198 205 172 0 0 255 0 0 255 0 0 255 158 116 60 158 116 60 0 0 255 0 0 255 195 181 74 195 181 74 195 181 74 195 181 74 195 181 74 195 181 74 195 181 74 195 181 74 195 181 74 195 181 74 195 181 74 195 181 74 195 181 74 195 181 74 0 0 255 0 0 255 0 0 255 0 0 255 0 0 255 195 200 170 195 200 170 195 200 170 195 200 170 195 200 170 195 200 170 195 200 170 195 200 170 195 200 170 195 200 170 195 200 170 195 200 170 195 200 170 195 200 170 195 200 170 195 200 170 195 200 170 195 200 170 195 200 170 195 200 170 195 200 170 195 200 170 195 200 170 195 200 170 195 200 170 195 200 170 195 200 170 195 200 170 195 200 170 195 200 170 195 200 170 195 200 170 195 200 170 195 200 170 
191 185 134 191 185 134 191 185 134 191 185 134 191 185 134 191 185 134 191 185 134 191 185 134 191 185 134 191 185 134 191 185 134 191 185 134 191 185 134 191 185 134 191 185 134 191 185 134 191 185 134 191 185 134 191 185 134 191 185 134 191 185 134 191 185 134 0 0 255 0 0 255 0 0 255 0 0 255 0 0 255 0 0 255 198 198 148 198 198 148 198 198 148 198 198 148 198 198 148 198 198 148 198 198 148 198 198 148 0 0 255 0 0 255 0 0 255 0 0 255 0 0 255 0 0 255 0 0 255 0 0 255 0 0 255 0 0 255 0 0 255 0 0 255 0 0 255 0 0 255 65 38 45 65 38 45 65 38 45 65 38 45 65 38 45 65 38 45 65 38 45 65 38 45 65 38 45 65 38 45 65 38 45 65 38 45 65 38 45 65 38 45 0 0 255 0 0 255 0 0 255 0 0 255 0 0 255 198 196 141 198 196 141 198 196 141 198 196 141 198 196 141 198 196 141 198 196 141 0 0 255 0 0 255 0 0 255 0 0 255 0 0 255 0 0 255 167 125 62 167 125 62 0 0 255 0 0 255 0 0 255 0 0 255 201 185 72 201 185 72 201 185 72 201 185 72 201 185 72 201 185 72 201 185 72 201 185 72 201 185 72 201 185 72 201 185 72 201 185 72 201 185 72 201 185 72 0 0 255 0 0 255 71 41 46 71 41 46 71 41 46 71 41 46 71 41 46 71 41 46 71 41 46 71 41 46 71 41 46 71 41 46 71 41 46 71 41 46 0 0 255 0 0 255 114 89 58 0 0 255 167 125 62 0 0 255 201 185 72 201 185 72 201 185 72 201 185 72 201 185 72 201 185 72 201 185 72 0 0 255 0 0 255 0 0 255 192 54 39 192 54 39 192 54 39 192 54 39 192 54 39 192 54 39 0 0 255 0 0 255 0 0 255 0 0 255 0 0 255 192 54 39 192 54 39 0 0 255 0 0 255 197 206 175 197 206 175 0 0 255 0 0 255 183 183 126 0 0 255 0 0 255 0 0 255 0 0 255 192 54 39 192 54 39 192 54 39 192 54 39 192 54 39 192 54 39 192 54 39 192 54 39 192 54 39 192 54 39 192 54 39 192 54 39 192 54 39 192 54 39 192 54 39 192 54 39 192 54 39 192 54 39 192 54 39 192 54 39 192 54 39 192 54 39 192 54 39 192 54 39 192 54 39 192 54 39 192 54 39 192 54 39 192 54 39 192 54 39 0 0 255 0 0 255 0 0 255 0 0 255 0 0 255 0 0 255 198 205 172 198 205 172 198 205 172 198 205 172 0 0 255 0 0 255 158 116 60 158 116 60 158 116 60 158 116 60 0 0 255 195 181 74 195 181 74 195 181 74 195 181 74 195 181 74 195 181 74 195 181 74 195 181 74 195 181 74 195 181 74 195 181 74 195 181 74 195 181 74 0 0 255 195 200 170 0 0 255 195 200 170 195 200 170 195 200 170 195 200 170 195 200 170 195 200 170 195 200 170 195 200 170 195 200 170 195 200 170 195 200 170 195 200 170 195 200 170 195 200 170 195 200 170 195 200 170 195 200 170 195 200 170 195 200 170 195 200 170 195 200 170 195 200 170 195 200 170 195 200 170 195 200 170 195 200 170 195 200 170 195 200 170 195 200 170 195 200 170 195 200 170 195 200 170 195 200 170 195 200 170 195 200 170 195 200 170 195 200 170 
191 185 134 191 185 134 191 185 134 191 185 134 191 185 134 191 185 134 191 185 134 191 185 134 191 185 134 191 185 134 191 185 134 191 185 134 191 185 134 191 185 134 191 185 134 191 185 134 191 185 134 191 185 134 191 185 134 191 185 134 191 185 134 191 185 134 191 185 134 191 185 134 191 185 134 191 185 134 191 185 134 0 0 255 0 0 255 0 0 255 0 0 255 0 0 255 0 0 255 0 0 255 198 198 148 198 198 148 198 198 148 198 198 148 0 0 255 0 0 255 0 0 255 0 0 255 0 0 255 0 0 255 0 0 255 0 0 255 0 0 255 0 0 255 0 0 255 0 0 255 65 38 45 65 38 45 65 38 45 65 38 45 65 38 45 65 38 45 65 38 45 65 38 45 65 38 45 65 38 45 65 38 45 65 38 45 65 38 45 65 38 45 0 0 255 0 0 255 198 196 141 198 196 141 198 196 141 198 196 141 198 196 141 198 196 141 198 196 141 198 196 141 0 0 255 0 0 255 0 0 255 189 59 42 189 59 42 189 59 42 189 59 42 0 0 255 0 0 255 0 0 255 167 125 62 167 125 62 167 125 62 0 0 255 201 185 72 201 185 72 201 185 72 201 185 72 201 185 72 201 185 72 201 185 72 201 185 72 201 185 72 201 185 72 201 185 72 201 185 72 201 185 72 0 0 255 0 0 255 71 41 46 71 41 46 71 41 46 71 41 46 71 41 46 71 41 46 71 41 46 71 41 46 71 41 46 0 0 255 71 41 46 71 41 46 71 41 46 71 41 46 0 0 255 114 89 58 0 0 255 167 125 62 0 0 255 201 185 72 201 185 72 201 185 72 201 185 72 201 185 72 201 185 72 0 0 255 0 0 255 167 125 62 0 0 255 192 54 39 192 54 39 192 54 39 192 54 39 192 54 39 192 54 39 0 0 255 0 0 255 183 183 126 0 0 255 0 0 255 192 54 39 192 54 39 0 0 255 0 0 255 197 206 175 197 206 175 197 206 175 0 0 255 0 0 255 183 183 126 0 0 255 0 0 255 0 0 255 192 54 39 192 54 39 192 54 39 192 54 39 192 54 39 192 54 39 192 54 39 192 54 39 192 54 39 192 54 39 192 54 39 192 54 39 192 54 39 192 54 39 192 54 39 192 54 39 192 54 39 192 54 39 192 54 39 192 54 39 192 54 39 192 54 39 192 54 39 192 54 39 192 54 39 192 54 39 192 54 39 192 54 39 192 54 39 0 0 255 0 0 255 0 0 255 0 0 255 0 0 255 198 205 172 198 205 172 198 205 172 198 205 172 198 205 172 198 205 172 0 0 255 0 0 255 158 116 60 158 116 60 158 116 60 158 116 60 0 0 255 195 181 74 195 181 74 195 181 74 195 181 74 195 181 74 195 181 74 195 181 74 195 181 74 195 181 74 195 181 74 195 181 74 195 181 74 195 181 74 0 0 255 0 0 255 0 0 255 0 0 255 195 200 170 195 200 170 195 200 170 195 200 170 195 200 170 195 200 170 195 200 170 195 200 170 195 200 170 195 200 170 195 200 170 195 200 170 195 200 170 195 200 170 195 200 170 195 200 170 195 200 170 195 200 170 195 200 170 195 200 170 195 200 170 195 200 170 195 200 170 195 200 170 195 200 170 195 200 170 195 200 170 195 200 170 195 200 170 195 200 170 195 200 170 195 200 170 195 200 170 195 200 170 195 200 170 195 200 170 
191 185 134 191 185 134 191 185 134 191 185 134 191 185 134 191 185 134 191 185 134 191 185 134 191 185 134 191 185 134 191 185 134 191 185 134 191 185 134 191 185 134 191 185 134 191 185 134 191 185 134 191 185 134 191 185 134 191 185 134 191 185 134 191 185 134 191 185 134 191 185 134 191 185 134 0 0 255 0 0 255 0 0 255 0 0 255 0 0 255 0 0 255 0 0 255 0 0 255 0 0 255 0 0 255 198 198 148 198 198 148 198 198 148 198 198 148 198 198 148 198 198 148 198 198 148 198 198 148 198 198 148 198 198 148 198 198 148 198 198 148 0 0 255 0 0 255 65 38 45 65 38 45 65 38 45 65 38 45 65 38 45 65 38 45 65 38 45 65 38 45 0 0 255 0 0 255 65 38 45 65 38 45 65 38 45 65 38 45 65 38 45 0 0 255 0 0 255 198 196 141 198 196 141 198 196 141 198 196 141 198 196 141 198 196 141 198 196 141 0 0 255 0 0 255 189 59 42 189 59 42 189 59 42 189 59 42 189 59 42 189 59 42 189 59 42 189 59 42 0 0 255 0 0 255 0 0 255 167 125 62 0 0 255 201 185 72 201 185 72 201 185 72 201 185 72 201 185 72 201 185 72 201 185 72 201 185 72 201 185 72 201 185 72 201 185 72 201 185 72 201 185 72 0 0 255 0 0 255 71 41 46 71 41 46 71 41 46 71 41 46 71 41 46 71 41 46 71 41 46 71 41 46 0 0 255 0 0 255 0 0 255 71 41 46 71 41 46 71 41 46 0 0 255 0 0 255 167 125 62 167 125 62 0 0 255 201 185 72 201 185 72 201 185 72 201 185 72 201 185 72 201 185 72 201 185 72 0 0 255 0 0 255 0 0 255 192 54 39 192 54 39 192 54 39 192 54 39 192 54 39 0 0 255 0 0 255 0 0 255 0 0 255 0 0 255 192 54 39 192 54 39 192 54 39 0 0 255 0 0 255 197 206 175 197 206 175 197 206 175 197 206 175 0 0 255 0 0 255 183 183 126 0 0 255 0 0 255 192 54 39 192 54 39 192 54 39 192 54 39 192 54 39 192 54 39 192 54 39 192 54 39 192 54 39 192 54 39 192 54 39 192 54 39 192 54 39 192 54 39 192 54 39 192 54 39 192 54 39 192 54 39 192 54 39 192 54 39 192 54 39 192 54 39 192 54 39 192 54 39 192 54 39 192 54 39 192 54 39 192 54 39 192 54 39 0 0 255 0 0 255 0 0 255 198 205 172 198 205 172 198 205 172 198 205 172 198 205 172 198 205 172 198 205 172 198 205 172 0 0 255 0 0 255 158 116 60 158 116 60 158 116 60 158 116 60 0 0 255 195 181 74 195 181 74 195 181 74 195 181 74 195 181 74 195 181 74 195 181 74 195 181 74 195 181 74 195 181 74 195 181 74 195 181 74 0 0 255 0 0 255 198 205 172 198 205 172 0 0 255 0 0 255 0 0 255 195 200 170 195 200 170 195 200 170 195 200 170 195 200 170 195 200 170 195 200 170 195 200 170 195 200 170 195 200 170 195 200 170 195 200 170 195 200 170 195 200 170 195 200 170 195 200 170 195 200 170 195 200 170 195 200 170 195 200 170 195 200 170 195 200 170 195 200 170 195 200 170 195 200 170 195 200 170 195 200 170 195 200 170 195 200 170 195 200 170 195 200 170 195 200 170 195 200 170 195 200 170 
191 185 134 191 185 134 191 185 134 191 185 134 191 185 134 191 185 134 191 185 134 191 185 134 191 185 134 191 185 134 191 185 134 191 185 134 191 185 134 191 185 134 191 185 134 191 185 134 191 185 134 191 185 134 191 185 134 191 185 134 191 185 134 191 185 134 191 185 134 191 185 134 0 0 255 0 0 255 0 0 255 189 59 42 189 59 42 189 59 42 189 59 42 189 59 42 0 0 255 0 0 255 0 0 255 0 0 255 198 198 148 198 198 148 198 198 148 198 198 148 198 198 148 198 198 148 198 198 148 198 198 148 198 198 148 198 198 148 0 0 255 0 0 255 65 38 45 65 38 45 65 38 45 65 38 45 65 38 45 65 38 45 65 38 45 65 38 45 0 0 255 0 0 255 0 0 255 0 0 255 65 38 45 65 38 45 65 38 45 65 38 45 0 0 255 0 0 255 0 0 255 198 196 141 198 196 141 198 196 141 198 196 141 198 196 141 198 196 141 0 0 255 189 59 42 189 59 42 189 59 42 189 59 42 189 59 42 189 59 42 189 59 42 189 59 42 189 59 42 189 59 42 189 59 42 0 0 255 0 0 255 0 0 255 201 185 72 201 185 72 201 185 72 201 185 72 201 185 72 201 185 72 201 185 72 201 185 72 201 185 72 201 185 72 201 185 72 201 185 72 201 185 72 0 0 255 71 41 46 71 41 46 71 41 46 71 41 46 71 41 46 71 41 46 71 41 46 71 41 46 0 0 255 0 0 255 0 0 255 0 0 255 71 41 46 71 41 46 71 41 46 0 0 255 0 0 255 167 125 62 0 0 255 201 185 72 201 185 72 201 185 72 201 185 72 201 185 72 201 185 72 201 185 72 201 185 72 0 0 255 0 0 255 0 0 255 192 54 39 192 54 39 192 54 39 192 54 39 192 54 39 192 54 39 0 0 255 0 0 255 0 0 255 0 0 255 192 54 39 192 54 39 192 54 39 0 0 255 0 0 255 197 206 175 197 206 175 197 206 175 197 206 175 197 206 175 0 0 255 183 183 126 183 183 126 0 0 255 192 54 39 192 54 39 192 54 39 192 54 39 192 54 39 192 54 39 192 54 39 0 0 255 0 0 255 192 54 39 192 54 39 192 54 39 192 54 39 192 54 39 192 54 39 0 0 255 192 54 39 192 54 39 192 54 39 192 54 39 192 54 39 192 54 39 192 54 39 192 54 39 192 54 39 192 54 39 192 54 39 192 54 39 192 54 39 0 0 255 0 0 255 0 0 255 198 205 172 198 205 172 198 205 172 198 205 172 198 205 172 198 205 172 198 205 172 198 205 172 0 0 255 0 0 255 0 0 255 158 116 60 158 116 60 158 116 60 0 0 255 195 181 74 195 181 74 195 181 74 195 181 74 195 181 74 195 181 74 195 181 74 195 181 74 195 181 74 195 181 74 195 181 74 0 0 255 0 0 255 198 205 172 198 205 172 198 205 172 198 205 172 198 205 172 0 0 255 195 200 170 195 200 170 195 200 170 195 200 170 195 200 170 195 200 170 195 200 170 195 200 170 195 200 170 195 200 170 195 200 170 195 200 170 195 200 170 195 200 170 195 200 170 195 200 170 195 200 170 195 200 170 195 200 170 195 200 170 195 200 170 195 200 170 195 200 170 195 200 170 195 200 170 195 200 170 195 200 170 195 200 170 195 200 170 195 200 170 195 200 170 195 200 170 195 200 170 195 200 170 
191 185 134 191 185 134 191 185 134 191 185 134 191 185 134 191 185 134 191 185 134 191 185 134 191 185 134 191 185 134 191 185 134 191 185 134 191 185 134 191 185 134 191 185 134 191 185 134 191 185 134 191 185 134 191 185 134 191 185 134 191 185 134 191 185 134 191 185 134 0 0 255 0 0 255 189 59 42 189 59 42 189 59 42 189 59 42 189 59 42 189 59 42 189 59 42 189 59 42 189 59 42 0 0 255 0 0 255 0 0 255 198 198 148 198 198 148 198 198 148 198 198 148 198 198 148 198 198 148 198 198 148 198 198 148 0 0 255 0 0 255 0 0 255 65 38 45 65 38 45 65 38 45 65 38 45 65 38 45 65 38 45 65 38 45 0 0 255 0 0 255 0 0 255 0 0 255 0 0 255 65 38 45 65 38 45 65 38 45 65 38 45 65 38 45 0 0 255 0 0 255 198 196 141 198 196 141 198 196 141 198 196 141 198 196 141 0 0 255 0 0 255 189 59 42 189 59 42 189 59 42 189 59 42 189 59 42 189 59 42 189 59 42 189 59 42 189 59 42 189 59 42 189 59 42 189 59 42 0 0 255 0 0 255 201 185 72 201 185 72 201 185 72 201 185 72 201 185 72 201 185 72 201 185 72 201 185 72 201 185 72 201 185 72 201 185 72 201 185 72 0 0 255 0 0 255 0 0 255 71 41 46 71 41 46 71 41 46 71 41 46 71 41 46 71 41 46 71 41 46 0 0 255 0 0 255 0 0 255 0 0 255 71 41 46 71 41 46 71 41 46 0 0 255 0 0 255 167 125 62 0 0 255 201 185 72 201 185 72 201 185 72 201 185 72 201 185 72 201 185 72 201 185 72 201 185 72 201 185 72 0 0 255 0 0 255 0 0 255 192 54 39 192 54 39 192 54 39 192 54 39 192 54 39 192 54 39 192 54 39 192 54 39 192 54 39 192 54 39 192 54 39 192 54 39 0 0 255 0 0 255 197 206 175 197 206 175 197 206 175 197 206 175 197 206 175 0 0 255 183 183 126 0 0 255 0 0 255 192 54 39 192 54 39 192 54 39 192 54 39 192 54 39 192 54 39 0 0 255 0 0 255 0 0 255 0 0 255 192 54 39 192 54 39 192 54 39 192 54 39 0 0 255 0 0 255 0 0 255 192 54 39 192 54 39 192 54 39 192 54 39 192 54 39 192 54 39 192 54 39 192 54 39 192 54 39 192 54 39 192 54 39 192 54 39 192 54 39 0 0 255 0 0 255 0 0 255 198 205 172 198 205 172 198 205 172 198 205 172 198 205 172 198 205 172 198 205 172 0 0 255 0 0 255 0 0 255 0 0 255 158 116 60 158 116 60 0 0 255 195 181 74 195 181 74 195 181 74 195 181 74 195 181 74 195 181 74 195 181 74 195 181 74 195 181 74 195 181 74 0 0 255 0 0 255 198 205 172 198 205 172 198 205 172 198 205 172 198 205 172 198 205 172 0 0 255 0 0 255 195 200 170 195 200 170 195 200 170 195 200 170 195 200 170 195 200 170 195 200 170 195 200 170 195 200 170 195 200 170 195 200 170 195 200 170 195 200 170 195 200 170 195 200 170 195 200 170 195 200 170 195 200 170 195 200 170 195 200 170 195 200 170 195 200 170 195 200 170 195 200 170 195 200 170 195 200 170 195 200 170 195 200 170 195 200 170 195 200 170 195 200 170 195 200 170 195 200 170 
191 185 134 191 185 134 191 185 134 191 185 134 191 185 134 191 185 134 191 185 134 191 185 134 191 185 134 191 185 134 191 185 134 191 185 134 191 185 134 191 185 134 191 185 134 191 185 134 191 185 134 191 185 134 191 185 134 191 185 134 191 185 134 191 185 134 0 0 255 0 0 255 189 59 42 189 59 42 189 59 42 189 59 42 189 59 42 189 59 42 189 59 42 189 59 42 189 59 42 189 59 42 189 59 42 0 0 255 0 0 255 198 198 148 198 198 148 198 198 148 198 198 148 198 198 148 198 198 148 198 198 148 198 198 148 0 0 255 0 0 255 65 38 45 65 38 45 65 38 45 65 38 45 65 38 45 65 38 45 65 38 45 65 38 45 65 38 45 0 0 255 0 0 255 0 0 255 0 0 255 65 38 45 65 38 45 65 38 45 65 38 45 65 38 45 0 0 255 0 0 255 198 196 141 198 196 141 198 196 141 198 196 141 0 0 255 0 0 255 0 0 255 189 59 42 189 59 42 189 59 42 189 59 42 189 59 42 0 0 255 0 0 255 189 59 42 189 59 42 189 59 42 189 59 42 189 59 42 0 0 255 0 0 255 201 185 72 201 185 72 201 185 72 201 185 72 201 185 72 201 185 72 201 185 72 201 185 72 201 185 72 201 185 72 201 185 72 201 185 72 0 0 255 0 0 255 0 0 255 71 41 46 71 41 46 71 41 46 71 41 46 71 41 46 71 41 46 71 41 46 71 41 46 0 0 255 0 0 255 0 0 255 71 41 46 71 41 46 71 41 46 0 0 255 0 0 255 167 125 62 0 0 255 201 185 72 201 185 72 201 185 72 201 185 72 201 185 72 201 185 72 201 185 72 201 185 72 201 185 72 201 185 72 0 0 255 0 0 255 192 54 39 192 54 39 192 54 39 192 54 39 192 54 39 192 54 39 192 54 39 192 54 39 192 54 39 192 54 39 192 54 39 192 54 39 0 0 255 0 0 255 197 206 175 197 206 175 197 206 175 197 206 175 0 0 255 183 183 126 183 183 126 0 0 255 192 54 39 192 54 39 192 54 39 192 54 39 192 54 39 192 54 39 192 54 39 0 0 255 0 0 255 0 0 255 0 0 255 192 54 39 192 54 39 192 54 39 0 0 255 0 0 255 0 0 255 0 0 255 0 0 255 192 54 39 192 54 39 192 54 39 192 54 39 192 54 39 192 54 39 192 54 39 192 54 39 192 54 39 192 54 39 192 54 39 192 54 39 0 0 255 0 0 255 0 0 255 198 205 172 198 205 172 198 205 172 198 205 172 198 205 172 198 205 172 198 205 172 198 205 172 0 0 255 0 0 255 0 0 255 0 0 255 158 116 60 0 0 255 0 0 255 195 181 74 195 181 74 195 181 74 195 181 74 195 181 74 195 181 74 195 181 74 195 181 74 195 181 74 0 0 255 198 205 172 198 205 172 198 205 172 198 205 172 198 205 172 198 205 172 198 205 172 198 205 172 0 0 255 0 0 255 195 200 170 195 200 170 195 200 170 195 200 170 195 200 170 195 200 170 195 200 170 195 200 170 195 200 170 195 200 170 195 200 170 195 200 170 195 200 170 195 200 170 195 200 170 195 200 170 195 200 170 195 200 170 195 200 170 195 200 170 195 200 170 195 200 170 195 200 170 195 200 170 195 200 170 195 200 170 195 200 170 195 200 170 195 200 170 195 200 170 195 200 170 195 200 170 
191 185 134 191 185 134 191 185 134 191 185 134 191 185 134 191 185 134 191 185 134 191 185 134 191 185 134 191 185 134 191 185 134 191 185 134 191 185 134 191 185 134 191 185 134 191 185 134 191 185 134 191 185 134 191 185 134 191 185 134 191 185 134 0 0 255 123 87 55 0 0 255 189 59 42 189 59 42 189 59 42 189 59 42 189 59 42 189 59 42 0 0 255 189 59 42 189 59 42 189 59 42 189 59 42 189 59 42 0 0 255 0 0 255 198 198 148 198 198 148 198 198 148 198 198 148 198 198 148 198 198 148 0 0 255 0 0 255 0 0 255 65 38 45 65 38 45 65 38 45 65 38 45 65 38 45 65 38 45 65 38 45 65 38 45 65 38 45 65 38 45 65 38 45 65 38 45 65 38 45 65 38 45 65 38 45 65 38 45 65 38 45 65 38 45 0 0 255 0 0 255 198 196 141 198 196 141 198 196 141 198 196 141 0 0 255 0 0 255 189 59 42 189 59 42 189 59 42 189 59 42 189 59 42 0 0 255 0 0 255 0 0 255 189 59 42 189 59 42 189 59 42 189 59 42 189 59 42 0 0 255 0 0 255 0 0 255 201 185 72 201 185 72 201 185 72 201 185 72 201 185 72 201 185 72 201 185 72 201 185 72 201 185 72 201 185 72 201 185 72 0 0 255 0 0 255 0 0 255 71 41 46 71 41 46 71 41 46 71 41 46 71 41 46 71 41 46 71 41 46 71 41 46 71 41 46 71 41 46 71 41 46 71 41 46 71 41 46 71 41 46 71 41 46 0 0 255 167 125 62 0 0 255 201 185 72 201 185 72 201 185 72 201 185 72 201 185 72 201 185 72 201 185 72 201 185 72 201 185 72 201 185 72 0 0 255 0 0 255 192 54 39 192 54 39 192 54 39 192 54 39 192 54 39 192 54 39 192 54 39 192 54 39 192 54 39 192 54 39 192 54 39 192 54 39 0 0 255 0 0 255 197 206 175 197 206 175 197 206 175 197 206 175 0 0 255 183 183 126 0 0 255 0 0 255 192 54 39 192 54 39 192 54 39 192 54 39 192 54 39 192 54 39 192 54 39 0 0 255 0 0 255 0 0 255 0 0 255 192 54 39 192 54 39 192 54 39 0 0 255 0 0 255 183 183 126 0 0 255 0 0 255 192 54 39 192 54 39 192 54 39 192 54 39 192 54 39 192 54 39 192 54 39 192 54 39 192 54 39 192 54 39 192 54 39 192 54 39 192 54 39 0 0 255 0 0 255 0 0 255 198 205 172 198 205 172 198 205 172 198 205 172 198 205 172 198 205 172 198 205 172 198 205 172 0 0 255 0 0 255 0 0 255 0 0 255 0 0 255 0 0 255 195 181 74 195 181 74 195 181 74 195 181 74 195 181 74 195 181 74 195 181 74 0 0 255 0 0 255 198 205 172 198 205 172 198 205 172 198 205 172 198 205 172 198 205 172 198 205 172 198 205 172 198 205 172 198 205 172 0 0 255 195 200 170 195 200 170 195 200 170 195 200 170 195 200 170 195 200 170 195 200 170 195 200 170 195 200 170 195 200 170 195 200 170 195 200 170 195 200 170 195 200 170 195 200 170 195 200 170 195 200 170 195 200 170 195 200 170 195 200 170 195 200 170 195 200 170 195 200 170 195 200 170 195 200 170 195 200 170 195 200 170 195 200 170 195 200 170 195 200 170 195 200 170 195 200 170 
191 185 134 191 185 134 191 185 134 191 185 134 191 185 134 191 185 134 191 185 134 191 185 134 191 185 134 191 185 134 191 185 134 191 185 134 191 185 134 191 185 134 191 185 134 191 185 134 191 185 134 191 185 134 191 185 134 191 185 134 0 0 255 123 87 55 0 0 255 189 59 42 189 59 42 189 59 42 189 59 42 189 59 42 189 59 42 0 0 255 0 0 255 0 0 255 189 59 42 189 59 42 189 59 42 189 59 42 0 0 255 0 0 255 198 198 148 198 198 148 198 198 148 198 198 148 198 198 148 0 0 255 0 0 255 0 0 255 0 0 255 65 38 45 65 38 45 65 38 45 65 38 45 65 38 45 65 38 45 65 38 45 65 38 45 65 38 45 65 38 45 65 38 45 65 38 45 65 38 45 65 38 45 65 38 45 65 38 45 65 38 45 0 0 255 0 0 255 198 196 141 198 196 141 198 196 141 198 196 141 0 0 255 0 0 255 0 0 255 189 59 42 189 59 42 189 59 42 189 59 42 189 59 42 189 59 42 189 59 42 189 59 42 189 59 42 189 59 42 189 59 42 189 59 42 189 59 42 0 0 255 0 0 255 0 0 255 0 0 255 201 185 72 201 185 72 201 185 72 201 185 72 201 185 72 201 185 72 201 185 72 201 185 72 0 0 255 0 0 255 0 0 255 0 0 255 71 41 46 71 41 46 71 41 46 71 41 46 71 41 46 71 41 46 71 41 46 71 41 46 71 41 46 71 41 46 71 41 46 71 41 46 71 41 46 71 41 46 71 41 46 71 41 46 0 0 255 167 125 62 0 0 255 201 185 72 201 185 72 201 185 72 201 185 72 201 185 72 201 185 72 201 185 72 201 185 72 201 185 72 201 185 72 201 185 72 0 0 255 0 0 255 192 54 39 192 54 39 192 54 39 192 54 39 192 54 39 192 54 39 192 54 39 192 54 39 192 54 39 192 54 39 0 0 255 0 0 255 0 0 255 197 206 175 197 206 175 197 206 175 0 0 255 183 183 126 183 183 126 0 0 255 192 54 39 192 54 39 192 54 39 192 54 39 192 54 39 192 54 39 192 54 39 192 54 39 192 54 39 0 0 255 0 0 255 192 54 39 192 54 39 192 54 39 192 54 39 0 0 255 0 0 255 0 0 255 158 116 60 0 0 255 192 54 39 192 54 39 192 54 39 192 54 39 192 54 39 192 54 39 192 54 39 192 54 39 192 54 39 192 54 39 192 54 39 192 54 39 192 54 39 0 0 255 0 0 255 0 0 255 198 205 172 198 205 172 198 205 172 198 205 172 198 205 172 198 205 172 198 205 172 0 0 255 0 0 255 0 0 255 195 181 74 195 181 74 195 181 74 195 181 74 195 181 74 195 181 74 195 181 74 195 181 74 195 181 74 0 0 255 0 0 255 0 0 255 198 205 172 198 205 172 198 205 172 198 205 172 198 205 172 198 205 172 198 205 172 198 205 172 198 205 172 198 205 172 198 205 172 0 0 255 195 200 170 195 200 170 195 200 170 195 200 170 195 200 170 195 200 170 195 200 170 195 200 170 195 200 170 195 200 170 195 200 170 195 200 170 195 200 170 195 200 170 195 200 170 195 200 170 195 200 170 195 200 170 195 200 170 195 200 170 195 200 170 195 200 170 195 200 170 195 200 170 195 200 170 195 200 170 195 200 170 195 200 170 195 200 170 195 200 170 195 200 170 195 200 170 
191 185 134 191 185 134 191 185 134 191 185 134 191 185 134 191 185 134 191 185 134 191 185 134 191 185 134 191 185 134 191 185 134 191 185 134 191 185 134 191 185 134 191 185 134 191 185 134 191 185 134 191 185 134 191 185 134 191 185 134 0 0 255 0 0 255 189 59 42 189 59 42 189 59 42 189 59 42 189 59 42 189 59 42 189 59 42 0 0 255 191 185 134 0 0 255 189 59 42 189 59 42 189 59 42 189 59 42 0 0 255 0 0 255 0 0 255 0 0 255 0 0 255 0 0 255 0 0 255 0 0 255 0 0 255 0 0 255 65 38 45 65 38 45 65 38 45 65 38 45 65 38 45 65 38 45 65 38 45 65 38 45 65 38 45 65 38 45 65 38 45 65 38 45 65 38 45 65 38 45 65 38 45 65 38 45 0 0 255 0 0 255 0 0 255 0 0 255 198 196 141 198 196 141 198 196 141 0 0 255 0 0 255 123 87 55 0 0 255 0 0 255 189 59 42 189 59 42 189 59 42 189 59 42 189 59 42 189 59 42 189 59 42 189 59 42 189 59 42 189 59 42 189 59 42 189 59 42 189 59 42 0 0 255 167 125 62 0 0 255 0 0 255 201 185 72 201 185 72 201 185 72 201 185 72 201 185 72 0 0 255 0 0 255 0 0 255 0 0 255 0 0 255 71 41 46 71 41 46 71 41 46 71 41 46 71 41 46 71 41 46 71 41 46 71 41 46 71 41 46 71 41 46 71 41 46 71 41 46 71 41 46 71 41 46 71 41 46 71 41 46 71 41 46 0 0 255 167 125 62 0 0 255 201 185 72 201 185 72 201 185 72 201 185 72 201 185 72 201 185 72 201 185 72 201 185 72 201 185 72 201 185 72 201 185 72 0 0 255 0 0 255 192 54 39 192 54 39 192 54 39 192 54 39 192 54 39 192 54 39 192 54 39 192 54 39 192 54 39 192 54 39 0 0 255 0 0 255 197 206 175 197 206 175 197 206 175 0 0 255 183 183 126 183 183 126 0 0 255 0 0 255 192 54 39 192 54 39 192 54 39 192 54 39 192 54 39 192 54 39 192 54 39 192 54 39 192 54 39 192 54 39 192 54 39 192 54 39 192 54 39 192 54 39 192 54 39 0 0 255 183 183 126 0 0 255 158 116 60 0 0 255 192 54 39 192 54 39 192 54 39 192 54 39 192 54 39 192 54 39 192 54 39 192 54 39 192 54 39 0 0 255 0 0 255 192 54 39 192 54 39 0 0 255 0 0 255 0 0 255 198 205 172 198 205 172 198 205 172 198 205 172 198 205 172 198 205 172 0 0 255 183 183 126 0 0 255 195 181 74 195 181 74 195 181 74 195 181 74 195 181 74 195 181 74 195 181 74 195 181 74 195 181 74 0 0 255 0 0 255 198 205 172 198 205 172 198 205 172 198 205 172 198 205 172 198 205 172 198 205 172 198 205 172 198 205 172 198 205 172 198 205 172 198 205 172 198 205 172 0 0 255 0 0 255 195 200 170 195 200 170 195 200 170 195 200 170 195 200 170 195 200 170 195 200 170 195 200 170 195 200 170 195 200 170 195 200 170 195 200 170 195 200 170 195 200 170 195 200 170 195 200 170 195 200 170 195 200 170 195 200 170 195 200 170 195 200 170 195 200 170 195 200 170 195 200 170 195 200 170 195 200 170 195 200 170 195 200 170 195 200 170 195 200 170 195 200 170 
191 185 134 191 185 134 191 185 134 191 185 134 191 185 134 191 185 134 191 185 134 191 185 134 191 185 134 191 185 134 191 185 134 191 185 134 191 185 134 0 0 255 0 0 255 191 185 134 191 185 134 191 185 134 191 185 134 0 0 255 123 87 55 0 0 255 189 59 42 189 59 42 189 59 42 189 59 42 189 59 42 189 59 42 189 59 42 0 0 255 0 0 255 189 59 42 189 59 42 189 59 42 189 59 42 189 59 42 0 0 255 0 0 255 0 0 255 0 0 255 0 0 255 0 0 255 0 0 255 0 0 255 0 0 255 0 0 255 65 38 45 65 38 45 65 38 45 65 38 45 65 38 45 65 38 45 65 38 45 65 38 45 65 38 45 65 38 45 65 38 45 65 38 45 65 38 45 65 38 45 0 0 255 0 0 255 88 143 69 88 143 69 0 0 255 0 0 255 0 0 255 0 0 255 0 0 255 150 161 101 0 0 255 123 87 55 123 87 55 0 0 255 189 59 42 189 59 42 189 59 42 189 59 42 189 59 42 189 59 42 189 59 42 189 59 42 189 59 42 189 59 42 189 59 42 189 59 42 0 0 255 0 0 255 167 125 62 167 125 62 0 0 255 0 0 255 0 0 255 0 0 255 0 0 255 0 0 255 0 0 255 0 0 255 0 0 255 71 41 46 71 41 46 71 41 46 71 41 46 71 41 46 71 41 46 71 41 46 71 41 46 71 41 46 71 41 46 71 41 46 71 41 46 71 41 46 71 41 46 71 41 46 71 41 46 71 41 46 71 41 46 71 41 46 0 0 255 0 0 255 0 0 255 0 0 255 201 185 72 201 185 72 201 185 72 201 185 72 201 185 72 201 185 72 201 185 72 201 185 72 201 185 72 201 185 72 0 0 255 0 0 255 0 0 255 192 54 39 192 54 39 192 54 39 192 54 39 192 54 39 192 54 39 192 54 39 0 0 255 0 0 255 0 0 255 0 0 255 197 206 175 197 206 175 197 206 175 0 0 255 183 183 126 0 0 255 167 125 62 0 0 255 192 54 39 192 54 39 192 54 39 192 54 39 192 54 39 192 54 39 192 54 39 192 54 39 192 54 39 192 54 39 192 54 39 192 54 39 192 54 39 192 54 39 0 0 255 0 0 255 183 183 126 0 0 255 0 0 255 192 54 39 192 54 39 192 54 39 192 54 39 192 54 39 192 54 39 192 54 39 192 54 39 192 54 39 0 0 255 0 0 255 0 0 255 192 54 39 192 54 39 0 0 255 0 0 255 0 0 255 198 205 172 198 205 172 198 205 172 198 205 172 198 205 172 198 205 172 0 0 255 0 0 255 195 181 74 195 181 74 195 181 74 195 181 74 195 181 74 195 181 74 195 181 74 195 181 74 195 181 74 0 0 255 0 0 255 198 205 172 198 205 172 198 205 172 198 205 172 198 205 172 198 205 172 198 205 172 198 205 172 198 205 172 198 205 172 198 205 172 198 205 172 198 205 172 198 205 172 198 205 172 0 0 255 0 0 255 195 200 170 195 200 170 195 200 170 195 200 170 195 200 170 195 200 170 195 200 170 195 200 170 195 200 170 195 200 170 195 200 170 195 200 170 195 200 170 195 200 170 195 200 170 195 200 170 195 200 170 195 200 170 195 200 170 195 200 170 195 200 170 195 200 170 195 200 170 195 200 170 195 200 170 195 200 170 195 200 170 195 200 170 195 200 170 195 200 170 
191 185 134 191 185 134 191 185 134 191 185 134 191 185 134 191 185 134 191 185 134 191 185 134 191 185 134 0 0 255 0 0 255 0 0 255 0 0 255 192 191 140 0 0 255 191 185 134 191 185 134 191 185 134 0 0 255 123 87 55 123 87 55 0 0 255 189 59 42 189 59 42 189 59 42 189 59 42 189 59 42 189 59 42 189 59 42 189 59 42 189 59 42 189 59 42 189 59 42 189 59 42 0 0 255 0 0 255 0 0 255 0 0 255 0 0 255 65 38 45 65 38 45 65 38 45 65 38 45 65 38 45 65 38 45 65 38 45 65 38 45 65 38 45 65 38 45 65 38 45 65 38 45 65 38 45 65 38 45 65 38 45 65 38 45 65 38 45 65 38 45 65 38 45 65 38 45 0 0 255 88 143 69 88 143 69 88 143 69 88 143 69 0 0 255 0 0 255 150 161 101 0 0 255 0 0 255 150 161 101 0 0 255 123 87 55 123 87 55 0 0 255 0 0 255 189 59 42 189 59 42 189 59 42 189 59 42 189 59 42 189 59 42 189 59 42 189 59 42 189 59 42 189 59 42 0 0 255 0 0 255 0 0 255 167 125 62 167 125 62 167 125 62 167 125 62 167 125 62 167 125 62 0 0 255 0 0 255 0 0 255 71 41 46 71 41 46 71 41 46 71 41 46 71 41 46 71 41 46 71 41 46 71 41 46 71 41 46 71 41 46 71 41 46 71 41 46 71 41 46 71 41 46 71 41 46 71 41 46 71 41 46 71 41 46 71 41 46 71 41 46 71 41 46 0 0 255 0 0 255 167 125 62 0 0 255 201 185 72 201 185 72 201 185 72 201 185 72 201 185 72 201 185 72 201 185 72 201 185 72 201 185 72 201 185 72 0 0 255 167 125 62 0 0 255 0 0 255 192 54 39 192 54 39 192 54 39 192 54 39 192 54 39 0 0 255 167 125 62 0 0 255 0 0 255 197 206 175 197 206 175 197 206 175 197 206 175 0 0 255 183 183 126 0 0 255 0 0 255 0 0 255 192 54 39 192 54 39 192 54 39 192 54 39 192 54 39 192 54 39 192 54 39 192 54 39 192 54 39 192 54 39 192 54 39 192 54 39 192 54 39 192 54 39 0 0 255 183 183 126 183 183 126 0 0 255 0 0 255 192 54 39 192 54 39 192 54 39 192 54 39 192 54 39 192 54 39 192 54 39 192 54 39 192 54 39 0 0 255 0 0 255 0 0 255 192 54 39 192 54 39 0 0 255 0 0 255 0 0 255 198 205 172 198 205 172 198 205 172 198 205 172 198 205 172 0 0 255 0 0 255 0 0 255 0 0 255 195 181 74 195 181 74 195 181 74 195 181 74 195 181 74 195 181 74 195 181 74 195 181 74 0 0 255 0 0 255 198 205 172 198 205 172 198 205 172 198 205 172 198 205 172 198 205 172 198 205 172 198 205 172 198 205 172 198 205 172 198 205 172 198 205 172 198 205 172 198 205 172 198 205 172 198 205 172 0 0 255 195 200 170 195 200 170 195 200 170 195 200 170 195 200 170 195 200 170 195 200 170 195 200 170 195 200 170 195 200 170 195 200 170 195 200 170 195 200 170 195 200 170 195 200 170 195 200 170 195 200 170 195 200 170 195 200 170 195 200 170 195 200 170 195 200 170 195 200 170 195 200 170 195 200 170 195 200 170 195 200 170 195 200 170 195 200 170 195 200 170 
191 185 134 191 185 134 191 185 134 191 185 134 191 185 134 191 185 134 0 0 255 0 0 255 0 0 255 192 191 140 192 191 140 192 191 140 192 191 140 192 191 140 0 0 255 0 0 255 191 185 134 0 0 255 0 0 255 123 87 55 123 87 55 0 0 255 189 59 42 189 59 42 189 59 42 189 59 42 189 59 42 189 59 42 189 59 42 189 59 42 189 59 42 189 59 42 0 0 255 0 0 255 0 0 255 65 38 45 65 38 45 65 38 45 65 38 45 65 38 45 65 38 45 65 38 45 65 38 45 65 38 45 65 38 45 65 38 45 65 38 45 65 38 45 65 38 45 65 38 45 65 38 45 65 38 45 65 38 45 65 38 45 65 38 45 65 38 45 65 38 45 65 38 45 0 0 255 88 143 69 88 143 69 88 143 69 88 143 69 88 143 69 88 143 69 0 0 255 0 0 255 0 0 255 150 161 101 150 161 101 0 0 255 123 87 55 123 87 55 123 87 55 0 0 255 0 0 255 189 59 42 189 59 42 189 59 42 189 59 42 189 59 42 189 59 42 189 59 42 189 59 42 189 59 42 0 0 255 0 0 255 0 0 255 167 125 62 167 125 62 167 125 62 167 125 62 0 0 255 0 0 255 0 0 255 71 41 46 71 41 46 71 41 46 71 41 46 71 41 46 0 0 255 0 0 255 0 0 255 71 41 46 71 41 46 71 41 46 71 41 46 71 41 46 71 41 46 71 41 46 71 41 46 71 41 46 71 41 46 71 41 46 71 41 46 71 41 46 71 41 46 71 41 46 71 41 46 0 0 255 0 0 255 0 0 255 0 0 255 201 185 72 201 185 72 201 185 72 201 185 72 201 185 72 201 185 72 201 185 72 201 185 72 201 185 72 0 0 255 167 125 62 167 125 62 0 0 255 0 0 255 0 0 255 0 0 255 0 0 255 0 0 255 167 125 62 0 0 255 0 0 255 197 206 175 197 206 175 197 206 175 197 206 175 197 206 175 0 0 255 183 183 126 0 0 255 0 0 255 0 0 255 0 0 255 192 54 39 192 54 39 192 54 39 192 54 39 0 0 255 0 0 255 0 0 255 0 0 255 0 0 255 0 0 255 0 0 255 0 0 255 0 0 255 0 0 255 183 183 126 183 183 126 0 0 255 0 0 255 192 54 39 192 54 39 192 54 39 192 54 39 192 54 39 192 54 39 192 54 39 192 54 39 192 54 39 0 0 255 0 0 255 0 0 255 192 54 39 192 54 39 0 0 255 0 0 255 0 0 255 198 205 172 198 205 172 198 205 172 198 205 172 0 0 255 0 0 255 0 0 255 158 116 60 0 0 255 195 181 74 195 181 74 195 181 74 195 181 74 195 181 74 195 181 74 195 181 74 195 181 74 195 181 74 0 0 255 0 0 255 198 205 172 198 205 172 198 205 172 198 205 172 198 205 172 198 205 172 198 205 172 198 205 172 198 205 172 198 205 172 198 205 172 198 205 172 198 205 172 198 205 172 198 205 172 0 0 255 195 200 170 195 200 170 195 200 170 195 200 170 195 200 170 195 200 170 195 200 170 195 200 170 195 200 170 195 200 170 195 200 170 195 200 170 195 200 170 195 200 170 195 200 170 195 200 170 195 200 170 195 200 170 195 200 170 195 200 170 195 200 170 195 200 170 195 200 170 195 200 170 195 200 170 195 200 170 195 200 170 195 200 170 195 200 170 195 200 170 
0 0 255 0 0 255 0 0 255 0 0 255 0 0 255 0 0 255 192 191 140 192 191 140 192 191 140 192 191 140 192 191 140 192 191 140 192 191 140 192 191 140 192 191 140 0 0 255 191 185 134 0 0 255 123 87 55 123 87 55 123 87 55 0 0 255 0 0 255 189 59 42 189 59 42 189 59 42 189 59 42 189 59 42 189 59 42 189 59 42 189 59 42 0 0 255 0 0 255 0 0 255 65 38 45 65 38 45 65 38 45 65 38 45 65 38 45 65 38 45 65 38 45 65 38 45 65 38 45 65 38 45 65 38 45 65 38 45 65 38 45 65 38 45 65 38 45 65 38 45 65 38 45 65 38 45 65 38 45 65 38 45 65 38 45 65 38 45 65 38 45 0 0 255 88 143 69 88 143 69 88 143 69 88 143 69 88 143 69 88 143 69 88 143 69 88 143 69 88 143 69 0 0 255 0 0 255 150 161 101 0 0 255 0 0 255 0 0 255 123 87 55 123 87 55 0 0 255 189 59 42 189 59 42 189 59 42 189 59 42 189 59 42 189 59 42 189 59 42 189 59 42 0 0 255 167 125 62 0 0 255 0 0 255 0 0 255 167 125 62 167 125 62 0 0 255 123 87 55 0 0 255 71 41 46 71 41 46 71 41 46 71 41 46 71 41 46 0 0 255 0 0 255 0 0 255 0 0 255 71 41 46 71 41 46 71 41 46 71 41 46 71 41 46 71 41 46 71 41 46 71 41 46 71 41 46 71 41 46 71 41 46 71 41 46 71 41 46 71 41 46 71 41 46 0 0 255 114 89 58 0 0 255 167 125 62 0 0 255 201 185 72 201 185 72 201 185 72 201 185 72 201 185 72 201 185 72 201 185 72 201 185 72 201 185 72 0 0 255 0 0 255 0 0 255 167 125 62 167 125 62 167 125 62 167 125 62 167 125 62 0 0 255 0 0 255 0 0 255 197 206 175 197 206 175 197 206 175 197 206 175 197 206 175 197 206 175 0 0 255 183 183 126 0 0 255 167 125 62 0 0 255 0 0 255 0 0 255 0 0 255 0 0 255 0 0 255 0 0 255 0 0 255 0 0 255 0 0 255 0 0 255 0 0 255 158 116 60 0 0 255 0 0 255 183 183 126 183 183 126 183 183 126 0 0 255 0 0 255 0 0 255 192 54 39 192 54 39 192 54 39 192 54 39 192 54 39 192 54 39 192 54 39 192 54 39 192 54 39 192 54 39 192 54 39 192 54 39 192 54 39 0 0 255 0 0 255 0 0 255 198 205 172 198 205 172 198 205 172 0 0 255 183 183 126 0 0 255 0 0 255 158 116 60 0 0 255 195 181 74 195 181 74 195 181 74 195 181 74 195 181 74 195 181 74 195 181 74 195 181 74 195 181 74 0 0 255 0 0 255 198 205 172 198 205 172 198 205 172 198 205 172 198 205 172 198 205 172 198 205 172 198 205 172 198 205 172 198 205 172 198 205 172 198 205 172 198 205 172 198 205 172 198 205 172 0 0 255 0 0 255 195 200 170 195 200 170 195 200 170 195 200 170 195 200 170 195 200 170 195 200 170 195 200 170 195 200 170 195 200 170 195 200 170 195 200 170 195 200 170 195 200 170 195 200 170 195 200 170 195 200 170 195 200 170 195 200 170 195 200 170 195 200 170 195 200 170 195 200 170 195 200 170 195 200 170 195 200 170 195 200 170 195 200 170 195 200 170 
192 191 140 192 191 140 192 191 140 192 191 140 192 191 140 192 191 140 192 191 140 192 191 140 192 191 140 192 191 140 192 191 140 192 191 140 192 191 140 192 191 140 192 191 140 0 0 255 191 185 134 0 0 255 123 87 55 123 87 55 123 87 55 123 87 55 0 0 255 189 59 42 189 59 42 189 59 42 189 59 42 189 59 42 189 59 42 189 59 42 0 0 255 0 0 255 65 38 45 65 38 45 65 38 45 65 38 45 65 38 45 65 38 45 65 38 45 0 0 255 0 0 255 0 0 255 65 38 45 65 38 45 65 38 45 65 38 45 65 38 45 65 38 45 65 38 45 65 38 45 65 38 45 65 38 45 65 38 45 65 38 45 65 38 45 65 38 45 65 38 45 0 0 255 88 143 69 88 143 69 88 143 69 88 143 69 88 143 69 88 143 69 88 143 69 88 143 69 88 143 69 88 143 69 0 0 255 0 0 255 150 161 101 0 0 255 0 0 255 0 0 255 123 87 55 0 0 255 189 59 42 189 59 42 189 59 42 189 59 42 189 59 42 189 59 42 189 59 42 189 59 42 0 0 255 0 0 255 150 161 101 0 0 255 0 0 255 0 0 255 0 0 255 0 0 255 0 0 255 0 0 255 71 41 46 0 0 255 71 41 46 71 41 46 71 41 46 0 0 255 0 0 255 150 161 101 0 0 255 0 0 255 71 41 46 71 41 46 71 41 46 71 41 46 0 0 255 71 41 46 71 41 46 71 41 46 71 41 46 71 41 46 71 41 46 71 41 46 71 41 46 71 41 46 0 0 255 0 0 255 0 0 255 0 0 255 0 0 255 0 0 255 201 185 72 201 185 72 201 185 72 201 185 72 201 185 72 201 185 72 201 185 72 201 185 72 0 0 255 0 0 255 0 0 255 0 0 255 0 0 255 0 0 255 0 0 255 0 0 255 0 0 255 0 0 255 197 206 175 197 206 175 197 206 175 197 206 175 197 206 175 197 206 175 197 206 175 0 0 255 0 0 255 0 0 255 0 0 255 0 0 255 81 111 57 81 111 57 81 111 57 0 0 255 0 0 255 0 0 255 0 0 255 0 0 255 0 0 255 0 0 255 0 0 255 0 0 255 0 0 255 0 0 255 183 183 126 183 183 126 183 183 126 0 0 255 158 116 60 0 0 255 192 54 39 192 54 39 192 54 39 192 54 39 192 54 39 192 54 39 192 54 39 192 54 39 192 54 39 192 54 39 192 54 39 192 54 39 192 54 39 0 0 255 0 0 255 0 0 255 198 205 172 198 205 172 0 0 255 183 183 126 0 0 255 158 116 60 158 116 60 158 116 60 0 0 255 195 181 74 195 181 74 195 181 74 195 181 74 195 181 74 195 181 74 195 181 74 195 181 74 195 181 74 195 181 74 0 0 255 198 205 172 198 205 172 198 205 172 198 205 172 198 205 172 198 205 172 198 205 172 198 205 172 198 205 172 198 205 172 198 205 172 198 205 172 198 205 172 198 205 172 198 205 172 198 205 172 0 0 255 195 200 170 195 200 170 195 200 170 195 200 170 195 200 170 195 200 170 195 200 170 195 200 170 195 200 170 195 200 170 195 200 170 195 200 170 195 200 170 195 200 170 195 200 170 195 200 170 195 200 170 195 200 170 195 200 170 195 200 170 195 200 170 195 200 170 195 200 170 195 200 170 195 200 170 195 200 170 195 200 170 195 200 170 195 200 170 
192 191 140 192 191 140 192 191 140 192 191 140 192 191 140 192 191 140 192 191 140 192 191 140 192 191 140 192 191 140 192 191 140 192 191 140 192 191 140 192 191 140 192 191 140 0 0 255 0 0 255 0 0 255 0 0 255 123 87 55 123 87 55 123 87 55 0 0 255 0 0 255 0 0 255 189 59 42 189 59 42 189 59 42 0 0 255 0 0 255 0 0 255 65 38 45 65 38 45 65 38 45 65 38 45 65 38 45 65 38 45 65 38 45 0 0 255 0 0 255 0 0 255 0 0 255 65 38 45 65 38 45 65 38 45 65 38 45 65 38 45 65 38 45 65 38 45 65 38 45 65 38 45 65 38 45 65 38 45 65 38 45 65 38 45 65 38 45 0 0 255 88 143 69 88 143 69 88 143 69 88 143 69 88 143 69 88 143 69 88 143 69 88 143 69 88 143 69 88 143 69 88 143 69 88 143 69 0 0 255 0 0 255 0 0 255 0 0 255 0 0 255 0 0 255 0 0 255 189 59 42 189 59 42 189 59 42 189 59 42 189 59 42 189 59 42 189 59 42 189 59 42 189 59 42 0 0 255 0 0 255 198 196 141 198 196 141 0 0 255 0 0 255 0 0 255 0 0 255 0 0 255 0 0 255 0 0 255 71 41 46 71 41 46 71 41 46 0 0 255 0 0 255 0 0 255 0 0 255 0 0 255 71 41 46 71 41 46 71 41 46 0 0 255 0 0 255 71 41 46 71 41 46 71 41 46 71 41 46 71 41 46 71 41 46 71 41 46 71 41 46 71 41 46 71 41 46 0 0 255 0 0 255 0 0 255 167 125 62 0 0 255 0 0 255 0 0 255 0 0 255 201 185 72 201 185 72 201 185 72 201 185 72 0 0 255 0 0 255 0 0 255 0 0 255 0 0 255 0 0 255 0 0 255 0 0 255 0 0 255 197 206 175 197 206 175 197 206 175 197 206 175 197 206 175 197 206 175 197 206 175 197 206 175 197 206 175 197 206 175 0 0 255 183 183 126 0 0 255 0 0 255 81 111 57 81 111 57 0 0 255 0 0 255 0 0 255 80 156 72 80 156 72 80 156 72 80 156 72 0 0 255 0 0 255 0 0 255 132 169 96 0 0 255 0 0 255 183 183 126 183 183 126 0 0 255 0 0 255 0 0 255 0 0 255 192 54 39 192 54 39 192 54 39 192 54 39 192 54 39 192 54 39 192 54 39 192 54 39 192 54 39 192 54 39 192 54 39 0 0 255 0 0 255 0 0 255 198 205 172 198 205 172 0 0 255 183 183 126 0 0 255 158 116 60 158 116 60 158 116 60 158 116 60 0 0 255 195 181 74 195 181 74 195 181 74 195 181 74 195 181 74 195 181 74 195 181 74 195 181 74 195 181 74 195 181 74 0 0 255 198 205 172 198 205 172 198 205 172 198 205 172 198 205 172 198 205 172 198 205 172 198 205 172 198 205 172 198 205 172 198 205 172 198 205 172 198 205 172 198 205 172 198 205 172 0 0 255 0 0 255 195 200 170 0 0 255 0 0 255 0 0 255 0 0 255 0 0 255 0 0 255 195 200 170 195 200 170 195 200 170 195 200 170 195 200 170 195 200 170 195 200 170 195 200 170 195 200 170 195 200 170 195 200 170 195 200 170 195 200 170 195 200 170 195 200 170 195 200 170 195 200 170 195 200 170 195 200 170 195 200 170 195 200 170 195 200 170 
192 191 140 192 191 140 192 191 140 192 191 140 192 191 140 192 191 140 192 191 140 192 191 140 192 191 140 192 191 140 192 191 140 192 191 140 192 191 140 192 191 140 192 191 140 192 191 140 0 0 255 0 0 255 0 0 255 0 0 255 123 87 55 123 87 55 123 87 55 123 87 55 0 0 255 0 0 255 0 0 255 0 0 255 0 0 255 0 0 255 65 38 45 65 38 45 65 38 45 65 38 45 65 38 45 65 38 45 65 38 45 0 0 255 0 0 255 0 0 255 0 0 255 0 0 255 65 38 45 65 38 45 65 38 45 65 38 45 65 38 45 65 38 45 0 0 255 0 0 255 0 0 255 65 38 45 65 38 45 65 38 45 65 38 45 65 38 45 0 0 255 88 143 69 88 143 69 88 143 69 88 143 69 88 143 69 88 143 69 0 0 255 88 143 69 88 143 69 88 143 69 88 143 69 88 143 69 0 0 255 0 0 255 198 196 141 198 196 141 0 0 255 0 0 255 0 0 255 189 59 42 189 59 42 189 59 42 189 59 42 189 59 42 189 59 42 189 59 42 189 59 42 189 59 42 0 0 255 0 0 255 198 196 141 198 196 141 198 196 141 0 0 255 150 161 101 0 0 255 0 0 255 0 0 255 0 0 255 71 41 46 71 41 46 71 41 46 0 0 255 0 0 255 0 0 255 0 0 255 0 0 255 71 41 46 71 41 46 0 0 255 0 0 255 0 0 255 71 41 46 71 41 46 71 41 46 71 41 46 71 41 46 71 41 46 71 41 46 71 41 46 71 41 46 71 41 46 71 41 46 71 41 46 0 0 255 0 0 255 167 125 62 167 125 62 167 125 62 0 0 255 0 0 255 0 0 255 201 185 72 0 0 255 0 0 255 0 0 255 0 0 255 0 0 255 0 0 255 0 0 255 0 0 255 0 0 255 197 206 175 197 206 175 197 206 175 197 206 175 197 206 175 197 206 175 197 206 175 197 206 175 197 206 175 197 206 175 197 206 175 0 0 255 0 0 255 0 0 255 0 0 255 81 111 57 81 111 57 0 0 255 80 156 72 80 156 72 80 156 72 80 156 72 80 156 72 80 156 72 80 156 72 80 156 72 0 0 255 0 0 255 132 169 96 0 0 255 0 0 255 183 183 126 0 0 255 0 0 255 158 116 60 0 0 255 192 54 39 192 54 39 192 54 39 192 54 39 192 54 39 192 54 39 192 54 39 192 54 39 192 54 39 192 54 39 192 54 39 0 0 255 0 0 255 0 0 255 198 205 172 198 205 172 0 0 255 183 183 126 0 0 255 158 116 60 158 116 60 158 116 60 158 116 60 0 0 255 195 181 74 195 181 74 195 181 74 195 181 74 195 181 74 195 181 74 195 181 74 195 181 74 195 181 74 195 181 74 0 0 255 198 205 172 198 205 172 198 205 172 198 205 172 198 205 172 198 205 172 198 205 172 198 205 172 198 205 172 198 205 172 198 205 172 198 205 172 198 205 172 198 205 172 198 205 172 198 205 172 0 0 255 0 0 255 0 0 255 0 0 255 0 0 255 0 0 255 0 0 255 0 0 255 0 0 255 195 200 170 195 200 170 195 200 170 195 200 170 195 200 170 195 200 170 195 200 170 195 200 170 195 200 170 195 200 170 195 200 170 195 200 170 195 200 170 195 200 170 195 200 170 195 200 170 195 200 170 195 200 170 195 200 170 195 200 170 195 200 170 
192 191 140 192 191 140 192 191 140 192 191 140 192 191 140 192 191 140 192 191 140 192 191 140 192 191 140 192 191 140 192 191 140 192 191 140 192 191 140 192 191 140 192 191 140 192 191 140 192 191 140 0 0 255 0 0 255 0 0 255 0 0 255 0 0 255 123 87 55 123 87 55 123 87 55 123 87 55 123 87 55 0 0 255 65 38 45 65 38 45 65 38 45 65 38 45 65 38 45 65 38 45 65 38 45 65 38 45 65 38 45 0 0 255 0 0 255 0 0 255 0 0 255 0 0 255 65 38 45 65 38 45 65 38 45 65 38 45 65 38 45 0 0 255 0 0 255 0 0 255 0 0 255 0 0 255 0 0 255 0 0 255 65 38 45 65 38 45 0 0 255 88 143 69 88 143 69 88 143 69 88 143 69 88 143 69 0 0 255 0 0 255 0 0 255 88 143 69 88 143 69 88 143 69 88 143 69 0 0 255 0 0 255 198 196 141 198 196 141 198 196 141 0 0 255 0 0 255 189 59 42 189 59 42 189 59 42 189 59 42 189 59 42 189 59 42 189 59 42 189 59 42 189 59 42 0 0 255 0 0 255 198 196 141 198 196 141 198 196 141 0 0 255 0 0 255 0 0 255 0 0 255 71 41 46 71 41 46 71 41 46 71 41 46 71 41 46 71 41 46 0 0 255 0 0 255 0 0 255 0 0 255 71 41 46 71 41 46 71 41 46 71 41 46 71 41 46 71 41 46 71 41 46 71 41 46 71 41 46 71 41 46 71 41 46 71 41 46 71 41 46 71 41 46 71 41 46 71 41 46 71 41 46 0 0 255 0 0 255 167 125 62 167 125 62 167 125 62 167 125 62 167 125 62 0 0 255 0 0 255 183 183 126 0 0 255 0 0 255 0 0 255 0 0 255 0 0 255 0 0 255 0 0 255 0 0 255 0 0 255 197 206 175 197 206 175 197 206 175 197 206 175 197 206 175 197 206 175 197 206 175 197 206 175 197 206 175 197 206 175 197 206 175 0 0 255 0 0 255 0 0 255 81 111 57 0 0 255 80 156 72 80 156 72 80 156 72 80 156 72 80 156 72 80 156 72 80 156 72 0 0 255 0 0 255 0 0 255 0 0 255 132 169 96 132 169 96 0 0 255 0 0 255 183 183 126 0 0 255 0 0 255 0 0 255 0 0 255 192 54 39 192 54 39 192 54 39 192 54 39 192 54 39 192 54 39 192 54 39 192 54 39 0 0 255 0 0 255 0 0 255 0 0 255 0 0 255 0 0 255 0 0 255 0 0 255 0 0 255 0 0 255 158 116 60 158 116 60 158 116 60 158 116 60 0 0 255 0 0 255 195 181 74 195 181 74 195 181 74 195 181 74 195 181 74 195 181 74 195 181 74 195 181 74 195 181 74 0 0 255 198 205 172 198 205 172 198 205 172 198 205 172 198 205 172 198 205 172 198 205 172 198 205 172 198 205 172 198 205 172 198 205 172 198 205 172 198 205 172 198 205 172 198 205 172 0 0 255 0 0 255 0 0 255 72 37 42 72 37 42 72 37 42 72 37 42 0 0 255 0 0 255 0 0 255 0 0 255 195 200 170 195 200 170 195 200 170 195 200 170 195 200 170 195 200 170 195 200 170 195 200 170 195 200 170 195 200 170 195 200 170 195 200 170 195 200 170 195 200 170 195 200 170 195 200 170 195 200 170 195 200 170 0 0 255 0 0 255 
192 191 140 192 191 140 192 191 140 192 191 140 192 191 140 192 191 140 192 191 140 192 191 140 192 191 140 192 191 140 192 191 140 192 191 140 192 191 140 192 191 140 192 191 140 192 191 140 192 191 140 192 191 140 0 0 255 0 0 255 0 0 255 0 0 255 0 0 255 0 0 255 0 0 255 0 0 255 0 0 255 0 0 255 0 0 255 65 38 45 65 38 45 65 38 45 65 38 45 65 38 45 65 38 45 65 38 45 65 38 45 65 38 45 0 0 255 0 0 255 0 0 255 65 38 45 65 38 45 65 38 45 65 38 45 65 38 45 0 0 255 0 0 255 0 0 255 0 0 255 0 0 255 0 0 255 0 0 255 0 0 255 65 38 45 65 38 45 0 0 255 88 143 69 88 143 69 88 143 69 88 143 69 0 0 255 150 161 101 150 161 101 0 0 255 88 143 69 88 143 69 88 143 69 88 143 69 0 0 255 0 0 255 198 196 141 198 196 141 0 0 255 0 0 255 189 59 42 189 59 42 189 59 42 189 59 42 189 59 42 189 59 42 189 59 42 0 0 255 189 59 42 189 59 42 189 59 42 0 0 255 198 196 141 198 196 141 198 196 141 0 0 255 0 0 255 0 0 255 0 0 255 71 41 46 71 41 46 71 41 46 71 41 46 71 41 46 71 41 46 71 41 46 71 41 46 71 41 46 71 41 46 71 41 46 71 41 46 71 41 46 71 41 46 71 41 46 71 41 46 71 41 46 71 41 46 71 41 46 71 41 46 71 41 46 71 41 46 71 41 46 71 41 46 71 41 46 71 41 46 71 41 46 0 0 255 0 0 255 167 125 62 167 125 62 167 125 62 167 125 62 0 0 255 201 185 72 0 0 255 0 0 255 0 0 255 0 0 255 71 41 46 71 41 46 71 41 46 0 0 255 0 0 255 0 0 255 0 0 255 0 0 255 197 206 175 197 206 175 197 206 175 197 206 175 197 206 175 197 206 175 197 206 175 197 206 175 197 206 175 197 206 175 0 0 255 0 0 255 0 0 255 81 111 57 0 0 255 80 156 72 80 156 72 80 156 72 80 156 72 80 156 72 80 156 72 0 0 255 132 169 96 132 169 96 132 169 96 132 169 96 132 169 96 132 169 96 132 169 96 0 0 255 0 0 255 183 183 126 0 0 255 0 0 255 0 0 255 0 0 255 192 54 39 192 54 39 192 54 39 0 0 255 0 0 255 0 0 255 0 0 255 0 0 255 0 0 255 0 0 255 0 0 255 0 0 255 0 0 255 0 0 255 0 0 255 0 0 255 0 0 255 158 116 60 158 116 60 158 116 60 158 116 60 158 116 60 0 0 255 195 181 74 195 181 74 195 181 74 195 181 74 195 181 74 195 181 74 195 181 74 195 181 74 195 181 74 0 0 255 198 205 172 198 205 172 198 205 172 198 205 172 198 205 172 198 205 172 198 205 172 198 205 172 198 205 172 198 205 172 198 205 172 198 205 172 198 205 172 198 205 172 0 0 255 0 0 255 0 0 255 72 37 42 72 37 42 72 37 42 72 37 42 72 37 42 0 0 255 0 0 255 0 0 255 0 0 255 0 0 255 0 0 255 0 0 255 0 0 255 0 0 255 0 0 255 0 0 255 0 0 255 0 0 255 0 0 255 0 0 255 0 0 255 0 0 255 0 0 255 0 0 255 0 0 255 0 0 255 0 0 255 196 199 169 196 199 169 
192 191 140 192 191 140 192 191 140 192 191 140 192 191 140 192 191 140 192 191 140 192 191 140 192 191 140 192 191 140 192 191 140 192 191 140 192 191 140 192 191 140 192 191 140 192 191 140 192 191 140 192 191 140 192 191 140 192 191 140 192 191 140 0 0 255 0 0 255 0 0 255 0 0 255 0 0 255 0 0 255 123 87 55 0 0 255 65 38 45 65 38 45 65 38 45 65 38 45 65 38 45 65 38 45 65 38 45 65 38 45 65 38 45 65 38 45 65 38 45 65 38 45 65 38 45 65 38 45 65 38 45 65 38 45 65 38 45 0 0 255 0 0 255 195 200 156 195 200 156 0 0 255 150 161 101 0 0 255 0 0 255 65 38 45 65 38 45 0 0 255 88 143 69 88 143 69 88 143 69 88 143 69 0 0 255 150 161 101 150 161 101 0 0 255 88 143 69 88 143 69 88 143 69 88 143 69 0 0 255 0 0 255 198 196 141 0 0 255 0 0 255 0 0 255 189 59 42 189 59 42 189 59 42 189 59 42 189 59 42 189 59 42 0 0 255 0 0 255 189 59 42 189 59 42 189 59 42 0 0 255 198 196 141 198 196 141 198 196 141 0 0 255 0 0 255 0 0 255 0 0 255 0 0 255 0 0 255 0 0 255 0 0 255 0 0 255 71 41 46 71 41 46 71 41 46 71 41 46 71 41 46 71 41 46 71 41 46 71 41 46 71 41 46 71 41 46 71 41 46 71 41 46 71 41 46 71 41 46 71 41 46 71 41 46 71 41 46 71 41 46 71 41 46 71 41 46 71 41 46 71 41 46 71 41 46 0 0 255 167 125 62 167 125 62 0 0 255 0 0 255 0 0 255 0 0 255 0 0 255 0 0 255 71 41 46 71 41 46 71 41 46 71 41 46 71 41 46 71 41 46 71 41 46 0 0 255 0 0 255 0 0 255 0 0 255 197 206 175 197 206 175 197 206 175 197 206 175 197 206 175 197 206 175 197 206 175 197 206 175 0 0 255 183 183 126 0 0 255 81 111 57 81 111 57 0 0 255 80 156 72 80 156 72 80 156 72 80 156 72 80 156 72 80 156 72 0 0 255 132 169 96 0 0 255 0 0 255 0 0 255 132 169 96 132 169 96 132 169 96 132 169 96 0 0 255 183 183 126 0 0 255 0 0 255 0 0 255 0 0 255 0 0 255 0 0 255 0 0 255 0 0 255 0 0 255 81 111 57 0 0 255 0 0 255 0 0 255 0 0 255 0 0 255 0 0 255 0 0 255 0 0 255 0 0 255 183 183 126 0 0 255 158 116 60 158 116 60 158 116 60 158 116 60 158 116 60 0 0 255 0 0 255 195 181 74 195 181 74 195 181 74 195 181 74 195 181 74 195 181 74 195 181 74 195 181 74 0 0 255 198 205 172 198 205 172 198 205 172 198 205 172 198 205 172 198 205 172 198 205 172 198 205 172 198 205 172 198 205 172 198 205 172 198 205 172 198 205 172 0 0 255 0 0 255 0 0 255 72 37 42 72 37 42 72 37 42 72 37 42 0 0 255 0 0 255 0 0 255 0 0 255 0 0 255 0 0 255 0 0 255 0 0 255 196 199 169 196 199 169 196 199 169 196 199 169 196 199 169 196 199 169 196 199 169 196 199 169 196 199 169 196 199 169 196 199 169 196 199 169 196 199 169 196 199 169 196 199 169 196 199 169 196 199 169 196 199 169 
192 191 140 192 191 140 192 191 140 192 191 140 192 191 140 192 191 140 192 191 140 192 191 140 192 191 140 192 191 140 192 191 140 192 191 140 192 191 140 192 191 140 192 191 140 192 191 140 192 191 140 192 191 140 192 191 140 192 191 140 192 191 140 192 191 140 192 191 140 192 191 140 192 191 140 0 0 255 0 0 255 123 87 55 0 0 255 65 38 45 65 38 45 65 38 45 65 38 45 65 38 45 65 38 45 65 38 45 65 38 45 65 38 45 65 38 45 65 38 45 65 38 45 65 38 45 65 38 45 65 38 45 65 38 45 0 0 255 0 0 255 195 200 156 195 200 156 195 200 156 0 0 255 150 161 101 0 0 255 0 0 255 65 38 45 65 38 45 0 0 255 88 143 69 88 143 69 88 143 69 88 143 69 0 0 255 150 161 101 150 161 101 0 0 255 88 143 69 88 143 69 88 143 69 88 143 69 0 0 255 0 0 255 0 0 255 150 161 101 0 0 255 189 59 42 189 59 42 189 59 42 189 59 42 189 59 42 189 59 42 189 59 42 189 59 42 189 59 42 189 59 42 189 59 42 189 59 42 0 0 255 198 196 141 198 196 141 198 196 141 0 0 255 0 0 255 88 143 69 88 143 69 88 143 69 88 143 69 88 143 69 88 143 69 0 0 255 0 0 255 0 0 255 71 41 46 71 41 46 71 41 46 71 41 46 71 41 46 71 41 46 71 41 46 71 41 46 71 41 46 71 41 46 71 41 46 71 41 46 71 41 46 71 41 46 71 41 46 71 41 46 71 41 46 71 41 46 71 41 46 71 41 46 71 41 46 0 0 255 167 125 62 0 0 255 0 0 255 183 183 126 0 0 255 0 0 255 71 41 46 71 41 46 71 41 46 71 41 46 71 41 46 71 41 46 71 41 46 71 41 46 71 41 46 71 41 46 0 0 255 0 0 255 0 0 255 197 206 175 197 206 175 197 206 175 197 206 175 197 206 175 197 206 175 197 206 175 0 0 255 183 183 126 0 0 255 0 0 255 81 111 57 81 111 57 0 0 255 80 156 72 80 156 72 80 156 72 80 156 72 80 156 72 0 0 255 132 169 96 0 0 255 183 183 126 183 183 126 0 0 255 0 0 255 132 169 96 132 169 96 132 169 96 0 0 255 0 0 255 183 183 126 183 183 126 0 0 255 0 0 255 0 0 255 0 0 255 81 111 57 81 111 57 81 111 57 0 0 255 80 156 72 80 156 72 80 156 72 80 156 72 80 156 72 0 0 255 0 0 255 132 169 96 0 0 255 0 0 255 0 0 255 0 0 255 158 116 60 158 116 60 158 116 60 158 116 60 158 116 60 0 0 255 195 181 74 195 181 74 195 181 74 195 181 74 195 181 74 195 181 74 195 181 74 0 0 255 0 0 255 198 205 172 198 205 172 198 205 172 198 205 172 198 205 172 198 205 172 198 205 172 198 205 172 198 205 172 198 205 172 198 205 172 198 205 172 0 0 255 0 0 255 0 0 255 72 37 42 72 37 42 72 37 42 72 37 42 0 0 255 81 111 57 0 0 255 0 0 255 0 0 255 0 0 255 0 0 255 0 0 255 0 0 255 196 199 169 196 199 169 196 199 169 196 199 169 196 199 169 196 199 169 196 199 169 196 199 169 196 199 169 196 199 169 196 199 169 196 199 169 196 199 169 196 199 169 196 199 169 196 199 169 196 199 169 196 199 169 
192 191 140 192 191 140 192 191 140 192 191 140 192 191 140 192 191 140 192 191 140 192 191 140 192 191 140 192 191 140 192 191 140 192 191 140 192 191 140 192 191 140 192 191 140 192 191 140 192 191 140 192 191 140 192 191 140 192 191 140 192 191 140 192 191 140 192 191 140 192 191 140 192 191 140 0 0 255 0 0 255 123 87 55 0 0 255 65 38 45 65 38 45 65 38 45 65 38 45 65 38 45 65 38 45 65 38 45 65 38 45 65 38 45 65 38 45 65 38 45 65 38 45 65 38 45 65 38 45 65 38 45 0 0 255 0 0 255 0 0 255 195 200 156 195 200 156 195 200 156 0 0 255 150 161 101 0 0 255 0 0 255 65 38 45 65 38 45 0 0 255 88 143 69 88 143 69 88 143 69 88 143 69 0 0 255 0 0 255 0 0 255 88 143 69 88 143 69 88 143 69 88 143 69 88 143 69 0 0 255 0 0 255 0 0 255 0 0 255 0 0 255 0 0 255 189 59 42 189 59 42 189 59 42 189 59 42 189 59 42 189 59 42 189 59 42 189 59 42 189 59 42 189 59 42 0 0 255 0 0 255 198 196 141 198 196 141 198 196 141 0 0 255 0 0 255 88 143 69 88 143 69 88 143 69 88 143 69 88 143 69 88 143 69 88 143 69 88 143 69 0 0 255 0 0 255 71 41 46 71 41 46 71 41 46 71 41 46 71 41 46 71 41 46 71 41 46 71 41 46 71 41 46 71 41 46 71 41 46 71 41 46 71 41 46 71 41 46 71 41 46 0 0 255 0 0 255 71 41 46 71 41 46 71 41 46 0 0 255 0 0 255 0 0 255 0 0 255 0 0 255 0 0 255 71 41 46 71 41 46 71 41 46 71 41 46 71 41 46 71 41 46 71 41 46 71 41 46 71 41 46 71 41 46 71 41 46 71 41 46 0 0 255 0 0 255 0 0 255 197 206 175 197 206 175 197 206 175 197 206 175 197 206 175 0 0 255 183 183 126 0 0 255 0 0 255 81 111 57 81 111 57 81 111 57 0 0 255 80 156 72 80 156 72 80 156 72 80 156 72 80 156 72 0 0 255 132 169 96 0 0 255 183 183 126 183 183 126 183 183 126 0 0 255 132 169 96 132 169 96 0 0 255 132 169 96 0 0 255 183 183 126 0 0 255 183 183 126 0 0 255 0 0 255 0 0 255 0 0 255 81 111 57 0 0 255 80 156 72 80 156 72 80 156 72 80 156 72 80 156 72 80 156 72 80 156 72 0 0 255 0 0 255 0 0 255 132 169 96 132 169 96 0 0 255 0 0 255 158 116 60 158 116 60 158 116 60 158 116 60 0 0 255 195 181 74 195 181 74 195 181 74 195 181 74 195 181 74 195 181 74 0 0 255 0 0 255 198 205 172 198 205 172 198 205 172 198 205 172 198 205 172 198 205 172 198 205 172 198 205 172 198 205 172 198 205 172 198 205 172 198 205 172 0 0 255 0 0 255 0 0 255 0 0 255 72 37 42 72 37 42 72 37 42 72 37 42 0 0 255 0 0 255 0 0 255 0 0 255 0 0 255 0 0 255 0 0 255 0 0 255 0 0 255 0 0 255 196 199 169 196 199 169 196 199 169 196 199 169 196 199 169 196 199 169 196 199 169 196 199 169 196 199 169 196 199 169 196 199 169 196 199 169 196 199 169 196 199 169 196 199 169 196 199 169 196 199 169 
192 191 140 192 191 140 192 191 140 192 191 140 192 191 140 192 191 140 192 191 140 192 191 140 192 191 140 192 191 140 192 191 140 192 191 140 192 191 140 192 191 140 192 191 140 192 191 140 192 191 140 192 191 140 192 191 140 192 191 140 192 191 140 192 191 140 192 191 140 192 191 140 192 191 140 0 0 255 0 0 255 0 0 255 65 38 45 65 38 45 65 38 45 65 38 45 65 38 45 65 38 45 65 38 45 65 38 45 65 38 45 65 38 45 65 38 45 65 38 45 65 38 45 65 38 45 0 0 255 0 0 255 0 0 255 0 0 255 195 200 156 195 200 156 195 200 156 0 0 255 0 0 255 0 0 255 123 87 55 0 0 255 65 38 45 0 0 255 0 0 255 88 143 69 88 143 69 88 143 69 88 143 69 88 143 69 88 143 69 88 143 69 88 143 69 88 143 69 88 143 69 88 143 69 88 143 69 0 0 255 150 161 101 150 161 101 0 0 255 123 87 55 0 0 255 189 59 42 189 59 42 189 59 42 189 59 42 189 59 42 189 59 42 189 59 42 189 59 42 189 59 42 189 59 42 0 0 255 0 0 255 198 196 141 198 196 141 0 0 255 0 0 255 88 143 69 88 143 69 88 143 69 88 143 69 88 143 69 88 143 69 88 143 69 88 143 69 88 143 69 88 143 69 0 0 255 0 0 255 71 41 46 71 41 46 71 41 46 71 41 46 71 41 46 71 41 46 71 41 46 71 41 46 71 41 46 71 41 46 71 41 46 71 41 46 71 41 46 0 0 255 0 0 255 0 0 255 0 0 255 71 41 46 71 41 46 71 41 46 0 0 255 0 0 255 0 0 255 0 0 255 71 41 46 71 41 46 71 41 46 71 41 46 71 41 46 71 41 46 71 41 46 71 41 46 71 41 46 71 41 46 71 41 46 71 41 46 71 41 46 71 41 46 0 0 255 0 0 255 197 206 175 197 206 175 197 206 175 197 206 175 0 0 255 183 183 126 0 0 255 0 0 255 81 111 57 81 111 57 81 111 57 81 111 57 0 0 255 80 156 72 80 156 72 80 156 72 80 156 72 80 156 72 0 0 255 0 0 255 0 0 255 0 0 255 0 0 255 0 0 255 0 0 255 132 169 96 0 0 255 0 0 255 0 0 255 0 0 255 0 0 255 0 0 255 0 0 255 183 183 126 183 183 126 0 0 255 0 0 255 81 111 57 0 0 255 80 156 72 80 156 72 80 156 72 80 156 72 80 156 72 80 156 72 80 156 72 80 156 72 80 156 72 0 0 255 132 169 96 0 0 255 0 0 255 0 0 255 0 0 255 158 116 60 158 116 60 0 0 255 0 0 255 195 181 74 195 181 74 195 181 74 195 181 74 195 181 74 0 0 255 183 183 126 0 0 255 198 205 172 198 205 172 198 205 172 198 205 172 198 205 172 198 205 172 198 205 172 198 205 172 198 205 172 198 205 172 198 205 172 0 0 255 0 0 255 0 0 255 0 0 255 0 0 255 72 37 42 72 37 42 72 37 42 72 37 42 72 37 42 72 37 42 72 37 42 72 37 42 0 0 255 0 0 255 0 0 255 72 37 42 0 0 255 0 0 255 196 199 169 196 199 169 196 199 169 196 199 169 196 199 169 196 199 169 196 199 169 196 199 169 196 199 169 196 199 169 196 199 169 196 199 169 196 199 169 196 199 169 196 199 169 196 199 169 196 199 169 
192 191 140 192 191 140 192 191 140 192 191 140 192 191 140 192 191 140 192 191 140 192 191 140 192 191 140 192 191 140 192 191 140 192 191 140 192 191 140 192 191 140 192 191 140 192 191 140 192 191 140 192 191 140 192 191 140 192 191 140 192 191 140 192 191 140 192 191 140 192 191 140 192 191 140 0 0 255 0 0 255 0 0 255 0 0 255 65 38 45 65 38 45 65 38 45 65 38 45 65 38 45 65 38 45 65 38 45 65 38 45 65 38 45 65 38 45 65 38 45 65 38 45 0 0 255 123 87 55 0 0 255 0 0 255 195 200 156 195 200 156 195 200 156 195 200 156 0 0 255 0 0 255 0 0 255 0 0 255 0 0 255 0 0 255 0 0 255 88 143 69 88 143 69 88 143 69 88 143 69 88 143 69 88 143 69 88 143 69 88 143 69 88 143 69 88 143 69 88 143 69 88 143 69 0 0 255 150 161 101 0 0 255 150 161 101 0 0 255 123 87 55 0 0 255 189 59 42 189 59 42 189 59 42 189 59 42 189 59 42 189 59 42 189 59 42 189 59 42 189 59 42 189 59 42 0 0 255 198 196 141 0 0 255 0 0 255 0 0 255 88 143 69 88 143 69 88 143 69 88 143 69 88 143 69 88 143 69 88 143 69 88 143 69 88 143 69 88 143 69 88 143 69 88 143 69 0 0 255 0 0 255 71 41 46 71 41 46 71 41 46 71 41 46 71 41 46 71 41 46 71 41 46 71 41 46 71 41 46 71 41 46 71 41 46 71 41 46 0 0 255 0 0 255 0 0 255 0 0 255 71 41 46 71 41 46 71 41 46 0 0 255 0 0 255 0 0 255 71 41 46 71 41 46 71 41 46 71 41 46 71 41 46 71 41 46 71 41 46 71 41 46 71 41 46 71 41 46 71 41 46 71 41 46 71 41 46 71 41 46 71 41 46 0 0 255 0 0 255 197 206 175 197 206 175 197 206 175 197 206 175 0 0 255 183 183 126 0 0 255 0 0 255 81 111 57 81 111 57 81 111 57 81 111 57 0 0 255 0 0 255 80 156 72 80 156 72 80 156 72 80 156 72 80 156 72 0 0 255 0 0 255 0 0 255 132 169 96 0 0 255 0 0 255 0 0 255 80 156 72 80 156 72 0 0 255 0 0 255 0 0 255 197 206 175 0 0 255 183 183 126 183 183 126 0 0 255 81 111 57 0 0 255 80 156 72 80 156 72 80 156 72 80 156 72 80 156 72 80 156 72 80 156 72 80 156 72 80 156 72 80 156 72 0 0 255 132 169 96 0 0 255 183 183 126 0 0 255 0 0 255 0 0 255 0 0 255 158 116 60 0 0 255 0 0 255 195 181 74 195 181 74 195 181 74 0 0 255 183 183 126 0 0 255 198 205 172 198 205 172 198 205 172 198 205 172 198 205 172 198 205 172 198 205 172 198 205 172 198 205 172 198 205 172 198 205 172 198 205 172 0 0 255 0 0 255 0 0 255 81 111 57 0 0 255 72 37 42 72 37 42 72 37 42 72 37 42 72 37 42 72 37 42 72 37 42 72 37 42 72 37 42 72 37 42 72 37 42 72 37 42 0 0 255 0 0 255 196 199 169 196 199 169 196 199 169 196 199 169 196 199 169 196 199 169 196 199 169 196 199 169 196 199 169 196 199 169 196 199 169 196 199 169 196 199 169 196 199 169 196 199 169 196 199 169 196 199 169 
192 191 140 192 191 140 192 191 140 192 191 140 192 191 140 192 191 140 192 191 140 192 191 140 192 191 140 192 191 140 192 191 140 192 191 140 192 191 140 192 191 140 192 191 140 192 191 140 192 191 140 192 191 140 192 191 140 192 191 140 192 191 140 192 191 140 192 191 140 192 191 140 192 191 140 0 0 255 0 0 255 0 0 255 0 0 255 65 38 45 65 38 45 65 38 45 65 38 45 65 38 45 65 38 45 65 38 45 65 38 45 65 38 45 65 38 45 0 0 255 0 0 255 123 87 55 0 0 255 0 0 255 0 0 255 195 200 156 195 200 156 195 200 156 195 200 156 0 0 255 0 0 255 0 0 255 0 0 255 0 0 255 0 0 255 0 0 255 88 143 69 88 143 69 88 143 69 88 143 69 88 143 69 88 143 69 88 143 69 88 143 69 88 143 69 88 143 69 0 0 255 0 0 255 150 161 101 0 0 255 0 0 255 150 161 101 0 0 255 123 87 55 0 0 255 189 59 42 189 59 42 189 59 42 189 59 42 189 59 42 189 59 42 189 59 42 189 59 42 189 59 42 0 0 255 0 0 255 0 0 255 0 0 255 0 0 255 0 0 255 88 143 69 88 143 69 88 143 69 88 143 69 88 143 69 88 143 69 88 143 69 88 143 69 88 143 69 88 143 69 88 143 69 88 143 69 88 143 69 0 0 255 0 0 255 71 41 46 71 41 46 71 41 46 71 41 46 71 41 46 71 41 46 71 41 46 71 41 46 71 41 46 71 41 46 71 41 46 0 0 255 0 0 255 0 0 255 0 0 255 71 41 46 71 41 46 71 41 46 71 41 46 0 0 255 0 0 255 71 41 46 71 41 46 71 41 46 71 41 46 71 41 46 71 41 46 71 41 46 71 41 46 0 0 255 0 0 255 0 0 255 71 41 46 71 41 46 71 41 46 71 41 46 0 0 255 0 0 255 197 206 175 197 206 175 197 206 175 197 206 175 0 0 255 183 183 126 0 0 255 0 0 255 81 111 57 81 111 57 81 111 57 81 111 57 81 111 57 0 0 255 80 156 72 80 156 72 80 156 72 80 156 72 80 156 72 80 156 72 80 156 72 0 0 255 0 0 255 80 156 72 80 156 72 80 156 72 80 156 72 80 156 72 0 0 255 0 0 255 0 0 255 197 206 175 0 0 255 183 183 126 0 0 255 0 0 255 81 111 57 0 0 255 80 156 72 80 156 72 80 156 72 80 156 72 80 156 72 0 0 255 80 156 72 80 156 72 80 156 72 0 0 255 132 169 96 132 169 96 0 0 255 183 183 126 183 183 126 0 0 255 0 0 255 0 0 255 0 0 255 0 0 255 0 0 255 0 0 255 0 0 255 0 0 255 183 183 126 0 0 255 198 205 172 198 205 172 198 205 172 198 205 172 198 205 172 198 205 172 198 205 172 198 205 172 198 205 172 198 205 172 198 205 172 198 205 172 198 205 172 0 0 255 0 0 255 81 111 57 81 111 57 0 0 255 72 37 42 72 37 42 72 37 42 72 37 42 72 37 42 72 37 42 72 37 42 72 37 42 72 37 42 72 37 42 72 37 42 72 37 42 0 0 255 0 0 255 196 199 169 196 199 169 196 199 169 196 199 169 196 199 169 196 199 169 196 199 169 196 199 169 196 199 169 196 199 169 196 199 169 196 199 169 196 199 169 196 199 169 196 199 169 196 199 169 196 199 169 
192 191 140 192 191 140 192 191 140 192 191 140 192 191 140 192 191 140 192 191 140 192 191 140 192 191 140 192 191 140 192 191 140 192 191 140 192 191 140 192 191 140 192 191 140 192 191 140 192 191 140 192 191 140 192 191 140 192 191 140 192 191 140 192 191 140 192 191 140 192 191 140 192 191 140 192 191 140 0 0 255 0 0 255 0 0 255 0 0 255 65 38 45 65 38 45 65 38 45 65 38 45 65 38 45 0 0 255 0 0 255 0 0 255 0 0 255 123 87 55 0 0 255 0 0 255 0 0 255 195 200 156 195 200 156 195 200 156 195 200 156 195 200 156 195 200 156 195 200 156 0 0 255 0 0 255 0 0 255 0 0 255 0 0 255 0 0 255 0 0 255 88 143 69 88 143 69 88 143 69 88 143 69 88 143 69 88 143 69 88 143 69 88 143 69 0 0 255 150 161 101 150 161 101 0 0 255 0 0 255 0 0 255 150 161 101 0 0 255 0 0 255 0 0 255 0 0 255 189 59 42 189 59 42 189 59 42 189 59 42 189 59 42 189 59 42 189 59 42 0 0 255 0 0 255 198 196 141 198 196 141 0 0 255 0 0 255 88 143 69 88 143 69 88 143 69 88 143 69 88 143 69 88 143 69 88 143 69 88 143 69 88 143 69 88 143 69 88 143 69 88 143 69 88 143 69 88 143 69 88 143 69 0 0 255 71 41 46 71 41 46 71 41 46 71 41 46 71 41 46 71 41 46 71 41 46 71 41 46 71 41 46 71 41 46 71 41 46 0 0 255 0 0 255 0 0 255 0 0 255 71 41 46 71 41 46 71 41 46 71 41 46 71 41 46 71 41 46 71 41 46 71 41 46 71 41 46 71 41 46 71 41 46 71 41 46 71 41 46 0 0 255 0 0 255 0 0 255 0 0 255 71 41 46 71 41 46 71 41 46 71 41 46 0 0 255 0 0 255 197 206 175 197 206 175 197 206 175 197 206 175 0 0 255 0 0 255 0 0 255 0 0 255 81 111 57 81 111 57 81 111 57 81 111 57 81 111 57 0 0 255 0 0 255 80 156 72 80 156 72 80 156 72 80 156 72 80 156 72 80 156 72 80 156 72 80 156 72 80 156 72 80 156 72 80 156 72 80 156 72 80 156 72 0 0 255 0 0 255 0 0 255 0 0 255 183 183 126 0 0 255 0 0 255 0 0 255 81 111 57 0 0 255 80 156 72 80 156 72 80 156 72 80 156 72 0 0 255 0 0 255 0 0 255 0 0 255 80 156 72 0 0 255 132 169 96 132 169 96 0 0 255 183 183 126 0 0 255 0 0 255 0 0 255 0 0 255 0 0 255 0 0 255 0 0 255 0 0 255 0 0 255 0 0 255 0 0 255 198 205 172 198 205 172 198 205 172 198 205 172 198 205 172 198 205 172 198 205 172 198 205 172 198 205 172 198 205 172 198 205 172 198 205 172 198 205 172 198 205 172 0 0 255 0 0 255 81 111 57 81 111 57 0 0 255 72 37 42 72 37 42 72 37 42 72 37 42 72 37 42 72 37 42 72 37 42 72 37 42 72 37 42 72 37 42 72 37 42 72 37 42 0 0 255 0 0 255 196 199 169 196 199 169 196 199 169 196 199 169 196 199 169 196 199 169 196 199 169 196 199 169 196 199 169 196 199 169 196 199 169 196 199 169 196 199 169 196 199 169 196 199 169 196 199 169 196 199 169 
192 191 140 192 191 140 192 191 140 192 191 140 192 191 140 192 191 140 192 191 140 192 191 140 192 191 140 192 191 140 192 191 140 192 191 140 192 191 140 192 191 140 192 191 140 192 191 140 192 191 140 192 191 140 192 191 140 192 191 140 192 191 140 192 191 140 192 191 140 192 191 140 192 191 140 192 191 140 0 0 255 0 0 255 0 0 255 0 0 255 0 0 255 0 0 255 65 38 45 65 38 45 0 0 255 0 0 255 0 0 255 123 87 55 123 87 55 0 0 255 0 0 255 0 0 255 0 0 255 195 200 156 195 200 156 195 200 156 195 200 156 195 200 156 195 200 156 195 200 156 0 0 255 0 0 255 0 0 255 0 0 255 0 0 255 65 38 45 0 0 255 88 143 69 88 143 69 88 143 69 88 143 69 88 143 69 88 143 69 88 143 69 0 0 255 150 161 101 150 161 101 0 0 255 195 200 156 0 0 255 0 0 255 0 0 255 150 161 101 0 0 255 123 87 55 0 0 255 0 0 255 0 0 255 189 59 42 0 0 255 0 0 255 0 0 255 0 0 255 0 0 255 198 196 141 198 196 141 0 0 255 0 0 255 88 143 69 88 143 69 88 143 69 88 143 69 88 143 69 88 143 69 88 143 69 88 143 69 0 0 255 0 0 255 88 143 69 88 143 69 88 143 69 88 143 69 88 143 69 88 143 69 0 0 255 0 0 255 71 41 46 71 41 46 71 41 46 71 41 46 71 41 46 71 41 46 71 41 46 71 41 46 71 41 46 71 41 46 0 0 255 0 0 255 0 0 255 0 0 255 71 41 46 71 41 46 71 41 46 71 41 46 71 41 46 71 41 46 71 41 46 71 41 46 71 41 46 71 41 46 71 41 46 71 41 46 71 41 46 0 0 255 0 0 255 0 0 255 0 0 255 71 41 46 71 41 46 71 41 46 71 41 46 0 0 255 0 0 255 197 206 175 197 206 175 197 206 175 197 206 175 197 206 175 0 0 255 0 0 255 0 0 255 81 111 57 81 111 57 81 111 57 81 111 57 0 0 255 81 111 57 0 0 255 0 0 255 0 0 255 80 156 72 80 156 72 80 156 72 80 156 72 80 156 72 80 156 72 80 156 72 80 156 72 80 156 72 80 156 72 80 156 72 0 0 255 0 0 255 183 183 126 183 183 126 183 183 126 0 0 255 0 0 255 81 111 57 81 111 57 0 0 255 80 156 72 80 156 72 80 156 72 0 0 255 132 169 96 132 169 96 132 169 96 0 0 255 80 156 72 0 0 255 132 169 96 132 169 96 0 0 255 0 0 255 198 205 172 198 205 172 198 205 172 0 0 255 0 0 255 0 0 255 0 0 255 0 0 255 0 0 255 198 205 172 198 205 172 198 205 172 198 205 172 198 205 172 198 205 172 198 205 172 198 205 172 198 205 172 198 205 172 198 205 172 198 205 172 198 205 172 198 205 172 198 205 172 198 205 172 0 0 255 0 0 255 0 0 255 81 111 57 0 0 255 0 0 255 72 37 42 72 37 42 72 37 42 72 37 42 72 37 42 72 37 42 72 37 42 72 37 42 72 37 42 72 37 42 72 37 42 0 0 255 0 0 255 196 199 169 196 199 169 196 199 169 196 199 169 196 199 169 196 199 169 196 199 169 196 199 169 196 199 169 196 199 169 196 199 169 196 199 169 196 199 169 196 199 169 196 199 169 196 199 169 196 199 169 
192 191 140 192 191 140 192 191 140 192 191 140 192 191 140 192 191 140 192 191 140 192 191 140 192 191 140 192 191 140 192 191 140 192 191 140 192 191 140 192 191 140 192 191 140 192 191 140 192 191 140 192 191 140 192 191 140 192 191 140 192 191 140 192 191 140 192 191 140 192 191 140 192 191 140 192 191 140 192 191 140 192 191 140 0 0 255 0 0 255 0 0 255 0 0 255 0 0 255 0 0 255 0 0 255 0 0 255 0 0 255 0 0 255 0 0 255 0 0 255 0 0 255 195 200 156 195 200 156 195 200 156 195 200 156 195 200 156 195 200 156 195 200 156 195 200 156 195 200 156 195 200 156 0 0 255 0 0 255 0 0 255 0 0 255 0 0 255 0 0 255 88 143 69 0 0 255 88 143 69 88 143 69 88 143 69 88 143 69 0 0 255 150 161 101 150 161 101 0 0 255 195 200 156 195 200 156 195 200 156 0 0 255 0 0 255 0 0 255 0 0 255 0 0 255 0 0 255 0 0 255 0 0 255 0 0 255 0 0 255 0 0 255 0 0 255 0 0 255 198 196 141 198 196 141 0 0 255 0 0 255 0 0 255 88 143 69 88 143 69 88 143 69 88 143 69 88 143 69 88 143 69 88 143 69 0 0 255 150 161 101 0 0 255 0 0 255 88 143 69 88 143 69 88 143 69 88 143 69 88 143 69 88 143 69 0 0 255 71 41 46 71 41 46 71 41 46 71 41 46 71 41 46 71 41 46 71 41 46 71 41 46 71 41 46 71 41 46 71 41 46 0 0 255 0 0 255 0 0 255 71 41 46 71 41 46 71 41 46 71 41 46 71 41 46 71 41 46 71 41 46 71 41 46 71 41 46 71 41 46 71 41 46 71 41 46 71 41 46 0 0 255 0 0 255 0 0 255 71 41 46 71 41 46 71 41 46 71 41 46 71 41 46 0 0 255 0 0 255 197 206 175 197 206 175 197 206 175 197 206 175 197 206 175 0 0 255 0 0 255 0 0 255 0 0 255 81 111 57 81 111 57 0 0 255 0 0 255 81 111 57 81 111 57 81 111 57 0 0 255 0 0 255 0 0 255 0 0 255 0 0 255 0 0 255 80 156 72 80 156 72 80 156 72 80 156 72 80 156 72 0 0 255 0 0 255 183 183 126 183 183 126 183 183 126 0 0 255 0 0 255 81 111 57 81 111 57 81 111 57 0 0 255 80 156 72 80 156 72 80 156 72 0 0 255 132 169 96 132 169 96 132 169 96 0 0 255 80 156 72 0 0 255 132 169 96 132 169 96 0 0 255 0 0 255 198 205 172 198 205 172 198 205 172 198 205 172 198 205 172 198 205 172 198 205 172 198 205 172 198 205 172 198 205 172 198 205 172 198 205 172 198 205 172 198 205 172 198 205 172 198 205 172 198 205 172 198 205 172 198 205 172 198 205 172 198 205 172 198 205 172 198 205 172 198 205 172 198 205 172 0 0 255 0 0 255 0 0 255 81 111 57 81 111 57 0 0 255 72 37 42 72 37 42 72 37 42 72 37 42 72 37 42 72 37 42 72 37 42 72 37 42 72 37 42 72 37 42 0 0 255 0 0 255 196 199 169 196 199 169 196 199 169 196 199 169 196 199 169 196 199 169 196 199 169 196 199 169 196 199 169 196 199 169 196 199 169 196 199 169 196 199 169 196 199 169 196 199 169 196 199 169 196 199 169 196 199 169 
192 191 140 192 191 140 192 191 140 192 191 140 192 191 140 192 191 140 192 191 140 192 191 140 192 191 140 192 191 140 192 191 140 192 191 140 192 191 140 192 191 140 192 191 140 192 191 140 192 191 140 192 191 140 192 191 140 192 191 140 192 191 140 192 191 140 192 191 140 192 191 140 192 191 140 192 191 140 192 191 140 192 191 140 192 191 140 0 0 255 0 0 255 0 0 255 0 0 255 0 0 255 0 0 255 0 0 255 0 0 255 0 0 255 0 0 255 195 200 156 195 200 156 195 200 156 195 200 156 195 200 156 195 200 156 195 200 156 195 200 156 195 200 156 195 200 156 195 200 156 195 200 156 195 200 156 0 0 255 0 0 255 0 0 255 0 0 255 88 143 69 0 0 255 0 0 255 88 143 69 88 143 69 88 143 69 0 0 255 150 161 101 150 161 101 0 0 255 195 200 156 195 200 156 195 200 156 195 200 156 195 200 156 0 0 255 0 0 255 0 0 255 0 0 255 0 0 255 0 0 255 0 0 255 0 0 255 0 0 255 0 0 255 198 196 141 198 196 141 198 196 141 0 0 255 150 161 101 0 0 255 88 143 69 88 143 69 88 143 69 88 143 69 88 143 69 88 143 69 88 143 69 0 0 255 150 161 101 150 161 101 150 161 101 0 0 255 88 143 69 88 143 69 88 143 69 88 143 69 88 143 69 0 0 255 0 0 255 0 0 255 71 41 46 71 41 46 71 41 46 71 41 46 71 41 46 71 41 46 71 41 46 71 41 46 71 41 46 71 41 46 71 41 46 71 41 46 71 41 46 71 41 46 71 41 46 71 41 46 71 41 46 71 41 46 71 41 46 71 41 46 71 41 46 71 41 46 71 41 46 71 41 46 71 41 46 71 41 46 71 41 46 71 41 46 71 41 46 71 41 46 71 41 46 71 41 46 71 41 46 0 0 255 0 0 255 0 0 255 197 206 175 197 206 175 197 206 175 197 206 175 197 206 175 197 206 175 0 0 255 0 0 255 0 0 255 0 0 255 81 111 57 81 111 57 81 111 57 81 111 57 81 111 57 81 111 57 81 111 57 81 111 57 81 111 57 81 111 57 81 111 57 0 0 255 80 156 72 80 156 72 80 156 72 80 156 72 0 0 255 0 0 255 183 183 126 183 183 126 183 183 126 0 0 255 0 0 255 81 111 57 81 111 57 81 111 57 81 111 57 0 0 255 80 156 72 80 156 72 80 156 72 0 0 255 0 0 255 132 169 96 132 169 96 0 0 255 80 156 72 0 0 255 0 0 255 132 169 96 0 0 255 0 0 255 198 205 172 198 205 172 198 205 172 198 205 172 198 205 172 198 205 172 198 205 172 198 205 172 198 205 172 198 205 172 198 205 172 198 205 172 198 205 172 198 205 172 198 205 172 198 205 172 198 205 172 198 205 172 198 205 172 198 205 172 198 205 172 198 205 172 198 205 172 198 205 172 198 205 172 198 205 172 0 0 255 0 0 255 0 0 255 81 111 57 0 0 255 0 0 255 72 37 42 72 37 42 72 37 42 72 37 42 72 37 42 72 37 42 72 37 42 72 37 42 0 0 255 0 0 255 0 0 255 196 199 169 196 199 169 196 199 169 196 199 169 196 199 169 196 199 169 196 199 169 196 199 169 196 199 169 196 199 169 196 199 169 196 199 169 196 199 169 196 199 169 196 199 169 196 199 169 196 199 169 196 199 169 
192 191 140 192 191 140 192 191 140 192 191 140 192 191 140 192 191 140 192 191 140 192 191 140 192 191 140 192 191 140 192 191 140 192 191 140 192 191 140 192 191 140 192 191 140 192 191 140 192 191 140 192 191 140 192 191 140 192 191 140 192 191 140 192 191 140 192 191 140 192 191 140 192 191 140 192 191 140 192 191 140 192 191 140 192 191 140 192 191 140 192 191 140 192 191 140 192 191 140 192 191 140 192 191 140 0 0 255 0 0 255 195 200 156 195 200 156 195 200 156 195 200 156 195 200 156 195 200 156 195 200 156 195 200 156 195 200 156 195 200 156 195 200 156 195 200 156 195 200 156 195 200 156 195 200 156 195 200 156 0 0 255 0 0 255 0 0 255 0 0 255 0 0 255 0 0 255 0 0 255 0 0 255 0 0 255 0 0 255 0 0 255 0 0 255 195 200 156 195 200 156 195 200 156 195 200 156 195 200 156 195 200 156 0 0 255 0 0 255 0 0 255 0 0 255 0 0 255 0 0 255 0 0 255 0 0 255 0 0 255 0 0 255 0 0 255 198 196 141 198 196 141 0 0 255 150 161 101 0 0 255 88 143 69 88 143 69 88 143 69 88 143 69 88 143 69 88 143 69 88 143 69 0 0 255 150 161 101 150 161 101 150 161 101 0 0 255 88 143 69 88 143 69 88 143 69 88 143 69 0 0 255 0 0 255 0 0 255 0 0 255 71 41 46 71 41 46 71 41 46 71 41 46 71 41 46 71 41 46 71 41 46 71 41 46 71 41 46 71 41 46 71 41 46 71 41 46 71 41 46 71 41 46 71 41 46 71 41 46 71 41 46 71 41 46 71 41 46 71 41 46 71 41 46 71 41 46 71 41 46 71 41 46 71 41 46 71 41 46 71 41 46 71 41 46 71 41 46 71 41 46 71 41 46 71 41 46 0 0 255 0 0 255 0 0 255 197 206 175 197 206 175 197 206 175 197 206 175 197 206 175 197 206 175 197 206 175 197 206 175 0 0 255 0 0 255 0 0 255 0 0 255 0 0 255 81 111 57 81 111 57 81 111 57 81 111 57 81 111 57 81 111 57 81 111 57 81 111 57 0 0 255 80 156 72 80 156 72 80 156 72 80 156 72 0 0 255 0 0 255 0 0 255 0 0 255 183 183 126 183 183 126 0 0 255 0 0 255 81 111 57 81 111 57 81 111 57 81 111 57 0 0 255 0 0 255 80 156 72 80 156 72 80 156 72 0 0 255 0 0 255 0 0 255 80 156 72 80 156 72 80 156 72 0 0 255 132 169 96 0 0 255 0 0 255 198 205 172 198 205 172 198 205 172 198 205 172 198 205 172 198 205 172 198 205 172 198 205 172 198 205 172 198 205 172 198 205 172 198 205 172 198 205 172 198 205 172 198 205 172 198 205 172 198 205 172 198 205 172 198 205 172 198 205 172 198 205 172 198 205 172 198 205 172 198 205 172 198 205 172 198 205 172 0 0 255 0 0 255 0 0 255 0 0 255 81 111 57 0 0 255 72 37 42 72 37 42 72 37 42 72 37 42 72 37 42 72 37 42 72 37 42 0 0 255 81 111 57 0 0 255 196 199 169 196 199 169 196 199 169 196 199 169 196 199 169 196 199 169 196 199 169 196 199 169 196 199 169 196 199 169 196 199 169 196 199 169 196 199 169 196 199 169 196 199 169 196 199 169 196 199 169 196 199 169 196 199 169 
192 191 140 192 191 140 192 191 140 192 191 140 192 191 140 192 191 140 192 191 140 192 191 140 192 191 140 192 191 140 192 191 140 192 191 140 192 191 140 192 191 140 192 191 140 192 191 140 192 191 140 192 191 140 192 191 140 192 191 140 192 191 140 192 191 140 192 191 140 192 191 140 192 191 140 192 191 140 192 191 140 192 191 140 192 191 140 192 191 140 192 191 140 192 191 140 192 191 140 192 191 140 0 0 255 195 200 156 195 200 156 195 200 156 195 200 156 195 200 156 195 200 156 195 200 156 195 200 156 195 200 156 195 200 156 195 200 156 195 200 156 195 200 156 195 200 156 195 200 156 195 200 156 195 200 156 195 200 156 195 200 156 195 200 156 0 0 255 0 0 255 0 0 255 0 0 255 0 0 255 0 0 255 0 0 255 195 200 156 195 200 156 195 200 156 195 200 156 195 200 156 195 200 156 195 200 156 195 200 156 0 0 255 194 203 167 194 203 167 194 203 167 194 203 167 194 203 167 194 203 167 194 203 167 194 203 167 194 203 167 194 203 167 0 0 255 198 196 141 0 0 255 150 161 101 0 0 255 88 143 69 88 143 69 88 143 69 88 143 69 88 143 69 88 143 69 88 143 69 88 143 69 0 0 255 0 0 255 0 0 255 0 0 255 88 143 69 88 143 69 88 143 69 88 143 69 88 143 69 0 0 255 0 0 255 0 0 255 0 0 255 0 0 255 71 41 46 71 41 46 71 41 46 71 41 46 71 41 46 71 41 46 71 41 46 71 41 46 71 41 46 71 41 46 71 41 46 71 41 46 71 41 46 71 41 46 71 41 46 71 41 46 71 41 46 71 41 46 71 41 46 71 41 46 71 41 46 71 41 46 71 41 46 71 41 46 71 41 46 71 41 46 71 41 46 71 41 46 71 41 46 71 41 46 71 41 46 0 0 255 0 0 255 197 206 175 197 206 175 197 206 175 197 206 175 197 206 175 197 206 175 197 206 175 197 206 175 197 206 175 197 206 175 0 0 255 0 0 255 0 0 255 0 0 255 0 0 255 0 0 255 81 111 57 81 111 57 81 111 57 81 111 57 81 111 57 81 111 57 0 0 255 80 156 72 80 156 72 80 156 72 80 156 72 80 156 72 0 0 255 0 0 255 0 0 255 0 0 255 0 0 255 0 0 255 81 111 57 81 111 57 81 111 57 81 111 57 81 111 57 81 111 57 0 0 255 80 156 72 80 156 72 80 156 72 80 156 72 80 156 72 80 156 72 80 156 72 80 156 72 80 156 72 0 0 255 132 169 96 0 0 255 198 205 172 198 205 172 198 205 172 198 205 172 198 205 172 198 205 172 198 205 172 198 205 172 198 205 172 198 205 172 198 205 172 198 205 172 198 205 172 198 205 172 198 205 172 198 205 172 198 205 172 198 205 172 198 205 172 198 205 172 198 205 172 198 205 172 198 205 172 198 205 172 198 205 172 198 205 172 198 205 172 198 205 172 0 0 255 0 0 255 0 0 255 0 0 255 0 0 255 0 0 255 0 0 255 0 0 255 0 0 255 0 0 255 0 0 255 0 0 255 0 0 255 0 0 255 0 0 255 196 199 169 196 199 169 196 199 169 196 199 169 196 199 169 196 199 169 196 199 169 196 199 169 196 199 169 196 199 169 196 199 169 196 199 169 196 199 169 196 199 169 196 199 169 196 199 169 196 199 169 196 199 169 196 199 169 
192 191 140 192 191 140 192 191 140 192 191 140 192 191 140 192 191 140 192 191 140 192 191 140 192 191 140 192 191 140 192 191 140 192 191 140 192 191 140 192 191 140 192 191 140 192 191 140 192 191 140 192 191 140 192 191 140 192 191 140 192 191 140 192 191 140 192 191 140 192 191 140 192 191 140 192 191 140 192 191 140 192 191 140 192 191 140 192 191 140 192 191 140 192 191 140 192 191 140 0 0 255 0 0 255 195 200 156 195 200 156 195 200 156 195 200 156 195 200 156 195 200 156 195 200 156 195 200 156 195 200 156 195 200 156 195 200 156 195 200 156 195 200 156 195 200 156 195 200 156 195 200 156 195 200 156 195 200 156 195 200 156 195 200 156 195 200 156 195 200 156 195 200 156 195 200 156 195 200 156 195 200 156 195 200 156 195 200 156 195 200 156 195 200 156 195 200 156 195 200 156 195 200 156 195 200 156 0 0 255 194 203 167 194 203 167 194 203 167 194 203 167 194 203 167 194 203 167 194 203 167 194 203 167 194 203 167 194 203 167 194 203 167 0 0 255 198 196 141 0 0 255 0 0 255 88 143 69 88 143 69 88 143 69 88 143 69 88 143 69 88 143 69 88 143 69 88 143 69 88 143 69 88 143 69 88 143 69 88 143 69 88 143 69 88 143 69 88 143 69 88 143 69 0 0 255 0 0 255 0 0 255 0 0 255 0 0 255 0 0 255 0 0 255 0 0 255 71 41 46 71 41 46 71 41 46 71 41 46 71 41 46 71 41 46 71 41 46 71 41 46 71 41 46 71 41 46 71 41 46 71 41 46 71 41 46 71 41 46 71 41 46 71 41 46 71 41 46 71 41 46 71 41 46 71 41 46 71 41 46 71 41 46 71 41 46 71 41 46 71 41 46 71 41 46 71 41 46 71 41 46 0 0 255 0 0 255 0 0 255 0 0 255 197 206 175 197 206 175 197 206 175 197 206 175 197 206 175 197 206 175 197 206 175 197 206 175 197 206 175 197 206 175 197 206 175 0 0 255 0 0 255 0 0 255 0 0 255 0 0 255 0 0 255 0 0 255 0 0 255 81 111 57 81 111 57 0 0 255 80 156 72 80 156 72 80 156 72 80 156 72 80 156 72 80 156 72 80 156 72 0 0 255 0 0 255 0 0 255 0 0 255 0 0 255 81 111 57 81 111 57 81 111 57 81 111 57 81 111 57 81 111 57 0 0 255 0 0 255 80 156 72 80 156 72 80 156 72 80 156 72 80 156 72 80 156 72 80 156 72 80 156 72 0 0 255 0 0 255 0 0 255 0 0 255 0 0 255 198 205 172 198 205 172 198 205 172 198 205 172 198 205 172 198 205 172 198 205 172 198 205 172 198 205 172 198 205 172 198 205 172 198 205 172 198 205 172 198 205 172 198 205 172 198 205 172 198 205 172 198 205 172 198 205 172 198 205 172 198 205 172 198 205 172 198 205 172 198 205 172 198 205 172 198 205 172 0 0 255 0 0 255 0 0 255 0 0 255 0 0 255 81 111 57 81 111 57 81 111 57 81 111 57 81 111 57 0 0 255 0 0 255 0 0 255 0 0 255 196 199 169 196 199 169 196 199 169 196 199 169 196 199 169 196 199 169 196 199 169 196 199 169 196 199 169 196 199 169 196 199 169 196 199 169 196 199 169 196 199 169 196 199 169 196 199 169 196 199 169 196 199 169 196 199 169 196 199 169 
192 191 140 192 191 140 192 191 140 192 191 140 192 191 140 192 191 140 192 191 140 192 191 140 192 191 140 192 191 140 192 191 140 192 191 140 192 191 140 192 191 140 192 191 140 192 191 140 192 191 140 192 191 140 192 191 140 192 191 140 192 191 140 192 191 140 192 191 140 192 191 140 192 191 140 192 191 140 192 191 140 192 191 140 192 191 140 192 191 140 0 0 255 0 0 255 0 0 255 195 200 156 195 200 156 195 200 156 195 200 156 195 200 156 195 200 156 195 200 156 195 200 156 195 200 156 195 200 156 195 200 156 195 200 156 195 200 156 195 200 156 195 200 156 195 200 156 195 200 156 195 200 156 195 200 156 195 200 156 195 200 156 195 200 156 195 200 156 195 200 156 195 200 156 195 200 156 195 200 156 195 200 156 195 200 156 195 200 156 195 200 156 195 200 156 195 200 156 195 200 156 195 200 156 195 200 156 0 0 255 194 203 167 194 203 167 194 203 167 194 203 167 194 203 167 194 203 167 194 203 167 194 203 167 194 203 167 194 203 167 194 203 167 0 0 255 0 0 255 150 161 101 0 0 255 88 143 69 88 143 69 88 143 69 88 143 69 88 143 69 88 143 69 88 143 69 88 143 69 88 143 69 88 143 69 88 143 69 88 143 69 88 143 69 88 143 69 88 143 69 0 0 255 150 161 101 150 161 101 0 0 255 0 0 255 0 0 255 0 0 255 0 0 255 0 0 255 0 0 255 71 41 46 71 41 46 71 41 46 71 41 46 71 41 46 71 41 46 71 41 46 71 41 46 71 41 46 71 41 46 71 41 46 71 41 46 71 41 46 71 41 46 71 41 46 71 41 46 71 41 46 71 41 46 71 41 46 71 41 46 71 41 46 71 41 46 71 41 46 71 41 46 71 41 46 71 41 46 0 0 255 0 0 255 0 0 255 0 0 255 197 206 175 197 206 175 197 206 175 197 206 175 197 206 175 197 206 175 197 206 175 197 206 175 197 206 175 197 206 175 197 206 175 197 206 175 197 206 175 197 206 175 0 0 255 0 0 255 0 0 255 0 0 255 0 0 255 0 0 255 81 111 57 0 0 255 80 156 72 80 156 72 80 156 72 80 156 72 80 156 72 80 156 72 80 156 72 80 156 72 80 156 72 80 156 72 80 156 72 80 156 72 0 0 255 0 0 255 81 111 57 81 111 57 81 111 57 81 111 57 81 111 57 81 111 57 0 0 255 80 156 72 80 156 72 80 156 72 80 156 72 80 156 72 80 156 72 80 156 72 80 156 72 0 0 255 0 0 255 0 0 255 0 0 255 0 0 255 0 0 255 0 0 255 0 0 255 198 205 172 198 205 172 198 205 172 198 205 172 198 205 172 198 205 172 198 205 172 198 205 172 198 205 172 198 205 172 198 205 172 198 205 172 198 205 172 198 205 172 198 205 172 198 205 172 198 205 172 198 205 172 198 205 172 198 205 172 198 205 172 198 205 172 198 205 172 0 0 255 0 0 255 196 199 169 0 0 255 0 0 255 0 0 255 0 0 255 0 0 255 0 0 255 0 0 255 0 0 255 0 0 255 196 199 169 196 199 169 196 199 169 196 199 169 196 199 169 196 199 169 196 199 169 196 199 169 196 199 169 196 199 169 196 199 169 196 199 169 196 199 169 196 199 169 196 199 169 196 199 169 196 199 169 196 199 169 196 199 169 196 199 169 196 199 169 196 199 169 
192 191 140 192 191 140 192 191 140 192 191 140 192 191 140 192 191 140 192 191 140 192 191 140 192 191 140 192 191 140 192 191 140 192 191 140 192 191 140 192 191 140 192 191 140 192 191 140 192 191 140 192 191 140 192 191 140 192 191 140 192 191 140 192 191 140 192 191 140 192 191 140 192 191 140 192 191 140 192 191 140 192 191 140 192 191 140 0 0 255 195 200 156 195 200 156 195 200 156 195 200 156 195 200 156 195 200 156 195 200 156 195 200 156 195 200 156 195 200 156 195 200 156 195 200 156 195 200 156 195 200 156 195 200 156 195 200 156 195 200 156 195 200 156 195 200 156 195 200 156 195 200 156 195 200 156 195 200 156 195 200 156 195 200 156 195 200 156 195 200 156 195 200 156 195 200 156 195 200 156 195 200 156 195 200 156 195 200 156 195 200 156 195 200 156 195 200 156 195 200 156 195 200 156 195 200 156 0 0 255 194 203 167 194 203 167 194 203 167 194 203 167 194 203 167 194 203 167 194 203 167 194 203 167 194 203 167 194 203 167 194 203 167 0 0 255 0 0 255 150 161 101 0 0 255 88 143 69 88 143 69 88 143 69 88 143 69 88 143 69 88 143 69 88 143 69 88 143 69 88 143 69 88 143 69 88 143 69 88 143 69 88 143 69 88 143 69 0 0 255 150 161 101 150 161 101 0 0 255 194 203 167 194 203 167 0 0 255 0 0 255 0 0 255 0 0 255 0 0 255 71 41 46 71 41 46 71 41 46 71 41 46 71 41 46 71 41 46 71 41 46 71 41 46 71 41 46 71 41 46 0 0 255 0 0 255 0 0 255 0 0 255 71 41 46 71 41 46 71 41 46 71 41 46 71 41 46 71 41 46 71 41 46 71 41 46 71 41 46 0 0 255 0 0 255 0 0 255 0 0 255 0 0 255 183 183 126 0 0 255 197 206 175 197 206 175 197 206 175 197 206 175 197 206 175 197 206 175 197 206 175 197 206 175 197 206 175 197 206 175 197 206 175 197 206 175 197 206 175 197 206 175 197 206 175 197 206 175 197 206 175 0 0 255 0 0 255 0 0 255 81 111 57 0 0 255 80 156 72 80 156 72 80 156 72 80 156 72 80 156 72 80 156 72 80 156 72 80 156 72 80 156 72 80 156 72 80 156 72 80 156 72 80 156 72 0 0 255 0 0 255 81 111 57 81 111 57 81 111 57 81 111 57 81 111 57 0 0 255 80 156 72 0 0 255 0 0 255 0 0 255 0 0 255 0 0 255 0 0 255 0 0 255 0 0 255 0 0 255 0 0 255 0 0 255 0 0 255 132 169 96 0 0 255 0 0 255 0 0 255 0 0 255 198 205 172 198 205 172 198 205 172 198 205 172 198 205 172 198 205 172 198 205 172 198 205 172 198 205 172 198 205 172 198 205 172 198 205 172 198 205 172 198 205 172 198 205 172 198 205 172 198 205 172 198 205 172 198 205 172 198 205 172 198 205 172 198 205 172 0 0 255 196 199 169 196 199 169 196 199 169 0 0 255 0 0 255 0 0 255 0 0 255 0 0 255 196 199 169 196 199 169 196 199 169 196 199 169 196 199 169 196 199 169 196 199 169 196 199 169 196 199 169 196 199 169 196 199 169 196 199 169 196 199 169 196 199 169 196 199 169 196 199 169 196 199 169 196 199 169 196 199 169 196 199 169 196 199 169 196 199 169 196 199 169 196 199 169 
192 191 140 192 191 140 192 191 140 192 191 140 192 191 140 192 191 140 192 191 140 192 191 140 192 191 140 192 191 140 192 191 140 192 191 140 192 191 140 192 191 140 192 191 140 192 191 140 192 191 140 192 191 140 192 191 140 192 191 140 192 191 140 192 191 140 192 191 140 192 191 140 192 191 140 192 191 140 192 191 140 192 191 140 192 191 140 0 0 255 195 200 156 195 200 156 195 200 156 195 200 156 195 200 156 195 200 156 195 200 156 195 200 156 195 200 156 195 200 156 195 200 156 195 200 156 195 200 156 195 200 156 195 200 156 195 200 156 195 200 156 195 200 156 195 200 156 195 200 156 195 200 156 195 200 156 195 200 156 195 200 156 195 200 156 195 200 156 195 200 156 195 200 156 195 200 156 195 200 156 195 200 156 195 200 156 195 200 156 195 200 156 195 200 156 195 200 156 195 200 156 195 200 156 195 200 156 0 0 255 194 203 167 194 203 167 194 203 167 194 203 167 194 203 167 194 203 167 194 203 167 194 203 167 194 203 167 194 203 167 194 203 167 0 0 255 0 0 255 150 161 101 0 0 255 88 143 69 88 143 69 88 143 69 88 143 69 88 143 69 88 143 69 88 143 69 88 143 69 88 143 69 88 143 69 88 143 69 88 143 69 88 143 69 0 0 255 150 161 101 150 161 101 0 0 255 194 203 167 194 203 167 194 203 167 194 203 167 0 0 255 0 0 255 0 0 255 0 0 255 0 0 255 0 0 255 71 41 46 71 41 46 71 41 46 71 41 46 71 41 46 0 0 255 0 0 255 0 0 255 0 0 255 0 0 255 0 0 255 0 0 255 0 0 255 71 41 46 71 41 46 71 41 46 71 41 46 71 41 46 71 41 46 0 0 255 0 0 255 81 111 57 0 0 255 0 0 255 0 0 255 183 183 126 0 0 255 197 206 175 197 206 175 197 206 175 197 206 175 197 206 175 197 206 175 197 206 175 197 206 175 197 206 175 197 206 175 197 206 175 197 206 175 197 206 175 197 206 175 197 206 175 197 206 175 197 206 175 197 206 175 0 0 255 0 0 255 0 0 255 81 111 57 0 0 255 80 156 72 80 156 72 80 156 72 80 156 72 80 156 72 80 156 72 0 0 255 0 0 255 0 0 255 80 156 72 80 156 72 80 156 72 80 156 72 80 156 72 0 0 255 81 111 57 81 111 57 81 111 57 81 111 57 81 111 57 0 0 255 0 0 255 0 0 255 81 111 57 81 111 57 81 111 57 81 111 57 81 111 57 0 0 255 0 0 255 80 156 72 80 156 72 80 156 72 0 0 255 0 0 255 0 0 255 0 0 255 0 0 255 0 0 255 0 0 255 198 205 172 198 205 172 198 205 172 198 205 172 198 205 172 198 205 172 198 205 172 198 205 172 198 205 172 198 205 172 198 205 172 198 205 172 198 205 172 198 205 172 198 205 172 198 205 172 198 205 172 198 205 172 198 205 172 198 205 172 198 205 172 0 0 255 196 199 169 196 199 169 196 199 169 196 199 169 196 199 169 196 199 169 196 199 169 196 199 169 196 199 169 196 199 169 196 199 169 196 199 169 196 199 169 196 199 169 196 199 169 196 199 169 196 199 169 196 199 169 196 199 169 196 199 169 196 199 169 196 199 169 196 199 169 196 199 169 196 199 169 196 199 169 196 199 169 196 199 169 196 199 169 196 199 169 196 199 169 196 199 169 
192 191 140 192 191 140 192 191 140 192 191 140 192 191 140 192 191 140 192 191 140 192 191 140 192 191 140 192 191 140 192 191 140 192 191 140 192 191 140 192 191 140 192 191 140 192 191 140 192 191 140 192 191 140 192 191 140 192 191 140 192 191 140 192 191 140 192 191 140 192 191 140 192 191 140 192 191 140 192 191 140 192 191 140 192 191 140 0 0 255 0 0 255 195 200 156 195 200 156 195 200 156 195 200 156 195 200 156 195 200 156 195 200 156 195 200 156 195 200 156 195 200 156 195 200 156 195 200 156 195 200 156 195 200 156 195 200 156 195 200 156 195 200 156 195 200 156 195 200 156 195 200 156 195 200 156 195 200 156 195 200 156 195 200 156 195 200 156 195 200 156 195 200 156 195 200 156 195 200 156 195 200 156 195 200 156 195 200 156 195 200 156 195 200 156 195 200 156 195 200 156 195 200 156 195 200 156 0 0 255 194 203 167 194 203 167 194 203 167 194 203 167 194 203 167 194 203 167 194 203 167 194 203 167 194 203 167 194 203 167 194 203 167 0 0 255 0 0 255 0 0 255 0 0 255 88 143 69 88 143 69 88 143 69 88 143 69 88 143 69 88 143 69 88 143 69 88 143 69 88 143 69 88 143 69 88 143 69 88 143 69 88 143 69 0 0 255 150 161 101 150 161 101 0 0 255 194 203 167 194 203 167 194 203 167 194 203 167 194 203 167 194 203 167 0 0 255 0 0 255 0 0 255 0 0 255 0 0 255 0 0 255 71 41 46 71 41 46 0 0 255 88 143 69 88 143 69 0 0 255 0 0 255 0 0 255 0 0 255 0 0 255 0 0 255 0 0 255 0 0 255 71 41 46 71 41 46 71 41 46 0 0 255 0 0 255 81 111 57 0 0 255 0 0 255 0 0 255 183 183 126 0 0 255 197 206 175 197 206 175 197 206 175 197 206 175 197 206 175 197 206 175 197 206 175 197 206 175 197 206 175 197 206 175 197 206 175 197 206 175 197 206 175 197 206 175 197 206 175 197 206 175 197 206 175 197 206 175 0 0 255 183 183 126 0 0 255 0 0 255 81 111 57 0 0 255 80 156 72 80 156 72 80 156 72 80 156 72 80 156 72 0 0 255 132 169 96 0 0 255 0 0 255 80 156 72 80 156 72 80 156 72 80 156 72 80 156 72 0 0 255 0 0 255 0 0 255 81 111 57 81 111 57 0 0 255 0 0 255 0 0 255 0 0 255 81 111 57 81 111 57 81 111 57 81 111 57 81 111 57 81 111 57 0 0 255 80 156 72 80 156 72 80 156 72 80 156 72 80 156 72 80 156 72 0 0 255 0 0 255 132 169 96 0 0 255 0 0 255 198 205 172 198 205 172 198 205 172 198 205 172 198 205 172 198 205 172 198 205 172 198 205 172 198 205 172 198 205 172 198 205 172 198 205 172 198 205 172 198 205 172 198 205 172 198 205 172 198 205 172 0 0 255 0 0 255 0 0 255 0 0 255 196 199 169 196 199 169 196 199 169 196 199 169 196 199 169 196 199 169 196 199 169 196 199 169 196 199 169 196 199 169 196 199 169 196 199 169 196 199 169 196 199 169 196 199 169 196 199 169 196 199 169 196 199 169 196 199 169 196 199 169 196 199 169 196 199 169 196 199 169 196 199 169 196 199 169 196 199 169 196 199 169 196 199 169 196 199 169 196 199 169 196 199 169 196 199 169 
192 191 140 192 191 140 192 191 140 192 191 140 192 191 140 192 191 140 192 191 140 192 191 140 192 191 140 192 191 140 192 191 140 192 191 140 192 191 140 192 191 140 192 191 140 192 191 140 192 191 140 192 191 140 192 191 140 192 191 140 192 191 140 192 191 140 192 191 140 192 191 140 192 191 140 192 191 140 192 191 140 192 191 140 192 191 140 192 191 140 0 0 255 195 200 156 195 200 156 195 200 156 195 200 156 195 200 156 195 200 156 195 200 156 195 200 156 195 200 156 195 200 156 195 200 156 195 200 156 195 200 156 195 200 156 195 200 156 195 200 156 195 200 156 195 200 156 195 200 156 195 200 156 195 200 156 195 200 156 195 200 156 195 200 156 195 200 156 195 200 156 195 200 156 195 200 156 195 200 156 195 200 156 195 200 156 195 200 156 195 200 156 195 200 156 195 200 156 195 200 156 195 200 156 0 0 255 194 203 167 194 203 167 194 203 167 194 203 167 194 203 167 194 203 167 194 203 167 194 203 167 194 203 167 194 203 167 194 203 167 194 203 167 194 203 167 0 0 255 0 0 255 0 0 255 0 0 255 88 143 69 88 143 69 88 143 69 88 143 69 88 143 69 88 143 69 88 143 69 88 143 69 88 143 69 88 143 69 88 143 69 0 0 255 150 161 101 150 161 101 0 0 255 194 203 167 194 203 167 194 203 167 194 203 167 194 203 167 194 203 167 194 203 167 194 203 167 0 0 255 0 0 255 0 0 255 0 0 255 0 0 255 0 0 255 0 0 255 0 0 255 0 0 255 0 0 255 0 0 255 194 202 172 194 202 172 0 0 255 0 0 255 0 0 255 0 0 255 0 0 255 0 0 255 0 0 255 0 0 255 0 0 255 0 0 255 0 0 255 0 0 255 0 0 255 0 0 255 0 0 255 197 206 175 197 206 175 197 206 175 197 206 175 197 206 175 197 206 175 197 206 175 197 206 175 197 206 175 197 206 175 197 206 175 197 206 175 197 206 175 197 206 175 197 206 175 197 206 175 197 206 175 197 206 175 0 0 255 183 183 126 0 0 255 0 0 255 81 111 57 81 111 57 0 0 255 80 156 72 80 156 72 80 156 72 80 156 72 0 0 255 0 0 255 0 0 255 0 0 255 0 0 255 80 156 72 80 156 72 80 156 72 80 156 72 0 0 255 132 169 96 0 0 255 0 0 255 0 0 255 0 0 255 81 111 57 81 111 57 81 111 57 81 111 57 81 111 57 81 111 57 81 111 57 81 111 57 81 111 57 81 111 57 0 0 255 80 156 72 80 156 72 80 156 72 80 156 72 80 156 72 80 156 72 80 156 72 0 0 255 132 169 96 0 0 255 0 0 255 198 205 172 198 205 172 198 205 172 198 205 172 198 205 172 198 205 172 198 205 172 198 205 172 198 205 172 198 205 172 198 205 172 0 0 255 0 0 255 0 0 255 0 0 255 0 0 255 0 0 255 195 203 174 195 203 174 195 203 174 0 0 255 0 0 255 196 199 169 196 199 169 196 199 169 196 199 169 196 199 169 196 199 169 196 199 169 196 199 169 196 199 169 196 199 169 196 199 169 196 199 169 196 199 169 196 199 169 196 199 169 196 199 169 196 199 169 196 199 169 196 199 169 196 199 169 196 199 169 196 199 169 196 199 169 196 199 169 196 199 169 196 199 169 196 199 169 196 199 169 196 199 169 196 199 169 196 199 169 
192 191 140 192 191 140 192 191 140 192 191 140 192 191 140 192 191 140 192 191 140 192 191 140 192 191 140 192 191 140 192 191 140 192 191 140 192 191 140 192 191 140 192 191 140 192 191 140 192 191 140 192 191 140 192 191 140 192 191 140 192 191 140 192 191 140 192 191 140 192 191 140 192 191 140 192 191 140 192 191 140 192 191 140 192 191 140 192 191 140 0 0 255 195 200 156 195 200 156 195 200 156 195 200 156 195 200 156 195 200 156 195 200 156 195 200 156 195 200 156 195 200 156 195 200 156 195 200 156 195 200 156 195 200 156 195 200 156 195 200 156 195 200 156 195 200 156 195 200 156 195 200 156 195 200 156 195 200 156 195 200 156 195 200 156 195 200 156 195 200 156 195 200 156 195 200 156 195 200 156 195 200 156 195 200 156 195 200 156 195 200 156 195 200 156 195 200 156 195 200 156 0 0 255 194 203 167 194 203 167 194 203 167 194 203 167 194 203 167 194 203 167 194 203 167 194 203 167 194 203 167 194 203 167 194 203 167 194 203 167 194 203 167 194 203 167 0 0 255 0 0 255 0 0 255 0 0 255 88 143 69 88 143 69 88 143 69 88 143 69 0 0 255 88 143 69 88 143 69 88 143 69 88 143 69 88 143 69 0 0 255 0 0 255 150 161 101 0 0 255 194 203 167 194 203 167 194 203 167 194 203 167 194 203 167 194 203 167 194 203 167 0 0 255 0 0 255 0 0 255 0 0 255 0 0 255 0 0 255 0 0 255 0 0 255 0 0 255 0 0 255 0 0 255 0 0 255 194 202 172 194 202 172 194 202 172 194 202 172 194 202 172 0 0 255 0 0 255 0 0 255 0 0 255 0 0 255 0 0 255 0 0 255 0 0 255 0 0 255 0 0 255 194 202 172 0 0 255 197 206 175 197 206 175 197 206 175 197 206 175 197 206 175 197 206 175 197 206 175 197 206 175 197 206 175 197 206 175 197 206 175 197 206 175 197 206 175 197 206 175 197 206 175 197 206 175 197 206 175 197 206 175 197 206 175 0 0 255 0 0 255 0 0 255 0 0 255 81 111 57 81 111 57 0 0 255 80 156 72 80 156 72 80 156 72 80 156 72 80 156 72 0 0 255 0 0 255 0 0 255 0 0 255 80 156 72 80 156 72 80 156 72 0 0 255 132 169 96 0 0 255 0 0 255 0 0 255 0 0 255 0 0 255 0 0 255 0 0 255 0 0 255 0 0 255 0 0 255 0 0 255 0 0 255 0 0 255 81 111 57 81 111 57 0 0 255 80 156 72 80 156 72 80 156 72 80 156 72 80 156 72 0 0 255 0 0 255 0 0 255 132 169 96 132 169 96 0 0 255 0 0 255 198 205 172 198 205 172 198 205 172 0 0 255 0 0 255 0 0 255 0 0 255 0 0 255 0 0 255 0 0 255 195 203 174 195 203 174 195 203 174 195 203 174 195 203 174 195 203 174 195 203 174 195 203 174 195 203 174 195 203 174 0 0 255 196 199 169 196 199 169 196 199 169 196 199 169 196 199 169 196 199 169 196 199 169 196 199 169 196 199 169 196 199 169 196 199 169 196 199 169 196 199 169 196 199 169 196 199 169 196 199 169 196 199 169 196 199 169 196 199 169 196 199 169 196 199 169 196 199 169 196 199 169 196 199 169 196 199 169 196 199 169 196 199 169 196 199 169 196 199 169 196 199 169 196 199 169 
192 191 140 192 191 140 192 191 140 192 191 140 192 191 140 192 191 140 192 191 140 192 191 140 192 191 140 192 191 140 192 191 140 192 191 140 192 191 140 192 191 140 192 191 140 192 191 140 192 191 140 192 191 140 192 191 140 192 191 140 192 191 140 192 191 140 192 191 140 192 191 140 192 191 140 192 191 140 192 191 140 192 191 140 192 191 140 192 191 140 0 0 255 195 200 156 195 200 156 195 200 156 195 200 156 195 200 156 195 200 156 195 200 156 195 200 156 195 200 156 195 200 156 195 200 156 195 200 156 195 200 156 195 200 156 195 200 156 195 200 156 195 200 156 195 200 156 195 200 156 195 200 156 195 200 156 195 200 156 195 200 156 195 200 156 195 200 156 195 200 156 195 200 156 195 200 156 195 200 156 195 200 156 195 200 156 195 200 156 195 200 156 195 200 156 195 200 156 195 200 156 0 0 255 0 0 255 0 0 255 194 203 167 194 203 167 194 203 167 194 203 167 194 203 167 194 203 167 194 203 167 194 203 167 194 203 167 194 203 167 194 203 167 194 203 167 194 203 167 0 0 255 0 0 255 0 0 255 0 0 255 0 0 255 88 143 69 0 0 255 0 0 255 88 143 69 88 143 69 88 143 69 88 143 69 0 0 255 150 161 101 150 161 101 0 0 255 194 203 167 194 203 167 194 203 167 194 203 167 194 203 167 194 203 167 194 203 167 0 0 255 194 202 172 194 202 172 194 202 172 194 202 172 194 202 172 194 202 172 194 202 172 194 202 172 194 202 172 194 202 172 194 202 172 194 202 172 194 202 172 194 202 172 194 202 172 194 202 172 194 202 172 194 202 172 194 202 172 0 0 255 0 0 255 0 0 255 0 0 255 0 0 255 194 202 172 194 202 172 194 202 172 0 0 255 197 206 175 197 206 175 197 206 175 197 206 175 197 206 175 197 206 175 197 206 175 197 206 175 197 206 175 197 206 175 197 206 175 197 206 175 197 206 175 197 206 175 197 206 175 197 206 175 197 206 175 197 206 175 197 206 175 0 0 255 0 0 255 0 0 255 81 111 57 81 111 57 81 111 57 81 111 57 0 0 255 80 156 72 80 156 72 80 156 72 80 156 72 80 156 72 0 0 255 0 0 255 0 0 255 0 0 255 80 156 72 80 156 72 80 156 72 0 0 255 0 0 255 183 183 126 0 0 255 0 0 255 0 0 255 0 0 255 0 0 255 0 0 255 0 0 255 0 0 255 0 0 255 132 169 96 0 0 255 0 0 255 81 111 57 81 111 57 0 0 255 80 156 72 80 156 72 80 156 72 80 156 72 0 0 255 132 169 96 0 0 255 132 169 96 132 169 96 132 169 96 0 0 255 0 0 255 0 0 255 0 0 255 0 0 255 195 203 174 195 203 174 195 203 174 195 203 174 195 203 174 195 203 174 195 203 174 195 203 174 195 203 174 195 203 174 195 203 174 195 203 174 195 203 174 195 203 174 195 203 174 195 203 174 195 203 174 0 0 255 0 0 255 196 199 169 196 199 169 196 199 169 196 199 169 196 199 169 196 199 169 196 199 169 196 199 169 196 199 169 196 199 169 196 199 169 196 199 169 196 199 169 196 199 169 196 199 169 196 199 169 196 199 169 196 199 169 196 199 169 196 199 169 196 199 169 196 199 169 196 199 169 196 199 169 196 199 169 196 199 169 196 199 169 196 199 169 196 199 169 196 199 169 
192 191 140 192 191 140 192 191 140 192 191 140 192 191 140 192 191 140 192 191 140 192 191 140 192 191 140 192 191 140 192 191 140 192 191 140 192 191 140 192 191 140 192 191 140 192 191 140 192 191 140 192 191 140 192 191 140 192 191 140 192 191 140 192 191 140 192 191 140 192 191 140 192 191 140 192 191 140 192 191 140 192 191 140 192 191 140 192 191 140 0 0 255 195 200 156 195 200 156 195 200 156 195 200 156 195 200 156 195 200 156 195 200 156 195 200 156 195 200 156 195 200 156 195 200 156 195 200 156 195 200 156 195 200 156 195 200 156 195 200 156 195 200 156 195 200 156 195 200 156 195 200 156 195 200 156 195 200 156 195 200 156 195 200 156 195 200 156 195 200 156 195 200 156 195 200 156 195 200 156 195 200 156 195 200 156 195 200 156 195 200 156 195 200 156 195 200 156 195 200 156 195 200 156 195 200 156 0 0 255 0 0 255 0 0 255 0 0 255 0 0 255 0 0 255 194 203 167 194 203 167 194 203 167 194 203 167 194 203 167 194 203 167 194 203 167 194 203 167 194 203 167 194 203 167 0 0 255 0 0 255 0 0 255 0 0 255 0 0 255 0 0 255 88 143 69 88 143 69 88 143 69 0 0 255 0 0 255 0 0 255 0 0 255 194 203 167 194 203 167 194 203 167 194 203 167 194 203 167 194 203 167 194 203 167 194 203 167 0 0 255 194 202 172 194 202 172 194 202 172 194 202 172 194 202 172 194 202 172 194 202 172 194 202 172 194 202 172 194 202 172 194 202 172 194 202 172 194 202 172 194 202 172 194 202 172 194 202 172 194 202 172 194 202 172 194 202 172 194 202 172 194 202 172 194 202 172 194 202 172 194 202 172 194 202 172 194 202 172 0 0 255 197 206 175 197 206 175 197 206 175 197 206 175 197 206 175 197 206 175 197 206 175 197 206 175 197 206 175 197 206 175 197 206 175 197 206 175 197 206 175 197 206 175 197 206 175 197 206 175 197 206 175 197 206 175 197 206 175 197 206 175 0 0 255 0 0 255 0 0 255 81 111 57 81 111 57 81 111 57 81 111 57 0 0 255 0 0 255 80 156 72 80 156 72 80 156 72 80 156 72 80 156 72 80 156 72 80 156 72 80 156 72 80 156 72 80 156 72 80 156 72 0 0 255 0 0 255 0 0 255 197 206 175 197 206 175 197 206 175 197 206 175 0 0 255 0 0 255 0 0 255 0 0 255 0 0 255 132 169 96 0 0 255 0 0 255 81 111 57 81 111 57 0 0 255 0 0 255 80 156 72 80 156 72 80 156 72 0 0 255 0 0 255 0 0 255 132 169 96 132 169 96 132 169 96 132 169 96 0 0 255 195 203 174 195 203 174 195 203 174 195 203 174 195 203 174 195 203 174 195 203 174 195 203 174 195 203 174 195 203 174 195 203 174 195 203 174 195 203 174 195 203 174 195 203 174 195 203 174 195 203 174 195 203 174 195 203 174 195 203 174 195 203 174 0 0 255 196 199 169 196 199 169 196 199 169 196 199 169 196 199 169 196 199 169 196 199 169 196 199 169 196 199 169 196 199 169 196 199 169 196 199 169 196 199 169 196 199 169 196 199 169 196 199 169 196 199 169 196 199 169 196 199 169 196 199 169 196 199 169 196 199 169 196 199 169 196 199 169 196 199 169 196 199 169 196 199 169 196 199 169 196 199 169 196 199 169 
192 191 140 192 191 140 192 191 140 192 191 140 192 191 140 192 191 140 192 191 140 192 191 140 192 191 140 192 191 140 192 191 140 192 191 140 192 191 140 192 191 140 192 191 140 192 191 140 192 191 140 192 191 140 192 191 140 192 191 140 192 191 140 192 191 140 192 191 140 192 191 140 192 191 140 192 191 140 192 191 140 192 191 140 192 191 140 0 0 255 195 200 156 195 200 156 195 200 156 195 200 156 195 200 156 195 200 156 195 200 156 195 200 156 195 200 156 195 200 156 195 200 156 195 200 156 195 200 156 195 200 156 195 200 156 195 200 156 195 200 156 195 200 156 195 200 156 195 200 156 195 200 156 195 200 156 195 200 156 195 200 156 195 200 156 195 200 156 195 200 156 195 200 156 195 200 156 195 200 156 195 200 156 195 200 156 195 200 156 195 200 156 195 200 156 195 200 156 195 200 156 195 200 156 195 200 156 0 0 255 0 0 255 0 0 255 0 0 255 0 0 255 0 0 255 0 0 255 0 0 255 194 203 167 194 203 167 194 203 167 194 203 167 194 203 167 194 203 167 194 203 167 194 203 167 194 203 167 0 0 255 0 0 255 0 0 255 0 0 255 0 0 255 0 0 255 0 0 255 0 0 255 0 0 255 0 0 255 194 203 167 194 203 167 194 203 167 194 203 167 194 203 167 194 203 167 194 203 167 194 203 167 194 203 167 194 203 167 0 0 255 194 202 172 194 202 172 194 202 172 194 202 172 194 202 172 194 202 172 194 202 172 194 202 172 194 202 172 194 202 172 194 202 172 194 202 172 194 202 172 194 202 172 194 202 172 194 202 172 194 202 172 194 202 172 194 202 172 194 202 172 194 202 172 194 202 172 194 202 172 194 202 172 194 202 172 194 202 172 0 0 255 197 206 175 197 206 175 197 206 175 197 206 175 197 206 175 197 206 175 197 206 175 197 206 175 197 206 175 197 206 175 197 206 175 197 206 175 197 206 175 197 206 175 197 206 175 197 206 175 197 206 175 197 206 175 197 206 175 0 0 255 183 183 126 0 0 255 0 0 255 81 111 57 81 111 57 81 111 57 81 111 57 81 111 57 0 0 255 80 156 72 80 156 72 80 156 72 80 156 72 80 156 72 80 156 72 80 156 72 80 156 72 80 156 72 80 156 72 0 0 255 132 169 96 0 0 255 197 206 175 197 206 175 197 206 175 197 206 175 197 206 175 197 206 175 197 206 175 0 0 255 0 0 255 0 0 255 0 0 255 0 0 255 81 111 57 81 111 57 81 111 57 81 111 57 0 0 255 80 156 72 80 156 72 80 156 72 0 0 255 0 0 255 0 0 255 132 169 96 132 169 96 0 0 255 132 169 96 0 0 255 195 203 174 195 203 174 195 203 174 195 203 174 195 203 174 195 203 174 195 203 174 195 203 174 195 203 174 195 203 174 195 203 174 195 203 174 195 203 174 195 203 174 195 203 174 195 203 174 195 203 174 195 203 174 195 203 174 195 203 174 195 203 174 0 0 255 0 0 255 196 199 169 196 199 169 196 199 169 196 199 169 196 199 169 196 199 169 196 199 169 196 199 169 196 199 169 196 199 169 196 199 169 196 199 169 196 199 169 196 199 169 196 199 169 196 199 169 196 199 169 196 199 169 196 199 169 196 199 169 196 199 169 196 199 169 196 199 169 196 199 169 196 199 169 196 199 169 196 199 169 196 199 169 196 199 169 
192 191 140 192 191 140 192 191 140 192 191 140 192 191 140 192 191 140 192 191 140 192 191 140 192 191 140 192 191 140 192 191 140 192 191 140 192 191 140 192 191 140 192 191 140 192 191 140 192 191 140 192 191 140 192 191 140 192 191 140 192 191 140 192 191 140 192 191 140 192 191 140 192 191 140 192 191 140 192 191 140 192 191 140 0 0 255 195 200 156 195 200 156 195 200 156 195 200 156 195 200 156 195 200 156 195 200 156 195 200 156 195 200 156 195 200 156 195 200 156 195 200 156 195 200 156 195 200 156 195 200 156 195 200 156 195 200 156 195 200 156 195 200 156 195 200 156 195 200 156 195 200 156 195 200 156 195 200 156 195 200 156 195 200 156 195 200 156 195 200 156 195 200 156 195 200 156 195 200 156 195 200 156 195 200 156 195 200 156 195 200 156 195 200 156 195 200 156 195 200 156 195 200 156 0 0 255 0 0 255 0 0 255 0 0 255 0 0 255 0 0 255 0 0 255 0 0 255 0 0 255 0 0 255 194 203 167 194 203 167 194 203 167 194 203 167 194 203 167 194 203 167 194 203 167 194 203 167 194 203 167 194 203 167 194 203 167 194 203 167 0 0 255 0 0 255 0 0 255 0 0 255 194 203 167 194 203 167 194 203 167 194 203 167 194 203 167 194 203 167 194 203 167 194 203 167 194 203 167 194 203 167 194 203 167 194 203 167 0 0 255 194 202 172 194 202 172 194 202 172 194 202 172 194 202 172 194 202 172 194 202 172 194 202 172 194 202 172 194 202 172 194 202 172 194 202 172 194 202 172 194 202 172 194 202 172 194 202 172 194 202 172 194 202 172 194 202 172 194 202 172 194 202 172 194 202 172 194 202 172 194 202 172 194 202 172 194 202 172 0 0 255 0 0 255 197 206 175 197 206 175 197 206 175 197 206 175 197 206 175 197 206 175 197 206 175 197 206 175 197 206 175 197 206 175 197 206 175 197 206 175 197 206 175 197 206 175 197 206 175 197 206 175 197 206 175 197 206 175 0 0 255 0 0 255 0 0 255 0 0 255 81 111 57 81 111 57 81 111 57 81 111 57 81 111 57 0 0 255 80 156 72 80 156 72 80 156 72 80 156 72 80 156 72 80 156 72 80 156 72 80 156 72 80 156 72 80 156 72 0 0 255 0 0 255 0 0 255 197 206 175 197 206 175 197 206 175 197 206 175 197 206 175 197 206 175 197 206 175 197 206 175 0 0 255 0 0 255 0 0 255 81 111 57 81 111 57 81 111 57 81 111 57 81 111 57 0 0 255 80 156 72 80 156 72 80 156 72 0 0 255 0 0 255 132 169 96 132 169 96 0 0 255 0 0 255 132 169 96 0 0 255 195 203 174 195 203 174 195 203 174 195 203 174 195 203 174 195 203 174 195 203 174 195 203 174 195 203 174 195 203 174 195 203 174 195 203 174 195 203 174 195 203 174 195 203 174 195 203 174 195 203 174 195 203 174 195 203 174 195 203 174 195 203 174 195 203 174 0 0 255 196 199 169 196 199 169 196 199 169 196 199 169 196 199 169 196 199 169 196 199 169 196 199 169 196 199 169 196 199 169 196 199 169 196 199 169 196 199 169 196 199 169 196 199 169 196 199 169 196 199 169 196 199 169 196 199 169 196 199 169 196 199 169 196 199 169 196 199 169 196 199 169 196 199 169 196 199 169 196 199 169 196 199 169 196 199 169 
192 191 140 192 191 140 192 191 140 192 191 140 192 191 140 192 191 140 192 191 140 192 191 140 192 191 140 192 191 140 192 191 140 192 191 140 192 191 140 192 191 140 192 191 140 192 191 140 192 191 140 192 191 140 192 191 140 192 191 140 192 191 140 192 191 140 192 191 140 192 191 140 192 191 140 192 191 140 192 191 140 192 191 140 0 0 255 195 200 156 195 200 156 195 200 156 195 200 156 195 200 156 195 200 156 195 200 156 195 200 156 195 200 156 195 200 156 195 200 156 195 200 156 195 200 156 195 200 156 195 200 156 195 200 156 195 200 156 195 200 156 195 200 156 195 200 156 195 200 156 195 200 156 195 200 156 195 200 156 195 200 156 195 200 156 195 200 156 195 200 156 195 200 156 195 200 156 195 200 156 195 200 156 195 200 156 195 200 156 195 200 156 195 200 156 195 200 156 195 200 156 0 0 255 0 0 255 88 143 69 88 143 69 88 143 69 88 143 69 88 143 69 88 143 69 0 0 255 0 0 255 0 0 255 0 0 255 194 203 167 194 203 167 194 203 167 194 203 167 194 203 167 194 203 167 194 203 167 194 203 167 194 203 167 194 203 167 194 203 167 194 203 167 194 203 167 194 203 167 194 203 167 194 203 167 194 203 167 194 203 167 194 203 167 194 203 167 194 203 167 194 203 167 194 203 167 194 203 167 194 203 167 194 203 167 0 0 255 194 202 172 194 202 172 194 202 172 194 202 172 194 202 172 194 202 172 194 202 172 194 202 172 194 202 172 194 202 172 194 202 172 194 202 172 194 202 172 194 202 172 194 202 172 194 202 172 194 202 172 194 202 172 194 202 172 194 202 172 194 202 172 194 202 172 194 202 172 194 202 172 194 202 172 194 202 172 194 202 172 194 202 172 0 0 255 0 0 255 197 206 175 197 206 175 197 206 175 197 206 175 197 206 175 197 206 175 197 206 175 197 206 175 197 206 175 197 206 175 197 206 175 197 206 175 197 206 175 197 206 175 197 206 175 197 206 175 197 206 175 197 206 175 0 0 255 0 0 255 0 0 255 81 111 57 81 111 57 81 111 57 81 111 57 81 111 57 0 0 255 80 156 72 80 156 72 80 156 72 80 156 72 80 156 72 80 156 72 80 156 72 80 156 72 80 156 72 0 0 255 0 0 255 0 0 255 197 206 175 197 206 175 197 206 175 197 206 175 197 206 175 197 206 175 197 206 175 197 206 175 197 206 175 0 0 255 0 0 255 0 0 255 81 111 57 0 0 255 0 0 255 0 0 255 0 0 255 0 0 255 80 156 72 80 156 72 80 156 72 80 156 72 0 0 255 0 0 255 0 0 255 80 156 72 0 0 255 132 169 96 0 0 255 195 203 174 195 203 174 195 203 174 195 203 174 195 203 174 195 203 174 195 203 174 195 203 174 195 203 174 195 203 174 195 203 174 195 203 174 195 203 174 195 203 174 195 203 174 195 203 174 195 203 174 195 203 174 195 203 174 195 203 174 195 203 174 195 203 174 0 0 255 0 0 255 196 199 169 196 199 169 196 199 169 196 199 169 196 199 169 196 199 169 196 199 169 196 199 169 196 199 169 196 199 169 196 199 169 196 199 169 196 199 169 196 199 169 196 199 169 196 199 169 196 199 169 196 199 169 196 199 169 196 199 169 196 199 169 196 199 169 196 199 169 196 199 169 196 199 169 196 199 169 196 199 169 196 199 169 
0 0 255 0 0 255 0 0 255 0 0 255 0 0 255 0 0 255 0 0 255 0 0 255 0 0 255 0 0 255 0 0 255 0 0 255 0 0 255 0 0 255 0 0 255 0 0 255 0 0 255 0 0 255 0 0 255 0 0 255 0 0 255 0 0 255 0 0 255 0 0 255 0 0 255 0 0 255 0 0 255 0 0 255 195 200 156 195 200 156 195 200 156 195 200 156 195 200 156 195 200 156 195 200 156 195 200 156 195 200 156 195 200 156 195 200 156 195 200 156 195 200 156 195 200 156 195 200 156 195 200 156 195 200 156 195 200 156 195 200 156 195 200 156 195 200 156 195 200 156 195 200 156 195 200 156 195 200 156 195 200 156 195 200 156 195 200 156 195 200 156 195 200 156 195 200 156 195 200 156 195 200 156 195 200 156 195 200 156 195 200 156 195 200 156 195 200 156 0 0 255 0 0 255 88 143 69 88 143 69 88 143 69 88 143 69 88 143 69 88 143 69 88 143 69 88 143 69 0 0 255 0 0 255 0 0 255 194 203 167 194 203 167 194 203 167 194 203 167 194 203 167 194 203 167 194 203 167 194 203 167 194 203 167 194 203 167 194 203 167 194 203 167 194 203 167 194 203 167 194 203 167 194 203 167 194 203 167 194 203 167 194 203 167 194 203 167 194 203 167 194 203 167 194 203 167 194 203 167 194 203 167 194 203 167 0 0 255 194 202 172 194 202 172 194 202 172 194 202 172 194 202 172 194 202 172 194 202 172 194 202 172 194 202 172 194 202 172 194 202 172 194 202 172 194 202 172 194 202 172 194 202 172 194 202 172 194 202 172 194 202 172 194 202 172 194 202 172 194 202 172 194 202 172 194 202 172 194 202 172 194 202 172 194 202 172 194 202 172 194 202 172 194 202 172 0 0 255 197 206 175 197 206 175 197 206 175 197 206 175 197 206 175 197 206 175 197 206 175 197 206 175 197 206 175 197 206 175 197 206 175 197 206 175 197 206 175 197 206 175 197 206 175 197 206 175 197 206 175 197 206 175 0 0 255 0 0 255 0 0 255 0 0 255 81 111 57 81 111 57 81 111 57 0 0 255 80 156 72 80 156 72 80 156 72 80 156 72 80 156 72 80 156 72 80 156 72 80 156 72 80 156 72 0 0 255 132 169 96 0 0 255 0 0 255 197 206 175 197 206 175 197 206 175 197 206 175 197 206 175 197 206 175 197 206 175 197 206 175 197 206 175 0 0 255 0 0 255 0 0 255 0 0 255 80 156 72 80 156 72 80 156 72 80 156 72 80 156 72 80 156 72 80 156 72 80 156 72 80 156 72 80 156 72 80 156 72 80 156 72 80 156 72 0 0 255 132 169 96 0 0 255 195 203 174 195 203 174 195 203 174 195 203 174 195 203 174 195 203 174 195 203 174 195 203 174 195 203 174 195 203 174 195 203 174 195 203 174 195 203 174 195 203 174 195 203 174 195 203 174 195 203 174 195 203 174 195 203 174 195 203 174 195 203 174 195 203 174 195 203 174 0 0 255 0 0 255 196 199 169 196 199 169 196 199 169 196 199 169 196 199 169 196 199 169 196 199 169 196 199 169 196 199 169 196 199 169 196 199 169 196 199 169 196 199 169 196 199 169 196 199 169 196 199 169 196 199 169 196 199 169 196 199 169 196 199 169 196 199 169 196 199 169 196 199 169 196 199 169 196 199 169 196 199 169 196 199 169 
189 188 138 189 188 138 189 188 138 189 188 138 189 188 138 189 188 138 189 188 138 189 188 138 189 188 138 189 188 138 189 188 138 189 188 138 189 188 138 189 188 138 189 188 138 189 188 138 189 188 138 189 188 138 189 188 138 189 188 138 189 188 138 189 188 138 189 188 138 189 188 138 189 188 138 189 188 138 189 188 138 0 0 255 0 0 255 195 200 156 195 200 156 195 200 156 195 200 156 195 200 156 195 200 156 195 200 156 195 200 156 195 200 156 195 200 156 195 200 156 195 200 156 195 200 156 195 200 156 195 200 156 195 200 156 195 200 156 195 200 156 195 200 156 195 200 156 195 200 156 195 200 156 195 200 156 195 200 156 195 200 156 195 200 156 195 200 156 195 200 156 195 200 156 195 200 156 195 200 156 195 200 156 195 200 156 195 200 156 195 200 156 195 200 156 0 0 255 0 0 255 88 143 69 88 143 69 88 143 69 88 143 69 88 143 69 88 143 69 88 143 69 88 143 69 88 143 69 88 143 69 0 0 255 0 0 255 0 0 255 194 203 167 194 203 167 194 203 167 194 203 167 194 203 167 194 203 167 194 203 167 194 203 167 194 203 167 194 203 167 194 203 167 194 203 167 194 203 167 194 203 167 194 203 167 194 203 167 194 203 167 194 203 167 194 203 167 194 203 167 194 203 167 194 203 167 194 203 167 194 203 167 194 203 167 0 0 255 194 202 172 194 202 172 194 202 172 194 202 172 194 202 172 194 202 172 194 202 172 194 202 172 194 202 172 194 202 172 194 202 172 194 202 172 194 202 172 194 202 172 194 202 172 194 202 172 194 202 172 194 202 172 194 202 172 194 202 172 194 202 172 194 202 172 194 202 172 194 202 172 194 202 172 194 202 172 194 202 172 194 202 172 194 202 172 0 0 255 197 206 175 197 206 175 197 206 175 197 206 175 197 206 175 197 206 175 197 206 175 197 206 175 197 206 175 197 206 175 197 206 175 197 206 175 197 206 175 197 206 175 197 206 175 197 206 175 197 206 175 197 206 175 197 206 175 0 0 255 0 0 255 0 0 255 0 0 255 81 111 57 81 111 57 0 0 255 0 0 255 80 156 72 80 156 72 80 156 72 80 156 72 80 156 72 80 156 72 80 156 72 0 0 255 132 169 96 0 0 255 0 0 255 197 206 175 197 206 175 197 206 175 197 206 175 197 206 175 197 206 175 197 206 175 197 206 175 197 206 175 0 0 255 0 0 255 0 0 255 80 156 72 80 156 72 80 156 72 80 156 72 80 156 72 80 156 72 80 156 72 80 156 72 80 156 72 80 156 72 80 156 72 80 156 72 80 156 72 80 156 72 0 0 255 132 169 96 0 0 255 0 0 255 195 203 174 195 203 174 195 203 174 195 203 174 195 203 174 195 203 174 195 203 174 195 203 174 195 203 174 195 203 174 195 203 174 195 203 174 195 203 174 195 203 174 195 203 174 195 203 174 195 203 174 195 203 174 195 203 174 195 203 174 195 203 174 195 203 174 195 203 174 195 203 174 0 0 255 196 199 169 196 199 169 196 199 169 196 199 169 196 199 169 196 199 169 196 199 169 196 199 169 196 199 169 196 199 169 196 199 169 196 199 169 196 199 169 196 199 169 196 199 169 196 199 169 196 199 169 196 199 169 196 199 169 196 199 169 196 199 169 196 199 169 196 199 169 196 199 169 196 199 169 196 199 169 196 199 169 
189 188 138 189 188 138 189 188 138 189 188 138 189 188 138 189 188 138 189 188 138 189 188 138 189 188 138 189 188 138 189 188 138 189 188 138 189 188 138 189 188 138 189 188 138 189 188 138 189 188 138 189 188 138 189 188 138 189 188 138 189 188 138 189 188 138 189 188 138 189 188 138 189 188 138 189 188 138 189 188 138 189 188 138 0 0 255 195 200 156 195 200 156 195 200 156 195 200 156 195 200 156 195 200 156 195 200 156 195 200 156 195 200 156 195 200 156 195 200 156 195 200 156 195 200 156 195 200 156 195 200 156 195 200 156 195 200 156 195 200 156 195 200 156 195 200 156 195 200 156 195 200 156 195 200 156 195 200 156 195 200 156 195 200 156 195 200 156 195 200 156 195 200 156 195 200 156 195 200 156 195 200 156 195 200 156 195 200 156 195 200 156 0 0 255 0 0 255 88 143 69 88 143 69 88 143 69 88 143 69 88 143 69 88 143 69 88 143 69 88 143 69 88 143 69 88 143 69 88 143 69 88 143 69 0 0 255 0 0 255 194 203 167 194 203 167 194 203 167 194 203 167 194 203 167 194 203 167 194 203 167 194 203 167 194 203 167 194 203 167 194 203 167 194 203 167 194 203 167 194 203 167 194 203 167 194 203 167 194 203 167 194 203 167 194 203 167 194 203 167 194 203 167 194 203 167 194 203 167 194 203 167 194 203 167 0 0 255 194 202 172 194 202 172 194 202 172 194 202 172 194 202 172 194 202 172 194 202 172 194 202 172 194 202 172 194 202 172 194 202 172 194 202 172 194 202 172 194 202 172 194 202 172 194 202 172 194 202 172 194 202 172 194 202 172 194 202 172 194 202 172 194 202 172 194 202 172 194 202 172 194 202 172 194 202 172 194 202 172 194 202 172 194 202 172 0 0 255 0 0 255 197 206 175 197 206 175 197 206 175 197 206 175 197 206 175 197 206 175 197 206 175 197 206 175 197 206 175 197 206 175 197 206 175 197 206 175 197 206 175 197 206 175 197 206 175 197 206 175 197 206 175 197 206 175 0 0 255 0 0 255 0 0 255 0 0 255 0 0 255 81 111 57 81 111 57 0 0 255 0 0 255 80 156 72 80 156 72 80 156 72 0 0 255 0 0 255 0 0 255 132 169 96 0 0 255 0 0 255 197 206 175 197 206 175 197 206 175 197 206 175 197 206 175 197 206 175 197 206 175 197 206 175 197 206 175 0 0 255 0 0 255 0 0 255 80 156 72 80 156 72 80 156 72 80 156 72 80 156 72 80 156 72 80 156 72 80 156 72 80 156 72 80 156 72 80 156 72 80 156 72 80 156 72 80 156 72 80 156 72 0 0 255 132 169 96 0 0 255 195 203 174 195 203 174 195 203 174 195 203 174 195 203 174 195 203 174 195 203 174 195 203 174 195 203 174 195 203 174 195 203 174 195 203 174 195 203 174 195 203 174 195 203 174 195 203 174 195 203 174 195 203 174 195 203 174 195 203 174 195 203 174 195 203 174 195 203 174 195 203 174 195 203 174 0 0 255 0 0 255 196 199 169 196 199 169 196 199 169 196 199 169 196 199 169 196 199 169 196 199 169 196 199 169 196 199 169 196 199 169 196 199 169 196 199 169 196 199 169 196 199 169 196 199 169 196 199 169 196 199 169 196 199 169 196 199 169 196 199 169 196 199 169 196 199 169 196 199 169 196 199 169 196 199 169 196 199 169 
189 188 138 189 188 138 189 188 138 189 188 138 189 188 138 189 188 138 189 188 138 189 188 138 189 188 138 189 188 138 189 188 138 189 188 138 189 188 138 189 188 138 189 188 138 189 188 138 189 188 138 189 188 138 189 188 138 189 188 138 189 188 138 189 188 138 189 188 138 189 188 138 189 188 138 189 188 138 189 188 138 189 188 138 0 0 255 0 0 255 195 200 156 195 200 156 195 200 156 195 200 156 195 200 156 195 200 156 195 200 156 195 200 156 195 200 156 195 200 156 195 200 156 195 200 156 195 200 156 195 200 156 195 200 156 195 200 156 195 200 156 195 200 156 195 200 156 195 200 156 195 200 156 195 200 156 195 200 156 195 200 156 195 200 156 195 200 156 195 200 156 195 200 156 195 200 156 195 200 156 195 200 156 195 200 156 195 200 156 0 0 255 0 0 255 88 143 69 88 143 69 88 143 69 88 143 69 88 143 69 88 143 69 88 143 69 88 143 69 0 0 255 88 143 69 88 143 69 88 143 69 88 143 69 0 0 255 0 0 255 194 203 167 194 203 167 194 203 167 194 203 167 194 203 167 194 203 167 194 203 167 194 203 167 194 203 167 194 203 167 194 203 167 194 203 167 194 203 167 194 203 167 194 203 167 194 203 167 194 203 167 194 203 167 194 203 167 194 203 167 194 203 167 194 203 167 194 203 167 194 203 167 194 203 167 0 0 255 194 202 172 194 202 172 194 202 172 194 202 172 194 202 172 194 202 172 194 202 172 194 202 172 194 202 172 194 202 172 194 202 172 194 202 172 194 202 172 194 202 172 194 202 172 194 202 172 194 202 172 194 202 172 194 202 172 194 202 172 194 202 172 194 202 172 194 202 172 194 202 172 194 202 172 194 202 172 194 202 172 194 202 172 194 202 172 194 202 172 0 0 255 197 206 175 197 206 175 197 206 175 197 206 175 197 206 175 197 206 175 197 206 175 197 206 175 197 206 175 197 206 175 197 206 175 197 206 175 197 206 175 197 206 175 197 206 175 197 206 175 197 206 175 197 206 175 197 206 175 0 0 255 0 0 255 0 0 255 0 0 255 0 0 255 0 0 255 81 111 57 0 0 255 0 0 255 0 0 255 0 0 255 132 169 96 132 169 96 0 0 255 0 0 255 0 0 255 197 206 175 197 206 175 197 206 175 197 206 175 197 206 175 197 206 175 197 206 175 197 206 175 197 206 175 0 0 255 0 0 255 0 0 255 80 156 72 80 156 72 80 156 72 80 156 72 80 156 72 80 156 72 80 156 72 80 156 72 80 156 72 80 156 72 80 156 72 80 156 72 80 156 72 80 156 72 80 156 72 0 0 255 132 169 96 0 0 255 0 0 255 195 203 174 195 203 174 195 203 174 195 203 174 195 203 174 195 203 174 195 203 174 195 203 174 195 203 174 195 203 174 195 203 174 195 203 174 195 203 174 195 203 174 195 203 174 195 203 174 195 203 174 195 203 174 195 203 174 195 203 174 195 203 174 195 203 174 195 203 174 195 203 174 195 203 174 195 203 174 0 0 255 196 199 169 196 199 169 196 199 169 196 199 169 196 199 169 196 199 169 196 199 169 196 199 169 196 199 169 196 199 169 196 199 169 196 199 169 196 199 169 196 199 169 196 199 169 196 199 169 196 199 169 196 199 169 196 199 169 196 199 169 196 199 169 196 199 169 196 199 169 196 199 169 196 199 169 196 199 169 
189 188 138 189 188 138 189 188 138 189 188 138 189 188 138 189 188 138 189 188 138 189 188 138 189 188 138 189 188 138 189 188 138 189 188 138 189 188 138 189 188 138 189 188 138 189 188 138 189 188 138 189 188 138 189 188 138 189 188 138 189 188 138 189 188 138 189 188 138 189 188 138 189 188 138 189 188 138 189 188 138 189 188 138 189 188 138 0 0 255 195 200 156 195 200 156 195 200 156 195 200 156 195 200 156 195 200 156 195 200 156 195 200 156 195 200 156 195 200 156 195 200 156 195 200 156 195 200 156 195 200 156 195 200 156 195 200 156 195 200 156 195 200 156 195 200 156 195 200 156 195 200 156 195 200 156 195 200 156 195 200 156 195 200 156 195 200 156 195 200 156 195 200 156 195 200 156 195 200 156 195 200 156 195 200 156 0 0 255 0 0 255 88 143 69 88 143 69 88 143 69 88 143 69 88 143 69 88 143 69 88 143 69 88 143 69 0 0 255 0 0 255 0 0 255 88 143 69 88 143 69 88 143 69 0 0 255 0 0 255 194 203 167 194 203 167 194 203 167 194 203 167 194 203 167 194 203 167 194 203 167 194 203 167 194 203 167 194 203 167 194 203 167 194 203 167 194 203 167 194 203 167 194 203 167 194 203 167 194 203 167 194 203 167 194 203 167 194 203 167 194 203 167 194 203 167 194 203 167 194 203 167 194 203 167 0 0 255 194 202 172 194 202 172 194 202 172 194 202 172 194 202 172 194 202 172 194 202 172 194 202 172 194 202 172 194 202 172 194 202 172 194 202 172 194 202 172 194 202 172 194 202 172 194 202 172 194 202 172 194 202 172 194 202 172 194 202 172 194 202 172 194 202 172 194 202 172 194 202 172 194 202 172 194 202 172 194 202 172 194 202 172 194 202 172 194 202 172 0 0 255 197 206 175 197 206 175 197 206 175 197 206 175 197 206 175 197 206 175 197 206 175 197 206 175 197 206 175 197 206 175 197 206 175 197 206 175 197 206 175 197 206 175 197 206 175 197 206 175 197 206 175 197 206 175 197 206 175 197 206 175 0 0 255 0 0 255 0 0 255 0 0 255 0 0 255 0 0 255 0 0 255 0 0 255 0 0 255 0 0 255 0 0 255 0 0 255 0 0 255 0 0 255 197 206 175 197 206 175 197 206 175 197 206 175 197 206 175 197 206 175 197 206 175 197 206 175 197 206 175 0 0 255 132 169 96 0 0 255 80 156 72 80 156 72 80 156 72 80 156 72 80 156 72 80 156 72 80 156 72 80 156 72 80 156 72 80 156 72 80 156 72 80 156 72 80 156 72 80 156 72 80 156 72 80 156 72 0 0 255 0 0 255 0 0 255 195 203 174 195 203 174 195 203 174 195 203 174 195 203 174 195 203 174 195 203 174 195 203 174 195 203 174 195 203 174 195 203 174 195 203 174 195 203 174 195 203 174 195 203 174 195 203 174 195 203 174 195 203 174 195 203 174 195 203 174 195 203 174 195 203 174 195 203 174 195 203 174 195 203 174 195 203 174 195 203 174 0 0 255 0 0 255 196 199 169 196 199 169 196 199 169 196 199 169 196 199 169 196 199 169 196 199 169 196 199 169 196 199 169 196 199 169 196 199 169 196 199 169 196 199 169 196 199 169 196 199 169 196 199 169 196 199 169 196 199 169 196 199 169 196 199 169 196 199 169 196 199 169 196 199 169 196 199 169 196 199 169 
189 188 138 189 188 138 189 188 138 189 188 138 189 188 138 189 188 138 189 188 138 189 188 138 189 188 138 189 188 138 189 188 138 189 188 138 189 188 138 189 188 138 189 188 138 189 188 138 189 188 138 189 188 138 189 188 138 189 188 138 189 188 138 189 188 138 189 188 138 189 188 138 189 188 138 189 188 138 189 188 138 189 188 138 189 188 138 0 0 255 195 200 156 195 200 156 195 200 156 195 200 156 195 200 156 195 200 156 195 200 156 195 200 156 195 200 156 195 200 156 195 200 156 195 200 156 195 200 156 195 200 156 195 200 156 195 200 156 195 200 156 195 200 156 195 200 156 195 200 156 195 200 156 195 200 156 195 200 156 195 200 156 195 200 156 195 200 156 195 200 156 195 200 156 195 200 156 195 200 156 195 200 156 0 0 255 150 161 101 0 0 255 88 143 69 88 143 69 88 143 69 88 143 69 88 143 69 88 143 69 88 143 69 0 0 255 150 161 101 150 161 101 0 0 255 88 143 69 88 143 69 88 143 69 0 0 255 0 0 255 194 203 167 194 203 167 194 203 167 194 203 167 194 203 167 194 203 167 194 203 167 194 203 167 194 203 167 194 203 167 194 203 167 194 203 167 194 203 167 194 203 167 194 203 167 194 203 167 194 203 167 194 203 167 194 203 167 194 203 167 194 203 167 194 203 167 194 203 167 194 203 167 194 203 167 0 0 255 194 202 172 194 202 172 194 202 172 194 202 172 194 202 172 194 202 172 194 202 172 194 202 172 194 202 172 194 202 172 194 202 172 194 202 172 194 202 172 194 202 172 194 202 172 194 202 172 194 202 172 194 202 172 194 202 172 194 202 172 194 202 172 194 202 172 194 202 172 194 202 172 194 202 172 194 202 172 194 202 172 194 202 172 194 202 172 194 202 172 0 0 255 0 0 255 197 206 175 197 206 175 197 206 175 197 206 175 197 206 175 197 206 175 197 206 175 197 206 175 197 206 175 197 206 175 197 206 175 197 206 175 197 206 175 197 206 175 197 206 175 197 206 175 197 206 175 197 206 175 197 206 175 197 206 175 197 206 175 0 0 255 0 0 255 0 0 255 0 0 255 0 0 255 0 0 255 0 0 255 0 0 255 0 0 255 0 0 255 197 206 175 197 206 175 197 206 175 197 206 175 197 206 175 197 206 175 197 206 175 197 206 175 197 206 175 197 206 175 0 0 255 0 0 255 0 0 255 0 0 255 80 156 72 80 156 72 80 156 72 80 156 72 80 156 72 80 156 72 80 156 72 80 156 72 80 156 72 80 156 72 80 156 72 0 0 255 0 0 255 0 0 255 80 156 72 80 156 72 0 0 255 0 0 255 0 0 255 195 203 174 195 203 174 195 203 174 195 203 174 195 203 174 195 203 174 195 203 174 195 203 174 195 203 174 195 203 174 195 203 174 195 203 174 195 203 174 195 203 174 195 203 174 195 203 174 195 203 174 195 203 174 195 203 174 195 203 174 195 203 174 195 203 174 195 203 174 195 203 174 195 203 174 195 203 174 195 203 174 195 203 174 0 0 255 0 0 255 196 199 169 196 199 169 196 199 169 196 199 169 196 199 169 196 199 169 196 199 169 196 199 169 196 199 169 196 199 169 196 199 169 196 199 169 196 199 169 196 199 169 196 199 169 196 199 169 196 199 169 196 199 169 196 199 169 196 199 169 196 199 169 196 199 169 196 199 169 196 199 169 
189 188 138 189 188 138 189 188 138 189 188 138 189 188 138 189 188 138 189 188 138 189 188 138 189 188 138 189 188 138 189 188 138 189 188 138 189 188 138 189 188 138 189 188 138 189 188 138 189 188 138 189 188 138 189 188 138 189 188 138 189 188 138 189 188 138 189 188 138 189 188 138 189 188 138 189 188 138 189 188 138 189 188 138 189 188 138 0 0 255 0 0 255 195 200 156 195 200 156 195 200 156 195 200 156 195 200 156 195 200 156 195 200 156 195 200 156 195 200 156 195 200 156 195 200 156 195 200 156 195 200 156 195 200 156 195 200 156 195 200 156 195 200 156 195 200 156 195 200 156 195 200 156 195 200 156 195 200 156 195 200 156 195 200 156 195 200 156 195 200 156 195 200 156 195 200 156 195 200 156 0 0 255 150 161 101 0 0 255 88 143 69 88 143 69 88 143 69 88 143 69 88 143 69 88 143 69 88 143 69 88 143 69 0 0 255 150 161 101 150 161 101 0 0 255 88 143 69 88 143 69 88 143 69 0 0 255 0 0 255 194 203 167 194 203 167 194 203 167 194 203 167 194 203 167 194 203 167 194 203 167 194 203 167 194 203 167 194 203 167 194 203 167 194 203 167 194 203 167 194 203 167 194 203 167 194 203 167 194 203 167 194 203 167 194 203 167 194 203 167 194 203 167 194 203 167 194 203 167 194 203 167 194 203 167 0 0 255 194 202 172 194 202 172 194 202 172 194 202 172 194 202 172 194 202 172 194 202 172 194 202 172 194 202 172 194 202 172 194 202 172 194 202 172 194 202 172 194 202 172 194 202 172 194 202 172 194 202 172 194 202 172 194 202 172 194 202 172 194 202 172 194 202 172 194 202 172 194 202 172 194 202 172 194 202 172 194 202 172 194 202 172 194 202 172 194 202 172 194 202 172 0 0 255 197 206 175 197 206 175 197 206 175 197 206 175 197 206 175 197 206 175 197 206 175 197 206 175 197 206 175 197 206 175 197 206 175 197 206 175 197 206 175 197 206 175 197 206 175 197 206 175 197 206 175 197 206 175 197 206 175 197 206 175 197 206 175 197 206 175 197 206 175 197 206 175 0 0 255 0 0 255 0 0 255 0 0 255 197 206 175 197 206 175 197 206 175 197 206 175 197 206 175 197 206 175 197 206 175 197 206 175 197 206 175 197 206 175 197 206 175 197 206 175 0 0 255 0 0 255 0 0 255 81 111 57 0 0 255 80 156 72 80 156 72 80 156 72 80 156 72 80 156 72 80 156 72 80 156 72 80 156 72 80 156 72 80 156 72 0 0 255 132 169 96 132 169 96 0 0 255 0 0 255 80 156 72 0 0 255 0 0 255 0 0 255 195 203 174 195 203 174 195 203 174 195 203 174 195 203 174 195 203 174 195 203 174 195 203 174 195 203 174 195 203 174 195 203 174 195 203 174 195 203 174 195 203 174 195 203 174 195 203 174 195 203 174 195 203 174 195 203 174 195 203 174 195 203 174 195 203 174 195 203 174 195 203 174 195 203 174 195 203 174 195 203 174 195 203 174 195 203 174 0 0 255 0 0 255 0 0 255 0 0 255 0 0 255 0 0 255 196 199 169 196 199 169 196 199 169 196 199 169 196 199 169 196 199 169 196 199 169 196 199 169 196 199 169 196 199 169 196 199 169 196 199 169 196 199 169 196 199 169 196 199 169 196 199 169 196 199 169 196 199 169 196 199 169 
189 188 138 189 188 138 189 188 138 189 188 138 189 188 138 189 188 138 189 188 138 189 188 138 189 188 138 189 188 138 189 188 138 189 188 138 189 188 138 189 188 138 189 188 138 189 188 138 189 188 138 189 188 138 189 188 138 189 188 138 189 188 138 189 188 138 189 188 138 189 188 138 189 188 138 189 188 138 189 188 138 189 188 138 189 188 138 189 188 138 0 0 255 195 200 156 195 200 156 195 200 156 195 200 156 195 200 156 195 200 156 195 200 156 195 200 156 195 200 156 195 200 156 195 200 156 195 200 156 195 200 156 195 200 156 195 200 156 195 200 156 195 200 156 195 200 156 195 200 156 195 200 156 195 200 156 195 200 156 195 200 156 195 200 156 195 200 156 195 200 156 195 200 156 195 200 156 195 200 156 0 0 255 0 0 255 88 143 69 88 143 69 88 143 69 88 143 69 88 143 69 88 143 69 88 143 69 88 143 69 88 143 69 0 0 255 0 0 255 0 0 255 88 143 69 88 143 69 88 143 69 88 143 69 0 0 255 0 0 255 194 203 167 194 203 167 194 203 167 194 203 167 194 203 167 194 203 167 194 203 167 194 203 167 194 203 167 194 203 167 194 203 167 194 203 167 194 203 167 194 203 167 194 203 167 194 203 167 194 203 167 194 203 167 194 203 167 194 203 167 194 203 167 194 203 167 194 203 167 194 203 167 194 203 167 0 0 255 194 202 172 194 202 172 194 202 172 194 202 172 194 202 172 194 202 172 194 202 172 194 202 172 194 202 172 194 202 172 194 202 172 194 202 172 194 202 172 194 202 172 194 202 172 194 202 172 194 202 172 194 202 172 194 202 172 194 202 172 194 202 172 194 202 172 194 202 172 194 202 172 194 202 172 194 202 172 194 202 172 194 202 172 194 202 172 194 202 172 194 202 172 0 0 255 0 0 255 197 206 175 197 206 175 197 206 175 197 206 175 197 206 175 197 206 175 197 206 175 197 206 175 197 206 175 197 206 175 197 206 175 197 206 175 197 206 175 197 206 175 197 206 175 197 206 175 197 206 175 197 206 175 197 206 175 197 206 175 197 206 175 197 206 175 197 206 175 197 206 175 197 206 175 197 206 175 197 206 175 197 206 175 197 206 175 197 206 175 197 206 175 197 206 175 197 206 175 197 206 175 197 206 175 197 206 175 197 206 175 197 206 175 0 0 255 0 0 255 0 0 255 0 0 255 81 111 57 0 0 255 80 156 72 80 156 72 80 156 72 80 156 72 80 156 72 80 156 72 80 156 72 80 156 72 80 156 72 0 0 255 132 169 96 132 169 96 132 169 96 132 169 96 0 0 255 80 156 72 0 0 255 132 169 96 0 0 255 195 203 174 195 203 174 195 203 174 195 203 174 195 203 174 195 203 174 195 203 174 195 203 174 195 203 174 195 203 174 195 203 174 195 203 174 195 203 174 195 203 174 195 203 174 195 203 174 195 203 174 195 203 174 195 203 174 195 203 174 195 203 174 195 203 174 195 203 174 195 203 174 195 203 174 195 203 174 195 203 174 195 203 174 195 203 174 0 0 255 195 198 166 195 198 166 195 198 166 195 198 166 0 0 255 0 0 255 0 0 255 0 0 255 0 0 255 0 0 255 0 0 255 0 0 255 0 0 255 0 0 255 0 0 255 0 0 255 0 0 255 0 0 255 0 0 255 0 0 255 0 0 255 0 0 255 0 0 255 196 199 169 
189 188 138 189 188 138 189 188 138 189 188 138 189 188 138 189 188 138 189 188 138 189 188 138 189 188 138 189 188 138 189 188 138 189 188 138 189 188 138 189 188 138 189 188 138 189 188 138 189 188 138 189 188 138 189 188 138 189 188 138 189 188 138 189 188 138 189 188 138 189 188 138 189 188 138 189 188 138 189 188 138 189 188 138 189 188 138 189 188 138 0 0 255 0 0 255 195 200 156 195 200 156 195 200 156 195 200 156 195 200 156 195 200 156 195 200 156 195 200 156 195 200 156 195 200 156 195 200 156 195 200 156 195 200 156 195 200 156 195 200 156 195 200 156 195 200 156 195 200 156 195 200 156 195 200 156 195 200 156 195 200 156 195 200 156 195 200 156 195 200 156 195 200 156 195 200 156 0 0 255 150 161 101 0 0 255 88 143 69 88 143 69 88 143 69 88 143 69 88 143 69 88 143 69 88 143 69 88 143 69 88 143 69 88 143 69 88 143 69 88 143 69 88 143 69 88 143 69 88 143 69 0 0 255 150 161 101 0 0 255 194 203 167 194 203 167 194 203 167 194 203 167 194 203 167 194 203 167 194 203 167 194 203 167 194 203 167 194 203 167 194 203 167 194 203 167 194 203 167 194 203 167 194 203 167 194 203 167 194 203 167 194 203 167 194 203 167 194 203 167 194 203 167 194 203 167 194 203 167 194 203 167 194 203 167 0 0 255 194 202 172 194 202 172 194 202 172 194 202 172 194 202 172 194 202 172 194 202 172 194 202 172 194 202 172 194 202 172 194 202 172 194 202 172 194 202 172 194 202 172 194 202 172 194 202 172 194 202 172 194 202 172 194 202 172 194 202 172 194 202 172 194 202 172 194 202 172 194 202 172 194 202 172 194 202 172 194 202 172 194 202 172 194 202 172 194 202 172 194 202 172 194 202 172 0 0 255 0 0 255 197 206 175 197 206 175 197 206 175 197 206 175 197 206 175 197 206 175 197 206 175 197 206 175 197 206 175 197 206 175 197 206 175 197 206 175 197 206 175 197 206 175 197 206 175 197 206 175 197 206 175 197 206 175 197 206 175 197 206 175 197 206 175 197 206 175 197 206 175 197 206 175 197 206 175 197 206 175 197 206 175 197 206 175 197 206 175 197 206 175 197 206 175 197 206 175 197 206 175 197 206 175 197 206 175 197 206 175 0 0 255 0 0 255 0 0 255 0 0 255 81 111 57 81 111 57 0 0 255 0 0 255 80 156 72 80 156 72 80 156 72 80 156 72 80 156 72 80 156 72 80 156 72 0 0 255 0 0 255 132 169 96 132 169 96 132 169 96 132 169 96 0 0 255 80 156 72 0 0 255 132 169 96 0 0 255 195 203 174 195 203 174 195 203 174 195 203 174 195 203 174 195 203 174 195 203 174 195 203 174 195 203 174 195 203 174 195 203 174 195 203 174 195 203 174 195 203 174 195 203 174 195 203 174 195 203 174 195 203 174 195 203 174 195 203 174 195 203 174 195 203 174 195 203 174 195 203 174 195 203 174 195 203 174 195 203 174 195 203 174 0 0 255 195 198 166 195 198 166 195 198 166 195 198 166 195 198 166 195 198 166 195 198 166 195 198 166 195 198 166 195 198 166 195 198 166 195 198 166 195 198 166 195 198 166 195 198 166 195 198 166 195 198 166 195 198 166 195 198 166 195 198 166 195 198 166 195 198 166 195 198 166 0 0 255 0 0 255 
189 188 138 189 188 138 189 188 138 189 188 138 189 188 138 189 188 138 189 188 138 189 188 138 189 188 138 189 188 138 189 188 138 189 188 138 189 188 138 189 188 138 189 188 138 189 188 138 189 188 138 189 188 138 189 188 138 189 188 138 189 188 138 189 188 138 189 188 138 189 188 138 189 188 138 189 188 138 189 188 138 189 188 138 189 188 138 189 188 138 189 188 138 0 0 255 195 200 156 195 200 156 195 200 156 195 200 156 195 200 156 195 200 156 195 200 156 195 200 156 195 200 156 195 200 156 195 200 156 195 200 156 195 200 156 195 200 156 195 200 156 195 200 156 195 200 156 195 200 156 195 200 156 195 200 156 195 200 156 195 200 156 195 200 156 195 200 156 195 200 156 195 200 156 195 200 156 0 0 255 0 0 255 88 143 69 88 143 69 88 143 69 88 143 69 88 143 69 88 143 69 88 143 69 88 143 69 88 143 69 88 143 69 88 143 69 88 143 69 88 143 69 88 143 69 88 143 69 88 143 69 0 0 255 150 161 101 0 0 255 194 203 167 194 203 167 194 203 167 194 203 167 194 203 167 194 203 167 194 203 167 194 203 167 194 203 167 194 203 167 194 203 167 194 203 167 194 203 167 194 203 167 194 203 167 194 203 167 194 203 167 194 203 167 194 203 167 194 203 167 194 203 167 194 203 167 194 203 167 194 203 167 194 203 167 0 0 255 194 202 172 194 202 172 194 202 172 194 202 172 194 202 172 194 202 172 194 202 172 194 202 172 194 202 172 194 202 172 194 202 172 194 202 172 194 202 172 194 202 172 194 202 172 194 202 172 194 202 172 194 202 172 194 202 172 194 202 172 194 202 172 194 202 172 194 202 172 194 202 172 194 202 172 194 202 172 194 202 172 194 202 172 194 202 172 194 202 172 194 202 172 194 202 172 194 202 172 0 0 255 197 206 175 197 206 175 197 206 175 197 206 175 197 206 175 197 206 175 197 206 175 197 206 175 197 206 175 197 206 175 197 206 175 197 206 175 197 206 175 197 206 175 197 206 175 197 206 175 197 206 175 197 206 175 197 206 175 197 206 175 197 206 175 197 206 175 197 206 175 197 206 175 197 206 175 197 206 175 197 206 175 197 206 175 197 206 175 197 206 175 197 206 175 197 206 175 197 206 175 197 206 175 197 206 175 0 0 255 0 0 255 132 169 96 0 0 255 0 0 255 81 111 57 81 111 57 81 111 57 0 0 255 80 156 72 80 156 72 80 156 72 80 156 72 80 156 72 80 156 72 80 156 72 80 156 72 0 0 255 0 0 255 0 0 255 0 0 255 0 0 255 80 156 72 80 156 72 0 0 255 132 169 96 0 0 255 195 203 174 195 203 174 195 203 174 195 203 174 195 203 174 195 203 174 195 203 174 195 203 174 195 203 174 195 203 174 195 203 174 195 203 174 195 203 174 195 203 174 195 203 174 195 203 174 195 203 174 195 203 174 195 203 174 195 203 174 195 203 174 195 203 174 195 203 174 195 203 174 195 203 174 195 203 174 195 203 174 195 203 174 0 0 255 195 198 166 195 198 166 195 198 166 195 198 166 195 198 166 195 198 166 195 198 166 195 198 166 195 198 166 195 198 166 195 198 166 195 198 166 195 198 166 195 198 166 195 198 166 195 198 166 195 198 166 195 198 166 195 198 166 195 198 166 195 198 166 195 198 166 195 198 166 195 198 166 195 198 166 
189 188 138 189 188 138 189 188 138 189 188 138 189 188 138 189 188 138 189 188 138 189 188 138 189 188 138 189 188 138 189 188 138 189 188 138 189 188 138 189 188 138 189 188 138 189 188 138 189 188 138 189 188 138 189 188 138 189 188 138 189 188 138 189 188 138 189 188 138 189 188 138 189 188 138 189 188 138 189 188 138 189 188 138 189 188 138 189 188 138 189 188 138 0 0 255 195 200 156 195 200 156 195 200 156 195 200 156 195 200 156 195 200 156 195 200 156 195 200 156 195 200 156 195 200 156 195 200 156 195 200 156 195 200 156 195 200 156 195 200 156 195 200 156 195 200 156 195 200 156 195 200 156 195 200 156 195 200 156 195 200 156 195 200 156 195 200 156 195 200 156 195 200 156 0 0 255 150 161 101 0 0 255 88 143 69 88 143 69 88 143 69 88 143 69 88 143 69 88 143 69 88 143 69 88 143 69 88 143 69 88 143 69 88 143 69 88 143 69 88 143 69 88 143 69 88 143 69 88 143 69 0 0 255 0 0 255 194 203 167 194 203 167 194 203 167 194 203 167 194 203 167 194 203 167 194 203 167 194 203 167 194 203 167 194 203 167 194 203 167 194 203 167 194 203 167 194 203 167 194 203 167 194 203 167 194 203 167 194 203 167 194 203 167 194 203 167 194 203 167 194 203 167 194 203 167 194 203 167 194 203 167 194 203 167 0 0 255 194 202 172 194 202 172 194 202 172 194 202 172 194 202 172 194 202 172 194 202 172 194 202 172 194 202 172 194 202 172 194 202 172 194 202 172 194 202 172 194 202 172 194 202 172 194 202 172 194 202 172 194 202 172 194 202 172 194 202 172 194 202 172 194 202 172 194 202 172 194 202 172 194 202 172 194 202 172 194 202 172 194 202 172 194 202 172 194 202 172 194 202 172 194 202 172 194 202 172 0 0 255 0 0 255 197 206 175 197 206 175 197 206 175 197 206 175 197 206 175 197 206 175 197 206 175 197 206 175 197 206 175 197 206 175 197 206 175 197 206 175 197 206 175 197 206 175 197 206 175 197 206 175 197 206 175 197 206 175 197 206 175 197 206 175 197 206 175 197 206 175 197 206 175 197 206 175 197 206 175 197 206 175 197 206 175 197 206 175 197 206 175 197 206 175 197 206 175 197 206 175 197 206 175 0 0 255 183 183 126 0 0 255 0 0 255 0 0 255 0 0 255 81 111 57 81 111 57 81 111 57 0 0 255 0 0 255 80 156 72 80 156 72 80 156 72 80 156 72 80 156 72 80 156 72 80 156 72 80 156 72 80 156 72 80 156 72 80 156 72 80 156 72 80 156 72 80 156 72 0 0 255 132 169 96 0 0 255 195 203 174 195 203 174 195 203 174 195 203 174 195 203 174 195 203 174 195 203 174 195 203 174 195 203 174 195 203 174 195 203 174 195 203 174 195 203 174 195 203 174 195 203 174 195 203 174 195 203 174 195 203 174 195 203 174 195 203 174 195 203 174 195 203 174 195 203 174 195 203 174 195 203 174 195 203 174 195 203 174 195 203 174 0 0 255 195 198 166 195 198 166 195 198 166 195 198 166 195 198 166 195 198 166 195 198 166 195 198 166 195 198 166 195 198 166 195 198 166 195 198 166 195 198 166 195 198 166 195 198 166 195 198 166 195 198 166 195 198 166 195 198 166 195 198 166 195 198 166 195 198 166 195 198 166 195 198 166 195 198 166 
189 188 138 189 188 138 189 188 138 189 188 138 189 188 138 189 188 138 189 188 138 189 188 138 189 188 138 189 188 138 189 188 138 189 188 138 189 188 138 189 188 138 189 188 138 189 188 138 189 188 138 189 188 138 189 188 138 189 188 138 189 188 138 189 188 138 189 188 138 189 188 138 189 188 138 189 188 138 189 188 138 189 188 138 189 188 138 189 188 138 189 188 138 0 0 255 0 0 255 195 200 156 195 200 156 195 200 156 195 200 156 195 200 156 195 200 156 195 200 156 195 200 156 195 200 156 195 200 156 195 200 156 195 200 156 195 200 156 195 200 156 195 200 156 195 200 156 195 200 156 195 200 156 195 200 156 195 200 156 195 200 156 195 200 156 195 200 156 195 200 156 195 200 156 0 0 255 0 0 255 88 143 69 88 143 69 88 143 69 88 143 69 88 143 69 88 143 69 88 143 69 88 143 69 88 143 69 88 143 69 88 143 69 88 143 69 88 143 69 88 143 69 88 143 69 88 143 69 0 0 255 150 161 101 0 0 255 194 203 167 194 203 167 194 203 167 194 203 167 194 203 167 194 203 167 194 203 167 194 203 167 194 203 167 194 203 167 194 203 167 194 203 167 194 203 167 194 203 167 194 203 167 194 203 167 194 203 167 194 203 167 194 203 167 194 203 167 194 203 167 194 203 167 194 203 167 194 203 167 194 203 167 194 203 167 0 0 255 194 202 172 194 202 172 194 202 172 194 202 172 194 202 172 194 202 172 194 202 172 194 202 172 194 202 172 194 202 172 194 202 172 194 202 172 194 202 172 194 202 172 194 202 172 194 202 172 194 202 172 194 202 172 194 202 172 194 202 172 194 202 172 194 202 172 194 202 172 194 202 172 194 202 172 194 202 172 194 202 172 194 202 172 194 202 172 194 202 172 194 202 172 194 202 172 194 202 172 194 202 172 0 0 255 197 206 175 197 206 175 197 206 175 197 206 175 197 206 175 197 206 175 197 206 175 197 206 175 197 206 175 197 206 175 197 206 175 197 206 175 197 206 175 197 206 175 197 206 175 197 206 175 197 206 175 197 206 175 197 206 175 197 206 175 197 206 175 197 206 175 197 206 175 197 206 175 197 206 175 197 206 175 197 206 175 197 206 175 197 206 175 197 206 175 197 206 175 197 206 175 0 0 255 0 0 255 0 0 255 0 0 255 0 0 255 81 111 57 81 111 57 81 111 57 81 111 57 81 111 57 81 111 57 0 0 255 80 156 72 80 156 72 80 156 72 80 156 72 80 156 72 80 156 72 80 156 72 80 156 72 80 156 72 80 156 72 80 156 72 80 156 72 80 156 72 80 156 72 0 0 255 132 169 96 0 0 255 195 203 174 195 203 174 195 203 174 195 203 174 195 203 174 195 203 174 195 203 174 195 203 174 195 203 174 195 203 174 195 203 174 195 203 174 195 203 174 195 203 174 195 203 174 195 203 174 195 203 174 195 203 174 195 203 174 195 203 174 195 203 174 195 203 174 195 203 174 195 203 174 195 203 174 195 203 174 195 203 174 0 0 255 195 198 166 195 198 166 195 198 166 195 198 166 195 198 166 195 198 166 195 198 166 195 198 166 195 198 166 195 198 166 195 198 166 195 198 166 195 198 166 195 198 166 195 198 166 195 198 166 195 198 166 195 198 166 195 198 166 195 198 166 195 198 166 195 198 166 195 198 166 195 198 166 195 198 166 195 198 166 
189 188 138 189 188 138 189 188 138 189 188 138 189 188 138 189 188 138 189 188 138 189 188 138 189 188 138 189 188 138 189 188 138 189 188 138 189 188 138 189 188 138 189 188 138 189 188 138 189 188 138 189 188 138 189 188 138 189 188 138 189 188 138 189 188 138 189 188 138 189 188 138 189 188 138 189 188 138 189 188 138 189 188 138 189 188 138 189 188 138 189 188 138 189 188 138 0 0 255 0 0 255 195 200 156 195 200 156 195 200 156 195 200 156 195 200 156 195 200 156 195 200 156 195 200 156 195 200 156 195 200 156 195 200 156 195 200 156 195 200 156 195 200 156 195 200 156 195 200 156 195 200 156 195 200 156 195 200 156 195 200 156 195 200 156 195 200 156 195 200 156 195 200 156 0 0 255 0 0 255 88 143 69 88 143 69 88 143 69 88 143 69 88 143 69 88 143 69 88 143 69 88 143 69 88 143 69 88 143 69 88 143 69 88 143 69 88 143 69 88 143 69 88 143 69 0 0 255 150 161 101 0 0 255 194 203 167 194 203 167 194 203 167 194 203 167 194 203 167 194 203 167 194 203 167 194 203 167 194 203 167 194 203 167 194 203 167 194 203 167 194 203 167 194 203 167 194 203 167 194 203 167 194 203 167 194 203 167 194 203 167 194 203 167 194 203 167 194 203 167 194 203 167 194 203 167 194 203 167 194 203 167 194 203 167 0 0 255 194 202 172 194 202 172 194 202 172 194 202 172 194 202 172 194 202 172 194 202 172 194 202 172 194 202 172 194 202 172 194 202 172 194 202 172 194 202 172 194 202 172 194 202 172 194 202 172 194 202 172 194 202 172 194 202 172 194 202 172 194 202 172 194 202 172 194 202 172 194 202 172 194 202 172 194 202 172 194 202 172 194 202 172 194 202 172 194 202 172 194 202 172 194 202 172 194 202 172 194 202 172 0 0 255 197 206 175 197 206 175 197 206 175 197 206 175 197 206 175 197 206 175 197 206 175 197 206 175 197 206 175 197 206 175 197 206 175 197 206 175 197 206 175 197 206 175 197 206 175 197 206 175 197 206 175 197 206 175 197 206 175 197 206 175 197 206 175 197 206 175 197 206 175 197 206 175 197 206 175 197 206 175 197 206 175 197 206 175 197 206 175 197 206 175 197 206 175 197 206 175 0 0 255 0 0 255 0 0 255 0 0 255 81 111 57 81 111 57 81 111 57 81 111 57 0 0 255 81 111 57 81 111 57 0 0 255 0 0 255 80 156 72 80 156 72 80 156 72 80 156 72 80 156 72 80 156 72 80 156 72 80 156 72 80 156 72 80 156 72 80 156 72 80 156 72 0 0 255 132 169 96 0 0 255 195 203 174 195 203 174 195 203 174 195 203 174 195 203 174 195 203 174 195 203 174 195 203 174 195 203 174 195 203 174 195 203 174 195 203 174 195 203 174 195 203 174 195 203 174 195 203 174 195 203 174 195 203 174 195 203 174 195 203 174 195 203 174 195 203 174 195 203 174 195 203 174 195 203 174 195 203 174 195 203 174 195 203 174 0 0 255 195 198 166 195 198 166 195 198 166 195 198 166 195 198 166 195 198 166 195 198 166 195 198 166 195 198 166 195 198 166 195 198 166 195 198 166 195 198 166 195 198 166 195 198 166 195 198 166 195 198 166 195 198 166 195 198 166 195 198 166 195 198 166 195 198 166 195 198 166 195 198 166 195 198 166 195 198 166 
189 188 138 189 188 138 189 188 138 189 188 138 189 188 138 189 188 138 189 188 138 189 188 138 189 188 138 189 188 138 189 188 138 189 188 138 189 188 138 189 188 138 189 188 138 189 188 138 189 188 138 189 188 138 189 188 138 189 188 138 189 188 138 189 188 138 189 188 138 189 188 138 189 188 138 189 188 138 189 188 138 189 188 138 189 188 138 189 188 138 189 188 138 189 188 138 189 188 138 0 0 255 195 200 156 195 200 156 195 200 156 195 200 156 195 200 156 195 200 156 195 200 156 195 200 156 195 200 156 195 200 156 195 200 156 195 200 156 195 200 156 195 200 156 195 200 156 195 200 156 195 200 156 195 200 156 195 200 156 195 200 156 195 200 156 195 200 156 195 200 156 0 0 255 0 0 255 0 0 255 88 143 69 88 143 69 88 143 69 88 143 69 88 143 69 88 143 69 88 143 69 88 143 69 88 143 69 88 143 69 88 143 69 88 143 69 88 143 69 88 143 69 88 143 69 0 0 255 0 0 255 0 0 255 194 203 167 194 203 167 194 203 167 194 203 167 194 203 167 194 203 167 194 203 167 194 203 167 194 203 167 194 203 167 194 203 167 194 203 167 194 203 167 194 203 167 194 203 167 194 203 167 194 203 167 194 203 167 194 203 167 194 203 167 194 203 167 194 203 167 194 203 167 194 203 167 194 203 167 194 203 167 194 203 167 0 0 255 194 202 172 194 202 172 194 202 172 194 202 172 194 202 172 194 202 172 194 202 172 194 202 172 194 202 172 194 202 172 194 202 172 194 202 172 194 202 172 194 202 172 194 202 172 194 202 172 194 202 172 194 202 172 194 202 172 194 202 172 194 202 172 194 202 172 194 202 172 194 202 172 194 202 172 194 202 172 194 202 172 194 202 172 194 202 172 194 202 172 194 202 172 194 202 172 194 202 172 194 202 172 0 0 255 0 0 255 197 206 175 197 206 175 197 206 175 197 206 175 197 206 175 197 206 175 197 206 175 197 206 175 197 206 175 197 206 175 197 206 175 197 206 175 197 206 175 197 206 175 197 206 175 197 206 175 197 206 175 197 206 175 197 206 175 197 206 175 197 206 175 197 206 175 197 206 175 197 206 175 197 206 175 197 206 175 197 206 175 197 206 175 197 206 175 197 206 175 197 206 175 0 0 255 0 0 255 0 0 255 0 0 255 0 0 255 81 111 57 81 111 57 0 0 255 0 0 255 0 0 255 81 111 57 81 111 57 0 0 255 80 156 72 80 156 72 80 156 72 80 156 72 80 156 72 80 156 72 80 156 72 80 156 72 80 156 72 80 156 72 80 156 72 80 156 72 0 0 255 132 169 96 0 0 255 195 203 174 195 203 174 195 203 174 195 203 174 195 203 174 195 203 174 195 203 174 195 203 174 195 203 174 195 203 174 195 203 174 195 203 174 195 203 174 195 203 174 195 203 174 195 203 174 195 203 174 195 203 174 195 203 174 195 203 174 195 203 174 195 203 174 195 203 174 195 203 174 195 203 174 195 203 174 195 203 174 0 0 255 195 198 166 195 198 166 195 198 166 195 198 166 195 198 166 195 198 166 195 198 166 195 198 166 195 198 166 195 198 166 195 198 166 195 198 166 195 198 166 195 198 166 195 198 166 195 198 166 195 198 166 195 198 166 195 198 166 195 198 166 195 198 166 195 198 166 195 198 166 195 198 166 195 198 166 195 198 166 195 198 166 
189 188 138 189 188 138 189 188 138 189 188 138 189 188 138 189 188 138 189 188 138 189 188 138 189 188 138 189 188 138 189 188 138 189 188 138 189 188 138 189 188 138 189 188 138 189 188 138 189 188 138 189 188 138 189 188 138 189 188 138 189 188 138 189 188 138 189 188 138 189 188 138 189 188 138 189 188 138 189 188 138 189 188 138 189 188 138 189 188 138 189 188 138 189 188 138 189 188 138 0 0 255 0 0 255 195 200 156 195 200 156 195 200 156 195 200 156 195 200 156 195 200 156 195 200 156 195 200 156 195 200 156 195 200 156 195 200 156 195 200 156 195 200 156 195 200 156 195 200 156 195 200 156 195 200 156 195 200 156 195 200 156 195 200 156 195 200 156 195 200 156 0 0 255 0 0 255 0 0 255 0 0 255 88 143 69 88 143 69 88 143 69 88 143 69 88 143 69 88 143 69 88 143 69 88 143 69 88 143 69 88 143 69 88 143 69 88 143 69 88 143 69 0 0 255 0 0 255 0 0 255 194 203 167 194 203 167 194 203 167 194 203 167 194 203 167 194 203 167 194 203 167 194 203 167 194 203 167 194 203 167 194 203 167 194 203 167 194 203 167 194 203 167 194 203 167 194 203 167 194 203 167 194 203 167 194 203 167 194 203 167 194 203 167 194 203 167 194 203 167 194 203 167 194 203 167 194 203 167 194 203 167 0 0 255 194 202 172 194 202 172 194 202 172 194 202 172 194 202 172 194 202 172 194 202 172 194 202 172 194 202 172 194 202 172 194 202 172 194 202 172 194 202 172 194 202 172 194 202 172 194 202 172 194 202 172 194 202 172 194 202 172 194 202 172 194 202 172 194 202 172 194 202 172 194 202 172 194 202 172 194 202 172 194 202 172 194 202 172 194 202 172 194 202 172 194 202 172 194 202 172 194 202 172 194 202 172 194 202 172 194 202 172 0 0 255 197 206 175 197 206 175 197 206 175 197 206 175 197 206 175 197 206 175 197 206 175 197 206 175 197 206 175 197 206 175 197 206 175 197 206 175 197 206 175 197 206 175 197 206 175 197 206 175 197 206 175 197 206 175 197 206 175 197 206 175 197 206 175 197 206 175 197 206 175 197 206 175 197 206 175 197 206 175 197 206 175 197 206 175 197 206 175 197 206 175 197 206 175 0 0 255 192 201 169 0 0 255 0 0 255 0 0 255 81 111 57 81 111 57 81 111 57 0 0 255 0 0 255 0 0 255 81 111 57 0 0 255 0 0 255 80 156 72 80 156 72 80 156 72 80 156 72 80 156 72 80 156 72 80 156 72 80 156 72 80 156 72 80 156 72 80 156 72 0 0 255 0 0 255 195 203 174 195 203 174 195 203 174 195 203 174 195 203 174 195 203 174 195 203 174 195 203 174 195 203 174 195 203 174 195 203 174 195 203 174 195 203 174 195 203 174 195 203 174 195 203 174 195 203 174 195 203 174 195 203 174 195 203 174 195 203 174 195 203 174 195 203 174 195 203 174 195 203 174 195 203 174 195 203 174 195 203 174 0 0 255 195 198 166 195 198 166 195 198 166 195 198 166 195 198 166 195 198 166 195 198 166 195 198 166 195 198 166 195 198 166 195 198 166 195 198 166 195 198 166 195 198 166 195 198 166 195 198 166 195 198 166 195 198 166 195 198 166 195 198 166 195 198 166 195 198 166 195 198 166 195 198 166 195 198 166 195 198 166 195 198 166 
189 188 138 189 188 138 189 188 138 189 188 138 189 188 138 189 188 138 189 188 138 189 188 138 189 188 138 189 188 138 189 188 138 189 188 138 189 188 138 189 188 138 189 188 138 189 188 138 189 188 138 189 188 138 189 188 138 189 188 138 189 188 138 189 188 138 189 188 138 189 188 138 189 188 138 189 188 138 189 188 138 189 188 138 189 188 138 189 188 138 189 188 138 189 188 138 189 188 138 189 188 138 0 0 255 195 200 156 195 200 156 195 200 156 195 200 156 195 200 156 195 200 156 195 200 156 195 200 156 195 200 156 195 200 156 195 200 156 195 200 156 195 200 156 195 200 156 195 200 156 195 200 156 195 200 156 195 200 156 195 200 156 195 200 156 195 200 156 195 200 156 195 200 156 0 0 255 0 0 255 0 0 255 88 143 69 88 143 69 88 143 69 88 143 69 88 143 69 88 143 69 88 143 69 88 143 69 88 143 69 88 143 69 88 143 69 88 143 69 0 0 255 0 0 255 0 0 255 0 0 255 194 203 167 194 203 167 194 203 167 194 203 167 194 203 167 194 203 167 194 203 167 194 203 167 194 203 167 194 203 167 194 203 167 194 203 167 194 203 167 194 203 167 194 203 167 194 203 167 194 203 167 194 203 167 194 203 167 194 203 167 194 203 167 194 203 167 194 203 167 194 203 167 194 203 167 194 203 167 194 203 167 0 0 255 194 202 172 194 202 172 194 202 172 194 202 172 194 202 172 194 202 172 194 202 172 194 202 172 194 202 172 194 202 172 194 202 172 194 202 172 194 202 172 194 202 172 194 202 172 194 202 172 194 202 172 194 202 172 194 202 172 194 202 172 194 202 172 194 202 172 194 202 172 194 202 172 194 202 172 194 202 172 194 202 172 194 202 172 194 202 172 194 202 172 194 202 172 194 202 172 194 202 172 194 202 172 194 202 172 194 202 172 0 0 255 0 0 255 197 206 175 197 206 175 197 206 175 197 206 175 197 206 175 197 206 175 197 206 175 197 206 175 197 206 175 197 206 175 197 206 175 197 206 175 197 206 175 197 206 175 197 206 175 197 206 175 197 206 175 197 206 175 197 206 175 197 206 175 197 206 175 197 206 175 197 206 175 197 206 175 197 206 175 197 206 175 197 206 175 197 206 175 197 206 175 197 206 175 0 0 255 192 201 169 0 0 255 0 0 255 0 0 255 0 0 255 81 111 57 81 111 57 0 0 255 0 0 255 0 0 255 0 0 255 0 0 255 0 0 255 80 156 72 80 156 72 80 156 72 80 156 72 80 156 72 80 156 72 80 156 72 80 156 72 80 156 72 80 156 72 0 0 255 132 169 96 0 0 255 195 203 174 195 203 174 195 203 174 195 203 174 195 203 174 195 203 174 195 203 174 195 203 174 195 203 174 195 203 174 195 203 174 195 203 174 195 203 174 195 203 174 195 203 174 195 203 174 195 203 174 195 203 174 195 203 174 195 203 174 195 203 174 195 203 174 195 203 174 195 203 174 195 203 174 195 203 174 195 203 174 195 203 174 0 0 255 195 198 166 195 198 166 195 198 166 195 198 166 195 198 166 195 198 166 195 198 166 195 198 166 195 198 166 195 198 166 195 198 166 195 198 166 195 198 166 195 198 166 195 198 166 195 198 166 195 198 166 195 198 166 195 198 166 195 198 166 195 198 166 195 198 166 195 198 166 195 198 166 195 198 166 195 198 166 195 198 166 
189 188 138 189 188 138 189 188 138 189 188 138 189 188 138 189 188 138 189 188 138 189 188 138 189 188 138 189 188 138 189 188 138 189 188 138 189 188 138 189 188 138 189 188 138 189 188 138 189 188 138 189 188 138 189 188 138 189 188 138 189 188 138 189 188 138 189 188 138 189 188 138 189 188 138 189 188 138 189 188 138 189 188 138 189 188 138 189 188 138 189 188 138 189 188 138 189 188 138 189 188 138 0 0 255 0 0 255 195 200 156 195 200 156 195 200 156 195 200 156 195 200 156 195 200 156 195 200 156 195 200 156 195 200 156 195 200 156 195 200 156 195 200 156 195 200 156 195 200 156 195 200 156 195 200 156 195 200 156 195 200 156 195 200 156 195 200 156 195 200 156 195 200 156 0 0 255 0 0 255 0 0 255 0 0 255 88 143 69 88 143 69 88 143 69 88 143 69 88 143 69 88 143 69 88 143 69 88 143 69 88 143 69 88 143 69 0 0 255 0 0 255 191 196 153 0 0 255 194 203 167 194 203 167 194 203 167 194 203 167 194 203 167 194 203 167 194 203 167 194 203 167 194 203 167 194 203 167 194 203 167 194 203 167 194 203 167 194 203 167 194 203 167 194 203 167 194 203 167 194 203 167 194 203 167 194 203 167 194 203 167 194 203 167 194 203 167 194 203 167 194 203 167 194 203 167 194 203 167 194 203 167 0 0 255 194 202 172 194 202 172 194 202 172 194 202 172 194 202 172 194 202 172 194 202 172 194 202 172 194 202 172 194 202 172 194 202 172 194 202 172 194 202 172 194 202 172 194 202 172 194 202 172 194 202 172 194 202 172 194 202 172 194 202 172 194 202 172 194 202 172 194 202 172 194 202 172 194 202 172 194 202 172 194 202 172 194 202 172 194 202 172 194 202 172 194 202 172 194 202 172 194 202 172 194 202 172 194 202 172 194 202 172 194 202 172 0 0 255 197 206 175 197 206 175 197 206 175 197 206 175 197 206 175 197 206 175 197 206 175 197 206 175 197 206 175 197 206 175 197 206 175 197 206 175 197 206 175 197 206 175 197 206 175 197 206 175 197 206 175 197 206 175 197 206 175 197 206 175 197 206 175 197 206 175 197 206 175 197 206 175 197 206 175 197 206 175 197 206 175 197 206 175 197 206 175 0 0 255 192 201 169 192 201 169 0 0 255 0 0 255 0 0 255 0 0 255 0 0 255 81 111 57 81 111 57 0 0 255 0 0 255 0 0 255 80 156 72 80 156 72 80 156 72 80 156 72 80 156 72 80 156 72 80 156 72 80 156 72 80 156 72 80 156 72 0 0 255 0 0 255 132 169 96 0 0 255 195 203 174 195 203 174 195 203 174 195 203 174 195 203 174 195 203 174 195 203 174 195 203 174 195 203 174 195 203 174 195 203 174 195 203 174 195 203 174 195 203 174 195 203 174 195 203 174 195 203 174 195 203 174 195 203 174 195 203 174 195 203 174 195 203 174 195 203 174 195 203 174 195 203 174 195 203 174 195 203 174 195 203 174 0 0 255 195 198 166 195 198 166 195 198 166 195 198 166 195 198 166 195 198 166 195 198 166 195 198 166 195 198 166 195 198 166 195 198 166 195 198 166 195 198 166 195 198 166 195 198 166 195 198 166 195 198 166 195 198 166 195 198 166 195 198 166 195 198 166 195 198 166 195 198 166 195 198 166 195 198 166 195 198 166 195 198 166 195 198 166 
189 188 138 189 188 138 189 188 138 189 188 138 189 188 138 189 188 138 189 188 138 189 188 138 189 188 138 189 188 138 189 188 138 189 188 138 189 188 138 189 188 138 189 188 138 189 188 138 189 188 138 189 188 138 189 188 138 189 188 138 189 188 138 189 188 138 189 188 138 189 188 138 189 188 138 189 188 138 189 188 138 189 188 138 189 188 138 189 188 138 189 188 138 189 188 138 189 188 138 189 188 138 189 188 138 0 0 255 0 0 255 195 200 156 195 200 156 195 200 156 195 200 156 195 200 156 195 200 156 195 200 156 195 200 156 195 200 156 195 200 156 195 200 156 195 200 156 195 200 156 195 200 156 195 200 156 195 200 156 195 200 156 195 200 156 195 200 156 195 200 156 0 0 255 191 196 153 0 0 255 0 0 255 0 0 255 0 0 255 0 0 255 88 143 69 88 143 69 88 143 69 88 143 69 88 143 69 88 143 69 0 0 255 0 0 255 0 0 255 191 196 153 0 0 255 194 203 167 194 203 167 194 203 167 194 203 167 194 203 167 194 203 167 194 203 167 194 203 167 194 203 167 194 203 167 194 203 167 194 203 167 194 203 167 194 203 167 194 203 167 194 203 167 194 203 167 194 203 167 194 203 167 194 203 167 194 203 167 194 203 167 194 203 167 194 203 167 194 203 167 194 203 167 194 203 167 194 203 167 194 203 167 0 0 255 194 202 172 194 202 172 194 202 172 194 202 172 194 202 172 194 202 172 194 202 172 194 202 172 194 202 172 194 202 172 194 202 172 194 202 172 194 202 172 194 202 172 194 202 172 194 202 172 194 202 172 194 202 172 194 202 172 194 202 172 194 202 172 194 202 172 194 202 172 194 202 172 194 202 172 194 202 172 194 202 172 194 202 172 194 202 172 194 202 172 194 202 172 194 202 172 194 202 172 194 202 172 194 202 172 194 202 172 194 202 172 0 0 255 197 206 175 197 206 175 197 206 175 197 206 175 197 206 175 197 206 175 197 206 175 197 206 175 197 206 175 197 206 175 197 206 175 197 206 175 197 206 175 197 206 175 197 206 175 197 206 175 197 206 175 197 206 175 197 206 175 197 206 175 197 206 175 197 206 175 197 206 175 197 206 175 197 206 175 197 206 175 197 206 175 197 206 175 0 0 255 192 201 169 192 201 169 192 201 169 192 201 169 0 0 255 0 0 255 0 0 255 0 0 255 0 0 255 81 111 57 81 111 57 81 111 57 0 0 255 0 0 255 0 0 255 80 156 72 80 156 72 80 156 72 80 156 72 80 156 72 80 156 72 0 0 255 0 0 255 132 169 96 0 0 255 0 0 255 195 203 174 195 203 174 195 203 174 195 203 174 195 203 174 195 203 174 195 203 174 195 203 174 195 203 174 195 203 174 195 203 174 195 203 174 195 203 174 195 203 174 195 203 174 195 203 174 195 203 174 195 203 174 195 203 174 195 203 174 195 203 174 195 203 174 195 203 174 195 203 174 195 203 174 195 203 174 195 203 174 195 203 174 195 203 174 0 0 255 195 198 166 195 198 166 195 198 166 195 198 166 195 198 166 195 198 166 195 198 166 195 198 166 195 198 166 195 198 166 195 198 166 195 198 166 195 198 166 195 198 166 195 198 166 195 198 166 195 198 166 195 198 166 195 198 166 195 198 166 195 198 166 195 198 166 195 198 166 195 198 166 195 198 166 195 198 166 195 198 166 195 198 166 
189 188 138 189 188 138 189 188 138 189 188 138 189 188 138 189 188 138 189 188 138 189 188 138 189 188 138 189 188 138 189 188 138 189 188 138 189 188 138 189 188 138 189 188 138 189 188 138 189 188 138 189 188 138 189 188 138 189 188 138 189 188 138 189 188 138 189 188 138 189 188 138 189 188 138 189 188 138 189 188 138 189 188 138 189 188 138 189 188 138 189 188 138 189 188 138 189 188 138 189 188 138 189 188 138 189 188 138 0 0 255 0 0 255 195 200 156 195 200 156 195 200 156 195 200 156 195 200 156 195 200 156 195 200 156 195 200 156 195 200 156 195 200 156 195 200 156 195 200 156 195 200 156 195 200 156 195 200 156 195 200 156 195 200 156 195 200 156 0 0 255 0 0 255 191 196 153 191 196 153 191 196 153 0 0 255 0 0 255 0 0 255 0 0 255 0 0 255 0 0 255 0 0 255 0 0 255 0 0 255 0 0 255 0 0 255 191 196 153 0 0 255 194 203 167 194 203 167 194 203 167 194 203 167 194 203 167 194 203 167 194 203 167 194 203 167 194 203 167 194 203 167 194 203 167 194 203 167 194 203 167 194 203 167 194 203 167 194 203 167 194 203 167 194 203 167 194 203 167 194 203 167 194 203 167 194 203 167 194 203 167 194 203 167 194 203 167 194 203 167 194 203 167 194 203 167 194 203 167 194 203 167 0 0 255 194 202 172 194 202 172 194 202 172 194 202 172 194 202 172 194 202 172 194 202 172 194 202 172 194 202 172 194 202 172 194 202 172 194 202 172 194 202 172 194 202 172 194 202 172 194 202 172 194 202 172 194 202 172 194 202 172 194 202 172 194 202 172 194 202 172 194 202 172 194 202 172 194 202 172 194 202 172 194 202 172 194 202 172 194 202 172 194 202 172 194 202 172 194 202 172 194 202 172 194 202 172 194 202 172 194 202 172 194 202 172 0 0 255 0 0 255 0 0 255 0 0 255 197 206 175 197 206 175 197 206 175 197 206 175 197 206 175 197 206 175 197 206 175 197 206 175 197 206 175 197 206 175 197 206 175 197 206 175 197 206 175 197 206 175 197 206 175 197 206 175 197 206 175 197 206 175 197 206 175 197 206 175 197 206 175 197 206 175 197 206 175 0 0 255 0 0 255 192 201 169 192 201 169 192 201 169 192 201 169 192 201 169 192 201 169 0 0 255 0 0 255 0 0 255 0 0 255 0 0 255 0 0 255 81 111 57 81 111 57 81 111 57 0 0 255 0 0 255 0 0 255 80 156 72 80 156 72 80 156 72 0 0 255 132 169 96 132 169 96 0 0 255 0 0 255 195 203 174 195 203 174 195 203 174 195 203 174 195 203 174 195 203 174 195 203 174 195 203 174 195 203 174 195 203 174 195 203 174 195 203 174 195 203 174 195 203 174 195 203 174 195 203 174 195 203 174 195 203 174 195 203 174 195 203 174 195 203 174 195 203 174 195 203 174 195 203 174 195 203 174 195 203 174 195 203 174 195 203 174 195 203 174 195 203 174 0 0 255 195 198 166 195 198 166 195 198 166 195 198 166 195 198 166 195 198 166 195 198 166 195 198 166 195 198 166 195 198 166 195 198 166 195 198 166 195 198 166 195 198 166 195 198 166 195 198 166 195 198 166 195 198 166 195 198 166 195 198 166 195 198 166 195 198 166 195 198 166 195 198 166 195 198 166 195 198 166 195 198 166 195 198 166 
189 188 138 189 188 138 189 188 138 189 188 138 189 188 138 189 188 138 189 188 138 189 188 138 189 188 138 189 188 138 189 188 138 189 188 138 189 188 138 189 188 138 189 188 138 189 188 138 189 188 138 189 188 138 189 188 138 189 188 138 189 188 138 189 188 138 189 188 138 189 188 138 189 188 138 189 188 138 189 188 138 189 188 138 189 188 138 189 188 138 189 188 138 189 188 138 189 188 138 189 188 138 189 188 138 189 188 138 189 188 138 0 0 255 195 200 156 195 200 156 195 200 156 195 200 156 195 200 156 195 200 156 195 200 156 195 200 156 195 200 156 195 200 156 195 200 156 195 200 156 195 200 156 195 200 156 195 200 156 0 0 255 0 0 255 0 0 255 191 196 153 191 196 153 191 196 153 191 196 153 191 196 153 191 196 153 191 196 153 0 0 255 0 0 255 0 0 255 0 0 255 0 0 255 0 0 255 0 0 255 191 196 153 191 196 153 191 196 153 0 0 255 194 203 167 194 203 167 194 203 167 194 203 167 194 203 167 194 203 167 194 203 167 194 203 167 194 203 167 194 203 167 194 203 167 194 203 167 194 203 167 194 203 167 194 203 167 194 203 167 194 203 167 194 203 167 194 203 167 194 203 167 194 203 167 194 203 167 194 203 167 194 203 167 194 203 167 194 203 167 194 203 167 194 203 167 194 203 167 194 203 167 0 0 255 194 202 172 194 202 172 194 202 172 194 202 172 194 202 172 194 202 172 194 202 172 194 202 172 194 202 172 194 202 172 194 202 172 194 202 172 194 202 172 194 202 172 194 202 172 194 202 172 194 202 172 194 202 172 194 202 172 194 202 172 194 202 172 194 202 172 194 202 172 194 202 172 194 202 172 194 202 172 194 202 172 194 202 172 194 202 172 194 202 172 194 202 172 194 202 172 194 202 172 194 202 172 194 202 172 194 202 172 194 202 172 194 202 172 0 0 255 192 200 168 0 0 255 0 0 255 0 0 255 0 0 255 0 0 255 0 0 255 0 0 255 0 0 255 197 206 175 197 206 175 197 206 175 197 206 175 197 206 175 197 206 175 197 206 175 197 206 175 197 206 175 197 206 175 197 206 175 197 206 175 197 206 175 0 0 255 0 0 255 0 0 255 192 201 169 192 201 169 192 201 169 192 201 169 192 201 169 192 201 169 192 201 169 192 201 169 192 201 169 192 201 169 0 0 255 0 0 255 0 0 255 0 0 255 0 0 255 0 0 255 0 0 255 81 111 57 81 111 57 0 0 255 0 0 255 80 156 72 0 0 255 132 169 96 132 169 96 0 0 255 0 0 255 0 0 255 195 203 174 195 203 174 195 203 174 195 203 174 195 203 174 195 203 174 195 203 174 195 203 174 195 203 174 195 203 174 195 203 174 195 203 174 195 203 174 195 203 174 195 203 174 195 203 174 195 203 174 195 203 174 195 203 174 195 203 174 195 203 174 195 203 174 195 203 174 195 203 174 195 203 174 195 203 174 195 203 174 195 203 174 195 203 174 0 0 255 195 198 166 195 198 166 195 198 166 195 198 166 195 198 166 195 198 166 195 198 166 195 198 166 195 198 166 195 198 166 195 198 166 195 198 166 195 198 166 195 198 166 195 198 166 195 198 166 195 198 166 195 198 166 195 198 166 195 198 166 195 198 166 195 198 166 195 198 166 195 198 166 195 198 166 195 198 166 195 198 166 195 198 166 195 198 166 
189 188 138 189 188 138 189 188 138 189 188 138 189 188 138 189 188 138 189 188 138 189 188 138 189 188 138 189 188 138 189 188 138 189 188 138 189 188 138 189 188 138 189 188 138 189 188 138 189 188 138 189 188 138 189 188 138 189 188 138 189 188 138 189 188 138 189 188 138 189 188 138 189 188 138 189 188 138 189 188 138 189 188 138 189 188 138 189 188 138 189 188 138 189 188 138 189 188 138 189 188 138 189 188 138 189 188 138 0 0 255 0 0 255 0 0 255 0 0 255 195 200 156 195 200 156 195 200 156 195 200 156 195 200 156 195 200 156 195 200 156 195 200 156 195 200 156 195 200 156 0 0 255 0 0 255 0 0 255 191 196 153 191 196 153 191 196 153 191 196 153 191 196 153 191 196 153 191 196 153 191 196 153 191 196 153 191 196 153 191 196 153 191 196 153 191 196 153 191 196 153 191 196 153 191 196 153 191 196 153 191 196 153 191 196 153 191 196 153 0 0 255 194 203 167 194 203 167 194 203 167 194 203 167 194 203 167 194 203 167 194 203 167 194 203 167 194 203 167 194 203 167 194 203 167 194 203 167 194 203 167 194 203 167 194 203 167 194 203 167 194 203 167 194 203 167 194 203 167 194 203 167 194 203 167 194 203 167 194 203 167 194 203 167 194 203 167 194 203 167 194 203 167 194 203 167 194 203 167 194 203 167 0 0 255 194 202 172 194 202 172 194 202 172 194 202 172 194 202 172 194 202 172 194 202 172 194 202 172 194 202 172 194 202 172 194 202 172 194 202 172 194 202 172 194 202 172 194 202 172 194 202 172 194 202 172 194 202 172 194 202 172 194 202 172 194 202 172 194 202 172 194 202 172 194 202 172 194 202 172 194 202 172 194 202 172 194 202 172 194 202 172 194 202 172 194 202 172 194 202 172 194 202 172 194 202 172 194 202 172 194 202 172 194 202 172 0 0 255 192 200 168 192 200 168 192 200 168 192 200 168 192 200 168 192 200 168 192 200 168 192 200 168 192 200 168 0 0 255 0 0 255 0 0 255 0 0 255 0 0 255 0 0 255 0 0 255 0 0 255 0 0 255 197 206 175 197 206 175 197 206 175 0 0 255 0 0 255 192 201 169 192 201 169 192 201 169 192 201 169 192 201 169 192 201 169 192 201 169 192 201 169 192 201 169 192 201 169 192 201 169 192 201 169 192 201 169 192 201 169 0 0 255 0 0 255 0 0 255 0 0 255 0 0 255 0 0 255 0 0 255 0 0 255 0 0 255 0 0 255 0 0 255 0 0 255 0 0 255 0 0 255 192 201 169 0 0 255 195 203 174 195 203 174 195 203 174 195 203 174 195 203 174 195 203 174 195 203 174 195 203 174 195 203 174 195 203 174 195 203 174 195 203 174 195 203 174 195 203 174 195 203 174 195 203 174 195 203 174 195 203 174 195 203 174 195 203 174 195 203 174 195 203 174 195 203 174 195 203 174 195 203 174 195 203 174 195 203 174 195 203 174 195 203 174 195 203 174 0 0 255 195 198 166 195 198 166 195 198 166 195 198 166 195 198 166 195 198 166 195 198 166 195 198 166 195 198 166 195 198 166 195 198 166 195 198 166 195 198 166 195 198 166 195 198 166 195 198 166 195 198 166 195 198 166 195 198 166 195 198 166 195 198 166 195 198 166 195 198 166 195 198 166 195 198 166 195 198 166 195 198 166 195 198 166 195 198 166 
189 188 138 189 188 138 189 188 138 189 188 138 189 188 138 189 188 138 189 188 138 189 188 138 189 188 138 189 188 138 189 188 138 189 188 138 189 188 138 189 188 138 189 188 138 189 188 138 189 188 138 189 188 138 189 188 138 189 188 138 189 188 138 189 188 138 189 188 138 189 188 138 189 188 138 189 188 138 189 188 138 189 188 138 189 188 138 189 188 138 189 188 138 189 188 138 189 188 138 189 188 138 189 188 138 0 0 255 190 191 141 190 191 141 190 191 141 0 0 255 0 0 255 0 0 255 0 0 255 195 200 156 195 200 156 195 200 156 195 200 156 195 200 156 0 0 255 0 0 255 191 196 153 191 196 153 191 196 153 191 196 153 191 196 153 191 196 153 191 196 153 191 196 153 191 196 153 191 196 153 191 196 153 191 196 153 191 196 153 191 196 153 191 196 153 191 196 153 191 196 153 191 196 153 191 196 153 191 196 153 191 196 153 191 196 153 191 196 153 0 0 255 0 0 255 194 203 167 194 203 167 194 203 167 194 203 167 194 203 167 194 203 167 194 203 167 194 203 167 194 203 167 194 203 167 194 203 167 194 203 167 194 203 167 194 203 167 194 203 167 194 203 167 194 203 167 194 203 167 194 203 167 194 203 167 194 203 167 194 203 167 194 203 167 194 203 167 194 203 167 194 203 167 194 203 167 194 203 167 194 203 167 0 0 255 194 202 172 194 202 172 194 202 172 194 202 172 194 202 172 194 202 172 194 202 172 194 202 172 194 202 172 194 202 172 194 202 172 194 202 172 194 202 172 194 202 172 194 202 172 194 202 172 194 202 172 194 202 172 194 202 172 194 202 172 194 202 172 194 202 172 194 202 172 194 202 172 194 202 172 194 202 172 194 202 172 194 202 172 194 202 172 194 202 172 194 202 172 194 202 172 194 202 172 194 202 172 194 202 172 194 202 172 0 0 255 192 200 168 192 200 168 192 200 168 192 200 168 192 200 168 192 200 168 192 200 168 192 200 168 192 200 168 192 200 168 192 200 168 192 200 168 192 200 168 192 200 168 192 200 168 192 200 168 192 200 168 192 200 168 0 0 255 0 0 255 0 0 255 0 0 255 192 201 169 192 201 169 192 201 169 192 201 169 192 201 169 192 201 169 192 201 169 192 201 169 192 201 169 192 201 169 192 201 169 192 201 169 192 201 169 192 201 169 192 201 169 192 201 169 192 201 169 0 0 255 0 0 255 0 0 255 0 0 255 0 0 255 0 0 255 0 0 255 0 0 255 0 0 255 0 0 255 0 0 255 192 201 169 192 201 169 192 201 169 0 0 255 195 203 174 195 203 174 195 203 174 195 203 174 195 203 174 195 203 174 195 203 174 195 203 174 195 203 174 195 203 174 195 203 174 195 203 174 195 203 174 195 203 174 195 203 174 195 203 174 195 203 174 195 203 174 195 203 174 195 203 174 195 203 174 195 203 174 195 203 174 195 203 174 195 203 174 195 203 174 195 203 174 195 203 174 195 203 174 0 0 255 195 198 166 195 198 166 195 198 166 195 198 166 195 198 166 195 198 166 195 198 166 195 198 166 195 198 166 195 198 166 195 198 166 195 198 166 195 198 166 195 198 166 195 198 166 195 198 166 195 198 166 195 198 166 195 198 166 195 198 166 195 198 166 195 198 166 195 198 166 195 198 166 195 198 166 195 198 166 195 198 166 195 198 166 195 198 166 195 198 166 
189 188 138 189 188 138 189 188 138 189 188 138 189 188 138 189 188 138 189 188 138 189 188 138 189 188 138 189 188 138 189 188 138 189 188 138 189 188 138 189 188 138 189 188 138 189 188 138 189 188 138 189 188 138 189 188 138 189 188 138 189 188 138 189 188 138 189 188 138 189 188 138 189 188 138 189 188 138 189 188 138 189 188 138 189 188 138 189 188 138 189 188 138 189 188 138 189 188 138 189 188 138 0 0 255 190 191 141 190 191 141 190 191 141 190 191 141 190 191 141 190 191 141 190 191 141 0 0 255 0 0 255 0 0 255 0 0 255 0 0 255 0 0 255 191 196 153 191 196 153 191 196 153 191 196 153 191 196 153 191 196 153 191 196 153 191 196 153 191 196 153 191 196 153 191 196 153 191 196 153 191 196 153 191 196 153 191 196 153 191 196 153 191 196 153 191 196 153 191 196 153 191 196 153 191 196 153 191 196 153 191 196 153 191 196 153 191 196 153 191 196 153 0 0 255 194 203 167 194 203 167 194 203 167 194 203 167 194 203 167 194 203 167 194 203 167 194 203 167 194 203 167 194 203 167 194 203 167 194 203 167 194 203 167 194 203 167 194 203 167 194 203 167 194 203 167 194 203 167 194 203 167 194 203 167 194 203 167 194 203 167 194 203 167 194 203 167 194 203 167 194 203 167 194 203 167 194 203 167 194 203 167 0 0 255 194 202 172 194 202 172 194 202 172 194 202 172 194 202 172 194 202 172 194 202 172 194 202 172 194 202 172 194 202 172 194 202 172 194 202 172 194 202 172 194 202 172 194 202 172 194 202 172 194 202 172 194 202 172 194 202 172 194 202 172 194 202 172 194 202 172 194 202 172 194 202 172 194 202 172 194 202 172 194 202 172 194 202 172 194 202 172 194 202 172 194 202 172 194 202 172 194 202 172 194 202 172 194 202 172 0 0 255 192 200 168 192 200 168 192 200 168 192 200 168 192 200 168 192 200 168 192 200 168 192 200 168 192 200 168 192 200 168 192 200 168 192 200 168 192 200 168 192 200 168 192 200 168 192 200 168 192 200 168 192 200 168 192 200 168 192 200 168 192 200 168 192 200 168 0 0 255 192 201 169 192 201 169 192 201 169 192 201 169 192 201 169 192 201 169 192 201 169 192 201 169 192 201 169 192 201 169 192 201 169 192 201 169 192 201 169 192 201 169 192 201 169 192 201 169 192 201 169 192 201 169 192 201 169 192 201 169 192 201 169 192 201 169 192 201 169 192 201 169 192 201 169 192 201 169 192 201 169 192 201 169 192 201 169 192 201 169 0 0 255 195 203 174 195 203 174 195 203 174 195 203 174 195 203 174 195 203 174 195 203 174 195 203 174 195 203 174 195 203 174 195 203 174 195 203 174 195 203 174 195 203 174 195 203 174 195 203 174 195 203 174 195 203 174 195 203 174 195 203 174 195 203 174 195 203 174 195 203 174 195 203 174 195 203 174 195 203 174 195 203 174 195 203 174 195 203 174 195 203 174 0 0 255 195 198 166 195 198 166 195 198 166 195 198 166 195 198 166 195 198 166 195 198 166 195 198 166 195 198 166 195 198 166 195 198 166 195 198 166 195 198 166 195 198 166 195 198 166 195 198 166 195 198 166 195 198 166 195 198 166 195 198 166 195 198 166 195 198 166 195 198 166 195 198 166 195 198 166 195 198 166 195 198 166 195 198 166 195 198 166 195 198 166 
189 188 138 0 0 255 0 0 255 0 0 255 0 0 255 189 188 138 189 188 138 189 188 138 189 188 138 189 188 138 189 188 138 189 188 138 189 188 138 189 188 138 189 188 138 189 188 138 189 188 138 189 188 138 189 188 138 189 188 138 189 188 138 189 188 138 189 188 138 189 188 138 189 188 138 189 188 138 189 188 138 189 188 138 189 188 138 189 188 138 189 188 138 189 188 138 189 188 138 0 0 255 190 191 141 190 191 141 190 191 141 190 191 141 190 191 141 190 191 141 190 191 141 190 191 141 190 191 141 190 191 141 0 0 255 0 0 255 191 196 153 191 196 153 191 196 153 191 196 153 191 196 153 191 196 153 191 196 153 191 196 153 191 196 153 191 196 153 191 196 153 191 196 153 191 196 153 191 196 153 191 196 153 191 196 153 191 196 153 191 196 153 191 196 153 191 196 153 191 196 153 191 196 153 191 196 153 191 196 153 191 196 153 191 196 153 191 196 153 191 196 153 0 0 255 194 203 167 194 203 167 194 203 167 194 203 167 194 203 167 194 203 167 194 203 167 194 203 167 194 203 167 194 203 167 194 203 167 194 203 167 194 203 167 194 203 167 194 203 167 194 203 167 194 203 167 194 203 167 194 203 167 194 203 167 194 203 167 194 203 167 194 203 167 194 203 167 194 203 167 194 203 167 194 203 167 194 203 167 194 203 167 0 0 255 194 202 172 194 202 172 194 202 172 194 202 172 194 202 172 194 202 172 194 202 172 194 202 172 194 202 172 194 202 172 194 202 172 194 202 172 194 202 172 194 202 172 194 202 172 194 202 172 194 202 172 194 202 172 194 202 172 194 202 172 194 202 172 194 202 172 194 202 172 194 202 172 194 202 172 194 202 172 194 202 172 194 202 172 194 202 172 194 202 172 194 202 172 194 202 172 194 202 172 0 0 255 0 0 255 192 200 168 192 200 168 192 200 168 192 200 168 192 200 168 192 200 168 192 200 168 192 200 168 192 200 168 192 200 168 192 200 168 192 200 168 192 200 168 192 200 168 192 200 168 192 200 168 192 200 168 192 200 168 192 200 168 192 200 168 192 200 168 192 200 168 192 200 168 0 0 255 192 201 169 192 201 169 192 201 169 192 201 169 192 201 169 192 201 169 192 201 169 192 201 169 192 201 169 192 201 169 192 201 169 192 201 169 192 201 169 192 201 169 192 201 169 192 201 169 192 201 169 192 201 169 192 201 169 192 201 169 192 201 169 192 201 169 192 201 169 192 201 169 192 201 169 192 201 169 192 201 169 192 201 169 192 201 169 192 201 169 0 0 255 195 203 174 195 203 174 195 203 174 195 203 174 195 203 174 195 203 174 195 203 174 195 203 174 195 203 174 195 203 174 195 203 174 195 203 174 195 203 174 195 203 174 195 203 174 195 203 174 195 203 174 195 203 174 195 203 174 195 203 174 195 203 174 195 203 174 195 203 174 195 203 174 195 203 174 195 203 174 195 203 174 195 203 174 195 203 174 195 203 174 0 0 255 195 198 166 195 198 166 195 198 166 195 198 166 195 198 166 195 198 166 195 198 166 195 198 166 195 198 166 195 198 166 195 198 166 195 198 166 195 198 166 195 198 166 195 198 166 195 198 166 195 198 166 195 198 166 195 198 166 195 198 166 195 198 166 195 198 166 195 198 166 195 198 166 195 198 166 195 198 166 195 198 166 195 198 166 195 198 166 195 198 166 
0 0 255 185 180 125 185 180 125 185 180 125 0 0 255 0 0 255 0 0 255 0 0 255 189 188 138 189 188 138 189 188 138 189 188 138 189 188 138 189 188 138 189 188 138 189 188 138 189 188 138 189 188 138 189 188 138 189 188 138 189 188 138 189 188 138 189 188 138 189 188 138 189 188 138 189 188 138 189 188 138 189 188 138 189 188 138 189 188 138 189 188 138 189 188 138 0 0 255 190 191 141 190 191 141 190 191 141 190 191 141 190 191 141 190 191 141 190 191 141 190 191 141 190 191 141 190 191 141 190 191 141 190 191 141 0 0 255 191 196 153 191 196 153 191 196 153 191 196 153 191 196 153 191 196 153 191 196 153 191 196 153 191 196 153 191 196 153 191 196 153 191 196 153 191 196 153 191 196 153 191 196 153 191 196 153 191 196 153 191 196 153 191 196 153 191 196 153 191 196 153 191 196 153 191 196 153 191 196 153 191 196 153 191 196 153 191 196 153 191 196 153 0 0 255 0 0 255 194 203 167 194 203 167 194 203 167 194 203 167 194 203 167 194 203 167 194 203 167 194 203 167 194 203 167 194 203 167 194 203 167 194 203 167 194 203 167 194 203 167 194 203 167 194 203 167 194 203 167 194 203 167 194 203 167 194 203 167 194 203 167 194 203 167 194 203 167 194 203 167 194 203 167 194 203 167 194 203 167 194 203 167 0 0 255 194 202 172 194 202 172 194 202 172 194 202 172 194 202 172 194 202 172 194 202 172 194 202 172 194 202 172 194 202 172 194 202 172 194 202 172 194 202 172 194 202 172 194 202 172 194 202 172 194 202 172 194 202 172 194 202 172 194 202 172 194 202 172 194 202 172 194 202 172 194 202 172 194 202 172 194 202 172 194 202 172 194 202 172 194 202 172 194 202 172 194 202 172 194 202 172 0 0 255 192 200 168 192 200 168 192 200 168 192 200 168 192 200 168 192 200 168 192 200 168 192 200 168 192 200 168 192 200 168 192 200 168 192 200 168 192 200 168 192 200 168 192 200 168 192 200 168 192 200 168 192 200 168 192 200 168 192 200 168 192 200 168 192 200 168 192 200 168 192 200 168 192 200 168 0 0 255 192 201 169 192 201 169 192 201 169 192 201 169 192 201 169 192 201 169 192 201 169 192 201 169 192 201 169 192 201 169 192 201 169 192 201 169 192 201 169 192 201 169 192 201 169 192 201 169 192 201 169 192 201 169 192 201 169 192 201 169 192 201 169 192 201 169 192 201 169 192 201 169 192 201 169 192 201 169 192 201 169 192 201 169 192 201 169 192 201 169 0 0 255 0 0 255 195 203 174 195 203 174 195 203 174 195 203 174 195 203 174 195 203 174 195 203 174 195 203 174 195 203 174 195 203 174 195 203 174 195 203 174 195 203 174 195 203 174 195 203 174 195 203 174 195 203 174 195 203 174 195 203 174 195 203 174 195 203 174 195 203 174 195 203 174 195 203 174 195 203 174 195 203 174 195 203 174 195 203 174 0 0 255 195 198 166 195 198 166 195 198 166 195 198 166 195 198 166 195 198 166 195 198 166 195 198 166 195 198 166 195 198 166 195 198 166 195 198 166 195 198 166 195 198 166 195 198 166 195 198 166 195 198 166 195 198 166 195 198 166 195 198 166 195 198 166 195 198 166 195 198 166 195 198 166 195 198 166 195 198 166 195 198 166 195 198 166 195 198 166 195 198 166 195 198 166 
185 180 125 185 180 125 185 180 125 185 180 125 185 180 125 185 180 125 185 180 125 0 0 255 0 0 255 0 0 255 189 188 138 189 188 138 189 188 138 189 188 138 189 188 138 189 188 138 189 188 138 189 188 138 189 188 138 189 188 138 189 188 138 189 188 138 189 188 138 189 188 138 189 188 138 189 188 138 189 188 138 189 188 138 189 188 138 189 188 138 189 188 138 0 0 255 190 191 141 190 191 141 190 191 141 190 191 141 190 191 141 190 191 141 190 191 141 190 191 141 190 191 141 190 191 141 190 191 141 190 191 141 190 191 141 0 0 255 191 196 153 191 196 153 191 196 153 191 196 153 191 196 153 191 196 153 191 196 153 191 196 153 191 196 153 191 196 153 191 196 153 191 196 153 191 196 153 191 196 153 191 196 153 191 196 153 191 196 153 191 196 153 191 196 153 191 196 153 191 196 153 191 196 153 191 196 153 191 196 153 191 196 153 191 196 153 191 196 153 191 196 153 191 196 153 0 0 255 0 0 255 0 0 255 0 0 255 0 0 255 0 0 255 0 0 255 0 0 255 0 0 255 0 0 255 0 0 255 194 203 167 194 203 167 0 0 255 0 0 255 0 0 255 0 0 255 0 0 255 0 0 255 0 0 255 0 0 255 0 0 255 0 0 255 0 0 255 0 0 255 0 0 255 0 0 255 0 0 255 0 0 255 0 0 255 194 202 172 194 202 172 194 202 172 194 202 172 194 202 172 194 202 172 194 202 172 194 202 172 194 202 172 194 202 172 194 202 172 194 202 172 194 202 172 194 202 172 194 202 172 194 202 172 194 202 172 194 202 172 194 202 172 194 202 172 194 202 172 194 202 172 194 202 172 194 202 172 194 202 172 194 202 172 194 202 172 194 202 172 194 202 172 194 202 172 194 202 172 0 0 255 192 200 168 192 200 168 192 200 168 192 200 168 192 200 168 192 200 168 192 200 168 192 200 168 192 200 168 192 200 168 192 200 168 192 200 168 192 200 168 192 200 168 192 200 168 192 200 168 192 200 168 192 200 168 192 200 168 192 200 168 192 200 168 192 200 168 192 200 168 192 200 168 192 200 168 192 200 168 0 0 255 192 201 169 192 201 169 192 201 169 192 201 169 192 201 169 192 201 169 192 201 169 192 201 169 192 201 169 192 201 169 192 201 169 192 201 169 192 201 169 192 201 169 192 201 169 192 201 169 192 201 169 192 201 169 192 201 169 192 201 169 192 201 169 192 201 169 192 201 169 192 201 169 192 201 169 192 201 169 192 201 169 192 201 169 192 201 169 192 201 169 192 201 169 0 0 255 0 0 255 195 203 174 195 203 174 195 203 174 195 203 174 195 203 174 195 203 174 195 203 174 195 203 174 195 203 174 195 203 174 195 203 174 195 203 174 195 203 174 195 203 174 195 203 174 195 203 174 195 203 174 195 203 174 195 203 174 195 203 174 195 203 174 195 203 174 195 203 174 195 203 174 195 203 174 195 203 174 0 0 255 195 198 166 195 198 166 195 198 166 195 198 166 195 198 166 195 198 166 195 198 166 195 198 166 195 198 166 195 198 166 195 198 166 195 198 166 195 198 166 195 198 166 195 198 166 195 198 166 195 198 166 195 198 166 195 198 166 195 198 166 195 198 166 195 198 166 195 198 166 195 198 166 195 198 166 195 198 166 195 198 166 195 198 166 195 198 166 195 198 166 195 198 166 195 198 166 
185 180 125 185 180 125 185 180 125 185 180 125 185 180 125 185 180 125 185 180 125 185 180 125 185 180 125 0 0 255 0 0 255 189 188 138 189 188 138 189 188 138 189 188 138 189 188 138 189 188 138 189 188 138 189 188 138 189 188 138 189 188 138 189 188 138 189 188 138 189 188 138 189 188 138 189 188 138 189 188 138 189 188 138 189 188 138 0 0 255 0 0 255 190 191 141 190 191 141 190 191 141 190 191 141 190 191 141 190 191 141 190 191 141 190 191 141 190 191 141 190 191 141 190 191 141 190 191 141 190 191 141 190 191 141 0 0 255 191 196 153 191 196 153 191 196 153 191 196 153 191 196 153 191 196 153 191 196 153 191 196 153 191 196 153 191 196 153 191 196 153 191 196 153 191 196 153 191 196 153 191 196 153 191 196 153 191 196 153 191 196 153 191 196 153 191 196 153 191 196 153 191 196 153 191 196 153 191 196 153 191 196 153 191 196 153 191 196 153 191 196 153 191 196 153 191 196 153 191 196 153 0 0 255 192 198 161 192 198 161 192 198 161 192 198 161 192 198 161 192 198 161 192 198 161 0 0 255 0 0 255 0 0 255 192 198 161 192 198 161 192 198 161 192 198 161 192 198 161 192 198 161 192 198 161 192 198 161 192 198 161 192 198 161 192 198 161 192 198 161 192 198 161 192 198 161 192 198 161 192 198 161 0 0 255 0 0 255 194 202 172 194 202 172 194 202 172 194 202 172 194 202 172 194 202 172 194 202 172 194 202 172 194 202 172 194 202 172 194 202 172 194 202 172 194 202 172 194 202 172 194 202 172 194 202 172 194 202 172 194 202 172 194 202 172 194 202 172 194 202 172 194 202 172 194 202 172 194 202 172 194 202 172 194 202 172 194 202 172 194 202 172 194 202 172 0 0 255 192 200 168 192 200 168 192 200 168 192 200 168 192 200 168 192 200 168 192 200 168 192 200 168 192 200 168 192 200 168 192 200 168 192 200 168 192 200 168 192 200 168 192 200 168 192 200 168 192 200 168 192 200 168 192 200 168 192 200 168 192 200 168 192 200 168 192 200 168 192 200 168 192 200 168 192 200 168 192 200 168 0 0 255 192 201 169 192 201 169 192 201 169 192 201 169 192 201 169 192 201 169 192 201 169 192 201 169 192 201 169 192 201 169 192 201 169 192 201 169 192 201 169 192 201 169 192 201 169 192 201 169 192 201 169 192 201 169 192 201 169 192 201 169 192 201 169 192 201 169 192 201 169 192 201 169 192 201 169 192 201 169 192 201 169 192 201 169 192 201 169 192 201 169 192 201 169 192 201 169 0 0 255 0 0 255 0 0 255 0 0 255 0 0 255 0 0 255 0 0 255 195 203 174 195 203 174 195 203 174 195 203 174 195 203 174 195 203 174 195 203 174 195 203 174 195 203 174 195 203 174 195 203 174 195 203 174 195 203 174 195 203 174 195 203 174 195 203 174 195 203 174 195 203 174 195 203 174 195 203 174 0 0 255 195 198 166 195 198 166 195 198 166 195 198 166 195 198 166 195 198 166 195 198 166 195 198 166 195 198 166 195 198 166 195 198 166 195 198 166 195 198 166 195 198 166 195 198 166 195 198 166 195 198 166 195 198 166 195 198 166 195 198 166 195 198 166 195 198 166 195 198 166 195 198 166 195 198 166 195 198 166 195 198 166 195 198 166 195 198 166 195 198 166 195 198 166 195 198 166 
185 180 125 185 180 125 185 180 125 185 180 125 185 180 125 185 180 125 185 180 125 185 180 125 185 180 125 185 180 125 0 0 255 0 0 255 0 0 255 0 0 255 189 188 138 189 188 138 189 188 138 189 188 138 189 188 138 189 188 138 189 188 138 189 188 138 189 188 138 189 188 138 189 188 138 189 188 138 189 188 138 189 188 138 0 0 255 190 191 141 190 191 141 190 191 141 190 191 141 190 191 141 190 191 141 190 191 141 190 191 141 190 191 141 190 191 141 190 191 141 190 191 141 190 191 141 190 191 141 190 191 141 190 191 141 0 0 255 191 196 153 191 196 153 191 196 153 191 196 153 191 196 153 191 196 153 191 196 153 191 196 153 191 196 153 191 196 153 191 196 153 191 196 153 191 196 153 191 196 153 191 196 153 191 196 153 191 196 153 191 196 153 191 196 153 191 196 153 191 196 153 191 196 153 191 196 153 191 196 153 191 196 153 191 196 153 191 196 153 191 196 153 191 196 153 191 196 153 191 196 153 0 0 255 192 198 161 192 198 161 192 198 161 192 198 161 192 198 161 192 198 161 192 198 161 192 198 161 192 198 161 192 198 161 192 198 161 192 198 161 192 198 161 192 198 161 192 198 161 192 198 161 192 198 161 192 198 161 192 198 161 192 198 161 192 198 161 192 198 161 192 198 161 192 198 161 192 198 161 192 198 161 192 198 161 0 0 255 0 0 255 0 0 255 0 0 255 0 0 255 0 0 255 0 0 255 0 0 255 0 0 255 0 0 255 0 0 255 0 0 255 0 0 255 0 0 255 0 0 255 0 0 255 0 0 255 0 0 255 194 202 172 194 202 172 0 0 255 0 0 255 0 0 255 194 202 172 194 202 172 194 202 172 194 202 172 194 202 172 194 202 172 0 0 255 192 200 168 192 200 168 192 200 168 192 200 168 192 200 168 192 200 168 192 200 168 192 200 168 192 200 168 192 200 168 192 200 168 192 200 168 192 200 168 192 200 168 192 200 168 192 200 168 192 200 168 192 200 168 192 200 168 192 200 168 192 200 168 192 200 168 192 200 168 192 200 168 192 200 168 192 200 168 192 200 168 192 200 168 0 0 255 192 201 169 192 201 169 192 201 169 192 201 169 192 201 169 192 201 169 192 201 169 192 201 169 192 201 169 192 201 169 192 201 169 192 201 169 192 201 169 192 201 169 192 201 169 192 201 169 192 201 169 192 201 169 192 201 169 192 201 169 192 201 169 192 201 169 192 201 169 192 201 169 192 201 169 192 201 169 192 201 169 192 201 169 192 201 169 192 201 169 192 201 169 192 201 169 192 201 169 0 0 255 193 200 168 193 200 168 193 200 168 193 200 168 0 0 255 0 0 255 0 0 255 0 0 255 0 0 255 195 203 174 0 0 255 195 203 174 195 203 174 195 203 174 195 203 174 195 203 174 195 203 174 195 203 174 195 203 174 195 203 174 195 203 174 195 203 174 195 203 174 195 203 174 195 203 174 0 0 255 195 198 166 195 198 166 195 198 166 195 198 166 195 198 166 195 198 166 195 198 166 195 198 166 195 198 166 195 198 166 195 198 166 195 198 166 195 198 166 195 198 166 195 198 166 195 198 166 195 198 166 195 198 166 195 198 166 195 198 166 195 198 166 195 198 166 195 198 166 195 198 166 195 198 166 195 198 166 195 198 166 195 198 166 195 198 166 195 198 166 195 198 166 195 198 166 
185 180 125 185 180 125 185 180 125 185 180 125 185 180 125 185 180 125 185 180 125 185 180 125 185 180 125 185 180 125 185 180 125 185 180 125 185 180 125 0 0 255 0 0 255 0 0 255 189 188 138 189 188 138 189 188 138 189 188 138 189 188 138 189 188 138 189 188 138 189 188 138 189 188 138 189 188 138 189 188 138 0 0 255 190 191 141 190 191 141 190 191 141 190 191 141 190 191 141 190 191 141 190 191 141 190 191 141 190 191 141 190 191 141 190 191 141 190 191 141 190 191 141 190 191 141 190 191 141 190 191 141 190 191 141 0 0 255 0 0 255 191 196 153 191 196 153 191 196 153 191 196 153 191 196 153 191 196 153 191 196 153 191 196 153 191 196 153 191 196 153 191 196 153 191 196 153 191 196 153 191 196 153 191 196 153 191 196 153 191 196 153 191 196 153 191 196 153 191 196 153 191 196 153 191 196 153 191 196 153 191 196 153 191 196 153 191 196 153 191 196 153 191 196 153 191 196 153 191 196 153 0 0 255 192 198 161 192 198 161 192 198 161 192 198 161 192 198 161 192 198 161 192 198 161 192 198 161 192 198 161 192 198 161 192 198 161 192 198 161 192 198 161 192 198 161 192 198 161 192 198 161 192 198 161 192 198 161 192 198 161 192 198 161 192 198 161 192 198 161 192 198 161 192 198 161 192 198 161 192 198 161 192 198 161 0 0 255 191 198 164 191 198 164 191 198 164 191 198 164 191 198 164 191 198 164 191 198 164 191 198 164 191 198 164 191 198 164 191 198 164 191 198 164 191 198 164 191 198 164 191 198 164 191 198 164 0 0 255 0 0 255 0 0 255 191 198 164 191 198 164 0 0 255 0 0 255 0 0 255 0 0 255 0 0 255 0 0 255 0 0 255 192 200 168 192 200 168 192 200 168 192 200 168 192 200 168 192 200 168 192 200 168 192 200 168 192 200 168 192 200 168 192 200 168 192 200 168 192 200 168 192 200 168 192 200 168 192 200 168 192 200 168 192 200 168 192 200 168 192 200 168 192 200 168 192 200 168 192 200 168 192 200 168 192 200 168 192 200 168 192 200 168 192 200 168 192 200 168 0 0 255 192 201 169 192 201 169 192 201 169 192 201 169 192 201 169 192 201 169 192 201 169 192 201 169 192 201 169 192 201 169 192 201 169 192 201 169 192 201 169 192 201 169 192 201 169 192 201 169 192 201 169 192 201 169 192 201 169 192 201 169 192 201 169 192 201 169 192 201 169 192 201 169 192 201 169 192 201 169 192 201 169 192 201 169 192 201 169 192 201 169 192 201 169 192 201 169 0 0 255 193 200 168 193 200 168 193 200 168 193 200 168 193 200 168 193 200 168 193 200 168 193 200 168 193 200 168 0 0 255 0 0 255 0 0 255 0 0 255 0 0 255 0 0 255 0 0 255 0 0 255 0 0 255 0 0 255 0 0 255 0 0 255 0 0 255 0 0 255 195 203 174 195 203 174 195 203 174 0 0 255 195 198 166 195 198 166 195 198 166 195 198 166 195 198 166 195 198 166 195 198 166 195 198 166 195 198 166 195 198 166 195 198 166 195 198 166 195 198 166 195 198 166 195 198 166 195 198 166 195 198 166 195 198 166 195 198 166 195 198 166 195 198 166 195 198 166 195 198 166 195 198 166 195 198 166 195 198 166 195 198 166 195 198 166 195 198 166 195 198 166 195 198 166 195 198 166 
185 180 125 185 180 125 185 180 125 185 180 125 185 180 125 185 180 125 185 180 125 185 180 125 185 180 125 185 180 125 185 180 125 185 180 125 185 180 125 185 180 125 185 180 125 0 0 255 189 188 138 189 188 138 189 188 138 189 188 138 189 188 138 189 188 138 189 188 138 189 188 138 189 188 138 189 188 138 0 0 255 190 191 141 190 191 141 190 191 141 190 191 141 190 191 141 190 191 141 190 191 141 190 191 141 190 191 141 190 191 141 190 191 141 190 191 141 190 191 141 190 191 141 190 191 141 190 191 141 190 191 141 190 191 141 190 191 141 0 0 255 191 196 153 191 196 153 191 196 153 191 196 153 191 196 153 191 196 153 191 196 153 191 196 153 191 196 153 191 196 153 191 196 153 191 196 153 191 196 153 191 196 153 191 196 153 191 196 153 191 196 153 191 196 153 191 196 153 191 196 153 191 196 153 191 196 153 191 196 153 191 196 153 191 196 153 191 196 153 191 196 153 191 196 153 191 196 153 191 196 153 0 0 255 192 198 161 192 198 161 192 198 161 192 198 161 192 198 161 192 198 161 192 198 161 192 198 161 192 198 161 192 198 161 192 198 161 192 198 161 192 198 161 192 198 161 192 198 161 192 198 161 192 198 161 192 198 161 192 198 161 192 198 161 192 198 161 192 198 161 192 198 161 192 198 161 192 198 161 192 198 161 192 198 161 0 0 255 191 198 164 191 198 164 191 198 164 191 198 164 191 198 164 191 198 164 191 198 164 191 198 164 191 198 164 191 198 164 191 198 164 191 198 164 191 198 164 191 198 164 191 198 164 191 198 164 191 198 164 191 198 164 191 198 164 191 198 164 191 198 164 191 198 164 191 198 164 191 198 164 191 198 164 191 198 164 0 0 255 192 200 168 192 200 168 192 200 168 192 200 168 192 200 168 192 200 168 192 200 168 192 200 168 192 200 168 192 200 168 192 200 168 192 200 168 192 200 168 192 200 168 192 200 168 192 200 168 192 200 168 192 200 168 192 200 168 192 200 168 192 200 168 192 200 168 192 200 168 192 200 168 192 200 168 192 200 168 192 200 168 192 200 168 192 200 168 192 200 168 0 0 255 192 201 169 192 201 169 192 201 169 192 201 169 192 201 169 192 201 169 192 201 169 192 201 169 192 201 169 192 201 169 192 201 169 192 201 169 192 201 169 192 201 169 192 201 169 192 201 169 192 201 169 192 201 169 192 201 169 192 201 169 192 201 169 192 201 169 192 201 169 192 201 169 192 201 169 192 201 169 192 201 169 192 201 169 192 201 169 192 201 169 192 201 169 192 201 169 0 0 255 193 200 168 193 200 168 193 200 168 193 200 168 193 200 168 193 200 168 193 200 168 193 200 168 193 200 168 193 200 168 193 200 168 193 200 168 193 200 168 193 200 168 193 200 168 193 200 168 193 200 168 193 200 168 193 200 168 193 200 168 193 200 168 193 200 168 0 0 255 0 0 255 0 0 255 0 0 255 0 0 255 195 198 166 195 198 166 195 198 166 195 198 166 195 198 166 195 198 166 195 198 166 195 198 166 195 198 166 195 198 166 195 198 166 195 198 166 195 198 166 195 198 166 195 198 166 195 198 166 195 198 166 195 198 166 195 198 166 195 198 166 195 198 166 195 198 166 195 198 166 195 198 166 195 198 166 195 198 166 195 198 166 195 198 166 195 198 166 195 198 166 195 198 166 195 198 166 
185 180 125 185 180 125 185 180 125 185 180 125 185 180 125 185 180 125 185 180 125 185 180 125 185 180 125 185 180 125 185 180 125 185 180 125 185 180 125 185 180 125 185 180 125 0 0 255 0 0 255 0 0 255 0 0 255 189 188 138 189 188 138 189 188 138 189 188 138 189 188 138 189 188 138 0 0 255 190 191 141 190 191 141 190 191 141 190 191 141 190 191 141 190 191 141 190 191 141 190 191 141 190 191 141 190 191 141 190 191 141 190 191 141 190 191 141 190 191 141 190 191 141 190 191 141 190 191 141 190 191 141 190 191 141 190 191 141 0 0 255 0 0 255 191 196 153 191 196 153 191 196 153 191 196 153 191 196 153 191 196 153 191 196 153 191 196 153 191 196 153 191 196 153 191 196 153 191 196 153 191 196 153 191 196 153 191 196 153 191 196 153 191 196 153 191 196 153 191 196 153 191 196 153 191 196 153 191 196 153 191 196 153 191 196 153 191 196 153 191 196 153 191 196 153 191 196 153 191 196 153 0 0 255 192 198 161 192 198 161 192 198 161 192 198 161 192 198 161 192 198 161 192 198 161 192 198 161 192 198 161 192 198 161 192 198 161 192 198 161 192 198 161 192 198 161 192 198 161 192 198 161 192 198 161 192 198 161 192 198 161 192 198 161 192 198 161 192 198 161 192 198 161 192 198 161 192 198 161 192 198 161 192 198 161 0 0 255 191 198 164 191 198 164 191 198 164 191 198 164 191 198 164 191 198 164 191 198 164 191 198 164 191 198 164 191 198 164 191 198 164 191 198 164 191 198 164 191 198 164 191 198 164 191 198 164 191 198 164 191 198 164 191 198 164 191 198 164 191 198 164 191 198 164 191 198 164 191 198 164 191 198 164 191 198 164 0 0 255 0 0 255 192 200 168 192 200 168 192 200 168 192 200 168 192 200 168 192 200 168 192 200 168 192 200 168 192 200 168 192 200 168 192 200 168 192 200 168 192 200 168 192 200 168 192 200 168 192 200 168 192 200 168 192 200 168 192 200 168 192 200 168 192 200 168 192 200 168 192 200 168 192 200 168 192 200 168 192 200 168 192 200 168 192 200 168 192 200 168 0 0 255 192 201 169 192 201 169 192 201 169 192 201 169 192 201 169 192 201 169 192 201 169 192 201 169 192 201 169 192 201 169 192 201 169 192 201 169 192 201 169 192 201 169 192 201 169 192 201 169 192 201 169 192 201 169 192 201 169 192 201 169 192 201 169 192 201 169 192 201 169 192 201 169 192 201 169 192 201 169 192 201 169 192 201 169 192 201 169 192 201 169 192 201 169 192 201 169 0 0 255 193 200 168 193 200 168 193 200 168 193 200 168 193 200 168 193 200 168 193 200 168 193 200 168 193 200 168 193 200 168 193 200 168 193 200 168 193 200 168 193 200 168 193 200 168 193 200 168 193 200 168 193 200 168 193 200 168 193 200 168 193 200 168 193 200 168 193 200 168 193 200 168 193 200 168 193 200 168 0 0 255 195 198 166 195 198 166 195 198 166 195 198 166 195 198 166 195 198 166 195 198 166 195 198 166 195 198 166 195 198 166 195 198 166 195 198 166 195 198 166 195 198 166 195 198 166 195 198 166 195 198 166 195 198 166 195 198 166 195 198 166 195 198 166 195 198 166 195 198 166 195 198 166 195 198 166 195 198 166 195 198 166 195 198 166 195 198 166 195 198 166 195 198 166 195 198 166 
185 180 125 185 180 125 185 180 125 185 180 125 185 180 125 185 180 125 185 180 125 185 180 125 185 180 125 185 180 125 185 180 125 185 180 125 185 180 125 185 180 125 185 180 125 185 180 125 185 180 125 185 180 125 0 0 255 0 0 255 189 188 138 189 188 138 189 188 138 189 188 138 0 0 255 190 191 141 190 191 141 190 191 141 190 191 141 190 191 141 190 191 141 190 191 141 190 191 141 190 191 141 190 191 141 190 191 141 190 191 141 190 191 141 190 191 141 190 191 141 190 191 141 190 191 141 190 191 141 190 191 141 190 191 141 190 191 141 190 191 141 0 0 255 191 196 153 191 196 153 191 196 153 191 196 153 191 196 153 191 196 153 191 196 153 191 196 153 191 196 153 191 196 153 191 196 153 191 196 153 191 196 153 191 196 153 191 196 153 191 196 153 191 196 153 191 196 153 191 196 153 191 196 153 191 196 153 191 196 153 191 196 153 191 196 153 191 196 153 191 196 153 191 196 153 191 196 153 0 0 255 0 0 255 192 198 161 192 198 161 192 198 161 192 198 161 192 198 161 192 198 161 192 198 161 192 198 161 192 198 161 192 198 161 192 198 161 192 198 161 192 198 161 192 198 161 192 198 161 192 198 161 192 198 161 192 198 161 192 198 161 192 198 161 192 198 161 192 198 161 192 198 161 192 198 161 192 198 161 192 198 161 192 198 161 0 0 255 191 198 164 191 198 164 191 198 164 191 198 164 191 198 164 191 198 164 191 198 164 191 198 164 191 198 164 191 198 164 191 198 164 191 198 164 191 198 164 191 198 164 191 198 164 191 198 164 191 198 164 191 198 164 191 198 164 191 198 164 191 198 164 191 198 164 191 198 164 191 198 164 191 198 164 191 198 164 191 198 164 0 0 255 192 200 168 192 200 168 192 200 168 192 200 168 192 200 168 192 200 168 192 200 168 192 200 168 192 200 168 192 200 168 192 200 168 192 200 168 192 200 168 192 200 168 192 200 168 192 200 168 192 200 168 192 200 168 192 200 168 192 200 168 192 200 168 192 200 168 192 200 168 192 200 168 192 200 168 192 200 168 192 200 168 192 200 168 192 200 168 0 0 255 0 0 255 192 201 169 192 201 169 192 201 169 192 201 169 192 201 169 192 201 169 192 201 169 192 201 169 192 201 169 192 201 169 192 201 169 192 201 169 192 201 169 192 201 169 192 201 169 192 201 169 192 201 169 192 201 169 192 201 169 192 201 169 192 201 169 192 201 169 192 201 169 192 201 169 192 201 169 192 201 169 192 201 169 192 201 169 192 201 169 192 201 169 192 201 169 0 0 255 193 200 168 193 200 168 193 200 168 193 200 168 193 200 168 193 200 168 193 200 168 193 200 168 193 200 168 193 200 168 193 200 168 193 200 168 193 200 168 193 200 168 193 200 168 193 200 168 193 200 168 193 200 168 193 200 168 193 200 168 193 200 168 193 200 168 193 200 168 193 200 168 193 200 168 193 200 168 0 0 255 0 0 255 195 198 166 195 198 166 195 198 166 195 198 166 195 198 166 195 198 166 195 198 166 195 198 166 195 198 166 195 198 166 195 198 166 195 198 166 195 198 166 195 198 166 195 198 166 195 198 166 195 198 166 195 198 166 195 198 166 195 198 166 195 198 166 195 198 166 195 198 166 195 198 166 195 198 166 195 198 166 195 198 166 195 198 166 195 198 166 195 198 166 195 198 166 
185 180 125 185 180 125 185 180 125 185 180 125 185 180 125 185 180 125 185 180 125 185 180 125 185 180 125 185 180 125 185 180 125 185 180 125 185 180 125 185 180 125 185 180 125 185 180 125 185 180 125 185 180 125 185 180 125 0 0 255 0 0 255 0 0 255 0 0 255 0 0 255 190 191 141 190 191 141 190 191 141 190 191 141 190 191 141 190 191 141 190 191 141 190 191 141 190 191 141 190 191 141 190 191 141 190 191 141 190 191 141 190 191 141 190 191 141 190 191 141 190 191 141 190 191 141 190 191 141 190 191 141 190 191 141 190 191 141 190 191 141 0 0 255 191 196 153 191 196 153 191 196 153 191 196 153 191 196 153 191 196 153 191 196 153 191 196 153 191 196 153 191 196 153 191 196 153 191 196 153 191 196 153 191 196 153 191 196 153 191 196 153 191 196 153 191 196 153 191 196 153 191 196 153 191 196 153 191 196 153 191 196 153 191 196 153 191 196 153 191 196 153 191 196 153 191 196 153 191 196 153 0 0 255 192 198 161 192 198 161 192 198 161 192 198 161 192 198 161 192 198 161 192 198 161 192 198 161 192 198 161 192 198 161 192 198 161 192 198 161 192 198 161 192 198 161 192 198 161 192 198 161 192 198 161 192 198 161 192 198 161 192 198 161 192 198 161 192 198 161 192 198 161 192 198 161 192 198 161 192 198 161 192 198 161 0 0 255 191 198 164 191 198 164 191 198 164 191 198 164 191 198 164 191 198 164 191 198 164 191 198 164 191 198 164 191 198 164 191 198 164 191 198 164 191 198 164 191 198 164 191 198 164 191 198 164 191 198 164 191 198 164 191 198 164 191 198 164 191 198 164 191 198 164 191 198 164 191 198 164 191 198 164 191 198 164 191 198 164 0 0 255 192 200 168 192 200 168 192 200 168 192 200 168 192 200 168 192 200 168 192 200 168 192 200 168 192 200 168 192 200 168 192 200 168 192 200 168 192 200 168 192 200 168 192 200 168 192 200 168 192 200 168 192 200 168 192 200 168 192 200 168 192 200 168 192 200 168 192 200 168 192 200 168 192 200 168 192 200 168 192 200 168 192 200 168 192 200 168 192 200 168 0 0 255 192 201 169 192 201 169 192 201 169 192 201 169 192 201 169 192 201 169 192 201 169 192 201 169 192 201 169 192 201 169 192 201 169 192 201 169 192 201 169 192 201 169 192 201 169 192 201 169 192 201 169 192 201 169 192 201 169 192 201 169 192 201 169 192 201 169 192 201 169 192 201 169 192 201 169 192 201 169 192 201 169 192 201 169 192 201 169 192 201 169 192 201 169 0 0 255 193 200 168 193 200 168 193 200 168 193 200 168 193 200 168 193 200 168 193 200 168 193 200 168 193 200 168 193 200 168 193 200 168 193 200 168 193 200 168 193 200 168 193 200 168 193 200 168 193 200 168 193 200 168 193 200 168 193 200 168 193 200 168 193 200 168 193 200 168 193 200 168 193 200 168 193 200 168 193 200 168 0 0 255 0 0 255 195 198 166 195 198 166 195 198 166 195 198 166 195 198 166 195 198 166 195 198 166 195 198 166 195 198 166 195 198 166 195 198 166 195 198 166 195 198 166 195 198 166 195 198 166 195 198 166 195 198 166 195 198 166 195 198 166 195 198 166 195 198 166 195 198 166 195 198 166 195 198 166 195 198 166 195 198 166 195 198 166 195 198 166 195 198 166 195 198 166 
185 180 125 185 180 125 185 180 125 185 180 125 185 180 125 185 180 125 185 180 125 185 180 125 185 180 125 185 180 125 185 180 125 185 180 125 185 180 125 185 180 125 185 180 125 185 180 125 185 180 125 185 180 125 185 180 125 185 180 125 185 180 125 185 180 125 185 180 125 0 0 255 190 191 141 190 191 141 190 191 141 190 191 141 190 191 141 190 191 141 190 191 141 190 191 141 190 191 141 190 191 141 190 191 141 190 191 141 190 191 141 190 191 141 190 191 141 190 191 141 190 191 141 190 191 141 190 191 141 190 191 141 190 191 141 190 191 141 190 191 141 0 0 255 191 196 153 191 196 153 191 196 153 191 196 153 191 196 153 191 196 153 191 196 153 191 196 153 191 196 153 191 196 153 191 196 153 191 196 153 191 196 153 191 196 153 191 196 153 191 196 153 191 196 153 191 196 153 191 196 153 191 196 153 191 196 153 191 196 153 191 196 153 191 196 153 191 196 153 191 196 153 191 196 153 191 196 153 0 0 255 192 198 161 192 198 161 192 198 161 192 198 161 192 198 161 192 198 161 192 198 161 192 198 161 192 198 161 192 198 161 192 198 161 192 198 161 192 198 161 192 198 161 192 198 161 192 198 161 192 198 161 192 198 161 192 198 161 192 198 161 192 198 161 192 198 161 192 198 161 192 198 161 192 198 161 192 198 161 192 198 161 192 198 161 0 0 255 191 198 164 191 198 164 191 198 164 191 198 164 191 198 164 191 198 164 191 198 164 191 198 164 191 198 164 191 198 164 191 198 164 191 198 164 191 198 164 191 198 164 191 198 164 191 198 164 191 198 164 191 198 164 191 198 164 191 198 164 191 198 164 191 198 164 191 198 164 191 198 164 191 198 164 191 198 164 191 198 164 0 0 255 0 0 255 192 200 168 192 200 168 192 200 168 192 200 168 192 200 168 192 200 168 192 200 168 192 200 168 192 200 168 192 200 168 192 200 168 192 200 168 192 200 168 192 200 168 192 200 168 192 200 168 192 200 168 192 200 168 192 200 168 192 200 168 192 200 168 192 200 168 192 200 168 192 200 168 192 200 168 192 200 168 192 200 168 192 200 168 192 200 168 0 0 255 192 201 169 192 201 169 192 201 169 192 201 169 192 201 169 192 201 169 192 201 169 192 201 169 192 201 169 192 201 169 192 201 169 192 201 169 192 201 169 192 201 169 192 201 169 192 201 169 192 201 169 192 201 169 192 201 169 192 201 169 192 201 169 192 201 169 192 201 169 192 201 169 192 201 169 192 201 169 192 201 169 192 201 169 192 201 169 192 201 169 0 0 255 193 200 168 193 200 168 193 200 168 193 200 168 193 200 168 193 200 168 193 200 168 193 200 168 193 200 168 193 200 168 193 200 168 193 200 168 193 200 168 193 200 168 193 200 168 193 200 168 193 200 168 193 200 168 193 200 168 193 200 168 193 200 168 193 200 168 193 200 168 193 200 168 193 200 168 193 200 168 193 200 168 193 200 168 193 200 168 0 0 255 0 0 255 195 198 166 195 198 166 195 198 166 195 198 166 195 198 166 195 198 166 195 198 166 195 198 166 195 198 166 195 198 166 0 0 255 0 0 255 0 0 255 0 0 255 0 0 255 0 0 255 0 0 255 0 0 255 0 0 255 0 0 255 0 0 255 0 0 255 0 0 255 0 0 255 0 0 255 0 0 255 0 0 255 0 0 255 0 0 255 
185 180 125 185 180 125 185 180 125 185 180 125 185 180 125 185 180 125 185 180 125 185 180 125 185 180 125 185 180 125 185 180 125 185 180 125 185 180 125 185 180 125 185 180 125 185 180 125 185 180 125 185 180 125 185 180 125 185 180 125 185 180 125 185 180 125 185 180 125 0 0 255 190 191 141 190 191 141 190 191 141 190 191 141 190 191 141 190 191 141 190 191 141 190 191 141 190 191 141 190 191 141 190 191 141 190 191 141 190 191 141 190 191 141 190 191 141 190 191 141 190 191 141 190 191 141 190 191 141 190 191 141 190 191 141 190 191 141 190 191 141 0 0 255 191 196 153 191 196 153 191 196 153 191 196 153 191 196 153 191 196 153 191 196 153 191 196 153 191 196 153 191 196 153 191 196 153 191 196 153 191 196 153 191 196 153 191 196 153 191 196 153 191 196 153 191 196 153 191 196 153 191 196 153 191 196 153 191 196 153 191 196 153 191 196 153 191 196 153 191 196 153 191 196 153 191 196 153 0 0 255 192 198 161 192 198 161 192 198 161 192 198 161 192 198 161 192 198 161 192 198 161 192 198 161 192 198 161 192 198 161 192 198 161 192 198 161 192 198 161 192 198 161 192 198 161 192 198 161 192 198 161 192 198 161 192 198 161 192 198 161 192 198 161 192 198 161 192 198 161 192 198 161 192 198 161 192 198 161 192 198 161 192 198 161 0 0 255 191 198 164 191 198 164 191 198 164 191 198 164 191 198 164 191 198 164 191 198 164 191 198 164 191 198 164 191 198 164 191 198 164 191 198 164 191 198 164 191 198 164 191 198 164 191 198 164 191 198 164 191 198 164 191 198 164 191 198 164 191 198 164 191 198 164 191 198 164 191 198 164 191 198 164 191 198 164 191 198 164 191 198 164 0 0 255 192 200 168 192 200 168 192 200 168 192 200 168 192 200 168 192 200 168 192 200 168 192 200 168 192 200 168 192 200 168 192 200 168 192 200 168 192 200 168 192 200 168 192 200 168 192 200 168 192 200 168 192 200 168 192 200 168 192 200 168 192 200 168 192 200 168 192 200 168 192 200 168 192 200 168 192 200 168 192 200 168 192 200 168 192 200 168 0 0 255 192 201 169 192 201 169 192 201 169 192 201 169 192 201 169 192 201 169 192 201 169 192 201 169 192 201 169 192 201 169 192 201 169 192 201 169 192 201 169 192 201 169 192 201 169 192 201 169 192 201 169 192 201 169 192 201 169 192 201 169 192 201 169 192 201 169 192 201 169 192 201 169 192 201 169 192 201 169 192 201 169 192 201 169 192 201 169 192 201 169 0 0 255 193 200 168 193 200 168 193 200 168 193 200 168 193 200 168 193 200 168 193 200 168 193 200 168 193 200 168 193 200 168 193 200 168 193 200 168 193 200 168 193 200 168 193 200 168 193 200 168 193 200 168 193 200 168 193 200 168 193 200 168 193 200 168 193 200 168 193 200 168 193 200 168 193 200 168 193 200 168 193 200 168 193 200 168 193 200 168 193 200 168 0 0 255 195 198 166 195 198 166 0 0 255 0 0 255 0 0 255 0 0 255 0 0 255 0 0 255 0 0 255 0 0 255 193 195 161 193 195 161 193 195 161 193 195 161 193 195 161 193 195 161 193 195 161 193 195 161 193 195 161 193 195 161 193 195 161 193 195 161 193 195 161 193 195 161 193 195 161 193 195 161 193 195 161 193 195 161 193 195 161 
185 180 125 185 180 125 185 180 125 185 180 125 185 180 125 185 180 125 185 180 125 185 180 125 185 180 125 185 180 125 185 180 125 185 180 125 185 180 125 185 180 125 185 180 125 185 180 125 185 180 125 185 180 125 185 180 125 185 180 125 185 180 125 185 180 125 185 180 125 0 0 255 190 191 141 190 191 141 190 191 141 190 191 141 190 191 141 190 191 141 190 191 141 190 191 141 190 191 141 190 191 141 190 191 141 190 191 141 190 191 141 190 191 141 190 191 141 190 191 141 190 191 141 190 191 141 190 191 141 190 191 141 190 191 141 190 191 141 190 191 141 0 0 255 0 0 255 191 196 153 191 196 153 191 196 153 191 196 153 191 196 153 191 196 153 191 196 153 191 196 153 191 196 153 191 196 153 191 196 153 191 196 153 191 196 153 191 196 153 191 196 153 191 196 153 191 196 153 191 196 153 191 196 153 191 196 153 191 196 153 191 196 153 191 196 153 191 196 153 191 196 153 191 196 153 191 196 153 0 0 255 192 198 161 192 198 161 192 198 161 192 198 161 192 198 161 192 198 161 192 198 161 192 198 161 192 198 161 192 198 161 192 198 161 192 198 161 192 198 161 192 198 161 192 198 161 192 198 161 192 198 161 192 198 161 192 198 161 192 198 161 192 198 161 192 198 161 192 198 161 192 198 161 192 198 161 192 198 161 192 198 161 192 198 161 0 0 255 191 198 164 191 198 164 191 198 164 191 198 164 191 198 164 191 198 164 191 198 164 191 198 164 191 198 164 191 198 164 191 198 164 191 198 164 191 198 164 191 198 164 191 198 164 191 198 164 191 198 164 191 198 164 191 198 164 191 198 164 191 198 164 191 198 164 191 198 164 191 198 164 191 198 164 191 198 164 191 198 164 191 198 164 0 0 255 192 200 168 192 200 168 192 200 168 192 200 168 192 200 168 192 200 168 192 200 168 192 200 168 192 200 168 192 200 168 192 200 168 192 200 168 192 200 168 192 200 168 192 200 168 192 200 168 192 200 168 192 200 168 192 200 168 192 200 168 192 200 168 192 200 168 192 200 168 192 200 168 192 200 168 192 200 168 192 200 168 192 200 168 192 200 168 0 0 255 192 201 169 192 201 169 192 201 169 192 201 169 192 201 169 192 201 169 192 201 169 192 201 169 192 201 169 192 201 169 192 201 169 192 201 169 192 201 169 192 201 169 192 201 169 192 201 169 192 201 169 192 201 169 192 201 169 192 201 169 192 201 169 192 201 169 192 201 169 192 201 169 192 201 169 192 201 169 192 201 169 192 201 169 192 201 169 192 201 169 0 0 255 193 200 168 193 200 168 193 200 168 193 200 168 193 200 168 193 200 168 193 200 168 193 200 168 193 200 168 193 200 168 193 200 168 193 200 168 193 200 168 193 200 168 193 200 168 193 200 168 193 200 168 193 200 168 193 200 168 193 200 168 193 200 168 193 200 168 193 200 168 193 200 168 193 200 168 193 200 168 193 200 168 193 200 168 193 200 168 193 200 168 0 0 255 0 0 255 0 0 255 193 195 161 193 195 161 193 195 161 193 195 161 193 195 161 193 195 161 193 195 161 193 195 161 193 195 161 193 195 161 193 195 161 193 195 161 193 195 161 193 195 161 193 195 161 193 195 161 193 195 161 193 195 161 193 195 161 193 195 161 193 195 161 193 195 161 193 195 161 193 195 161 193 195 161 193 195 161 193 195 161 
185 180 125 185 180 125 185 180 125 185 180 125 185 180 125 185 180 125 185 180 125 185 180 125 185 180 125 185 180 125 185 180 125 185 180 125 185 180 125 185 180 125 185 180 125 185 180 125 185 180 125 185 180 125 185 180 125 185 180 125 185 180 125 185 180 125 0 0 255 0 0 255 190 191 141 190 191 141 190 191 141 190 191 141 190 191 141 190 191 141 190 191 141 190 191 141 190 191 141 190 191 141 190 191 141 190 191 141 190 191 141 190 191 141 190 191 141 190 191 141 190 191 141 190 191 141 190 191 141 190 191 141 190 191 141 190 191 141 190 191 141 190 191 141 0 0 255 191 196 153 191 196 153 191 196 153 191 196 153 191 196 153 191 196 153 191 196 153 191 196 153 191 196 153 191 196 153 191 196 153 191 196 153 191 196 153 191 196 153 191 196 153 191 196 153 191 196 153 191 196 153 191 196 153 191 196 153 191 196 153 191 196 153 191 196 153 191 196 153 191 196 153 191 196 153 191 196 153 0 0 255 192 198 161 192 198 161 192 198 161 192 198 161 192 198 161 192 198 161 192 198 161 192 198 161 192 198 161 192 198 161 192 198 161 192 198 161 192 198 161 192 198 161 192 198 161 192 198 161 192 198 161 192 198 161 192 198 161 192 198 161 192 198 161 192 198 161 192 198 161 192 198 161 192 198 161 192 198 161 192 198 161 192 198 161 0 0 255 191 198 164 191 198 164 191 198 164 191 198 164 191 198 164 191 198 164 191 198 164 191 198 164 191 198 164 191 198 164 191 198 164 191 198 164 191 198 164 191 198 164 191 198 164 191 198 164 191 198 164 191 198 164 191 198 164 191 198 164 191 198 164 191 198 164 191 198 164 191 198 164 191 198 164 191 198 164 191 198 164 191 198 164 0 0 255 192 200 168 192 200 168 192 200 168 192 200 168 192 200 168 192 200 168 192 200 168 192 200 168 192 200 168 192 200 168 192 200 168 192 200 168 192 200 168 192 200 168 192 200 168 192 200 168 192 200 168 192 200 168 192 200 168 192 200 168 192 200 168 192 200 168 192 200 168 192 200 168 192 200 168 192 200 168 192 200 168 192 200 168 192 200 168 0 0 255 192 201 169 192 201 169 192 201 169 192 201 169 192 201 169 192 201 169 192 201 169 192 201 169 192 201 169 192 201 169 192 201 169 192 201 169 192 201 169 192 201 169 192 201 169 192 201 169 192 201 169 192 201 169 192 201 169 192 201 169 192 201 169 192 201 169 192 201 169 192 201 169 192 201 169 192 201 169 192 201 169 192 201 169 192 201 169 192 201 169 0 0 255 193 200 168 193 200 168 193 200 168 193 200 168 193 200 168 193 200 168 193 200 168 193 200 168 193 200 168 193 200 168 193 200 168 193 200 168 193 200 168 193 200 168 193 200 168 193 200 168 193 200 168 193 200 168 193 200 168 193 200 168 193 200 168 193 200 168 193 200 168 193 200 168 193 200 168 193 200 168 193 200 168 193 200 168 193 200 168 193 200 168 0 0 255 193 195 161 193 195 161 193 195 161 193 195 161 193 195 161 193 195 161 193 195 161 193 195 161 193 195 161 193 195 161 193 195 161 193 195 161 193 195 161 193 195 161 193 195 161 193 195 161 193 195 161 193 195 161 193 195 161 193 195 161 193 195 161 193 195 161 193 195 161 193 195 161 193 195 161 193 195 161 193 195 161 193 195 161 193 195 161 
185 180 125 185 180 125 185 180 125 185 180 125 185 180 125 185 180 125 185 180 125 185 180 125 185 180 125 185 180 125 185 180 125 185 180 125 185 180 125 185 180 125 185 180 125 185 180 125 185 180 125 185 180 125 185 180 125 185 180 125 185 180 125 185 180 125 185 180 125 0 0 255 190 191 141 190 191 141 190 191 141 190 191 141 190 191 141 190 191 141 190 191 141 190 191 141 190 191 141 190 191 141 190 191 141 190 191 141 190 191 141 190 191 141 190 191 141 190 191 141 190 191 141 190 191 141 190 191 141 190 191 141 190 191 141 190 191 141 190 191 141 190 191 141 0 0 255 0 0 255 191 196 153 191 196 153 191 196 153 191 196 153 191 196 153 191 196 153 191 196 153 191 196 153 191 196 153 191 196 153 191 196 153 191 196 153 191 196 153 191 196 153 191 196 153 191 196 153 191 196 153 191 196 153 191 196 153 191 196 153 191 196 153 191 196 153 191 196 153 191 196 153 191 196 153 191 196 153 0 0 255 192 198 161 192 198 161 192 198 161 192 198 161 192 198 161 192 198 161 192 198 161 192 198 161 192 198 161 192 198 161 192 198 161 192 198 161 192 198 161 192 198 161 192 198 161 192 198 161 192 198 161 192 198 161 192 198 161 192 198 161 192 198 161 192 198 161 192 198 161 192 198 161 192 198 161 192 198 161 192 198 161 192 198 161 0 0 255 191 198 164 191 198 164 191 198 164 191 198 164 191 198 164 191 198 164 191 198 164 191 198 164 191 198 164 191 198 164 191 198 164 191 198 164 191 198 164 191 198 164 191 198 164 191 198 164 191 198 164 191 198 164 191 198 164 191 198 164 191 198 164 191 198 164 191 198 164 191 198 164 191 198 164 191 198 164 191 198 164 191 198 164 0 0 255 192 200 168 192 200 168 192 200 168 192 200 168 192 200 168 192 200 168 192 200 168 192 200 168 192 200 168 192 200 168 192 200 168 192 200 168 192 200 168 192 200 168 192 200 168 192 200 168 192 200 168 192 200 168 192 200 168 192 200 168 192 200 168 192 200 168 192 200 168 192 200 168 192 200 168 192 200 168 192 200 168 192 200 168 192 200 168 0 0 255 192 201 169 192 201 169 192 201 169 192 201 169 192 201 169 192 201 169 192 201 169 192 201 169 192 201 169 192 201 169 192 201 169 192 201 169 192 201 169 192 201 169 192 201 169 192 201 169 192 201 169 192 201 169 192 201 169 192 201 169 192 201 169 192 201 169 192 201 169 192 201 169 192 201 169 192 201 169 192 201 169 192 201 169 192 201 169 192 201 169 0 0 255 193 200 168 193 200 168 193 200 168 193 200 168 193 200 168 193 200 168 193 200 168 193 200 168 193 200 168 193 200 168 193 200 168 193 200 168 193 200 168 193 200 168 193 200 168 193 200 168 193 200 168 193 200 168 193 200 168 193 200 168 193 200 168 193 200 168 193 200 168 193 200 168 193 200 168 193 200 168 193 200 168 193 200 168 193 200 168 193 200 168 0 0 255 193 195 161 193 195 161 193 195 161 193 195 161 193 195 161 193 195 161 193 195 161 193 195 161 193 195 161 193 195 161 193 195 161 193 195 161 193 195 161 193 195 161 193 195 161 193 195 161 193 195 161 193 195 161 193 195 161 193 195 161 193 195 161 193 195 161 193 195 161 193 195 161 193 195 161 193 195 161 193 195 161 193 195 161 193 195 161 
185 180 125 185 180 125 185 180 125 185 180 125 185 180 125 185 180 125 185 180 125 185 180 125 185 180 125 185 180 125 185 180 125 185 180 125 185 180 125 185 180 125 185 180 125 185 180 125 185 180 125 185 180 125 185 180 125 185 180 125 185 180 125 185 180 125 185 180 125 0 0 255 190 191 141 190 191 141 190 191 141 190 191 141 190 191 141 190 191 141 190 191 141 190 191 141 190 191 141 190 191 141 190 191 141 190 191 141 190 191 141 190 191 141 190 191 141 190 191 141 190 191 141 190 191 141 190 191 141 190 191 141 190 191 141 190 191 141 190 191 141 190 191 141 190 191 141 0 0 255 191 196 153 191 196 153 191 196 153 191 196 153 191 196 153 191 196 153 191 196 153 191 196 153 191 196 153 191 196 153 191 196 153 191 196 153 191 196 153 191 196 153 191 196 153 191 196 153 191 196 153 191 196 153 191 196 153 191 196 153 191 196 153 191 196 153 191 196 153 191 196 153 191 196 153 191 196 153 0 0 255 192 198 161 192 198 161 192 198 161 192 198 161 192 198 161 192 198 161 192 198 161 192 198 161 192 198 161 192 198 161 192 198 161 192 198 161 192 198 161 192 198 161 192 198 161 192 198 161 192 198 161 192 198 161 192 198 161 192 198 161 192 198 161 192 198 161 192 198 161 192 198 161 192 198 161 192 198 161 192 198 161 192 198 161 0 0 255 191 198 164 191 198 164 191 198 164 191 198 164 191 198 164 191 198 164 191 198 164 191 198 164 191 198 164 191 198 164 191 198 164 191 198 164 191 198 164 191 198 164 191 198 164 191 198 164 191 198 164 191 198 164 191 198 164 191 198 164 191 198 164 191 198 164 191 198 164 191 198 164 191 198 164 191 198 164 191 198 164 191 198 164 0 0 255 192 200 168 192 200 168 192 200 168 192 200 168 192 200 168 192 200 168 192 200 168 192 200 168 192 200 168 192 200 168 192 200 168 192 200 168 192 200 168 192 200 168 192 200 168 192 200 168 192 200 168 192 200 168 192 200 168 192 200 168 192 200 168 192 200 168 192 200 168 192 200 168 192 200 168 192 200 168 192 200 168 192 200 168 192 200 168 0 0 255 192 201 169 192 201 169 192 201 169 192 201 169 192 201 169 192 201 169 192 201 169 192 201 169 192 201 169 192 201 169 192 201 169 192 201 169 192 201 169 192 201 169 192 201 169 192 201 169 192 201 169 192 201 169 192 201 169 192 201 169 192 201 169 192 201 169 192 201 169 192 201 169 192 201 169 192 201 169 192 201 169 192 201 169 192 201 169 0 0 255 193 200 168 193 200 168 193 200 168 193 200 168 193 200 168 193 200 168 193 200 168 193 200 168 193 200 168 193 200 168 193 200 168 193 200 168 193 200 168 193 200 168 193 200 168 193 200 168 193 200 168 193 200 168 193 200 168 193 200 168 193 200 168 193 200 168 193 200 168 193 200 168 193 200 168 193 200 168 193 200 168 193 200 168 193 200 168 193 200 168 193 200 168 0 0 255 193 195 161 193 195 161 193 195 161 193 195 161 193 195 161 193 195 161 193 195 161 193 195 161 193 195 161 193 195 161 193 195 161 193 195 161 193 195 161 193 195 161 193 195 161 193 195 161 193 195 161 193 195 161 193 195 161 193 195 161 193 195 161 193 195 161 193 195 161 193 195 161 193 195 161 193 195 161 193 195 161 193 195 161 193 195 161 
185 180 125 185 180 125 185 180 125 185 180 125 185 180 125 185 180 125 185 180 125 185 180 125 185 180 125 185 180 125 185 180 125 185 180 125 185 180 125 185 180 125 185 180 125 185 180 125 185 180 125 185 180 125 185 180 125 185 180 125 185 180 125 185 180 125 185 180 125 0 0 255 190 191 141 190 191 141 190 191 141 190 191 141 190 191 141 190 191 141 190 191 141 190 191 141 190 191 141 190 191 141 190 191 141 190 191 141 190 191 141 190 191 141 190 191 141 190 191 141 190 191 141 190 191 141 190 191 141 190 191 141 190 191 141 190 191 141 190 191 141 190 191 141 190 191 141 0 0 255 191 196 153 191 196 153 191 196 153 191 196 153 191 196 153 191 196 153 191 196 153 191 196 153 191 196 153 191 196 153 191 196 153 191 196 153 191 196 153 191 196 153 191 196 153 191 196 153 191 196 153 191 196 153 191 196 153 191 196 153 191 196 153 191 196 153 191 196 153 191 196 153 191 196 153 191 196 153 0 0 255 192 198 161 192 198 161 192 198 161 192 198 161 192 198 161 192 198 161 192 198 161 192 198 161 192 198 161 192 198 161 192 198 161 192 198 161 192 198 161 192 198 161 192 198 161 192 198 161 192 198 161 192 198 161 192 198 161 192 198 161 192 198 161 192 198 161 192 198 161 192 198 161 192 198 161 192 198 161 192 198 161 192 198 161 0 0 255 191 198 164 191 198 164 191 198 164 191 198 164 191 198 164 191 198 164 191 198 164 191 198 164 191 198 164 191 198 164 191 198 164 191 198 164 191 198 164 191 198 164 191 198 164 191 198 164 191 198 164 191 198 164 191 198 164 191 198 164 191 198 164 191 198 164 191 198 164 191 198 164 191 198 164 191 198 164 191 198 164 191 198 164 0 0 255 192 200 168 192 200 168 192 200 168 192 200 168 192 200 168 192 200 168 192 200 168 192 200 168 192 200 168 192 200 168 192 200 168 192 200 168 192 200 168 192 200 168 192 200 168 192 200 168 192 200 168 192 200 168 192 200 168 192 200 168 192 200 168 192 200 168 192 200 168 192 200 168 192 200 168 192 200 168 192 200 168 192 200 168 192 200 168 0 0 255 192 201 169 192 201 169 192 201 169 192 201 169 192 201 169 192 201 169 192 201 169 192 201 169 192 201 169 192 201 169 192 201 169 192 201 169 192 201 169 192 201 169 192 201 169 192 201 169 192 201 169 192 201 169 192 201 169 192 201 169 192 201 169 192 201 169 192 201 169 192 201 169 192 201 169 192 201 169 192 201 169 192 201 169 192 201 169 0 0 255 193 200 168 193 200 168 193 200 168 193 200 168 193 200 168 193 200 168 193 200 168 193 200 168 193 200 168 193 200 168 193 200 168 193 200 168 193 200 168 193 200 168 193 200 168 193 200 168 193 200 168 193 200 168 193 200 168 193 200 168 193 200 168 193 200 168 193 200 168 193 200 168 193 200 168 193 200 168 193 200 168 193 200 168 193 200 168 193 200 168 193 200 168 0 0 255 193 195 161 193 195 161 193 195 161 193 195 161 193 195 161 193 195 161 193 195 161 193 195 161 193 195 161 193 195 161 193 195 161 193 195 161 193 195 161 193 195 161 193 195 161 193 195 161 193 195 161 193 195 161 193 195 161 193 195 161 193 195 161 193 195 161 193 195 161 193 195 161 193 195 161 193 195 161 193 195 161 193 195 161 193 195 161 
185 180 125 185 180 125 185 180 125 185 180 125 185 180 125 185 180 125 185 180 125 185 180 125 185 180 125 185 180 125 185 180 125 185 180 125 185 180 125 185 180 125 185 180 125 185 180 125 185 180 125 185 180 125 185 180 125 185 180 125 185 180 125 185 180 125 185 180 125 0 0 255 0 0 255 190 191 141 190 191 141 190 191 141 190 191 141 190 191 141 190 191 141 190 191 141 190 191 141 190 191 141 190 191 141 190 191 141 190 191 141 190 191 141 190 191 141 190 191 141 190 191 141 190 191 141 190 191 141 190 191 141 190 191 141 190 191 141 190 191 141 190 191 141 190 191 141 0 0 255 191 196 153 191 196 153 191 196 153 191 196 153 191 196 153 191 196 153 191 196 153 191 196 153 191 196 153 191 196 153 191 196 153 191 196 153 191 196 153 191 196 153 191 196 153 191 196 153 191 196 153 191 196 153 191 196 153 191 196 153 191 196 153 191 196 153 191 196 153 191 196 153 191 196 153 191 196 153 0 0 255 192 198 161 192 198 161 192 198 161 192 198 161 192 198 161 192 198 161 192 198 161 192 198 161 192 198 161 192 198 161 192 198 161 192 198 161 192 198 161 192 198 161 192 198 161 192 198 161 192 198 161 192 198 161 192 198 161 192 198 161 192 198 161 192 198 161 192 198 161 192 198 161 192 198 161 192 198 161 192 198 161 192 198 161 0 0 255 191 198 164 191 198 164 191 198 164 191 198 164 191 198 164 191 198 164 191 198 164 191 198 164 191 198 164 191 198 164 191 198 164 191 198 164 191 198 164 191 198 164 191 198 164 191 198 164 191 198 164 191 198 164 191 198 164 191 198 164 191 198 164 191 198 164 191 198 164 191 198 164 191 198 164 191 198 164 191 198 164 191 198 164 0 0 255 0 0 255 192 200 168 192 200 168 192 200 168 192 200 168 192 200 168 192 200 168 192 200 168 192 200 168 192 200 168 192 200 168 192 200 168 192 200 168 192 200 168 192 200 168 192 200 168 192 200 168 192 200 168 192 200 168 192 200 168 192 200 168 192 200 168 192 200 168 192 200 168 192 200 168 192 200 168 192 200 168 192 200 168 192 200 168 0 0 255 192 201 169 192 201 169 192 201 169 192 201 169 192 201 169 192 201 169 192 201 169 192 201 169 192 201 169 192 201 169 192 201 169 192 201 169 192 201 169 192 201 169 192 201 169 192 201 169 192 201 169 192 201 169 192 201 169 192 201 169 192 201 169 192 201 169 192 201 169 192 201 169 192 201 169 192 201 169 192 201 169 192 201 169 192 201 169 0 0 255 193 200 168 193 200 168 193 200 168 193 200 168 193 200 168 193 200 168 193 200 168 193 200 168 193 200 168 193 200 168 193 200 168 193 200 168 193 200 168 193 200 168 193 200 168 193 200 168 193 200 168 193 200 168 193 200 168 193 200 168 193 200 168 193 200 168 193 200 168 193 200 168 193 200 168 193 200 168 193 200 168 193 200 168 193 200 168 193 200 168 193 200 168 0 0 255 193 195 161 193 195 161 193 195 161 193 195 161 193 195 161 193 195 161 193 195 161 193 195 161 193 195 161 193 195 161 193 195 161 193 195 161 193 195 161 193 195 161 193 195 161 193 195 161 193 195 161 193 195 161 193 195 161 193 195 161 193 195 161 193 195 161 193 195 161 193 195 161 193 195 161 193 195 161 193 195 161 193 195 161 193 195 161 
185 180 125 185 180 125 185 180 125 185 180 125 185 180 125 185 180 125 185 180 125 185 180 125 185 180 125 185 180 125 185 180 125 185 180 125 185 180 125 185 180 125 185 180 125 185 180 125 185 180 125 185 180 125 185 180 125 185 180 125 185 180 125 185 180 125 185 180 125 185 180 125 0 0 255 190 191 141 190 191 141 190 191 141 190 191 141 190 191 141 190 191 141 190 191 141 190 191 141 190 191 141 190 191 141 190 191 141 190 191 141 190 191 141 190 191 141 190 191 141 190 191 141 190 191 141 190 191 141 190 191 141 190 191 141 190 191 141 190 191 141 190 191 141 190 191 141 0 0 255 191 196 153 191 196 153 191 196 153 191 196 153 191 196 153 191 196 153 191 196 153 191 196 153 191 196 153 191 196 153 191 196 153 191 196 153 191 196 153 191 196 153 191 196 153 191 196 153 191 196 153 191 196 153 191 196 153 191 196 153 191 196 153 191 196 153 191 196 153 191 196 153 191 196 153 191 196 153 0 0 255 192 198 161 192 198 161 192 198 161 192 198 161 192 198 161 192 198 161 192 198 161 192 198 161 192 198 161 192 198 161 192 198 161 192 198 161 192 198 161 192 198 161 192 198 161 192 198 161 192 198 161 192 198 161 192 198 161 192 198 161 192 198 161 192 198 161 192 198 161 192 198 161 192 198 161 192 198 161 192 198 161 192 198 161 0 0 255 191 198 164 191 198 164 191 198 164 191 198 164 191 198 164 191 198 164 191 198 164 191 198 164 191 198 164 191 198 164 191 198 164 191 198 164 191 198 164 191 198 164 191 198 164 191 198 164 191 198 164 191 198 164 191 198 164 191 198 164 191 198 164 191 198 164 191 198 164 191 198 164 191 198 164 191 198 164 191 198 164 191 198 164 191 198 164 0 0 255 192 200 168 192 200 168 192 200 168 192 200 168 192 200 168 192 200 168 192 200 168 192 200 168 192 200 168 192 200 168 192 200 168 192 200 168 192 200 168 192 200 168 192 200 168 192 200 168 192 200 168 192 200 168 192 200 168 192 200 168 192 200 168 192 200 168 192 200 168 192 200 168 192 200 168 192 200 168 192 200 168 192 200 168 0 0 255 192 201 169 192 201 169 192 201 169 192 201 169 192 201 169 192 201 169 192 201 169 192 201 169 192 201 169 192 201 169 192 201 169 192 201 169 192 201 169 192 201 169 192 201 169 192 201 169 192 201 169 192 201 169 192 201 169 192 201 169 192 201 169 192 201 169 192 201 169 192 201 169 192 201 169 192 201 169 192 201 169 192 201 169 192 201 169 0 0 255 193 200 168 193 200 168 193 200 168 193 200 168 193 200 168 193 200 168 193 200 168 193 200 168 193 200 168 193 200 168 193 200 168 193 200 168 193 200 168 193 200 168 193 200 168 193 200 168 193 200 168 193 200 168 193 200 168 193 200 168 193 200 168 193 200 168 193 200 168 193 200 168 193 200 168 193 200 168 193 200 168 193 200 168 193 200 168 193 200 168 0 0 255 193 195 161 193 195 161 193 195 161 193 195 161 193 195 161 193 195 161 193 195 161 193 195 161 193 195 161 193 195 161 193 195 161 193 195 161 193 195 161 193 195 161 193 195 161 193 195 161 193 195 161 193 195 161 193 195 161 193 195 161 193 195 161 193 195 161 193 195 161 193 195 161 193 195 161 193 195 161 193 195 161 193 195 161 193 195 161 193 195 161 
185 180 125 185 180 125 185 180 125 185 180 125 185 180 125 185 180 125 185 180 125 185 180 125 185 180 125 185 180 125 185 180 125 185 180 125 185 180 125 185 180 125 185 180 125 185 180 125 185 180 125 185 180 125 185 180 125 185 180 125 185 180 125 185 180 125 185 180 125 185 180 125 0 0 255 190 191 141 190 191 141 190 191 141 190 191 141 190 191 141 190 191 141 190 191 141 190 191 141 190 191 141 190 191 141 190 191 141 190 191 141 190 191 141 190 191 141 190 191 141 190 191 141 190 191 141 190 191 141 190 191 141 190 191 141 190 191 141 190 191 141 190 191 141 190 191 141 0 0 255 0 0 255 191 196 153 191 196 153 191 196 153 191 196 153 191 196 153 191 196 153 191 196 153 191 196 153 191 196 153 191 196 153 191 196 153 191 196 153 191 196 153 191 196 153 191 196 153 191 196 153 191 196 153 191 196 153 191 196 153 191 196 153 191 196 153 191 196 153 191 196 153 191 196 153 191 196 153 0 0 255 192 198 161 192 198 161 192 198 161 192 198 161 192 198 161 192 198 161 192 198 161 192 198 161 192 198 161 192 198 161 192 198 161 192 198 161 192 198 161 192 198 161 192 198 161 192 198 161 192 198 161 192 198 161 192 198 161 192 198 161 192 198 161 192 198 161 192 198 161 192 198 161 192 198 161 192 198 161 192 198 161 192 198 161 0 0 255 191 198 164 191 198 164 191 198 164 191 198 164 191 198 164 191 198 164 191 198 164 191 198 164 191 198 164 191 198 164 191 198 164 191 198 164 191 198 164 191 198 164 191 198 164 191 198 164 191 198 164 191 198 164 191 198 164 191 198 164 191 198 164 191 198 164 191 198 164 191 198 164 191 198 164 191 198 164 191 198 164 191 198 164 191 198 164 0 0 255 192 200 168 192 200 168 192 200 168 192 200 168 192 200 168 192 200 168 192 200 168 192 200 168 192 200 168 192 200 168 192 200 168 192 200 168 192 200 168 192 200 168 192 200 168 192 200 168 192 200 168 192 200 168 192 200 168 192 200 168 192 200 168 192 200 168 192 200 168 192 200 168 192 200 168 192 200 168 192 200 168 192 200 168 0 0 255 192 201 169 192 201 169 192 201 169 192 201 169 192 201 169 192 201 169 192 201 169 192 201 169 192 201 169 192 201 169 192 201 169 192 201 169 192 201 169 192 201 169 192 201 169 192 201 169 192 201 169 192 201 169 192 201 169 192 201 169 192 201 169 192 201 169 192 201 169 192 201 169 192 201 169 192 201 169 192 201 169 192 201 169 192 201 169 0 0 255 193 200 168 193 200 168 193 200 168 193 200 168 193 200 168 193 200 168 193 200 168 193 200 168 193 200 168 193 200 168 193 200 168 193 200 168 193 200 168 193 200 168 193 200 168 193 200 168 193 200 168 193 200 168 193 200 168 193 200 168 193 200 168 193 200 168 193 200 168 193 200 168 193 200 168 193 200 168 193 200 168 193 200 168 193 200 168 193 200 168 0 0 255 193 195 161 193 195 161 193 195 161 193 195 161 193 195 161 193 195 161 193 195 161 193 195 161 193 195 161 193 195 161 193 195 161 193 195 161 193 195 161 193 195 161 193 195 161 193 195 161 193 195 161 193 195 161 193 195 161 193 195 161 193 195 161 193 195 161 193 195 161 193 195 161 193 195 161 193 195 161 193 195 161 193 195 161 193 195 161 193 195 161 
185 180 125 185 180 125 185 180 125 185 180 125 185 180 125 185 180 125 185 180 125 185 180 125 185 180 125 185 180 125 185 180 125 185 180 125 185 180 125 185 180 125 185 180 125 185 180 125 185 180 125 185 180 125 185 180 125 185 180 125 185 180 125 185 180 125 185 180 125 185 180 125 0 0 255 190 191 141 190 191 141 190 191 141 190 191 141 190 191 141 190 191 141 190 191 141 190 191 141 190 191 141 190 191 141 190 191 141 190 191 141 190 191 141 190 191 141 190 191 141 190 191 141 190 191 141 190 191 141 190 191 141 190 191 141 190 191 141 190 191 141 190 191 141 190 191 141 190 191 141 0 0 255 0 0 255 191 196 153 191 196 153 191 196 153 191 196 153 191 196 153 191 196 153 191 196 153 191 196 153 191 196 153 191 196 153 191 196 153 191 196 153 191 196 153 191 196 153 191 196 153 191 196 153 191 196 153 191 196 153 191 196 153 191 196 153 191 196 153 191 196 153 191 196 153 191 196 153 0 0 255 192 198 161 192 198 161 192 198 161 192 198 161 192 198 161 192 198 161 192 198 161 192 198 161 192 198 161 192 198 161 192 198 161 192 198 161 192 198 161 192 198 161 192 198 161 192 198 161 192 198 161 192 198 161 192 198 161 192 198 161 192 198 161 192 198 161 192 198 161 192 198 161 192 198 161 192 198 161 192 198 161 192 198 161 0 0 255 191 198 164 191 198 164 191 198 164 191 198 164 191 198 164 191 198 164 191 198 164 191 198 164 191 198 164 191 198 164 191 198 164 191 198 164 191 198 164 191 198 164 191 198 164 191 198 164 191 198 164 191 198 164 191 198 164 191 198 164 191 198 164 191 198 164 191 198 164 191 198 164 191 198 164 191 198 164 191 198 164 191 198 164 191 198 164 0 0 255 192 200 168 192 200 168 192 200 168 192 200 168 192 200 168 192 200 168 192 200 168 192 200 168 192 200 168 192 200 168 192 200 168 192 200 168 192 200 168 192 200 168 192 200 168 192 200 168 192 200 168 192 200 168 192 200 168 192 200 168 192 200 168 192 200 168 192 200 168 192 200 168 192 200 168 192 200 168 192 200 168 192 200 168 0 0 255 0 0 255 192 201 169 192 201 169 192 201 169 192 201 169 192 201 169 192 201 169 192 201 169 192 201 169 192 201 169 192 201 169 192 201 169 192 201 169 192 201 169 192 201 169 192 201 169 192 201 169 192 201 169 192 201 169 192 201 169 192 201 169 192 201 169 192 201 169 192 201 169 192 201 169 192 201 169 192 201 169 192 201 169 0 0 255 193 200 168 193 200 168 193 200 168 193 200 168 193 200 168 193 200 168 193 200 168 193 200 168 193 200 168 193 200 168 193 200 168 193 200 168 193 200 168 193 200 168 193 200 168 193 200 168 193 200 168 193 200 168 193 200 168 193 200 168 193 200 168 193 200 168 193 200 168 193 200 168 193 200 168 193 200 168 193 200 168 193 200 168 193 200 168 193 200 168 193 200 168 0 0 255 193 195 161 193 195 161 193 195 161 193 195 161 193 195 161 193 195 161 193 195 161 193 195 161 193 195 161 193 195 161 193 195 161 193 195 161 193 195 161 193 195 161 193 195 161 193 195 161 193 195 161 193 195 161 193 195 161 193 195 161 193 195 161 193 195 161 193 195 161 193 195 161 193 195 161 193 195 161 193 195 161 193 195 161 193 195 161 193 195 161 
185 180 125 185 180 125 185 180 125 185 180 125 185 180 125 185 180 125 185 180 125 185 180 125 185 180 125 185 180 125 185 180 125 185 180 125 185 180 125 185 180 125 185 180 125 185 180 125 185 180 125 185 180 125 185 180 125 185 180 125 185 180 125 185 180 125 185 180 125 185 180 125 0 0 255 190 191 141 190 191 141 190 191 141 190 191 141 190 191 141 190 191 141 190 191 141 190 191 141 190 191 141 190 191 141 190 191 141 190 191 141 190 191 141 190 191 141 190 191 141 190 191 141 190 191 141 190 191 141 190 191 141 190 191 141 190 191 141 190 191 141 190 191 141 190 191 141 190 191 141 190 191 141 0 0 255 191 196 153 191 196 153 191 196 153 191 196 153 191 196 153 191 196 153 191 196 153 191 196 153 191 196 153 191 196 153 191 196 153 191 196 153 191 196 153 191 196 153 191 196 153 191 196 153 191 196 153 191 196 153 191 196 153 191 196 153 191 196 153 191 196 153 191 196 153 191 196 153 0 0 255 192 198 161 192 198 161 192 198 161 192 198 161 192 198 161 192 198 161 192 198 161 192 198 161 192 198 161 192 198 161 192 198 161 192 198 161 192 198 161 192 198 161 192 198 161 192 198 161 192 198 161 192 198 161 192 198 161 192 198 161 192 198 161 192 198 161 192 198 161 192 198 161 192 198 161 192 198 161 192 198 161 192 198 161 0 0 255 191 198 164 191 198 164 191 198 164 191 198 164 191 198 164 191 198 164 191 198 164 191 198 164 191 198 164 191 198 164 191 198 164 191 198 164 191 198 164 191 198 164 191 198 164 191 198 164 191 198 164 191 198 164 191 198 164 191 198 164 191 198 164 191 198 164 191 198 164 191 198 164 191 198 164 191 198 164 191 198 164 191 198 164 191 198 164 0 0 255 192 200 168 192 200 168 192 200 168 192 200 168 192 200 168 192 200 168 192 200 168 192 200 168 192 200 168 192 200 168 192 200 168 192 200 168 192 200 168 192 200 168 192 200 168 192 200 168 192 200 168 192 200 168 192 200 168 192 200 168 192 200 168 192 200 168 192 200 168 192 200 168 192 200 168 192 200 168 192 200 168 192 200 168 192 200 168 0 0 255 192 201 169 192 201 169 192 201 169 192 201 169 192 201 169 192 201 169 192 201 169 192 201 169 192 201 169 192 201 169 192 201 169 192 201 169 192 201 169 192 201 169 192 201 169 192 201 169 192 201 169 192 201 169 192 201 169 192 201 169 192 201 169 192 201 169 192 201 169 192 201 169 192 201 169 192 201 169 192 201 169 0 0 255 193 200 168 193 200 168 193 200 168 193 200 168 193 200 168 193 200 168 193 200 168 193 200 168 193 200 168 193 200 168 193 200 168 193 200 168 193 200 168 193 200 168 193 200 168 193 200 168 193 200 168 193 200 168 193 200 168 193 200 168 193 200 168 193 200 168 193 200 168 193 200 168 193 200 168 193 200 168 193 200 168 193 200 168 193 200 168 193 200 168 193 200 168 0 0 255 193 195 161 193 195 161 193 195 161 193 195 161 193 195 161 193 195 161 193 195 161 193 195 161 193 195 161 193 195 161 193 195 161 193 195 161 193 195 161 193 195 161 193 195 161 193 195 161 193 195 161 193 195 161 193 195 161 193 195 161 193 195 161 193 195 161 193 195 161 193 195 161 193 195 161 193 195 161 193 195 161 193 195 161 193 195 161 193 195 161 
185 180 125 185 180 125 185 180 125 185 180 125 185 180 125 185 180 125 185 180 125 185 180 125 185 180 125 185 180 125 185 180 125 185 180 125 185 180 125 185 180 125 185 180 125 185 180 125 185 180 125 185 180 125 185 180 125 185 180 125 185 180 125 185 180 125 185 180 125 185 180 125 0 0 255 190 191 141 190 191 141 190 191 141 190 191 141 190 191 141 190 191 141 190 191 141 190 191 141 190 191 141 190 191 141 190 191 141 190 191 141 190 191 141 190 191 141 190 191 141 190 191 141 190 191 141 190 191 141 190 191 141 190 191 141 190 191 141 190 191 141 190 191 141 190 191 141 190 191 141 190 191 141 0 0 255 191 196 153 191 196 153 191 196 153 191 196 153 191 196 153 191 196 153 191 196 153 191 196 153 191 196 153 191 196 153 191 196 153 191 196 153 191 196 153 191 196 153 191 196 153 191 196 153 191 196 153 191 196 153 191 196 153 191 196 153 191 196 153 191 196 153 191 196 153 0 0 255 192 198 161 192 198 161 192 198 161 192 198 161 192 198 161 192 198 161 192 198 161 192 198 161 192 198 161 192 198 161 192 198 161 192 198 161 192 198 161 192 198 161 192 198 161 192 198 161 192 198 161 192 198 161 192 198 161 192 198 161 192 198 161 192 198 161 192 198 161 192 198 161 192 198 161 192 198 161 192 198 161 192 198 161 192 198 161 0 0 255 191 198 164 191 198 164 191 198 164 191 198 164 191 198 164 191 198 164 191 198 164 191 198 164 191 198 164 191 198 164 191 198 164 191 198 164 191 198 164 191 198 164 191 198 164 191 198 164 191 198 164 191 198 164 191 198 164 191 198 164 191 198 164 191 198 164 191 198 164 191 198 164 191 198 164 191 198 164 191 198 164 191 198 164 191 198 164 0 0 255 0 0 255 192 200 168 192 200 168 192 200 168 192 200 168 192 200 168 192 200 168 192 200 168 192 200 168 192 200 168 192 200 168 192 200 168 192 200 168 192 200 168 192 200 168 192 200 168 192 200 168 192 200 168 192 200 168 192 200 168 192 200 168 192 200 168 192 200 168 192 200 168 192 200 168 192 200 168 192 200 168 192 200 168 192 200 168 0 0 255 192 201 169 192 201 169 192 201 169 192 201 169 192 201 169 192 201 169 192 201 169 192 201 169 192 201 169 192 201 169 192 201 169 192 201 169 192 201 169 192 201 169 192 201 169 192 201 169 192 201 169 192 201 169 192 201 169 192 201 169 192 201 169 192 201 169 192 201 169 192 201 169 192 201 169 192 201 169 192 201 169 0 0 255 193 200 168 193 200 168 193 200 168 193 200 168 193 200 168 193 200 168 193 200 168 193 200 168 193 200 168 193 200 168 193 200 168 193 200 168 193 200 168 193 200 168 193 200 168 193 200 168 193 200 168 193 200 168 193 200 168 193 200 168 193 200 168 193 200 168 193 200 168 193 200 168 193 200 168 193 200 168 193 200 168 193 200 168 193 200 168 193 200 168 193 200 168 0 0 255 193 195 161 193 195 161 193 195 161 193 195 161 193 195 161 193 195 161 193 195 161 193 195 161 193 195 161 193 195 161 193 195 161 193 195 161 193 195 161 193 195 161 193 195 161 193 195 161 193 195 161 193 195 161 193 195 161 193 195 161 193 195 161 193 195 161 193 195 161 193 195 161 193 195 161 193 195 161 193 195 161 193 195 161 193 195 161 193 195 161 
185 180 125 185 180 125 185 180 125 185 180 125 185 180 125 185 180 125 185 180 125 185 180 125 185 180 125 185 180 125 185 180 125 185 180 125 185 180 125 185 180 125 185 180 125 185 180 125 185 180 125 185 180 125 185 180 125 185 180 125 185 180 125 185 180 125 185 180 125 185 180 125 0 0 255 190 191 141 190 191 141 190 191 141 190 191 141 190 191 141 190 191 141 190 191 141 190 191 141 190 191 141 190 191 141 190 191 141 190 191 141 190 191 141 190 191 141 190 191 141 190 191 141 190 191 141 190 191 141 190 191 141 190 191 141 190 191 141 190 191 141 190 191 141 190 191 141 190 191 141 190 191 141 0 0 255 191 196 153 191 196 153 191 196 153 191 196 153 191 196 153 191 196 153 191 196 153 191 196 153 191 196 153 191 196 153 191 196 153 191 196 153 191 196 153 191 196 153 191 196 153 191 196 153 191 196 153 191 196 153 191 196 153 191 196 153 191 196 153 191 196 153 191 196 153 0 0 255 192 198 161 192 198 161 192 198 161 192 198 161 192 198 161 192 198 161 192 198 161 192 198 161 192 198 161 192 198 161 192 198 161 192 198 161 192 198 161 192 198 161 192 198 161 192 198 161 192 198 161 192 198 161 192 198 161 192 198 161 192 198 161 192 198 161 192 198 161 192 198 161 192 198 161 192 198 161 192 198 161 192 198 161 192 198 161 0 0 255 191 198 164 191 198 164 191 198 164 191 198 164 191 198 164 191 198 164 191 198 164 191 198 164 191 198 164 191 198 164 191 198 164 191 198 164 191 198 164 191 198 164 191 198 164 191 198 164 191 198 164 191 198 164 191 198 164 191 198 164 191 198 164 191 198 164 191 198 164 191 198 164 191 198 164 191 198 164 191 198 164 191 198 164 191 198 164 191 198 164 0 0 255 192 200 168 192 200 168 192 200 168 192 200 168 192 200 168 192 200 168 192 200 168 192 200 168 192 200 168 192 200 168 192 200 168 192 200 168 192 200 168 192 200 168 192 200 168 192 200 168 192 200 168 192 200 168 192 200 168 192 200 168 192 200 168 192 200 168 192 200 168 192 200 168 192 200 168 192 200 168 192 200 168 192 200 168 0 0 255 192 201 169 192 201 169 192 201 169 192 201 169 192 201 169 192 201 169 192 201 169 192 201 169 192 201 169 192 201 169 192 201 169 192 201 169 192 201 169 192 201 169 192 201 169 192 201 169 192 201 169 192 201 169 192 201 169 192 201 169 192 201 169 192 201 169 192 201 169 192 201 169 192 201 169 192 201 169 192 201 169 0 0 255 193 200 168 193 200 168 193 200 168 193 200 168 193 200 168 193 200 168 193 200 168 193 200 168 193 200 168 193 200 168 193 200 168 193 200 168 193 200 168 193 200 168 193 200 168 193 200 168 193 200 168 193 200 168 193 200 168 193 200 168 193 200 168 193 200 168 193 200 168 193 200 168 193 200 168 193 200 168 193 200 168 193 200 168 193 200 168 193 200 168 193 200 168 0 0 255 193 195 161 193 195 161 193 195 161 193 195 161 193 195 161 193 195 161 193 195 161 193 195 161 193 195 161 193 195 161 193 195 161 193 195 161 193 195 161 193 195 161 193 195 161 193 195 161 193 195 161 193 195 161 193 195 161 193 195 161 193 195 161 193 195 161 193 195 161 193 195 161 193 195 161 193 195 161 193 195 161 193 195 161 193 195 161 193 195 161 
185 180 125 185 180 125 185 180 125 185 180 125 185 180 125 185 180 125 185 180 125 185 180 125 185 180 125 185 180 125 185 180 125 185 180 125 185 180 125 185 180 125 185 180 125 185 180 125 185 180 125 185 180 125 185 180 125 185 180 125 185 180 125 185 180 125 185 180 125 185 180 125 0 0 255 190 191 141 190 191 141 190 191 141 190 191 141 190 191 141 190 191 141 190 191 141 190 191 141 190 191 141 190 191 141 190 191 141 190 191 141 190 191 141 190 191 141 190 191 141 190 191 141 190 191 141 190 191 141 190 191 141 190 191 141 190 191 141 190 191 141 190 191 141 190 191 141 190 191 141 190 191 141 0 0 255 0 0 255 191 196 153 191 196 153 191 196 153 191 196 153 191 196 153 191 196 153 191 196 153 191 196 153 191 196 153 191 196 153 191 196 153 191 196 153 191 196 153 191 196 153 191 196 153 191 196 153 191 196 153 191 196 153 191 196 153 191 196 153 191 196 153 191 196 153 0 0 255 192 198 161 192 198 161 192 198 161 192 198 161 192 198 161 192 198 161 192 198 161 192 198 161 192 198 161 192 198 161 192 198 161 192 198 161 192 198 161 192 198 161 192 198 161 192 198 161 192 198 161 192 198 161 192 198 161 192 198 161 192 198 161 192 198 161 192 198 161 192 198 161 192 198 161 192 198 161 192 198 161 192 198 161 192 198 161 0 0 255 191 198 164 191 198 164 191 198 164 191 198 164 191 198 164 191 198 164 191 198 164 191 198 164 191 198 164 191 198 164 191 198 164 191 198 164 191 198 164 191 198 164 191 198 164 191 198 164 191 198 164 191 198 164 191 198 164 191 198 164 191 198 164 191 198 164 191 198 164 191 198 164 191 198 164 191 198 164 191 198 164 191 198 164 191 198 164 191 198 164 0 0 255 192 200 168 192 200 168 192 200 168 192 200 168 192 200 168 192 200 168 192 200 168 192 200 168 192 200 168 192 200 168 192 200 168 192 200 168 192 200 168 192 200 168 192 200 168 192 200 168 192 200 168 192 200 168 192 200 168 192 200 168 192 200 168 192 200 168 192 200 168 192 200 168 192 200 168 192 200 168 192 200 168 192 200 168 0 0 255 192 201 169 192 201 169 192 201 169 192 201 169 192 201 169 192 201 169 192 201 169 192 201 169 192 201 169 192 201 169 192 201 169 192 201 169 192 201 169 192 201 169 192 201 169 192 201 169 192 201 169 192 201 169 192 201 169 192 201 169 192 201 169 192 201 169 192 201 169 192 201 169 192 201 169 192 201 169 0 0 255 193 200 168 193 200 168 193 200 168 193 200 168 193 200 168 193 200 168 193 200 168 193 200 168 193 200 168 193 200 168 193 200 168 193 200 168 193 200 168 193 200 168 193 200 168 193 200 168 193 200 168 193 200 168 193 200 168 193 200 168 193 200 168 193 200 168 193 200 168 193 200 168 193 200 168 193 200 168 193 200 168 193 200 168 193 200 168 193 200 168 193 200 168 193 200 168 0 0 255 193 195 161 193 195 161 193 195 161 193 195 161 193 195 161 193 195 161 193 195 161 193 195 161 193 195 161 193 195 161 193 195 161 193 195 161 193 195 161 193 195 161 193 195 161 193 195 161 193 195 161 193 195 161 193 195 161 193 195 161 193 195 161 193 195 161 193 195 161 193 195 161 193 195 161 193 195 161 193 195 161 193 195 161 193 195 161 193 195 161 
185 180 125 185 180 125 185 180 125 185 180 125 185 180 125 185 180 125 185 180 125 185 180 125 185 180 125 185 180 125 185 180 125 185 180 125 185 180 125 185 180 125 185 180 125 185 180 125 185 180 125 185 180 125 185 180 125 185 180 125 185 180 125 185 180 125 185 180 125 185 180 125 0 0 255 190 191 141 190 191 141 190 191 141 190 191 141 190 191 141 190 191 141 190 191 141 190 191 141 190 191 141 190 191 141 190 191 141 190 191 141 190 191 141 190 191 141 190 191 141 190 191 141 190 191 141 190 191 141 190 191 141 190 191 141 190 191 141 190 191 141 190 191 141 190 191 141 190 191 141 190 191 141 190 191 141 0 0 255 191 196 153 191 196 153 191 196 153 191 196 153 191 196 153 191 196 153 191 196 153 191 196 153 191 196 153 191 196 153 191 196 153 191 196 153 191 196 153 191 196 153 191 196 153 191 196 153 191 196 153 191 196 153 191 196 153 191 196 153 191 196 153 191 196 153 0 0 255 192 198 161 192 198 161 192 198 161 192 198 161 192 198 161 192 198 161 192 198 161 192 198 161 192 198 161 192 198 161 192 198 161 192 198 161 192 198 161 192 198 161 192 198 161 192 198 161 192 198 161 192 198 161 192 198 161 192 198 161 192 198 161 192 198 161 192 198 161 192 198 161 192 198 161 192 198 161 192 198 161 192 198 161 192 198 161 0 0 255 191 198 164 191 198 164 191 198 164 191 198 164 191 198 164 191 198 164 191 198 164 191 198 164 191 198 164 191 198 164 191 198 164 191 198 164 191 198 164 191 198 164 191 198 164 191 198 164 191 198 164 191 198 164 191 198 164 191 198 164 191 198 164 191 198 164 191 198 164 191 198 164 191 198 164 191 198 164 191 198 164 191 198 164 191 198 164 191 198 164 0 0 255 192 200 168 192 200 168 192 200 168 192 200 168 192 200 168 192 200 168 192 200 168 192 200 168 192 200 168 192 200 168 192 200 168 192 200 168 192 200 168 192 200 168 192 200 168 192 200 168 192 200 168 192 200 168 192 200 168 192 200 168 192 200 168 192 200 168 192 200 168 192 200 168 192 200 168 192 200 168 192 200 168 192 200 168 0 0 255 192 201 169 192 201 169 192 201 169 192 201 169 192 201 169 192 201 169 192 201 169 192 201 169 192 201 169 192 201 169 192 201 169 192 201 169 192 201 169 192 201 169 192 201 169 192 201 169 192 201 169 192 201 169 192 201 169 192 201 169 192 201 169 192 201 169 192 201 169 192 201 169 192 201 169 192 201 169 0 0 255 193 200 168 193 200 168 193 200 168 193 200 168 193 200 168 193 200 168 193 200 168 193 200 168 193 200 168 193 200 168 193 200 168 193 200 168 193 200 168 193 200 168 193 200 168 193 200 168 193 200 168 193 200 168 193 200 168 193 200 168 193 200 168 193 200 168 193 200 168 193 200 168 193 200 168 193 200 168 193 200 168 193 200 168 193 200 168 193 200 168 193 200 168 193 200 168 0 0 255 193 195 161 193 195 161 193 195 161 193 195 161 193 195 161 193 195 161 193 195 161 193 195 161 193 195 161 193 195 161 193 195 161 193 195 161 193 195 161 193 195 161 193 195 161 193 195 161 193 195 161 193 195 161 193 195 161 193 195 161 193 195 161 193 195 161 193 195 161 193 195 161 193 195 161 193 195 161 193 195 161 193 195 161 193 195 161 193 195 161 
185 180 125 185 180 125 185 180 125 185 180 125 185 180 125 185 180 125 185 180 125 185 180 125 185 180 125 185 180 125 185 180 125 185 180 125 185 180 125 185 180 125 185 180 125 185 180 125 185 180 125 185 180 125 185 180 125 185 180 125 185 180 125 185 180 125 185 180 125 185 180 125 0 0 255 0 0 255 190 191 141 190 191 141 190 191 141 190 191 141 190 191 141 190 191 141 190 191 141 190 191 141 190 191 141 190 191 141 190 191 141 190 191 141 190 191 141 190 191 141 190 191 141 190 191 141 190 191 141 190 191 141 190 191 141 190 191 141 190 191 141 190 191 141 190 191 141 190 191 141 190 191 141 190 191 141 0 0 255 191 196 153 191 196 153 191 196 153 191 196 153 191 196 153 191 196 153 191 196 153 191 196 153 191 196 153 191 196 153 191 196 153 191 196 153 191 196 153 191 196 153 191 196 153 191 196 153 191 196 153 191 196 153 191 196 153 191 196 153 191 196 153 191 196 153 0 0 255 192 198 161 192 198 161 192 198 161 192 198 161 192 198 161 192 198 161 192 198 161 192 198 161 192 198 161 192 198 161 192 198 161 192 198 161 192 198 161 192 198 161 192 198 161 192 198 161 192 198 161 192 198 161 192 198 161 192 198 161 192 198 161 192 198 161 192 198 161 192 198 161 192 198 161 192 198 161 192 198 161 192 198 161 192 198 161 0 0 255 191 198 164 191 198 164 191 198 164 191 198 164 191 198 164 191 198 164 191 198 164 191 198 164 191 198 164 191 198 164 191 198 164 191 198 164 191 198 164 191 198 164 191 198 164 191 198 164 191 198 164 191 198 164 191 198 164 191 198 164 191 198 164 191 198 164 191 198 164 191 198 164 191 198 164 191 198 164 191 198 164 191 198 164 191 198 164 191 198 164 0 0 255 192 200 168 192 200 168 192 200 168 192 200 168 192 200 168 192 200 168 192 200 168 192 200 168 192 200 168 192 200 168 192 200 168 192 200 168 192 200 168 192 200 168 192 200 168 192 200 168 192 200 168 192 200 168 192 200 168 192 200 168 192 200 168 192 200 168 192 200 168 192 200 168 192 200 168 192 200 168 192 200 168 192 200 168 0 0 255 192 201 169 192 201 169 192 201 169 192 201 169 192 201 169 192 201 169 192 201 169 192 201 169 192 201 169 192 201 169 192 201 169 192 201 169 192 201 169 192 201 169 192 201 169 192 201 169 192 201 169 192 201 169 192 201 169 192 201 169 192 201 169 192 201 169 192 201 169 192 201 169 192 201 169 192 201 169 0 0 255 193 200 168 193 200 168 193 200 168 193 200 168 193 200 168 193 200 168 193 200 168 193 200 168 193 200 168 193 200 168 193 200 168 193 200 168 193 200 168 193 200 168 193 200 168 193 200 168 193 200 168 193 200 168 193 200 168 193 200 168 193 200 168 193 200 168 193 200 168 193 200 168 193 200 168 193 200 168 193 200 168 193 200 168 193 200 168 193 200 168 193 200 168 193 200 168 0 0 255 193 195 161 193 195 161 193 195 161 193 195 161 193 195 161 193 195 161 193 195 161 193 195 161 193 195 161 193 195 161 193 195 161 193 195 161 193 195 161 193 195 161 193 195 161 193 195 161 193 195 161 193 195 161 193 195 161 193 195 161 193 195 161 193 195 161 193 195 161 193 195 161 193 195 161 193 195 161 193 195 161 193 195 161 193 195 161 193 195 161 
185 180 125 185 180 125 185 180 125 185 180 125 185 180 125 185 180 125 185 180 125 185 180 125 185 180 125 185 180 125 185 180 125 185 180 125 185 180 125 185 180 125 185 180 125 185 180 125 185 180 125 185 180 125 185 180 125 185 180 125 185 180 125 185 180 125 185 180 125 185 180 125 185 180 125 0 0 255 190 191 141 190 191 141 190 191 141 190 191 141 190 191 141 190 191 141 190 191 141 190 191 141 190 191 141 190 191 141 190 191 141 190 191 141 190 191 141 190 191 141 190 191 141 190 191 141 190 191 141 190 191 141 190 191 141 190 191 141 190 191 141 190 191 141 190 191 141 190 191 141 190 191 141 190 191 141 0 0 255 191 196 153 191 196 153 191 196 153 191 196 153 191 196 153 191 196 153 191 196 153 191 196 153 191 196 153 191 196 153 191 196 153 191 196 153 191 196 153 191 196 153 191 196 153 191 196 153 191 196 153 191 196 153 191 196 153 191 196 153 191 196 153 191 196 153 0 0 255 192 198 161 192 198 161 192 198 161 192 198 161 192 198 161 192 198 161 192 198 161 192 198 161 192 198 161 192 198 161 192 198 161 192 198 161 192 198 161 192 198 161 192 198 161 192 198 161 192 198 161 192 198 161 192 198 161 192 198 161 192 198 161 192 198 161 192 198 161 192 198 161 192 198 161 192 198 161 192 198 161 192 198 161 192 198 161 0 0 255 191 198 164 191 198 164 191 198 164 191 198 164 191 198 164 191 198 164 191 198 164 191 198 164 191 198 164 191 198 164 191 198 164 191 198 164 191 198 164 191 198 164 191 198 164 191 198 164 191 198 164 191 198 164 191 198 164 191 198 164 191 198 164 191 198 164 191 198 164 191 198 164 191 198 164 191 198 164 191 198 164 191 198 164 191 198 164 191 198 164 0 0 255 0 0 255 192 200 168 192 200 168 192 200 168 192 200 168 192 200 168 192 200 168 192 200 168 192 200 168 192 200 168 192 200 168 192 200 168 192 200 168 192 200 168 192 200 168 192 200 168 192 200 168 192 200 168 192 200 168 192 200 168 192 200 168 192 200 168 192 200 168 192 200 168 192 200 168 192 200 168 192 200 168 192 200 168 0 0 255 192 201 169 192 201 169 192 201 169 192 201 169 192 201 169 192 201 169 192 201 169 192 201 169 192 201 169 192 201 169 192 201 169 192 201 169 192 201 169 192 201 169 192 201 169 192 201 169 192 201 169 192 201 169 192 201 169 192 201 169 192 201 169 192 201 169 192 201 169 192 201 169 192 201 169 192 201 169 0 0 255 193 200 168 193 200 168 193 200 168 193 200 168 193 200 168 193 200 168 193 200 168 193 200 168 193 200 168 193 200 168 193 200 168 193 200 168 193 200 168 193 200 168 193 200 168 193 200 168 193 200 168 193 200 168 193 200 168 193 200 168 193 200 168 193 200 168 193 200 168 193 200 168 193 200 168 193 200 168 193 200 168 193 200 168 193 200 168 193 200 168 193 200 168 0 0 255 193 195 161 193 195 161 193 195 161 193 195 161 193 195 161 193 195 161 193 195 161 193 195 161 193 195 161 193 195 161 193 195 161 193 195 161 193 195 161 193 195 161 193 195 161 193 195 161 193 195 161 193 195 161 193 195 161 193 195 161 193 195 161 193 195 161 193 195 161 193 195 161 193 195 161 193 195 161 193 195 161 193 195 161 193 195 161 193 195 161 193 195 161 
185 180 125 185 180 125 185 180 125 185 180 125 185 180 125 185 180 125 185 180 125 185 180 125 185 180 125 185 180 125 185 180 125 185 180 125 185 180 125 185 180 125 185 180 125 185 180 125 185 180 125 185 180 125 185 180 125 185 180 125 185 180 125 185 180 125 185 180 125 185 180 125 185 180 125 0 0 255 190 191 141 190 191 141 190 191 141 190 191 141 190 191 141 190 191 141 190 191 141 190 191 141 190 191 141 190 191 141 190 191 141 190 191 141 190 191 141 190 191 141 190 191 141 190 191 141 190 191 141 190 191 141 190 191 141 190 191 141 190 191 141 190 191 141 190 191 141 190 191 141 190 191 141 190 191 141 0 0 255 191 196 153 191 196 153 191 196 153 191 196 153 191 196 153 191 196 153 191 196 153 191 196 153 191 196 153 191 196 153 191 196 153 191 196 153 191 196 153 191 196 153 191 196 153 191 196 153 191 196 153 191 196 153 191 196 153 191 196 153 191 196 153 191 196 153 0 0 255 192 198 161 192 198 161 192 198 161 192 198 161 192 198 161 192 198 161 192 198 161 192 198 161 192 198 161 192 198 161 192 198 161 192 198 161 192 198 161 192 198 161 192 198 161 192 198 161 192 198 161 192 198 161 192 198 161 192 198 161 192 198 161 192 198 161 192 198 161 192 198 161 192 198 161 192 198 161 192 198 161 192 198 161 192 198 161 0 0 255 191 198 164 191 198 164 191 198 164 191 198 164 191 198 164 191 198 164 191 198 164 191 198 164 191 198 164 191 198 164 191 198 164 191 198 164 191 198 164 191 198 164 191 198 164 191 198 164 191 198 164 191 198 164 191 198 164 191 198 164 191 198 164 191 198 164 191 198 164 191 198 164 191 198 164 191 198 164 191 198 164 191 198 164 191 198 164 191 198 164 191 198 164 0 0 255 192 200 168 192 200 168 192 200 168 192 200 168 192 200 168 192 200 168 192 200 168 192 200 168 192 200 168 192 200 168 192 200 168 192 200 168 192 200 168 192 200 168 192 200 168 192 200 168 192 200 168 192 200 168 192 200 168 192 200 168 192 200 168 192 200 168 192 200 168 192 200 168 192 200 168 192 200 168 192 200 168 0 0 255 192 201 169 192 201 169 192 201 169 192 201 169 192 201 169 192 201 169 192 201 169 192 201 169 192 201 169 192 201 169 192 201 169 192 201 169 192 201 169 192 201 169 192 201 169 192 201 169 192 201 169 192 201 169 192 201 169 192 201 169 192 201 169 192 201 169 192 201 169 192 201 169 192 201 169 192 201 169 0 0 255 193 200 168 193 200 168 193 200 168 193 200 168 193 200 168 193 200 168 193 200 168 193 200 168 193 200 168 193 200 168 193 200 168 193 200 168 193 200 168 193 200 168 193 200 168 193 200 168 193 200 168 193 200 168 193 200 168 193 200 168 193 200 168 193 200 168 193 200 168 193 200 168 193 200 168 193 200 168 193 200 168 193 200 168 193 200 168 193 200 168 193 200 168 0 0 255 193 195 161 193 195 161 193 195 161 193 195 161 193 195 161 193 195 161 193 195 161 193 195 161 193 195 161 193 195 161 193 195 161 193 195 161 193 195 161 193 195 161 193 195 161 193 195 161 193 195 161 193 195 161 193 195 161 193 195 161 193 195 161 193 195 161 193 195 161 193 195 161 193 195 161 193 195 161 193 195 161 193 195 161 193 195 161 193 195 161 193 195 161 
185 180 125 185 180 125 185 180 125 185 180 125 185 180 125 185 180 125 185 180 125 185 180 125 185 180 125 185 180 125 185 180 125 185 180 125 185 180 125 185 180 125 185 180 125 185 180 125 185 180 125 185 180 125 185 180 125 185 180 125 185 180 125 185 180 125 185 180 125 185 180 125 185 180 125 0 0 255 190 191 141 190 191 141 190 191 141 190 191 141 190 191 141 190 191 141 190 191 141 190 191 141 190 191 141 190 191 141 190 191 141 190 191 141 190 191 141 190 191 141 190 191 141 190 191 141 190 191 141 190 191 141 190 191 141 190 191 141 190 191 141 190 191 141 190 191 141 190 191 141 190 191 141 190 191 141 0 0 255 191 196 153 191 196 153 191 196 153 191 196 153 191 196 153 191 196 153 191 196 153 191 196 153 191 196 153 191 196 153 191 196 153 191 196 153 191 196 153 191 196 153 191 196 153 191 196 153 191 196 153 191 196 153 191 196 153 191 196 153 191 196 153 0 0 255 192 198 161 192 198 161 192 198 161 192 198 161 192 198 161 192 198 161 192 198 161 192 198 161 192 198 161 192 198 161 192 198 161 192 198 161 192 198 161 192 198 161 192 198 161 192 198 161 192 198 161 192 198 161 192 198 161 192 198 161 192 198 161 192 198 161 192 198 161 192 198 161 192 198 161 192 198 161 192 198 161 192 198 161 192 198 161 192 198 161 0 0 255 191 198 164 191 198 164 191 198 164 191 198 164 191 198 164 191 198 164 191 198 164 191 198 164 191 198 164 191 198 164 191 198 164 191 198 164 191 198 164 191 198 164 191 198 164 191 198 164 191 198 164 191 198 164 191 198 164 191 198 164 191 198 164 191 198 164 191 198 164 191 198 164 191 198 164 191 198 164 191 198 164 191 198 164 191 198 164 191 198 164 191 198 164 0 0 255 192 200 168 192 200 168 192 200 168 192 200 168 192 200 168 192 200 168 192 200 168 192 200 168 192 200 168 192 200 168 192 200 168 192 200 168 192 200 168 192 200 168 192 200 168 192 200 168 192 200 168 192 200 168 192 200 168 192 200 168 192 200 168 192 200 168 192 200 168 192 200 168 192 200 168 192 200 168 192 200 168 0 0 255 192 201 169 192 201 169 192 201 169 192 201 169 192 201 169 192 201 169 192 201 169 192 201 169 192 201 169 192 201 169 192 201 169 192 201 169 192 201 169 192 201 169 192 201 169 192 201 169 192 201 169 192 201 169 192 201 169 192 201 169 192 201 169 192 201 169 192 201 169 192 201 169 192 201 169 0 0 255 193 200 168 193 200 168 193 200 168 193 200 168 193 200 168 193 200 168 193 200 168 193 200 168 193 200 168 193 200 168 193 200 168 193 200 168 193 200 168 193 200 168 193 200 168 193 200 168 193 200 168 193 200 168 193 200 168 193 200 168 193 200 168 193 200 168 193 200 168 193 200 168 193 200 168 193 200 168 193 200 168 193 200 168 193 200 168 193 200 168 193 200 168 193 200 168 0 0 255 193 195 161 193 195 161 193 195 161 193 195 161 193 195 161 193 195 161 193 195 161 193 195 161 193 195 161 193 195 161 193 195 161 193 195 161 193 195 161 193 195 161 193 195 161 193 195 161 193 195 161 193 195 161 193 195 161 193 195 161 193 195 161 193 195 161 193 195 161 193 195 161 193 195 161 193 195 161 193 195 161 193 195 161 193 195 161 193 195 161 193 195 161 
185 180 125 185 180 125 185 180 125 185 180 125 185 180 125 185 180 125 185 180 125 185 180 125 185 180 125 185 180 125 185 180 125 185 180 125 185 180 125 185 180 125 185 180 125 185 180 125 185 180 125 185 180 125 185 180 125 185 180 125 185 180 125 185 180 125 185 180 125 185 180 125 185 180 125 0 0 255 190 191 141 190 191 141 190 191 141 190 191 141 190 191 141 190 191 141 190 191 141 190 191 141 190 191 141 190 191 141 190 191 141 190 191 141 190 191 141 190 191 141 190 191 141 190 191 141 190 191 141 190 191 141 190 191 141 190 191 141 190 191 141 190 191 141 190 191 141 190 191 141 190 191 141 190 191 141 0 0 255 191 196 153 191 196 153 191 196 153 191 196 153 191 196 153 191 196 153 191 196 153 191 196 153 191 196 153 191 196 153 191 196 153 191 196 153 191 196 153 191 196 153 191 196 153 191 196 153 191 196 153 191 196 153 191 196 153 191 196 153 191 196 153 0 0 255 192 198 161 192 198 161 192 198 161 192 198 161 192 198 161 192 198 161 192 198 161 192 198 161 192 198 161 192 198 161 192 198 161 192 198 161 192 198 161 192 198 161 192 198 161 192 198 161 192 198 161 192 198 161 192 198 161 192 198 161 192 198 161 192 198 161 192 198 161 192 198 161 192 198 161 192 198 161 192 198 161 192 198 161 192 198 161 192 198 161 0 0 255 191 198 164 191 198 164 191 198 164 191 198 164 191 198 164 191 198 164 191 198 164 191 198 164 191 198 164 191 198 164 191 198 164 191 198 164 191 198 164 191 198 164 191 198 164 191 198 164 191 198 164 191 198 164 191 198 164 191 198 164 191 198 164 191 198 164 191 198 164 191 198 164 191 198 164 191 198 164 191 198 164 191 198 164 191 198 164 191 198 164 191 198 164 0 0 255 192 200 168 192 200 168 192 200 168 192 200 168 192 200 168 192 200 168 192 200 168 192 200 168 192 200 168 192 200 168 192 200 168 192 200 168 192 200 168 192 200 168 192 200 168 192 200 168 192 200 168 192 200 168 192 200 168 192 200 168 192 200 168 192 200 168 192 200 168 192 200 168 192 200 168 192 200 168 192 200 168 0 0 255 192 201 169 192 201 169 192 201 169 192 201 169 192 201 169 192 201 169 192 201 169 192 201 169 192 201 169 192 201 169 192 201 169 192 201 169 192 201 169 192 201 169 192 201 169 192 201 169 192 201 169 192 201 169 192 201 169 192 201 169 192 201 169 192 201 169 192 201 169 192 201 169 192 201 169 0 0 255 193 200 168 193 200 168 193 200 168 193 200 168 193 200 168 193 200 168 193 200 168 193 200 168 193 200 168 193 200 168 193 200 168 193 200 168 193 200 168 193 200 168 193 200 168 193 200 168 193 200 168 193 200 168 193 200 168 193 200 168 193 200 168 193 200 168 193 200 168 193 200 168 193 200 168 193 200 168 193 200 168 193 200 168 193 200 168 193 200 168 193 200 168 193 200 168 0 0 255 193 195 161 193 195 161 193 195 161 193 195 161 193 195 161 193 195 161 193 195 161 193 195 161 193 195 161 193 195 161 193 195 161 193 195 161 193 195 161 193 195 161 193 195 161 193 195 161 193 195 161 193 195 161 193 195 161 193 195 161 193 195 161 193 195 161 193 195 161 193 195 161 193 195 161 193 195 161 193 195 161 193 195 161 193 195 161 193 195 161 193 195 161 
185 180 125 185 180 125 185 180 125 185 180 125 185 180 125 185 180 125 185 180 125 185 180 125 185 180 125 185 180 125 185 180 125 185 180 125 185 180 125 185 180 125 185 180 125 185 180 125 185 180 125 185 180 125 185 180 125 185 180 125 185 180 125 185 180 125 185 180 125 185 180 125 185 180 125 0 0 255 190 191 141 190 191 141 190 191 141 190 191 141 190 191 141 190 191 141 190 191 141 190 191 141 190 191 141 190 191 141 190 191 141 190 191 141 190 191 141 190 191 141 190 191 141 190 191 141 190 191 141 190 191 141 190 191 141 190 191 141 190 191 141 190 191 141 190 191 141 190 191 141 190 191 141 190 191 141 0 0 255 191 196 153 191 196 153 191 196 153 191 196 153 191 196 153 191 196 153 191 196 153 191 196 153 191 196 153 191 196 153 191 196 153 191 196 153 191 196 153 191 196 153 191 196 153 191 196 153 191 196 153 191 196 153 191 196 153 191 196 153 191 196 153 0 0 255 192 198 161 192 198 161 192 198 161 192 198 161 192 198 161 192 198 161 192 198 161 192 198 161 192 198 161 192 198 161 192 198 161 192 198 161 192 198 161 192 198 161 192 198 161 192 198 161 192 198 161 192 198 161 192 198 161 192 198 161 192 198 161 192 198 161 192 198 161 192 198 161 192 198 161 192 198 161 192 198 161 192 198 161 192 198 161 192 198 161 0 0 255 191 198 164 191 198 164 191 198 164 191 198 164 191 198 164 191 198 164 191 198 164 191 198 164 191 198 164 191 198 164 191 198 164 191 198 164 191 198 164 191 198 164 191 198 164 191 198 164 191 198 164 191 198 164 191 198 164 191 198 164 191 198 164 191 198 164 191 198 164 191 198 164 191 198 164 191 198 164 191 198 164 191 198 164 191 198 164 191 198 164 191 198 164 0 0 255 192 200 168 192 200 168 192 200 168 192 200 168 192 200 168 192 200 168 192 200 168 192 200 168 192 200 168 192 200 168 192 200 168 192 200 168 192 200 168 192 200 168 192 200 168 192 200 168 192 200 168 192 200 168 192 200 168 192 200 168 192 200 168 192 200 168 192 200 168 192 200 168 192 200 168 192 200 168 192 200 168 0 0 255 192 201 169 192 201 169 192 201 169 192 201 169 192 201 169 192 201 169 192 201 169 192 201 169 192 201 169 192 201 169 192 201 169 192 201 169 192 201 169 192 201 169 192 201 169 192 201 169 192 201 169 192 201 169 192 201 169 192 201 169 192 201 169 192 201 169 192 201 169 192 201 169 192 201 169 0 0 255 193 200 168 193 200 168 193 200 168 193 200 168 193 200 168 193 200 168 193 200 168 193 200 168 193 200 168 193 200 168 193 200 168 193 200 168 193 200 168 193 200 168 193 200 168 193 200 168 193 200 168 193 200 168 193 200 168 193 200 168 193 200 168 193 200 168 193 200 168 193 200 168 193 200 168 193 200 168 193 200 168 193 200 168 193 200 168 193 200 168 193 200 168 193 200 168 0 0 255 193 195 161 193 195 161 193 195 161 193 195 161 193 195 161 193 195 161 193 195 161 193 195 161 193 195 161 193 195 161 193 195 161 193 195 161 193 195 161 193 195 161 193 195 161 193 195 161 193 195 161 193 195 161 193 195 161 193 195 161 193 195 161 193 195 161 193 195 161 193 195 161 193 195 161 193 195 161 193 195 161 193 195 161 193 195 161 193 195 161 193 195 161 
185 180 125 185 180 125 185 180 125 185 180 125 185 180 125 185 180 125 185 180 125 185 180 125 185 180 125 185 180 125 185 180 125 185 180 125 185 180 125 185 180 125 185 180 125 185 180 125 185 180 125 185 180 125 185 180 125 185 180 125 185 180 125 185 180 125 185 180 125 185 180 125 185 180 125 0 0 255 190 191 141 190 191 141 190 191 141 190 191 141 190 191 141 190 191 141 190 191 141 190 191 141 190 191 141 190 191 141 190 191 141 190 191 141 190 191 141 190 191 141 190 191 141 190 191 141 190 191 141 190 191 141 190 191 141 190 191 141 190 191 141 190 191 141 190 191 141 190 191 141 190 191 141 190 191 141 0 0 255 0 0 255 191 196 153 191 196 153 191 196 153 191 196 153 191 196 153 191 196 153 191 196 153 191 196 153 191 196 153 191 196 153 191 196 153 191 196 153 191 196 153 191 196 153 191 196 153 191 196 153 191 196 153 191 196 153 191 196 153 191 196 153 0 0 255 192 198 161 192 198 161 192 198 161 192 198 161 192 198 161 192 198 161 192 198 161 192 198 161 192 198 161 192 198 161 192 198 161 192 198 161 192 198 161 192 198 161 192 198 161 192 198 161 192 198 161 192 198 161 192 198 161 192 198 161 192 198 161 192 198 161 192 198 161 192 198 161 192 198 161 192 198 161 192 198 161 192 198 161 192 198 161 192 198 161 0 0 255 191 198 164 191 198 164 191 198 164 191 198 164 191 198 164 191 198 164 191 198 164 191 198 164 191 198 164 191 198 164 191 198 164 191 198 164 191 198 164 191 198 164 191 198 164 191 198 164 191 198 164 191 198 164 191 198 164 191 198 164 191 198 164 191 198 164 191 198 164 191 198 164 191 198 164 191 198 164 191 198 164 191 198 164 191 198 164 191 198 164 191 198 164 0 0 255 192 200 168 192 200 168 192 200 168 192 200 168 192 200 168 192 200 168 192 200 168 192 200 168 192 200 168 192 200 168 192 200 168 192 200 168 192 200 168 192 200 168 192 200 168 192 200 168 192 200 168 192 200 168 192 200 168 192 200 168 192 200 168 192 200 168 192 200 168 192 200 168 192 200 168 192 200 168 192 200 168 0 0 255 192 201 169 192 201 169 192 201 169 192 201 169 192 201 169 192 201 169 192 201 169 192 201 169 192 201 169 192 201 169 192 201 169 192 201 169 192 201 169 192 201 169 192 201 169 192 201 169 192 201 169 192 201 169 192 201 169 192 201 169 192 201 169 192 201 169 192 201 169 192 201 169 192 201 169 0 0 255 193 200 168 193 200 168 193 200 168 193 200 168 193 200 168 193 200 168 193 200 168 193 200 168 193 200 168 193 200 168 193 200 168 193 200 168 193 200 168 193 200 168 193 200 168 193 200 168 193 200 168 193 200 168 193 200 168 193 200 168 193 200 168 193 200 168 193 200 168 193 200 168 193 200 168 193 200 168 193 200 168 193 200 168 193 200 168 193 200 168 193 200 168 193 200 168 0 0 255 193 195 161 193 195 161 193 195 161 193 195 161 193 195 161 193 195 161 193 195 161 193 195 161 193 195 161 193 195 161 193 195 161 193 195 161 193 195 161 193 195 161 193 195 161 193 195 161 193 195 161 193 195 161 193 195 161 193 195 161 193 195 161 193 195 161 193 195 161 193 195 161 193 195 161 193 195 161 193 195 161 193 195 161 193 195 161 193 195 161 193 195 161 
185 180 125 185 180 125 185 180 125 185 180 125 185 180 125 185 180 125 185 180 125 185 180 125 185 180 125 185 180 125 185 180 125 185 180 125 185 180 125 185 180 125 185 180 125 185 180 125 185 180 125 185 180 125 185 180 125 185 180 125 185 180 125 185 180 125 185 180 125 185 180 125 185 180 125 0 0 255 0 0 255 190 191 141 190 191 141 190 191 141 190 191 141 190 191 141 190 191 141 190 191 141 190 191 141 190 191 141 190 191 141 190 191 141 190 191 141 190 191 141 190 191 141 190 191 141 190 191 141 190 191 141 190 191 141 190 191 141 190 191 141 190 191 141 190 191 141 190 191 141 190 191 141 190 191 141 190 191 141 0 0 255 191 196 153 191 196 153 191 196 153 191 196 153 191 196 153 191 196 153 191 196 153 191 196 153 191 196 153 191 196 153 191 196 153 191 196 153 191 196 153 191 196 153 191 196 153 191 196 153 191 196 153 191 196 153 191 196 153 191 196 153 0 0 255 192 198 161 192 198 161 192 198 161 192 198 161 192 198 161 192 198 161 192 198 161 192 198 161 192 198 161 192 198 161 192 198 161 192 198 161 192 198 161 192 198 161 192 198 161 192 198 161 192 198 161 192 198 161 192 198 161 192 198 161 192 198 161 192 198 161 192 198 161 192 198 161 192 198 161 192 198 161 192 198 161 192 198 161 192 198 161 192 198 161 0 0 255 191 198 164 191 198 164 191 198 164 191 198 164 191 198 164 191 198 164 191 198 164 191 198 164 191 198 164 191 198 164 191 198 164 191 198 164 191 198 164 191 198 164 191 198 164 191 198 164 191 198 164 191 198 164 191 198 164 191 198 164 191 198 164 191 198 164 191 198 164 191 198 164 191 198 164 191 198 164 191 198 164 191 198 164 191 198 164 191 198 164 191 198 164 0 0 255 192 200 168 192 200 168 192 200 168 192 200 168 192 200 168 192 200 168 192 200 168 192 200 168 192 200 168 192 200 168 192 200 168 192 200 168 192 200 168 192 200 168 192 200 168 192 200 168 192 200 168 192 200 168 192 200 168 192 200 168 192 200 168 192 200 168 192 200 168 192 200 168 192 200 168 192 200 168 192 200 168 0 0 255 192 201 169 192 201 169 192 201 169 192 201 169 192 201 169 192 201 169 192 201 169 192 201 169 192 201 169 192 201 169 192 201 169 192 201 169 192 201 169 192 201 169 192 201 169 192 201 169 192 201 169 192 201 169 192 201 169 192 201 169 192 201 169 192 201 169 192 201 169 192 201 169 192 201 169 0 0 255 193 200 168 193 200 168 193 200 168 193 200 168 193 200 168 193 200 168 193 200 168 193 200 168 193 200 168 193 200 168 193 200 168 193 200 168 193 200 168 193 200 168 193 200 168 193 200 168 193 200 168 193 200 168 193 200 168 193 200 168 193 200 168 193 200 168 193 200 168 193 200 168 193 200 168 193 200 168 193 200 168 193 200 168 193 200 168 193 200 168 193 200 168 193 200 168 0 0 255 193 195 161 193 195 161 193 195 161 193 195 161 193 195 161 193 195 161 193 195 161 193 195 161 193 195 161 193 195 161 193 195 161 193 195 161 193 195 161 193 195 161 193 195 161 193 195 161 193 195 161 193 195 161 193 195 161 193 195 161 193 195 161 193 195 161 193 195 161 193 195 161 193 195 161 193 195 161 193 195 161 193 195 161 193 195 161 193 195 161 193 195 161 
185 180 125 185 180 125 185 180 125 185 180 125 185 180 125 185 180 125 185 180 125 185 180 125 185 180 125 185 180 125 185 180 125 185 180 125 185 180 125 185 180 125 185 180 125 185 180 125 185 180 125 185 180 125 185 180 125 185 180 125 185 180 125 185 180 125 185 180 125 185 180 125 185 180 125 185 180 125 0 0 255 190 191 141 190 191 141 190 191 141 190 191 141 190 191 141 190 191 141 190 191 141 190 191 141 190 191 141 190 191 141 190 191 141 190 191 141 190 191 141 190 191 141 190 191 141 190 191 141 190 191 141 190 191 141 190 191 141 190 191 141 190 191 141 190 191 141 190 191 141 190 191 141 190 191 141 190 191 141 0 0 255 191 196 153 191 196 153 191 196 153 191 196 153 191 196 153 191 196 153 191 196 153 191 196 153 191 196 153 191 196 153 191 196 153 191 196 153 191 196 153 191 196 153 191 196 153 191 196 153 191 196 153 191 196 153 191 196 153 0 0 255 192 198 161 192 198 161 192 198 161 192 198 161 192 198 161 192 198 161 192 198 161 192 198 161 192 198 161 192 198 161 192 198 161 192 198 161 192 198 161 192 198 161 192 198 161 192 198 161 192 198 161 192 198 161 192 198 161 192 198 161 192 198 161 192 198 161 192 198 161 192 198 161 192 198 161 192 198 161 192 198 161 192 198 161 192 198 161 192 198 161 192 198 161 0 0 255 191 198 164 191 198 164 191 198 164 191 198 164 191 198 164 191 198 164 191 198 164 191 198 164 191 198 164 191 198 164 191 198 164 191 198 164 191 198 164 191 198 164 191 198 164 191 198 164 191 198 164 191 198 164 191 198 164 191 198 164 191 198 164 191 198 164 191 198 164 191 198 164 191 198 164 191 198 164 191 198 164 191 198 164 191 198 164 191 198 164 191 198 164 0 0 255 0 0 255 192 200 168 192 200 168 192 200 168 192 200 168 192 200 168 192 200 168 192 200 168 192 200 168 192 200 168 192 200 168 192 200 168 192 200 168 192 200 168 192 200 168 192 200 168 192 200 168 192 200 168 192 200 168 192 200 168 192 200 168 192 200 168 192 200 168 192 200 168 192 200 168 192 200 168 192 200 168 0 0 255 0 0 255 192 201 169 192 201 169 192 201 169 192 201 169 192 201 169 192 201 169 192 201 169 192 201 169 192 201 169 192 201 169 192 201 169 192 201 169 192 201 169 192 201 169 192 201 169 192 201 169 192 201 169 192 201 169 192 201 169 192 201 169 192 201 169 192 201 169 192 201 169 0 0 255 193 200 168 193 200 168 193 200 168 193 200 168 193 200 168 193 200 168 193 200 168 193 200 168 193 200 168 193 200 168 193 200 168 193 200 168 193 200 168 193 200 168 193 200 168 193 200 168 193 200 168 193 200 168 193 200 168 193 200 168 193 200 168 193 200 168 193 200 168 193 200 168 193 200 168 193 200 168 193 200 168 193 200 168 193 200 168 193 200 168 193 200 168 193 200 168 0 0 255 193 195 161 193 195 161 193 195 161 193 195 161 193 195 161 193 195 161 193 195 161 193 195 161 193 195 161 193 195 161 193 195 161 193 195 161 193 195 161 193 195 161 193 195 161 193 195 161 193 195 161 193 195 161 193 195 161 193 195 161 193 195 161 193 195 161 193 195 161 193 195 161 193 195 161 193 195 161 193 195 161 193 195 161 193 195 161 193 195 161 193 195 161 193 195 161 
185 180 125 185 180 125 185 180 125 185 180 125 185 180 125 185 180 125 185 180 125 185 180 125 185 180 125 185 180 125 185 180 125 185 180 125 185 180 125 185 180 125 185 180 125 185 180 125 185 180 125 185 180 125 185 180 125 185 180 125 185 180 125 185 180 125 185 180 125 185 180 125 185 180 125 185 180 125 0 0 255 190 191 141 190 191 141 190 191 141 190 191 141 190 191 141 190 191 141 190 191 141 190 191 141 190 191 141 190 191 141 190 191 141 190 191 141 190 191 141 190 191 141 190 191 141 190 191 141 190 191 141 190 191 141 190 191 141 190 191 141 190 191 141 190 191 141 190 191 141 190 191 141 190 191 141 190 191 141 0 0 255 0 0 255 191 196 153 191 196 153 191 196 153 191 196 153 191 196 153 191 196 153 191 196 153 191 196 153 191 196 153 191 196 153 191 196 153 191 196 153 191 196 153 191 196 153 191 196 153 191 196 153 191 196 153 191 196 153 0 0 255 192 198 161 192 198 161 192 198 161 192 198 161 192 198 161 192 198 161 192 198 161 192 198 161 192 198 161 192 198 161 192 198 161 192 198 161 192 198 161 192 198 161 192 198 161 192 198 161 192 198 161 192 198 161 192 198 161 192 198 161 192 198 161 192 198 161 192 198 161 192 198 161 192 198 161 192 198 161 192 198 161 192 198 161 192 198 161 192 198 161 192 198 161 0 0 255 191 198 164 191 198 164 191 198 164 191 198 164 191 198 164 191 198 164 191 198 164 191 198 164 191 198 164 191 198 164 191 198 164 191 198 164 191 198 164 191 198 164 191 198 164 191 198 164 191 198 164 191 198 164 191 198 164 191 198 164 191 198 164 191 198 164 191 198 164 191 198 164 191 198 164 191 198 164 191 198 164 191 198 164 191 198 164 191 198 164 191 198 164 191 198 164 0 0 255 192 200 168 192 200 168 192 200 168 192 200 168 192 200 168 192 200 168 192 200 168 192 200 168 192 200 168 192 200 168 192 200 168 192 200 168 192 200 168 192 200 168 192 200 168 192 200 168 192 200 168 192 200 168 192 200 168 192 200 168 192 200 168 192 200 168 192 200 168 192 200 168 192 200 168 192 200 168 192 200 168 0 0 255 192 201 169 192 201 169 192 201 169 192 201 169 192 201 169 192 201 169 192 201 169 192 201 169 192 201 169 192 201 169 192 201 169 192 201 169 192 201 169 192 201 169 192 201 169 192 201 169 192 201 169 192 201 169 192 201 169 192 201 169 192 201 169 192 201 169 192 201 169 0 0 255 193 200 168 193 200 168 193 200 168 193 200 168 193 200 168 193 200 168 193 200 168 193 200 168 193 200 168 193 200 168 193 200 168 193 200 168 193 200 168 193 200 168 193 200 168 193 200 168 193 200 168 193 200 168 193 200 168 193 200 168 193 200 168 193 200 168 193 200 168 193 200 168 193 200 168 193 200 168 193 200 168 193 200 168 193 200 168 193 200 168 193 200 168 193 200 168 0 0 255 193 195 161 193 195 161 193 195 161 193 195 161 193 195 161 193 195 161 193 195 161 193 195 161 193 195 161 193 195 161 193 195 161 193 195 161 193 195 161 193 195 161 193 195 161 193 195 161 193 195 161 193 195 161 193 195 161 193 195 161 193 195 161 193 195 161 193 195 161 193 195 161 193 195 161 193 195 161 193 195 161 193 195 161 193 195 161 193 195 161 193 195 161 193 195 161 
185 180 125 185 180 125 185 180 125 185 180 125 185 180 125 185 180 125 185 180 125 185 180 125 185 180 125 185 180 125 185 180 125 185 180 125 185 180 125 185 180 125 185 180 125 185 180 125 185 180 125 185 180 125 185 180 125 185 180 125 185 180 125 185 180 125 185 180 125 185 180 125 185 180 125 185 180 125 0 0 255 190 191 141 190 191 141 190 191 141 190 191 141 190 191 141 190 191 141 190 191 141 190 191 141 190 191 141 190 191 141 190 191 141 190 191 141 190 191 141 190 191 141 190 191 141 190 191 141 190 191 141 190 191 141 190 191 141 190 191 141 190 191 141 190 191 141 190 191 141 190 191 141 190 191 141 190 191 141 190 191 141 0 0 255 191 196 153 191 196 153 191 196 153 191 196 153 191 196 153 191 196 153 191 196 153 191 196 153 191 196 153 191 196 153 191 196 153 191 196 153 191 196 153 191 196 153 191 196 153 191 196 153 191 196 153 191 196 153 0 0 255 192 198 161 192 198 161 192 198 161 192 198 161 192 198 161 192 198 161 192 198 161 192 198 161 192 198 161 192 198 161 192 198 161 192 198 161 192 198 161 192 198 161 192 198 161 192 198 161 192 198 161 192 198 161 192 198 161 192 198 161 192 198 161 192 198 161 192 198 161 192 198 161 192 198 161 192 198 161 192 198 161 192 198 161 192 198 161 192 198 161 192 198 161 0 0 255 191 198 164 191 198 164 191 198 164 191 198 164 191 198 164 191 198 164 191 198 164 191 198 164 191 198 164 191 198 164 191 198 164 191 198 164 191 198 164 191 198 164 191 198 164 191 198 164 191 198 164 191 198 164 191 198 164 191 198 164 191 198 164 191 198 164 191 198 164 191 198 164 191 198 164 191 198 164 191 198 164 191 198 164 191 198 164 191 198 164 191 198 164 191 198 164 0 0 255 192 200 168 192 200 168 192 200 168 192 200 168 192 200 168 192 200 168 192 200 168 192 200 168 192 200 168 192 200 168 192 200 168 192 200 168 192 200 168 192 200 168 192 200 168 192 200 168 192 200 168 192 200 168 192 200 168 192 200 168 192 200 168 192 200 168 192 200 168 192 200 168 192 200 168 192 200 168 192 200 168 0 0 255 192 201 169 192 201 169 192 201 169 192 201 169 192 201 169 192 201 169 192 201 169 192 201 169 192 201 169 192 201 169 192 201 169 192 201 169 192 201 169 192 201 169 192 201 169 192 201 169 192 201 169 192 201 169 192 201 169 192 201 169 192 201 169 192 201 169 192 201 169 0 0 255 193 200 168 193 200 168 193 200 168 193 200 168 193 200 168 193 200 168 193 200 168 193 200 168 193 200 168 193 200 168 193 200 168 193 200 168 193 200 168 193 200 168 193 200 168 193 200 168 193 200 168 193 200 168 193 200 168 193 200 168 193 200 168 193 200 168 193 200 168 193 200 168 193 200 168 193 200 168 193 200 168 193 200 168 193 200 168 193 200 168 193 200 168 193 200 168 0 0 255 193 195 161 193 195 161 193 195 161 193 195 161 193 195 161 193 195 161 193 195 161 193 195 161 193 195 161 193 195 161 193 195 161 193 195 161 193 195 161 193 195 161 193 195 161 193 195 161 193 195 161 193 195 161 193 195 161 193 195 161 193 195 161 193 195 161 193 195 161 193 195 161 193 195 161 193 195 161 193 195 161 193 195 161 193 195 161 193 195 161 193 195 161 193 195 161 
