P3
256 256 255
0 0 255 0 0 255 0 0 255 0 0 255 0 0 255 0 0 255 0 0 255 0 0 255 0 0 255 0 0 255 0 0 255 0 0 255 0 0 255 0 0 255 0 0 255 0 0 255 0 0 255 0 0 255 0 0 255 0 0 255 0 0 255 0 0 255 0 0 255 0 0 255 0 0 255 0 0 255 0 0 255 0 0 255 0 0 255 0 0 255 0 0 255 0 0 255 0 0 255 0 0 255 0 0 255 0 0 255 0 0 255 0 0 255 0 0 255 0 0 255 0 0 255 0 0 255 0 0 255 0 0 255 0 0 255 0 0 255 0 0 255 0 0 255 0 0 255 0 0 255 0 0 255 0 0 255 0 0 255 0 0 255 0 0 255 0 0 255 0 0 255 0 0 255 0 0 255 0 0 255 0 0 255 0 0 255 0 0 255 0 0 255 0 0 255 0 0 255 0 0 255 0 0 255 0 0 255 0 0 255 0 0 255 0 0 255 0 0 255 0 0 255 0 0 255 0 0 255 0 0 255 0 0 255 0 0 255 0 0 255 0 0 255 0 0 255 0 0 255 0 0 255 0 0 255 0 0 255 0 0 255 0 0 255 0 0 255 0 0 255 0 0 255 0 0 255 0 0 255 0 0 255 0 0 255 0 0 255 0 0 255 0 0 255 0 0 255 0 0 255 0 0 255 0 0 255 0 0 255 0 0 255 0 0 255 0 0 255 0 0 255 0 0 255 0 0 255 0 0 255 0 0 255 0 0 255 0 0 255 0 0 255 0 0 255 0 0 255 0 0 255 0 0 255 0 0 255 0 0 255 0 0 255 0 0 255 0 0 255 0 0 255 0 0 255 0 0 255 0 0 255 0 0 255 0 0 255 0 0 255 0 0 255 0 0 255 0 0 255 0 0 255 0 0 255 0 0 255 0 0 255 0 0 255 0 0 255 0 0 255 0 0 255 0 0 255 0 0 255 0 0 255 0 0 255 0 0 255 0 0 255 0 0 255 0 0 255 0 0 255 0 0 255 0 0 255 0 0 255 0 0 255 0 0 255 0 0 255 0 0 255 0 0 255 0 0 255 0 0 255 0 0 255 0 0 255 0 0 255 0 0 255 0 0 255 0 0 255 0 0 255 0 0 255 0 0 255 0 0 255 0 0 255 0 0 255 0 0 255 0 0 255 0 0 255 0 0 255 0 0 255 0 0 255 0 0 255 0 0 255 0 0 255 0 0 255 0 0 255 0 0 255 0 0 255 0 0 255 0 0 255 0 0 255 0 0 255 0 0 255 0 0 255 0 0 255 0 0 255 0 0 255 0 0 255 0 0 255 0 0 255 0 0 255 0 0 255 0 0 255 0 0 255 0 0 255 0 0 255 0 0 255 0 0 255 0 0 255 0 0 255 0 0 255 0 0 255 0 0 255 0 0 255 0 0 255 0 0 255 0 0 255 0 0 255 0 0 255 0 0 255 0 0 255 0 0 255 0 0 255 0 0 255 0 0 255 0 0 255 0 0 255 0 0 255 0 0 255 0 0 255 0 0 255 0 0 255 0 0 255 0 0 255 0 0 255 0 0 255 0 0 255 0 0 255 0 0 255 0 0 255 0 0 255 0 0 255 0 0 255 0 0 255 0 0 255 0 0 255 0 0 255 0 0 255 0 0 255 0 0 255 0 0 255 0 0 255 0 0 255 0 0 255 0 0 255 0 0 255 0 0 255 0 0 255 0 0 255 
159 196 220 159 196 220 159 196 220 159 196 220 159 196 220 159 196 220 159 196 220 159 196 220 159 196 220 159 196 220 159 196 220 159 196 220 159 196 220 159 196 220 159 196 220 159 196 220 159 196 220 159 196 220 159 196 220 159 196 220 159 196 220 159 196 220 159 196 220 159 196 220 159 196 220 159 196 220 159 196 220 159 196 220 159 196 220 159 196 220 159 196 220 159 196 220 159 196 220 159 196 220 159 196 220 159 196 220 159 196 220 159 196 220 159 196 220 159 196 220 159 196 220 159 196 220 159 196 220 159 196 220 159 196 220 159 196 220 159 196 220 159 196 220 159 196 220 159 196 220 159 196 220 159 196 220 159 196 220 159 196 220 159 196 220 159 196 220 159 196 220 159 196 220 159 196 220 159 196 220 159 196 220 159 196 220 159 196 220 159 196 220 159 196 220 159 196 220 159 196 220 159 196 220 159 196 220 159 196 220 159 196 220 159 196 220 159 196 220 159 196 220 159 196 220 159 196 220 159 196 220 159 196 220 159 196 220 159 196 220 159 196 220 159 196 220 159 196 220 159 196 220 159 196 220 159 196 220 159 196 220 159 196 220 159 196 220 159 196 220 159 196 220 159 196 220 159 196 220 159 196 220 159 196 220 159 196 220 159 196 220 159 196 220 159 196 220 159 196 220 159 196 220 159 196 220 159 196 220 159 196 220 159 196 220 159 196 220 159 196 220 159 196 220 159 196 220 159 196 220 159 196 220 0 0 255 0 0 255 162 198 222 162 198 222 162 198 222 162 198 222 162 198 222 162 198 222 162 198 222 162 198 222 162 198 222 162 198 222 162 198 222 162 198 222 162 198 222 162 198 222 162 198 222 162 198 222 162 198 222 162 198 222 162 198 222 162 198 222 162 198 222 162 198 222 162 198 222 162 198 222 162 198 222 162 198 222 162 198 222 162 198 222 162 198 222 162 198 222 162 198 222 162 198 222 162 198 222 162 198 222 162 198 222 162 198 222 162 198 222 162 198 222 162 198 222 162 198 222 162 198 222 162 198 222 162 198 222 162 198 222 162 198 222 162 198 222 162 198 222 162 198 222 162 198 222 162 198 222 162 198 222 162 198 222 162 198 222 162 198 222 162 198 222 162 198 222 162 198 222 162 198 222 162 198 222 162 198 222 162 198 222 162 198 222 162 198 222 162 198 222 162 198 222 162 198 222 162 198 222 162 198 222 162 198 222 162 198 222 162 198 222 162 198 222 162 198 222 162 198 222 162 198 222 162 198 222 162 198 222 162 198 222 162 198 222 162 198 222 162 198 222 162 198 222 162 198 222 162 198 222 162 198 222 162 198 222 162 198 222 162 198 222 162 198 222 162 198 222 162 198 222 162 198 222 162 198 222 162 198 222 162 198 222 162 198 222 162 198 222 162 198 222 162 198 222 162 198 222 162 198 222 162 198 222 162 198 222 162 198 222 162 198 222 162 198 222 162 198 222 162 198 222 162 198 222 162 198 222 162 198 222 162 198 222 162 198 222 162 198 222 162 198 222 162 198 222 162 198 222 162 198 222 162 198 222 162 198 222 162 198 222 162 198 222 162 198 222 162 198 222 162 198 222 162 198 222 162 198 222 162 198 222 162 198 222 162 198 222 162 198 222 162 198 222 162 198 222 162 198 222 162 198 222 162 198 222 162 198 222 162 198 222 162 198 222 162 198 222 162 198 222 162 198 222 162 198 222 
159 196 220 159 196 220 159 196 220 159 196 220 159 196 220 159 196 220 159 196 220 159 196 220 159 196 220 159 196 220 159 196 220 159 196 220 159 196 220 159 196 220 159 196 220 159 196 220 159 196 220 159 196 220 159 196 220 159 196 220 159 196 220 159 196 220 159 196 220 159 196 220 159 196 220 159 196 220 159 196 220 159 196 220 159 196 220 159 196 220 159 196 220 159 196 220 159 196 220 159 196 220 159 196 220 159 196 220 159 196 220 159 196 220 159 196 220 159 196 220 159 196 220 159 196 220 159 196 220 159 196 220 159 196 220 159 196 220 159 196 220 159 196 220 159 196 220 159 196 220 159 196 220 159 196 220 159 196 220 159 196 220 159 196 220 159 196 220 159 196 220 159 196 220 159 196 220 159 196 220 159 196 220 159 196 220 159 196 220 159 196 220 159 196 220 159 196 220 159 196 220 159 196 220 159 196 220 159 196 220 159 196 220 159 196 220 159 196 220 159 196 220 159 196 220 159 196 220 159 196 220 159 196 220 159 196 220 159 196 220 159 196 220 159 196 220 159 196 220 159 196 220 159 196 220 159 196 220 159 196 220 159 196 220 159 196 220 159 196 220 159 196 220 159 196 220 159 196 220 159 196 220 159 196 220 159 196 220 159 196 220 159 196 220 159 196 220 159 196 220 159 196 220 159 196 220 159 196 220 159 196 220 159 196 220 159 196 220 159 196 220 159 196 220 159 196 220 159 196 220 159 196 220 159 196 220 0 0 255 162 198 222 162 198 222 162 198 222 162 198 222 162 198 222 162 198 222 162 198 222 162 198 222 162 198 222 162 198 222 162 198 222 162 198 222 162 198 222 162 198 222 162 198 222 162 198 222 162 198 222 162 198 222 162 198 222 162 198 222 162 198 222 162 198 222 162 198 222 162 198 222 162 198 222 162 198 222 162 198 222 162 198 222 162 198 222 162 198 222 162 198 222 162 198 222 162 198 222 162 198 222 162 198 222 162 198 222 162 198 222 162 198 222 162 198 222 162 198 222 162 198 222 162 198 222 162 198 222 162 198 222 162 198 222 162 198 222 162 198 222 162 198 222 162 198 222 162 198 222 162 198 222 162 198 222 162 198 222 162 198 222 162 198 222 162 198 222 162 198 222 162 198 222 162 198 222 162 198 222 162 198 222 162 198 222 162 198 222 162 198 222 162 198 222 162 198 222 162 198 222 162 198 222 162 198 222 162 198 222 162 198 222 162 198 222 162 198 222 162 198 222 162 198 222 162 198 222 162 198 222 162 198 222 162 198 222 162 198 222 162 198 222 162 198 222 162 198 222 162 198 222 162 198 222 162 198 222 162 198 222 162 198 222 162 198 222 162 198 222 162 198 222 162 198 222 162 198 222 162 198 222 162 198 222 162 198 222 162 198 222 162 198 222 162 198 222 162 198 222 162 198 222 162 198 222 162 198 222 162 198 222 162 198 222 162 198 222 162 198 222 162 198 222 162 198 222 162 198 222 162 198 222 162 198 222 162 198 222 162 198 222 162 198 222 162 198 222 162 198 222 162 198 222 162 198 222 162 198 222 162 198 222 162 198 222 162 198 222 162 198 222 162 198 222 162 198 222 162 198 222 162 198 222 162 198 222 162 198 222 162 198 222 162 198 222 162 198 222 162 198 222 162 198 222 162 198 222 162 198 222 162 198 222 162 198 222 162 198 222 162 198 222 162 198 222 162 198 222 
159 196 220 159 196 220 159 196 220 159 196 220 159 196 220 159 196 220 159 196 220 159 196 220 159 196 220 159 196 220 159 196 220 159 196 220 159 196 220 159 196 220 159 196 220 159 196 220 159 196 220 159 196 220 159 196 220 159 196 220 159 196 220 159 196 220 159 196 220 159 196 220 159 196 220 159 196 220 159 196 220 159 196 220 159 196 220 159 196 220 159 196 220 159 196 220 159 196 220 159 196 220 159 196 220 159 196 220 159 196 220 159 196 220 159 196 220 159 196 220 159 196 220 159 196 220 159 196 220 159 196 220 159 196 220 159 196 220 159 196 220 159 196 220 159 196 220 159 196 220 159 196 220 159 196 220 159 196 220 159 196 220 159 196 220 159 196 220 159 196 220 159 196 220 159 196 220 159 196 220 159 196 220 159 196 220 159 196 220 159 196 220 159 196 220 159 196 220 159 196 220 159 196 220 159 196 220 159 196 220 159 196 220 159 196 220 159 196 220 159 196 220 159 196 220 159 196 220 159 196 220 159 196 220 159 196 220 159 196 220 159 196 220 159 196 220 159 196 220 159 196 220 159 196 220 159 196 220 159 196 220 159 196 220 159 196 220 159 196 220 159 196 220 159 196 220 159 196 220 159 196 220 159 196 220 159 196 220 159 196 220 159 196 220 159 196 220 159 196 220 159 196 220 159 196 220 159 196 220 159 196 220 159 196 220 159 196 220 159 196 220 159 196 220 159 196 220 159 196 220 159 196 220 159 196 220 0 0 255 162 198 222 162 198 222 162 198 222 162 198 222 162 198 222 162 198 222 162 198 222 162 198 222 162 198 222 162 198 222 162 198 222 162 198 222 162 198 222 162 198 222 162 198 222 162 198 222 162 198 222 162 198 222 162 198 222 162 198 222 162 198 222 162 198 222 162 198 222 162 198 222 162 198 222 162 198 222 162 198 222 162 198 222 162 198 222 162 198 222 162 198 222 162 198 222 162 198 222 162 198 222 162 198 222 162 198 222 162 198 222 162 198 222 162 198 222 162 198 222 162 198 222 162 198 222 162 198 222 162 198 222 162 198 222 162 198 222 162 198 222 162 198 222 162 198 222 162 198 222 162 198 222 162 198 222 162 198 222 162 198 222 162 198 222 162 198 222 162 198 222 162 198 222 162 198 222 162 198 222 162 198 222 162 198 222 162 198 222 162 198 222 162 198 222 162 198 222 162 198 222 162 198 222 162 198 222 162 198 222 162 198 222 162 198 222 162 198 222 162 198 222 162 198 222 162 198 222 162 198 222 162 198 222 162 198 222 162 198 222 162 198 222 162 198 222 162 198 222 162 198 222 162 198 222 162 198 222 162 198 222 162 198 222 162 198 222 162 198 222 162 198 222 162 198 222 162 198 222 162 198 222 162 198 222 162 198 222 162 198 222 162 198 222 162 198 222 162 198 222 162 198 222 162 198 222 162 198 222 162 198 222 162 198 222 162 198 222 162 198 222 162 198 222 162 198 222 162 198 222 162 198 222 162 198 222 162 198 222 162 198 222 162 198 222 162 198 222 162 198 222 162 198 222 162 198 222 162 198 222 162 198 222 162 198 222 162 198 222 162 198 222 162 198 222 162 198 222 162 198 222 162 198 222 162 198 222 162 198 222 162 198 222 162 198 222 162 198 222 162 198 222 162 198 222 162 198 222 162 198 222 162 198 222 162 198 222 162 198 222 162 198 222 162 198 222 162 198 222 
159 196 220 159 196 220 159 196 220 159 196 220 159 196 220 159 196 220 159 196 220 159 196 220 159 196 220 159 196 220 159 196 220 159 196 220 159 196 220 159 196 220 159 196 220 159 196 220 159 196 220 159 196 220 159 196 220 159 196 220 159 196 220 159 196 220 159 196 220 159 196 220 159 196 220 159 196 220 159 196 220 159 196 220 159 196 220 159 196 220 159 196 220 159 196 220 159 196 220 159 196 220 159 196 220 159 196 220 159 196 220 159 196 220 159 196 220 159 196 220 159 196 220 159 196 220 159 196 220 159 196 220 159 196 220 159 196 220 159 196 220 159 196 220 159 196 220 159 196 220 159 196 220 159 196 220 159 196 220 159 196 220 159 196 220 159 196 220 159 196 220 159 196 220 159 196 220 159 196 220 159 196 220 159 196 220 159 196 220 159 196 220 159 196 220 159 196 220 159 196 220 159 196 220 159 196 220 159 196 220 159 196 220 159 196 220 159 196 220 159 196 220 159 196 220 159 196 220 159 196 220 159 196 220 159 196 220 159 196 220 159 196 220 159 196 220 159 196 220 159 196 220 159 196 220 159 196 220 159 196 220 159 196 220 159 196 220 159 196 220 159 196 220 159 196 220 159 196 220 159 196 220 159 196 220 159 196 220 159 196 220 159 196 220 159 196 220 159 196 220 159 196 220 159 196 220 159 196 220 159 196 220 159 196 220 159 196 220 159 196 220 159 196 220 159 196 220 159 196 220 159 196 220 159 196 220 0 0 255 162 198 222 162 198 222 162 198 222 162 198 222 162 198 222 162 198 222 162 198 222 162 198 222 162 198 222 162 198 222 162 198 222 162 198 222 162 198 222 162 198 222 162 198 222 162 198 222 162 198 222 162 198 222 162 198 222 162 198 222 162 198 222 162 198 222 162 198 222 162 198 222 162 198 222 162 198 222 162 198 222 162 198 222 162 198 222 162 198 222 162 198 222 162 198 222 162 198 222 162 198 222 162 198 222 162 198 222 162 198 222 162 198 222 162 198 222 162 198 222 162 198 222 162 198 222 162 198 222 162 198 222 162 198 222 162 198 222 162 198 222 162 198 222 162 198 222 162 198 222 162 198 222 162 198 222 162 198 222 162 198 222 162 198 222 162 198 222 162 198 222 162 198 222 162 198 222 162 198 222 162 198 222 162 198 222 162 198 222 162 198 222 162 198 222 162 198 222 162 198 222 162 198 222 162 198 222 162 198 222 162 198 222 162 198 222 162 198 222 162 198 222 162 198 222 162 198 222 162 198 222 162 198 222 162 198 222 162 198 222 162 198 222 162 198 222 162 198 222 162 198 222 162 198 222 162 198 222 162 198 222 162 198 222 162 198 222 162 198 222 162 198 222 162 198 222 162 198 222 162 198 222 162 198 222 162 198 222 162 198 222 162 198 222 162 198 222 162 198 222 162 198 222 162 198 222 162 198 222 162 198 222 162 198 222 162 198 222 162 198 222 162 198 222 162 198 222 162 198 222 162 198 222 162 198 222 162 198 222 162 198 222 162 198 222 162 198 222 162 198 222 162 198 222 162 198 222 162 198 222 162 198 222 162 198 222 162 198 222 162 198 222 162 198 222 162 198 222 162 198 222 162 198 222 162 198 222 162 198 222 162 198 222 162 198 222 162 198 222 162 198 222 162 198 222 162 198 222 162 198 222 162 198 222 162 198 222 162 198 222 162 198 222 162 198 222 162 198 222 
159 196 220 159 196 220 159 196 220 159 196 220 159 196 220 159 196 220 159 196 220 159 196 220 159 196 220 159 196 220 159 196 220 159 196 220 159 196 220 159 196 220 159 196 220 159 196 220 159 196 220 159 196 220 159 196 220 159 196 220 159 196 220 159 196 220 159 196 220 159 196 220 159 196 220 159 196 220 159 196 220 159 196 220 159 196 220 159 196 220 159 196 220 159 196 220 159 196 220 159 196 220 159 196 220 159 196 220 159 196 220 159 196 220 159 196 220 159 196 220 159 196 220 159 196 220 159 196 220 159 196 220 159 196 220 159 196 220 159 196 220 159 196 220 159 196 220 159 196 220 159 196 220 159 196 220 159 196 220 159 196 220 159 196 220 159 196 220 159 196 220 159 196 220 159 196 220 159 196 220 159 196 220 159 196 220 159 196 220 159 196 220 159 196 220 159 196 220 159 196 220 159 196 220 159 196 220 159 196 220 159 196 220 159 196 220 159 196 220 159 196 220 159 196 220 159 196 220 159 196 220 159 196 220 159 196 220 159 196 220 159 196 220 159 196 220 159 196 220 159 196 220 159 196 220 159 196 220 159 196 220 159 196 220 159 196 220 159 196 220 159 196 220 159 196 220 159 196 220 159 196 220 159 196 220 159 196 220 159 196 220 159 196 220 159 196 220 159 196 220 159 196 220 159 196 220 159 196 220 159 196 220 159 196 220 159 196 220 159 196 220 159 196 220 159 196 220 159 196 220 159 196 220 159 196 220 0 0 255 162 198 222 162 198 222 162 198 222 162 198 222 162 198 222 162 198 222 162 198 222 162 198 222 162 198 222 162 198 222 162 198 222 162 198 222 162 198 222 162 198 222 162 198 222 162 198 222 162 198 222 162 198 222 162 198 222 162 198 222 162 198 222 162 198 222 162 198 222 162 198 222 162 198 222 162 198 222 162 198 222 162 198 222 162 198 222 162 198 222 162 198 222 162 198 222 162 198 222 162 198 222 162 198 222 162 198 222 162 198 222 162 198 222 162 198 222 162 198 222 162 198 222 162 198 222 162 198 222 162 198 222 162 198 222 162 198 222 162 198 222 162 198 222 162 198 222 162 198 222 162 198 222 162 198 222 162 198 222 162 198 222 162 198 222 162 198 222 162 198 222 162 198 222 162 198 222 162 198 222 162 198 222 162 198 222 162 198 222 162 198 222 162 198 222 162 198 222 162 198 222 162 198 222 162 198 222 162 198 222 162 198 222 162 198 222 162 198 222 162 198 222 162 198 222 162 198 222 162 198 222 162 198 222 162 198 222 162 198 222 162 198 222 162 198 222 162 198 222 162 198 222 162 198 222 162 198 222 162 198 222 162 198 222 162 198 222 162 198 222 162 198 222 162 198 222 162 198 222 162 198 222 162 198 222 162 198 222 162 198 222 162 198 222 162 198 222 162 198 222 162 198 222 162 198 222 162 198 222 162 198 222 162 198 222 162 198 222 162 198 222 162 198 222 162 198 222 162 198 222 162 198 222 162 198 222 162 198 222 162 198 222 162 198 222 162 198 222 162 198 222 162 198 222 162 198 222 162 198 222 162 198 222 162 198 222 162 198 222 162 198 222 162 198 222 162 198 222 162 198 222 162 198 222 162 198 222 162 198 222 162 198 222 162 198 222 162 198 222 162 198 222 162 198 222 162 198 222 162 198 222 162 198 222 162 198 222 162 198 222 162 198 222 162 198 222 162 198 222 
159 196 220 159 196 220 159 196 220 159 196 220 159 196 220 159 196 220 159 196 220 159 196 220 159 196 220 159 196 220 159 196 220 159 196 220 159 196 220 159 196 220 159 196 220 159 196 220 159 196 220 159 196 220 159 196 220 159 196 220 159 196 220 159 196 220 159 196 220 159 196 220 159 196 220 159 196 220 159 196 220 159 196 220 159 196 220 159 196 220 159 196 220 159 196 220 159 196 220 159 196 220 159 196 220 159 196 220 159 196 220 159 196 220 159 196 220 159 196 220 159 196 220 159 196 220 159 196 220 159 196 220 159 196 220 159 196 220 159 196 220 159 196 220 159 196 220 159 196 220 159 196 220 159 196 220 159 196 220 159 196 220 159 196 220 159 196 220 159 196 220 159 196 220 159 196 220 159 196 220 159 196 220 159 196 220 159 196 220 159 196 220 159 196 220 159 196 220 159 196 220 159 196 220 159 196 220 159 196 220 159 196 220 159 196 220 159 196 220 159 196 220 159 196 220 159 196 220 159 196 220 159 196 220 159 196 220 159 196 220 159 196 220 159 196 220 159 196 220 159 196 220 159 196 220 159 196 220 159 196 220 159 196 220 159 196 220 159 196 220 159 196 220 159 196 220 159 196 220 159 196 220 159 196 220 159 196 220 159 196 220 159 196 220 159 196 220 159 196 220 159 196 220 159 196 220 159 196 220 159 196 220 159 196 220 159 196 220 159 196 220 159 196 220 159 196 220 159 196 220 159 196 220 159 196 220 0 0 255 162 198 222 162 198 222 162 198 222 162 198 222 162 198 222 162 198 222 162 198 222 162 198 222 162 198 222 162 198 222 162 198 222 162 198 222 162 198 222 162 198 222 162 198 222 162 198 222 162 198 222 162 198 222 162 198 222 162 198 222 162 198 222 162 198 222 162 198 222 162 198 222 162 198 222 162 198 222 162 198 222 162 198 222 162 198 222 162 198 222 162 198 222 162 198 222 162 198 222 162 198 222 162 198 222 162 198 222 162 198 222 162 198 222 162 198 222 162 198 222 162 198 222 162 198 222 162 198 222 162 198 222 162 198 222 162 198 222 162 198 222 162 198 222 162 198 222 162 198 222 162 198 222 162 198 222 162 198 222 162 198 222 162 198 222 162 198 222 162 198 222 162 198 222 162 198 222 162 198 222 162 198 222 162 198 222 162 198 222 162 198 222 162 198 222 162 198 222 162 198 222 162 198 222 162 198 222 162 198 222 162 198 222 162 198 222 162 198 222 162 198 222 162 198 222 162 198 222 162 198 222 162 198 222 162 198 222 162 198 222 162 198 222 162 198 222 162 198 222 162 198 222 162 198 222 162 198 222 162 198 222 162 198 222 162 198 222 162 198 222 162 198 222 162 198 222 162 198 222 162 198 222 162 198 222 162 198 222 162 198 222 162 198 222 162 198 222 162 198 222 162 198 222 162 198 222 162 198 222 162 198 222 162 198 222 162 198 222 162 198 222 162 198 222 162 198 222 162 198 222 162 198 222 162 198 222 162 198 222 162 198 222 162 198 222 162 198 222 162 198 222 162 198 222 162 198 222 162 198 222 162 198 222 162 198 222 162 198 222 162 198 222 162 198 222 162 198 222 162 198 222 162 198 222 162 198 222 162 198 222 162 198 222 162 198 222 162 198 222 162 198 222 162 198 222 162 198 222 162 198 222 162 198 222 162 198 222 162 198 222 162 198 222 162 198 222 162 198 222 
159 196 220 159 196 220 159 196 220 159 196 220 159 196 220 159 196 220 159 196 220 159 196 220 159 196 220 159 196 220 159 196 220 159 196 220 159 196 220 159 196 220 159 196 220 159 196 220 159 196 220 159 196 220 159 196 220 159 196 220 159 196 220 159 196 220 159 196 220 159 196 220 159 196 220 159 196 220 159 196 220 159 196 220 159 196 220 159 196 220 159 196 220 159 196 220 159 196 220 159 196 220 159 196 220 159 196 220 159 196 220 159 196 220 159 196 220 159 196 220 159 196 220 159 196 220 159 196 220 159 196 220 159 196 220 159 196 220 159 196 220 159 196 220 159 196 220 159 196 220 159 196 220 159 196 220 159 196 220 159 196 220 159 196 220 159 196 220 159 196 220 159 196 220 159 196 220 159 196 220 159 196 220 159 196 220 159 196 220 159 196 220 159 196 220 159 196 220 159 196 220 159 196 220 159 196 220 159 196 220 159 196 220 159 196 220 159 196 220 159 196 220 159 196 220 159 196 220 159 196 220 159 196 220 159 196 220 159 196 220 159 196 220 159 196 220 159 196 220 159 196 220 159 196 220 159 196 220 159 196 220 159 196 220 159 196 220 159 196 220 159 196 220 159 196 220 159 196 220 159 196 220 159 196 220 159 196 220 159 196 220 159 196 220 159 196 220 159 196 220 159 196 220 159 196 220 159 196 220 159 196 220 159 196 220 159 196 220 159 196 220 159 196 220 159 196 220 159 196 220 159 196 220 159 196 220 0 0 255 162 198 222 162 198 222 162 198 222 162 198 222 162 198 222 162 198 222 162 198 222 162 198 222 162 198 222 162 198 222 162 198 222 162 198 222 162 198 222 162 198 222 162 198 222 162 198 222 162 198 222 162 198 222 162 198 222 162 198 222 162 198 222 162 198 222 162 198 222 162 198 222 162 198 222 162 198 222 162 198 222 162 198 222 162 198 222 162 198 222 162 198 222 162 198 222 162 198 222 162 198 222 162 198 222 162 198 222 162 198 222 162 198 222 162 198 222 162 198 222 162 198 222 162 198 222 162 198 222 162 198 222 162 198 222 162 198 222 162 198 222 162 198 222 162 198 222 162 198 222 162 198 222 162 198 222 162 198 222 162 198 222 162 198 222 162 198 222 162 198 222 162 198 222 162 198 222 162 198 222 162 198 222 162 198 222 162 198 222 162 198 222 162 198 222 162 198 222 162 198 222 162 198 222 162 198 222 162 198 222 162 198 222 162 198 222 162 198 222 162 198 222 162 198 222 162 198 222 162 198 222 162 198 222 162 198 222 162 198 222 162 198 222 162 198 222 162 198 222 162 198 222 162 198 222 162 198 222 162 198 222 162 198 222 162 198 222 162 198 222 162 198 222 162 198 222 162 198 222 162 198 222 162 198 222 162 198 222 162 198 222 162 198 222 162 198 222 162 198 222 162 198 222 162 198 222 162 198 222 162 198 222 162 198 222 162 198 222 162 198 222 162 198 222 162 198 222 162 198 222 162 198 222 162 198 222 162 198 222 162 198 222 162 198 222 162 198 222 162 198 222 162 198 222 162 198 222 162 198 222 162 198 222 162 198 222 162 198 222 162 198 222 162 198 222 162 198 222 162 198 222 162 198 222 162 198 222 162 198 222 162 198 222 162 198 222 162 198 222 162 198 222 162 198 222 162 198 222 162 198 222 162 198 222 162 198 222 162 198 222 162 198 222 162 198 222 162 198 222 
159 196 220 159 196 220 159 196 220 159 196 220 159 196 220 159 196 220 159 196 220 159 196 220 159 196 220 159 196 220 159 196 220 159 196 220 159 196 220 159 196 220 159 196 220 159 196 220 159 196 220 159 196 220 159 196 220 159 196 220 159 196 220 159 196 220 159 196 220 159 196 220 159 196 220 159 196 220 159 196 220 159 196 220 159 196 220 159 196 220 159 196 220 159 196 220 159 196 220 159 196 220 159 196 220 159 196 220 159 196 220 159 196 220 159 196 220 159 196 220 159 196 220 159 196 220 159 196 220 159 196 220 159 196 220 159 196 220 159 196 220 159 196 220 159 196 220 159 196 220 159 196 220 159 196 220 159 196 220 159 196 220 159 196 220 159 196 220 159 196 220 159 196 220 159 196 220 159 196 220 159 196 220 159 196 220 159 196 220 159 196 220 159 196 220 159 196 220 159 196 220 159 196 220 159 196 220 159 196 220 159 196 220 159 196 220 159 196 220 159 196 220 159 196 220 159 196 220 159 196 220 159 196 220 159 196 220 159 196 220 159 196 220 159 196 220 159 196 220 159 196 220 159 196 220 159 196 220 159 196 220 159 196 220 159 196 220 159 196 220 159 196 220 159 196 220 159 196 220 159 196 220 159 196 220 159 196 220 159 196 220 159 196 220 159 196 220 159 196 220 159 196 220 159 196 220 159 196 220 159 196 220 159 196 220 159 196 220 159 196 220 159 196 220 159 196 220 159 196 220 159 196 220 159 196 220 0 0 255 0 0 255 162 198 222 162 198 222 162 198 222 162 198 222 162 198 222 162 198 222 162 198 222 162 198 222 162 198 222 162 198 222 162 198 222 162 198 222 162 198 222 162 198 222 162 198 222 162 198 222 162 198 222 162 198 222 162 198 222 162 198 222 162 198 222 162 198 222 162 198 222 162 198 222 162 198 222 162 198 222 162 198 222 162 198 222 162 198 222 162 198 222 162 198 222 162 198 222 162 198 222 162 198 222 162 198 222 162 198 222 162 198 222 162 198 222 162 198 222 162 198 222 162 198 222 162 198 222 162 198 222 162 198 222 162 198 222 162 198 222 162 198 222 162 198 222 162 198 222 162 198 222 162 198 222 162 198 222 162 198 222 162 198 222 162 198 222 162 198 222 162 198 222 162 198 222 162 198 222 162 198 222 162 198 222 162 198 222 162 198 222 162 198 222 162 198 222 162 198 222 162 198 222 162 198 222 162 198 222 162 198 222 162 198 222 162 198 222 162 198 222 162 198 222 162 198 222 162 198 222 162 198 222 162 198 222 162 198 222 162 198 222 162 198 222 162 198 222 162 198 222 162 198 222 162 198 222 162 198 222 162 198 222 162 198 222 162 198 222 162 198 222 162 198 222 162 198 222 162 198 222 162 198 222 162 198 222 162 198 222 162 198 222 162 198 222 162 198 222 162 198 222 162 198 222 162 198 222 162 198 222 162 198 222 162 198 222 162 198 222 162 198 222 162 198 222 162 198 222 162 198 222 162 198 222 162 198 222 162 198 222 162 198 222 162 198 222 162 198 222 162 198 222 162 198 222 162 198 222 162 198 222 162 198 222 162 198 222 162 198 222 162 198 222 162 198 222 162 198 222 162 198 222 162 198 222 162 198 222 162 198 222 162 198 222 162 198 222 162 198 222 162 198 222 162 198 222 162 198 222 162 198 222 162 198 222 162 198 222 162 198 222 162 198 222 162 198 222 
159 196 220 159 196 220 159 196 220 159 196 220 159 196 220 159 196 220 159 196 220 159 196 220 159 196 220 159 196 220 159 196 220 159 196 220 159 196 220 159 196 220 159 196 220 159 196 220 159 196 220 159 196 220 159 196 220 159 196 220 159 196 220 159 196 220 159 196 220 159 196 220 159 196 220 159 196 220 159 196 220 159 196 220 159 196 220 159 196 220 159 196 220 159 196 220 159 196 220 159 196 220 159 196 220 159 196 220 159 196 220 159 196 220 159 196 220 159 196 220 159 196 220 159 196 220 159 196 220 159 196 220 159 196 220 159 196 220 159 196 220 159 196 220 159 196 220 159 196 220 159 196 220 159 196 220 159 196 220 159 196 220 159 196 220 159 196 220 159 196 220 159 196 220 159 196 220 159 196 220 159 196 220 159 196 220 159 196 220 159 196 220 159 196 220 159 196 220 159 196 220 159 196 220 159 196 220 159 196 220 159 196 220 159 196 220 159 196 220 159 196 220 159 196 220 159 196 220 159 196 220 159 196 220 159 196 220 159 196 220 159 196 220 159 196 220 159 196 220 159 196 220 159 196 220 159 196 220 159 196 220 159 196 220 159 196 220 159 196 220 159 196 220 159 196 220 159 196 220 159 196 220 159 196 220 159 196 220 159 196 220 159 196 220 159 196 220 159 196 220 159 196 220 159 196 220 159 196 220 159 196 220 159 196 220 159 196 220 159 196 220 159 196 220 159 196 220 159 196 220 159 196 220 159 196 220 159 196 220 0 0 255 162 198 222 162 198 222 162 198 222 162 198 222 162 198 222 162 198 222 162 198 222 162 198 222 162 198 222 162 198 222 162 198 222 162 198 222 162 198 222 162 198 222 162 198 222 162 198 222 162 198 222 162 198 222 162 198 222 162 198 222 162 198 222 162 198 222 162 198 222 162 198 222 162 198 222 162 198 222 162 198 222 162 198 222 162 198 222 162 198 222 162 198 222 162 198 222 162 198 222 162 198 222 162 198 222 162 198 222 162 198 222 162 198 222 162 198 222 162 198 222 162 198 222 162 198 222 162 198 222 162 198 222 162 198 222 162 198 222 162 198 222 162 198 222 162 198 222 162 198 222 162 198 222 162 198 222 162 198 222 162 198 222 162 198 222 162 198 222 162 198 222 162 198 222 162 198 222 162 198 222 162 198 222 162 198 222 162 198 222 162 198 222 162 198 222 162 198 222 162 198 222 162 198 222 162 198 222 162 198 222 162 198 222 162 198 222 162 198 222 162 198 222 162 198 222 162 198 222 162 198 222 162 198 222 162 198 222 162 198 222 162 198 222 162 198 222 162 198 222 162 198 222 162 198 222 162 198 222 162 198 222 162 198 222 162 198 222 162 198 222 162 198 222 162 198 222 162 198 222 162 198 222 162 198 222 162 198 222 162 198 222 162 198 222 162 198 222 162 198 222 162 198 222 162 198 222 162 198 222 162 198 222 162 198 222 162 198 222 162 198 222 162 198 222 162 198 222 162 198 222 162 198 222 162 198 222 162 198 222 162 198 222 162 198 222 162 198 222 162 198 222 162 198 222 162 198 222 162 198 222 162 198 222 162 198 222 162 198 222 162 198 222 162 198 222 162 198 222 162 198 222 162 198 222 162 198 222 162 198 222 162 198 222 162 198 222 162 198 222 162 198 222 162 198 222 162 198 222 162 198 222 162 198 222 162 198 222 162 198 222 162 198 222 162 198 222 
159 196 220 159 196 220 159 196 220 159 196 220 159 196 220 159 196 220 159 196 220 159 196 220 159 196 220 159 196 220 159 196 220 159 196 220 159 196 220 159 196 220 159 196 220 159 196 220 159 196 220 159 196 220 159 196 220 159 196 220 159 196 220 159 196 220 159 196 220 159 196 220 159 196 220 159 196 220 159 196 220 159 196 220 159 196 220 159 196 220 159 196 220 159 196 220 159 196 220 159 196 220 159 196 220 159 196 220 159 196 220 159 196 220 159 196 220 159 196 220 159 196 220 159 196 220 159 196 220 159 196 220 159 196 220 159 196 220 159 196 220 159 196 220 159 196 220 159 196 220 159 196 220 159 196 220 159 196 220 159 196 220 159 196 220 159 196 220 159 196 220 159 196 220 159 196 220 159 196 220 159 196 220 159 196 220 159 196 220 159 196 220 159 196 220 159 196 220 159 196 220 159 196 220 159 196 220 159 196 220 159 196 220 159 196 220 159 196 220 159 196 220 159 196 220 159 196 220 159 196 220 159 196 220 159 196 220 159 196 220 159 196 220 159 196 220 159 196 220 159 196 220 159 196 220 159 196 220 159 196 220 159 196 220 159 196 220 159 196 220 159 196 220 159 196 220 159 196 220 159 196 220 159 196 220 159 196 220 159 196 220 159 196 220 159 196 220 159 196 220 159 196 220 159 196 220 159 196 220 159 196 220 159 196 220 159 196 220 159 196 220 159 196 220 159 196 220 159 196 220 159 196 220 159 196 220 159 196 220 0 0 255 162 198 222 162 198 222 162 198 222 162 198 222 162 198 222 162 198 222 162 198 222 162 198 222 162 198 222 162 198 222 162 198 222 162 198 222 162 198 222 162 198 222 162 198 222 162 198 222 162 198 222 162 198 222 162 198 222 162 198 222 162 198 222 162 198 222 162 198 222 162 198 222 162 198 222 162 198 222 162 198 222 162 198 222 162 198 222 162 198 222 162 198 222 162 198 222 162 198 222 162 198 222 162 198 222 162 198 222 162 198 222 162 198 222 162 198 222 162 198 222 162 198 222 162 198 222 162 198 222 162 198 222 162 198 222 162 198 222 162 198 222 162 198 222 162 198 222 162 198 222 162 198 222 162 198 222 162 198 222 162 198 222 162 198 222 162 198 222 162 198 222 162 198 222 162 198 222 162 198 222 162 198 222 162 198 222 162 198 222 162 198 222 162 198 222 162 198 222 162 198 222 162 198 222 162 198 222 162 198 222 162 198 222 162 198 222 162 198 222 162 198 222 162 198 222 162 198 222 162 198 222 162 198 222 162 198 222 162 198 222 162 198 222 162 198 222 162 198 222 162 198 222 162 198 222 162 198 222 162 198 222 162 198 222 162 198 222 162 198 222 162 198 222 162 198 222 162 198 222 162 198 222 162 198 222 162 198 222 162 198 222 162 198 222 162 198 222 162 198 222 162 198 222 162 198 222 162 198 222 162 198 222 162 198 222 162 198 222 162 198 222 162 198 222 162 198 222 162 198 222 162 198 222 162 198 222 162 198 222 162 198 222 162 198 222 162 198 222 162 198 222 162 198 222 162 198 222 162 198 222 162 198 222 162 198 222 162 198 222 162 198 222 162 198 222 162 198 222 162 198 222 162 198 222 162 198 222 162 198 222 162 198 222 162 198 222 162 198 222 162 198 222 162 198 222 162 198 222 162 198 222 162 198 222 162 198 222 162 198 222 162 198 222 162 198 222 
159 196 220 159 196 220 159 196 220 159 196 220 159 196 220 159 196 220 159 196 220 159 196 220 159 196 220 159 196 220 159 196 220 159 196 220 159 196 220 159 196 220 159 196 220 159 196 220 159 196 220 159 196 220 159 196 220 159 196 220 159 196 220 159 196 220 159 196 220 159 196 220 159 196 220 159 196 220 159 196 220 159 196 220 159 196 220 159 196 220 159 196 220 159 196 220 159 196 220 159 196 220 159 196 220 159 196 220 159 196 220 159 196 220 159 196 220 159 196 220 159 196 220 159 196 220 159 196 220 159 196 220 159 196 220 159 196 220 159 196 220 159 196 220 159 196 220 159 196 220 159 196 220 159 196 220 159 196 220 159 196 220 159 196 220 159 196 220 159 196 220 159 196 220 159 196 220 159 196 220 159 196 220 159 196 220 159 196 220 159 196 220 159 196 220 159 196 220 159 196 220 159 196 220 159 196 220 159 196 220 159 196 220 159 196 220 159 196 220 159 196 220 159 196 220 159 196 220 159 196 220 159 196 220 159 196 220 159 196 220 159 196 220 159 196 220 159 196 220 159 196 220 159 196 220 159 196 220 159 196 220 159 196 220 159 196 220 159 196 220 159 196 220 159 196 220 159 196 220 159 196 220 159 196 220 159 196 220 159 196 220 159 196 220 159 196 220 159 196 220 159 196 220 159 196 220 159 196 220 159 196 220 159 196 220 159 196 220 159 196 220 159 196 220 159 196 220 159 196 220 159 196 220 159 196 220 159 196 220 0 0 255 162 198 222 162 198 222 162 198 222 162 198 222 162 198 222 162 198 222 162 198 222 162 198 222 162 198 222 162 198 222 162 198 222 162 198 222 162 198 222 162 198 222 162 198 222 162 198 222 162 198 222 162 198 222 162 198 222 162 198 222 162 198 222 162 198 222 162 198 222 162 198 222 162 198 222 162 198 222 162 198 222 162 198 222 162 198 222 162 198 222 162 198 222 162 198 222 162 198 222 162 198 222 162 198 222 162 198 222 162 198 222 162 198 222 162 198 222 162 198 222 162 198 222 162 198 222 162 198 222 162 198 222 162 198 222 162 198 222 162 198 222 162 198 222 162 198 222 162 198 222 162 198 222 162 198 222 162 198 222 162 198 222 162 198 222 162 198 222 162 198 222 162 198 222 162 198 222 162 198 222 162 198 222 162 198 222 162 198 222 162 198 222 162 198 222 162 198 222 162 198 222 162 198 222 162 198 222 162 198 222 162 198 222 162 198 222 162 198 222 162 198 222 162 198 222 162 198 222 162 198 222 162 198 222 162 198 222 162 198 222 162 198 222 162 198 222 162 198 222 162 198 222 162 198 222 162 198 222 162 198 222 162 198 222 162 198 222 162 198 222 162 198 222 162 198 222 162 198 222 162 198 222 162 198 222 162 198 222 162 198 222 162 198 222 162 198 222 162 198 222 162 198 222 162 198 222 162 198 222 162 198 222 162 198 222 162 198 222 162 198 222 162 198 222 162 198 222 162 198 222 162 198 222 162 198 222 162 198 222 162 198 222 162 198 222 162 198 222 162 198 222 162 198 222 162 198 222 162 198 222 162 198 222 162 198 222 162 198 222 162 198 222 162 198 222 162 198 222 162 198 222 162 198 222 162 198 222 162 198 222 162 198 222 162 198 222 162 198 222 162 198 222 162 198 222 162 198 222 162 198 222 162 198 222 162 198 222 162 198 222 162 198 222 162 198 222 
159 196 220 159 196 220 159 196 220 159 196 220 159 196 220 159 196 220 159 196 220 159 196 220 159 196 220 159 196 220 159 196 220 159 196 220 159 196 220 159 196 220 159 196 220 159 196 220 159 196 220 159 196 220 159 196 220 159 196 220 159 196 220 159 196 220 159 196 220 159 196 220 159 196 220 159 196 220 159 196 220 159 196 220 159 196 220 159 196 220 159 196 220 159 196 220 159 196 220 159 196 220 159 196 220 159 196 220 159 196 220 159 196 220 159 196 220 159 196 220 159 196 220 159 196 220 159 196 220 159 196 220 159 196 220 159 196 220 159 196 220 159 196 220 159 196 220 159 196 220 159 196 220 159 196 220 159 196 220 159 196 220 159 196 220 159 196 220 159 196 220 159 196 220 159 196 220 159 196 220 159 196 220 159 196 220 159 196 220 159 196 220 159 196 220 159 196 220 159 196 220 159 196 220 159 196 220 159 196 220 159 196 220 159 196 220 159 196 220 159 196 220 159 196 220 159 196 220 159 196 220 159 196 220 159 196 220 159 196 220 159 196 220 159 196 220 159 196 220 159 196 220 159 196 220 159 196 220 159 196 220 159 196 220 159 196 220 159 196 220 159 196 220 159 196 220 159 196 220 159 196 220 159 196 220 159 196 220 159 196 220 159 196 220 159 196 220 159 196 220 159 196 220 159 196 220 159 196 220 159 196 220 159 196 220 159 196 220 159 196 220 159 196 220 159 196 220 159 196 220 159 196 220 159 196 220 159 196 220 0 0 255 162 198 222 162 198 222 162 198 222 162 198 222 162 198 222 162 198 222 162 198 222 162 198 222 162 198 222 162 198 222 162 198 222 162 198 222 162 198 222 162 198 222 162 198 222 162 198 222 162 198 222 162 198 222 162 198 222 162 198 222 162 198 222 162 198 222 162 198 222 162 198 222 162 198 222 162 198 222 162 198 222 162 198 222 162 198 222 162 198 222 162 198 222 162 198 222 162 198 222 162 198 222 162 198 222 162 198 222 162 198 222 162 198 222 162 198 222 162 198 222 162 198 222 162 198 222 162 198 222 162 198 222 162 198 222 162 198 222 162 198 222 162 198 222 162 198 222 162 198 222 162 198 222 162 198 222 162 198 222 162 198 222 162 198 222 162 198 222 162 198 222 162 198 222 162 198 222 162 198 222 162 198 222 162 198 222 162 198 222 162 198 222 162 198 222 162 198 222 162 198 222 162 198 222 162 198 222 162 198 222 162 198 222 162 198 222 162 198 222 162 198 222 162 198 222 162 198 222 162 198 222 162 198 222 162 198 222 162 198 222 162 198 222 162 198 222 162 198 222 162 198 222 162 198 222 162 198 222 162 198 222 162 198 222 162 198 222 162 198 222 162 198 222 162 198 222 162 198 222 162 198 222 162 198 222 162 198 222 162 198 222 162 198 222 162 198 222 162 198 222 162 198 222 162 198 222 162 198 222 162 198 222 162 198 222 162 198 222 162 198 222 162 198 222 162 198 222 162 198 222 162 198 222 162 198 222 162 198 222 162 198 222 162 198 222 162 198 222 162 198 222 162 198 222 162 198 222 162 198 222 162 198 222 162 198 222 162 198 222 162 198 222 162 198 222 162 198 222 162 198 222 162 198 222 162 198 222 162 198 222 162 198 222 162 198 222 162 198 222 162 198 222 162 198 222 162 198 222 162 198 222 162 198 222 162 198 222 162 198 222 162 198 222 162 198 222 
159 196 220 159 196 220 159 196 220 159 196 220 159 196 220 159 196 220 159 196 220 159 196 220 159 196 220 159 196 220 159 196 220 159 196 220 159 196 220 159 196 220 159 196 220 159 196 220 159 196 220 159 196 220 159 196 220 159 196 220 159 196 220 159 196 220 159 196 220 159 196 220 159 196 220 159 196 220 159 196 220 159 196 220 159 196 220 159 196 220 159 196 220 159 196 220 159 196 220 159 196 220 159 196 220 159 196 220 159 196 220 159 196 220 159 196 220 159 196 220 159 196 220 159 196 220 159 196 220 159 196 220 159 196 220 159 196 220 159 196 220 159 196 220 159 196 220 159 196 220 159 196 220 159 196 220 159 196 220 159 196 220 159 196 220 159 196 220 159 196 220 159 196 220 159 196 220 159 196 220 159 196 220 159 196 220 159 196 220 159 196 220 159 196 220 159 196 220 159 196 220 159 196 220 159 196 220 159 196 220 159 196 220 159 196 220 159 196 220 159 196 220 159 196 220 159 196 220 159 196 220 159 196 220 159 196 220 159 196 220 159 196 220 159 196 220 159 196 220 159 196 220 159 196 220 159 196 220 159 196 220 159 196 220 159 196 220 159 196 220 159 196 220 159 196 220 159 196 220 159 196 220 159 196 220 159 196 220 159 196 220 159 196 220 159 196 220 159 196 220 159 196 220 159 196 220 159 196 220 159 196 220 159 196 220 159 196 220 159 196 220 159 196 220 159 196 220 159 196 220 159 196 220 159 196 220 159 196 220 0 0 255 162 198 222 162 198 222 162 198 222 162 198 222 162 198 222 162 198 222 162 198 222 162 198 222 162 198 222 162 198 222 162 198 222 162 198 222 162 198 222 162 198 222 162 198 222 162 198 222 162 198 222 162 198 222 162 198 222 162 198 222 162 198 222 162 198 222 162 198 222 162 198 222 162 198 222 162 198 222 162 198 222 162 198 222 162 198 222 162 198 222 162 198 222 162 198 222 162 198 222 162 198 222 162 198 222 162 198 222 162 198 222 162 198 222 162 198 222 162 198 222 162 198 222 162 198 222 162 198 222 162 198 222 162 198 222 162 198 222 162 198 222 162 198 222 162 198 222 162 198 222 162 198 222 162 198 222 162 198 222 162 198 222 162 198 222 162 198 222 162 198 222 162 198 222 162 198 222 162 198 222 162 198 222 162 198 222 162 198 222 162 198 222 162 198 222 162 198 222 162 198 222 162 198 222 162 198 222 162 198 222 162 198 222 162 198 222 162 198 222 162 198 222 162 198 222 162 198 222 162 198 222 162 198 222 162 198 222 162 198 222 162 198 222 162 198 222 162 198 222 162 198 222 162 198 222 162 198 222 162 198 222 162 198 222 162 198 222 162 198 222 162 198 222 162 198 222 162 198 222 162 198 222 162 198 222 162 198 222 162 198 222 162 198 222 162 198 222 162 198 222 162 198 222 162 198 222 162 198 222 162 198 222 162 198 222 162 198 222 162 198 222 162 198 222 162 198 222 162 198 222 162 198 222 162 198 222 162 198 222 162 198 222 162 198 222 162 198 222 162 198 222 162 198 222 162 198 222 162 198 222 162 198 222 162 198 222 162 198 222 162 198 222 162 198 222 162 198 222 162 198 222 162 198 222 162 198 222 162 198 222 162 198 222 162 198 222 162 198 222 162 198 222 162 198 222 162 198 222 162 198 222 162 198 222 162 198 222 162 198 222 162 198 222 162 198 222 
159 196 220 159 196 220 159 196 220 159 196 220 159 196 220 159 196 220 159 196 220 159 196 220 159 196 220 159 196 220 159 196 220 159 196 220 159 196 220 159 196 220 159 196 220 159 196 220 159 196 220 159 196 220 159 196 220 159 196 220 159 196 220 159 196 220 159 196 220 159 196 220 159 196 220 159 196 220 159 196 220 159 196 220 159 196 220 159 196 220 159 196 220 159 196 220 159 196 220 159 196 220 159 196 220 159 196 220 159 196 220 159 196 220 159 196 220 159 196 220 159 196 220 159 196 220 159 196 220 159 196 220 159 196 220 159 196 220 159 196 220 159 196 220 159 196 220 159 196 220 159 196 220 159 196 220 159 196 220 159 196 220 159 196 220 159 196 220 159 196 220 159 196 220 159 196 220 159 196 220 159 196 220 159 196 220 159 196 220 159 196 220 159 196 220 159 196 220 159 196 220 159 196 220 159 196 220 159 196 220 159 196 220 159 196 220 159 196 220 159 196 220 159 196 220 159 196 220 159 196 220 159 196 220 159 196 220 159 196 220 159 196 220 159 196 220 159 196 220 159 196 220 159 196 220 159 196 220 159 196 220 159 196 220 159 196 220 159 196 220 159 196 220 159 196 220 159 196 220 159 196 220 159 196 220 159 196 220 159 196 220 159 196 220 159 196 220 159 196 220 159 196 220 159 196 220 159 196 220 159 196 220 159 196 220 159 196 220 159 196 220 159 196 220 159 196 220 159 196 220 159 196 220 159 196 220 159 196 220 0 0 255 162 198 222 162 198 222 162 198 222 162 198 222 162 198 222 162 198 222 162 198 222 162 198 222 162 198 222 162 198 222 162 198 222 162 198 222 162 198 222 162 198 222 162 198 222 162 198 222 162 198 222 162 198 222 162 198 222 162 198 222 162 198 222 162 198 222 162 198 222 162 198 222 162 198 222 162 198 222 162 198 222 162 198 222 162 198 222 162 198 222 162 198 222 162 198 222 162 198 222 162 198 222 162 198 222 162 198 222 162 198 222 162 198 222 162 198 222 162 198 222 162 198 222 162 198 222 162 198 222 162 198 222 162 198 222 162 198 222 162 198 222 162 198 222 162 198 222 162 198 222 162 198 222 162 198 222 162 198 222 162 198 222 162 198 222 162 198 222 162 198 222 162 198 222 162 198 222 162 198 222 162 198 222 162 198 222 162 198 222 162 198 222 162 198 222 162 198 222 162 198 222 162 198 222 162 198 222 162 198 222 162 198 222 162 198 222 162 198 222 162 198 222 162 198 222 162 198 222 162 198 222 162 198 222 162 198 222 162 198 222 162 198 222 162 198 222 162 198 222 162 198 222 162 198 222 162 198 222 162 198 222 162 198 222 162 198 222 162 198 222 162 198 222 162 198 222 162 198 222 162 198 222 162 198 222 162 198 222 162 198 222 162 198 222 162 198 222 162 198 222 162 198 222 162 198 222 162 198 222 162 198 222 162 198 222 162 198 222 162 198 222 162 198 222 162 198 222 162 198 222 162 198 222 162 198 222 162 198 222 162 198 222 162 198 222 162 198 222 162 198 222 162 198 222 162 198 222 162 198 222 162 198 222 162 198 222 162 198 222 162 198 222 162 198 222 162 198 222 162 198 222 162 198 222 162 198 222 162 198 222 162 198 222 162 198 222 162 198 222 162 198 222 162 198 222 162 198 222 162 198 222 162 198 222 162 198 222 162 198 222 162 198 222 162 198 222 
159 196 220 159 196 220 159 196 220 159 196 220 159 196 220 159 196 220 159 196 220 159 196 220 159 196 220 159 196 220 159 196 220 159 196 220 159 196 220 159 196 220 159 196 220 159 196 220 159 196 220 159 196 220 159 196 220 159 196 220 159 196 220 159 196 220 159 196 220 159 196 220 159 196 220 159 196 220 159 196 220 159 196 220 159 196 220 159 196 220 159 196 220 159 196 220 159 196 220 159 196 220 159 196 220 159 196 220 159 196 220 159 196 220 159 196 220 159 196 220 159 196 220 159 196 220 159 196 220 159 196 220 159 196 220 159 196 220 159 196 220 159 196 220 159 196 220 159 196 220 159 196 220 159 196 220 159 196 220 159 196 220 159 196 220 159 196 220 159 196 220 159 196 220 159 196 220 159 196 220 159 196 220 159 196 220 159 196 220 159 196 220 159 196 220 159 196 220 159 196 220 159 196 220 159 196 220 159 196 220 159 196 220 159 196 220 159 196 220 159 196 220 159 196 220 159 196 220 159 196 220 159 196 220 159 196 220 159 196 220 159 196 220 159 196 220 159 196 220 159 196 220 159 196 220 159 196 220 159 196 220 159 196 220 159 196 220 159 196 220 159 196 220 159 196 220 159 196 220 159 196 220 159 196 220 159 196 220 159 196 220 159 196 220 159 196 220 159 196 220 159 196 220 159 196 220 159 196 220 159 196 220 159 196 220 159 196 220 159 196 220 159 196 220 159 196 220 159 196 220 159 196 220 159 196 220 159 196 220 0 0 255 162 198 222 162 198 222 162 198 222 162 198 222 162 198 222 162 198 222 162 198 222 162 198 222 162 198 222 162 198 222 162 198 222 162 198 222 162 198 222 162 198 222 162 198 222 162 198 222 162 198 222 162 198 222 162 198 222 162 198 222 162 198 222 162 198 222 162 198 222 162 198 222 162 198 222 162 198 222 162 198 222 162 198 222 162 198 222 162 198 222 162 198 222 162 198 222 162 198 222 162 198 222 162 198 222 162 198 222 162 198 222 162 198 222 162 198 222 162 198 222 162 198 222 162 198 222 162 198 222 162 198 222 162 198 222 162 198 222 162 198 222 162 198 222 162 198 222 162 198 222 162 198 222 162 198 222 162 198 222 162 198 222 162 198 222 162 198 222 162 198 222 162 198 222 162 198 222 162 198 222 162 198 222 162 198 222 162 198 222 162 198 222 162 198 222 162 198 222 162 198 222 162 198 222 162 198 222 162 198 222 162 198 222 162 198 222 162 198 222 162 198 222 162 198 222 162 198 222 162 198 222 162 198 222 162 198 222 162 198 222 162 198 222 162 198 222 162 198 222 162 198 222 162 198 222 162 198 222 162 198 222 162 198 222 162 198 222 162 198 222 162 198 222 162 198 222 162 198 222 162 198 222 162 198 222 162 198 222 162 198 222 162 198 222 162 198 222 162 198 222 162 198 222 162 198 222 162 198 222 162 198 222 162 198 222 162 198 222 162 198 222 162 198 222 162 198 222 162 198 222 162 198 222 162 198 222 162 198 222 162 198 222 162 198 222 162 198 222 162 198 222 162 198 222 162 198 222 162 198 222 162 198 222 162 198 222 162 198 222 162 198 222 162 198 222 162 198 222 162 198 222 162 198 222 162 198 222 162 198 222 162 198 222 162 198 222 162 198 222 162 198 222 162 198 222 162 198 222 162 198 222 162 198 222 162 198 222 162 198 222 162 198 222 162 198 222 
159 196 220 159 196 220 159 196 220 159 196 220 159 196 220 159 196 220 159 196 220 159 196 220 159 196 220 159 196 220 159 196 220 159 196 220 159 196 220 159 196 220 159 196 220 159 196 220 159 196 220 159 196 220 159 196 220 159 196 220 159 196 220 159 196 220 159 196 220 159 196 220 159 196 220 159 196 220 159 196 220 159 196 220 159 196 220 159 196 220 159 196 220 159 196 220 159 196 220 159 196 220 159 196 220 159 196 220 159 196 220 159 196 220 159 196 220 159 196 220 159 196 220 159 196 220 159 196 220 159 196 220 159 196 220 159 196 220 159 196 220 159 196 220 159 196 220 159 196 220 159 196 220 159 196 220 159 196 220 159 196 220 159 196 220 159 196 220 159 196 220 159 196 220 159 196 220 159 196 220 159 196 220 159 196 220 159 196 220 159 196 220 159 196 220 159 196 220 159 196 220 159 196 220 159 196 220 159 196 220 159 196 220 159 196 220 159 196 220 159 196 220 159 196 220 159 196 220 159 196 220 159 196 220 159 196 220 159 196 220 159 196 220 159 196 220 159 196 220 159 196 220 159 196 220 159 196 220 159 196 220 159 196 220 159 196 220 159 196 220 159 196 220 159 196 220 159 196 220 159 196 220 159 196 220 159 196 220 159 196 220 159 196 220 159 196 220 159 196 220 159 196 220 159 196 220 159 196 220 159 196 220 159 196 220 159 196 220 159 196 220 159 196 220 159 196 220 159 196 220 159 196 220 159 196 220 159 196 220 0 0 255 162 198 222 162 198 222 162 198 222 162 198 222 162 198 222 162 198 222 162 198 222 162 198 222 162 198 222 162 198 222 162 198 222 162 198 222 162 198 222 162 198 222 162 198 222 162 198 222 162 198 222 162 198 222 162 198 222 162 198 222 162 198 222 162 198 222 162 198 222 162 198 222 162 198 222 162 198 222 162 198 222 162 198 222 162 198 222 162 198 222 162 198 222 162 198 222 162 198 222 162 198 222 162 198 222 162 198 222 162 198 222 162 198 222 162 198 222 162 198 222 162 198 222 162 198 222 162 198 222 162 198 222 162 198 222 162 198 222 162 198 222 162 198 222 162 198 222 162 198 222 162 198 222 162 198 222 162 198 222 162 198 222 162 198 222 162 198 222 162 198 222 162 198 222 162 198 222 162 198 222 162 198 222 162 198 222 162 198 222 162 198 222 162 198 222 162 198 222 162 198 222 162 198 222 162 198 222 162 198 222 162 198 222 162 198 222 162 198 222 162 198 222 162 198 222 162 198 222 162 198 222 162 198 222 162 198 222 162 198 222 162 198 222 162 198 222 162 198 222 162 198 222 162 198 222 162 198 222 162 198 222 162 198 222 162 198 222 162 198 222 162 198 222 162 198 222 162 198 222 162 198 222 162 198 222 162 198 222 162 198 222 162 198 222 162 198 222 162 198 222 162 198 222 162 198 222 162 198 222 162 198 222 162 198 222 162 198 222 162 198 222 162 198 222 162 198 222 162 198 222 162 198 222 162 198 222 162 198 222 162 198 222 162 198 222 162 198 222 162 198 222 162 198 222 162 198 222 162 198 222 162 198 222 162 198 222 162 198 222 162 198 222 162 198 222 162 198 222 162 198 222 162 198 222 162 198 222 162 198 222 162 198 222 162 198 222 162 198 222 162 198 222 162 198 222 162 198 222 162 198 222 162 198 222 162 198 222 162 198 222 162 198 222 162 198 222 
159 196 220 159 196 220 159 196 220 159 196 220 159 196 220 159 196 220 159 196 220 159 196 220 159 196 220 159 196 220 159 196 220 159 196 220 159 196 220 159 196 220 159 196 220 159 196 220 159 196 220 159 196 220 159 196 220 159 196 220 159 196 220 159 196 220 159 196 220 159 196 220 159 196 220 159 196 220 159 196 220 159 196 220 159 196 220 159 196 220 159 196 220 159 196 220 159 196 220 159 196 220 159 196 220 159 196 220 159 196 220 159 196 220 159 196 220 159 196 220 159 196 220 159 196 220 159 196 220 159 196 220 159 196 220 159 196 220 159 196 220 159 196 220 159 196 220 159 196 220 159 196 220 159 196 220 159 196 220 159 196 220 159 196 220 159 196 220 159 196 220 159 196 220 159 196 220 159 196 220 159 196 220 159 196 220 159 196 220 159 196 220 159 196 220 159 196 220 159 196 220 159 196 220 159 196 220 159 196 220 159 196 220 159 196 220 159 196 220 159 196 220 159 196 220 159 196 220 159 196 220 159 196 220 159 196 220 159 196 220 159 196 220 159 196 220 159 196 220 159 196 220 159 196 220 159 196 220 159 196 220 159 196 220 159 196 220 159 196 220 159 196 220 159 196 220 159 196 220 159 196 220 159 196 220 159 196 220 159 196 220 159 196 220 159 196 220 159 196 220 159 196 220 159 196 220 159 196 220 159 196 220 159 196 220 159 196 220 159 196 220 159 196 220 159 196 220 159 196 220 159 196 220 159 196 220 159 196 220 0 0 255 162 198 222 162 198 222 162 198 222 162 198 222 162 198 222 162 198 222 162 198 222 162 198 222 162 198 222 162 198 222 162 198 222 162 198 222 162 198 222 162 198 222 162 198 222 162 198 222 162 198 222 162 198 222 162 198 222 162 198 222 162 198 222 162 198 222 162 198 222 162 198 222 162 198 222 162 198 222 162 198 222 162 198 222 162 198 222 162 198 222 162 198 222 162 198 222 162 198 222 162 198 222 162 198 222 162 198 222 162 198 222 162 198 222 162 198 222 162 198 222 162 198 222 162 198 222 162 198 222 162 198 222 162 198 222 162 198 222 162 198 222 162 198 222 162 198 222 162 198 222 162 198 222 162 198 222 162 198 222 162 198 222 162 198 222 162 198 222 162 198 222 162 198 222 162 198 222 162 198 222 162 198 222 162 198 222 162 198 222 162 198 222 162 198 222 162 198 222 162 198 222 162 198 222 162 198 222 162 198 222 162 198 222 162 198 222 162 198 222 162 198 222 162 198 222 162 198 222 162 198 222 162 198 222 162 198 222 162 198 222 162 198 222 162 198 222 162 198 222 162 198 222 162 198 222 162 198 222 162 198 222 162 198 222 162 198 222 162 198 222 162 198 222 162 198 222 162 198 222 162 198 222 162 198 222 162 198 222 162 198 222 162 198 222 162 198 222 162 198 222 162 198 222 162 198 222 162 198 222 162 198 222 162 198 222 162 198 222 162 198 222 162 198 222 162 198 222 162 198 222 162 198 222 162 198 222 162 198 222 162 198 222 162 198 222 162 198 222 162 198 222 162 198 222 162 198 222 162 198 222 162 198 222 162 198 222 162 198 222 162 198 222 162 198 222 162 198 222 162 198 222 162 198 222 162 198 222 162 198 222 162 198 222 162 198 222 162 198 222 162 198 222 162 198 222 162 198 222 162 198 222 162 198 222 162 198 222 162 198 222 162 198 222 162 198 222 
159 196 220 159 196 220 159 196 220 159 196 220 159 196 220 159 196 220 159 196 220 159 196 220 159 196 220 159 196 220 159 196 220 159 196 220 159 196 220 159 196 220 159 196 220 159 196 220 159 196 220 159 196 220 159 196 220 159 196 220 159 196 220 159 196 220 159 196 220 159 196 220 159 196 220 159 196 220 159 196 220 159 196 220 159 196 220 159 196 220 159 196 220 159 196 220 159 196 220 159 196 220 159 196 220 159 196 220 159 196 220 159 196 220 159 196 220 159 196 220 159 196 220 159 196 220 159 196 220 159 196 220 159 196 220 159 196 220 159 196 220 159 196 220 159 196 220 159 196 220 159 196 220 159 196 220 159 196 220 159 196 220 159 196 220 159 196 220 159 196 220 159 196 220 159 196 220 159 196 220 159 196 220 159 196 220 159 196 220 159 196 220 159 196 220 159 196 220 159 196 220 159 196 220 159 196 220 159 196 220 159 196 220 159 196 220 159 196 220 159 196 220 159 196 220 159 196 220 159 196 220 159 196 220 159 196 220 159 196 220 159 196 220 159 196 220 159 196 220 159 196 220 159 196 220 159 196 220 159 196 220 159 196 220 159 196 220 159 196 220 159 196 220 159 196 220 159 196 220 159 196 220 159 196 220 159 196 220 159 196 220 159 196 220 159 196 220 159 196 220 159 196 220 159 196 220 159 196 220 159 196 220 159 196 220 159 196 220 159 196 220 159 196 220 159 196 220 159 196 220 159 196 220 159 196 220 159 196 220 0 0 255 162 198 222 162 198 222 162 198 222 162 198 222 162 198 222 162 198 222 162 198 222 162 198 222 162 198 222 162 198 222 162 198 222 162 198 222 162 198 222 162 198 222 162 198 222 162 198 222 162 198 222 162 198 222 162 198 222 162 198 222 162 198 222 162 198 222 162 198 222 162 198 222 162 198 222 162 198 222 162 198 222 162 198 222 162 198 222 162 198 222 162 198 222 162 198 222 162 198 222 162 198 222 162 198 222 162 198 222 162 198 222 162 198 222 162 198 222 162 198 222 162 198 222 162 198 222 162 198 222 162 198 222 162 198 222 162 198 222 162 198 222 162 198 222 162 198 222 162 198 222 162 198 222 162 198 222 162 198 222 162 198 222 162 198 222 162 198 222 162 198 222 162 198 222 162 198 222 162 198 222 162 198 222 162 198 222 162 198 222 162 198 222 162 198 222 162 198 222 162 198 222 162 198 222 162 198 222 162 198 222 162 198 222 162 198 222 162 198 222 162 198 222 162 198 222 162 198 222 162 198 222 162 198 222 162 198 222 162 198 222 162 198 222 162 198 222 162 198 222 162 198 222 162 198 222 162 198 222 162 198 222 162 198 222 162 198 222 162 198 222 162 198 222 162 198 222 162 198 222 162 198 222 162 198 222 162 198 222 162 198 222 162 198 222 162 198 222 162 198 222 162 198 222 162 198 222 162 198 222 162 198 222 162 198 222 162 198 222 162 198 222 162 198 222 162 198 222 162 198 222 162 198 222 162 198 222 162 198 222 162 198 222 162 198 222 162 198 222 162 198 222 162 198 222 162 198 222 162 198 222 162 198 222 162 198 222 162 198 222 162 198 222 162 198 222 162 198 222 162 198 222 162 198 222 162 198 222 162 198 222 162 198 222 162 198 222 162 198 222 162 198 222 162 198 222 162 198 222 162 198 222 162 198 222 162 198 222 162 198 222 162 198 222 162 198 222 
159 196 220 159 196 220 159 196 220 159 196 220 159 196 220 159 196 220 159 196 220 159 196 220 159 196 220 159 196 220 159 196 220 159 196 220 159 196 220 159 196 220 159 196 220 159 196 220 159 196 220 159 196 220 159 196 220 159 196 220 159 196 220 159 196 220 159 196 220 159 196 220 159 196 220 159 196 220 159 196 220 159 196 220 159 196 220 159 196 220 159 196 220 159 196 220 159 196 220 159 196 220 159 196 220 159 196 220 159 196 220 159 196 220 159 196 220 159 196 220 159 196 220 159 196 220 159 196 220 159 196 220 159 196 220 159 196 220 159 196 220 159 196 220 159 196 220 159 196 220 159 196 220 159 196 220 159 196 220 159 196 220 159 196 220 159 196 220 159 196 220 159 196 220 159 196 220 159 196 220 159 196 220 159 196 220 159 196 220 159 196 220 159 196 220 159 196 220 159 196 220 159 196 220 159 196 220 159 196 220 159 196 220 159 196 220 159 196 220 159 196 220 159 196 220 159 196 220 159 196 220 159 196 220 159 196 220 159 196 220 159 196 220 159 196 220 159 196 220 159 196 220 159 196 220 159 196 220 159 196 220 159 196 220 159 196 220 159 196 220 159 196 220 159 196 220 159 196 220 159 196 220 159 196 220 159 196 220 159 196 220 159 196 220 159 196 220 159 196 220 159 196 220 159 196 220 159 196 220 159 196 220 159 196 220 159 196 220 159 196 220 159 196 220 159 196 220 159 196 220 159 196 220 159 196 220 159 196 220 0 0 255 162 198 222 162 198 222 162 198 222 162 198 222 162 198 222 162 198 222 162 198 222 162 198 222 162 198 222 162 198 222 162 198 222 162 198 222 162 198 222 162 198 222 162 198 222 162 198 222 162 198 222 162 198 222 162 198 222 162 198 222 162 198 222 162 198 222 162 198 222 162 198 222 162 198 222 162 198 222 162 198 222 162 198 222 162 198 222 162 198 222 162 198 222 162 198 222 162 198 222 162 198 222 162 198 222 162 198 222 162 198 222 162 198 222 162 198 222 162 198 222 162 198 222 162 198 222 162 198 222 162 198 222 162 198 222 162 198 222 162 198 222 162 198 222 162 198 222 162 198 222 162 198 222 162 198 222 162 198 222 162 198 222 162 198 222 162 198 222 162 198 222 162 198 222 162 198 222 162 198 222 162 198 222 162 198 222 162 198 222 162 198 222 162 198 222 162 198 222 162 198 222 162 198 222 162 198 222 162 198 222 162 198 222 162 198 222 162 198 222 162 198 222 162 198 222 162 198 222 162 198 222 162 198 222 162 198 222 162 198 222 162 198 222 162 198 222 162 198 222 162 198 222 162 198 222 162 198 222 162 198 222 162 198 222 162 198 222 162 198 222 162 198 222 162 198 222 162 198 222 162 198 222 162 198 222 162 198 222 162 198 222 162 198 222 162 198 222 162 198 222 162 198 222 162 198 222 162 198 222 162 198 222 162 198 222 162 198 222 162 198 222 162 198 222 162 198 222 162 198 222 162 198 222 162 198 222 162 198 222 162 198 222 162 198 222 162 198 222 162 198 222 162 198 222 162 198 222 162 198 222 162 198 222 162 198 222 162 198 222 162 198 222 162 198 222 162 198 222 162 198 222 162 198 222 162 198 222 162 198 222 162 198 222 162 198 222 162 198 222 162 198 222 162 198 222 162 198 222 162 198 222 162 198 222 162 198 222 162 198 222 162 198 222 162 198 222 
159 196 220 159 196 220 159 196 220 159 196 220 159 196 220 159 196 220 159 196 220 159 196 220 159 196 220 159 196 220 159 196 220 159 196 220 159 196 220 159 196 220 159 196 220 159 196 220 159 196 220 159 196 220 159 196 220 159 196 220 159 196 220 159 196 220 159 196 220 159 196 220 159 196 220 159 196 220 159 196 220 159 196 220 159 196 220 159 196 220 159 196 220 159 196 220 159 196 220 159 196 220 159 196 220 159 196 220 159 196 220 159 196 220 159 196 220 159 196 220 159 196 220 159 196 220 159 196 220 159 196 220 159 196 220 159 196 220 159 196 220 159 196 220 159 196 220 159 196 220 159 196 220 159 196 220 159 196 220 159 196 220 159 196 220 159 196 220 159 196 220 159 196 220 159 196 220 159 196 220 159 196 220 159 196 220 159 196 220 159 196 220 159 196 220 159 196 220 159 196 220 159 196 220 159 196 220 159 196 220 159 196 220 159 196 220 159 196 220 159 196 220 159 196 220 159 196 220 159 196 220 159 196 220 159 196 220 159 196 220 159 196 220 159 196 220 159 196 220 159 196 220 159 196 220 159 196 220 159 196 220 159 196 220 159 196 220 159 196 220 159 196 220 159 196 220 159 196 220 159 196 220 159 196 220 159 196 220 159 196 220 159 196 220 159 196 220 159 196 220 159 196 220 159 196 220 159 196 220 159 196 220 159 196 220 159 196 220 159 196 220 159 196 220 159 196 220 159 196 220 159 196 220 159 196 220 159 196 220 0 0 255 162 198 222 162 198 222 162 198 222 162 198 222 162 198 222 162 198 222 162 198 222 162 198 222 162 198 222 162 198 222 162 198 222 162 198 222 162 198 222 162 198 222 162 198 222 162 198 222 162 198 222 162 198 222 162 198 222 162 198 222 162 198 222 162 198 222 162 198 222 162 198 222 162 198 222 162 198 222 162 198 222 162 198 222 162 198 222 162 198 222 162 198 222 162 198 222 162 198 222 162 198 222 162 198 222 162 198 222 162 198 222 162 198 222 162 198 222 162 198 222 162 198 222 162 198 222 162 198 222 162 198 222 162 198 222 162 198 222 162 198 222 162 198 222 162 198 222 162 198 222 162 198 222 162 198 222 162 198 222 162 198 222 162 198 222 162 198 222 162 198 222 162 198 222 162 198 222 162 198 222 162 198 222 162 198 222 162 198 222 162 198 222 162 198 222 162 198 222 162 198 222 162 198 222 162 198 222 162 198 222 162 198 222 162 198 222 162 198 222 162 198 222 162 198 222 162 198 222 162 198 222 162 198 222 162 198 222 162 198 222 162 198 222 162 198 222 162 198 222 162 198 222 162 198 222 162 198 222 162 198 222 162 198 222 162 198 222 162 198 222 162 198 222 162 198 222 162 198 222 162 198 222 162 198 222 162 198 222 162 198 222 162 198 222 162 198 222 162 198 222 162 198 222 162 198 222 162 198 222 162 198 222 162 198 222 162 198 222 162 198 222 162 198 222 162 198 222 162 198 222 162 198 222 162 198 222 162 198 222 162 198 222 162 198 222 162 198 222 162 198 222 162 198 222 162 198 222 162 198 222 162 198 222 162 198 222 162 198 222 162 198 222 162 198 222 162 198 222 162 198 222 162 198 222 162 198 222 162 198 222 162 198 222 162 198 222 162 198 222 162 198 222 162 198 222 162 198 222 162 198 222 162 198 222 162 198 222 162 198 222 162 198 222 162 198 222 
159 196 220 159 196 220 159 196 220 159 196 220 159 196 220 159 196 220 159 196 220 159 196 220 159 196 220 159 196 220 159 196 220 159 196 220 159 196 220 159 196 220 159 196 220 159 196 220 159 196 220 159 196 220 159 196 220 159 196 220 159 196 220 159 196 220 159 196 220 159 196 220 159 196 220 159 196 220 159 196 220 159 196 220 159 196 220 159 196 220 159 196 220 159 196 220 159 196 220 159 196 220 159 196 220 159 196 220 159 196 220 159 196 220 159 196 220 159 196 220 159 196 220 159 196 220 159 196 220 159 196 220 159 196 220 159 196 220 159 196 220 159 196 220 159 196 220 159 196 220 159 196 220 159 196 220 159 196 220 159 196 220 159 196 220 159 196 220 159 196 220 159 196 220 159 196 220 159 196 220 159 196 220 159 196 220 159 196 220 159 196 220 159 196 220 159 196 220 159 196 220 159 196 220 159 196 220 159 196 220 159 196 220 159 196 220 159 196 220 159 196 220 159 196 220 159 196 220 159 196 220 159 196 220 159 196 220 159 196 220 159 196 220 159 196 220 159 196 220 159 196 220 159 196 220 159 196 220 159 196 220 159 196 220 159 196 220 159 196 220 159 196 220 159 196 220 159 196 220 159 196 220 159 196 220 159 196 220 159 196 220 159 196 220 159 196 220 159 196 220 159 196 220 159 196 220 159 196 220 159 196 220 159 196 220 159 196 220 159 196 220 159 196 220 159 196 220 159 196 220 159 196 220 159 196 220 159 196 220 0 0 255 162 198 222 162 198 222 162 198 222 162 198 222 162 198 222 162 198 222 162 198 222 162 198 222 162 198 222 162 198 222 162 198 222 162 198 222 162 198 222 162 198 222 162 198 222 162 198 222 162 198 222 162 198 222 162 198 222 162 198 222 162 198 222 162 198 222 162 198 222 162 198 222 162 198 222 162 198 222 162 198 222 162 198 222 162 198 222 162 198 222 162 198 222 162 198 222 162 198 222 162 198 222 162 198 222 162 198 222 162 198 222 162 198 222 162 198 222 162 198 222 162 198 222 162 198 222 162 198 222 162 198 222 162 198 222 162 198 222 162 198 222 162 198 222 162 198 222 162 198 222 162 198 222 162 198 222 162 198 222 162 198 222 162 198 222 162 198 222 162 198 222 162 198 222 162 198 222 162 198 222 162 198 222 162 198 222 162 198 222 162 198 222 162 198 222 162 198 222 162 198 222 162 198 222 162 198 222 162 198 222 162 198 222 162 198 222 162 198 222 162 198 222 162 198 222 162 198 222 162 198 222 162 198 222 162 198 222 162 198 222 162 198 222 162 198 222 162 198 222 162 198 222 162 198 222 162 198 222 162 198 222 162 198 222 162 198 222 162 198 222 162 198 222 162 198 222 162 198 222 162 198 222 162 198 222 162 198 222 162 198 222 162 198 222 162 198 222 162 198 222 162 198 222 162 198 222 162 198 222 162 198 222 162 198 222 162 198 222 162 198 222 162 198 222 162 198 222 162 198 222 162 198 222 162 198 222 162 198 222 162 198 222 162 198 222 162 198 222 162 198 222 162 198 222 162 198 222 162 198 222 162 198 222 162 198 222 162 198 222 162 198 222 162 198 222 162 198 222 162 198 222 162 198 222 162 198 222 162 198 222 162 198 222 162 198 222 162 198 222 162 198 222 162 198 222 162 198 222 162 198 222 162 198 222 162 198 222 162 198 222 162 198 222 162 198 222 
159 196 220 159 196 220 159 196 220 159 196 220 159 196 220 159 196 220 159 196 220 159 196 220 159 196 220 159 196 220 159 196 220 159 196 220 159 196 220 159 196 220 159 196 220 159 196 220 159 196 220 159 196 220 159 196 220 159 196 220 159 196 220 159 196 220 159 196 220 159 196 220 159 196 220 159 196 220 159 196 220 159 196 220 159 196 220 159 196 220 159 196 220 159 196 220 159 196 220 159 196 220 159 196 220 159 196 220 159 196 220 159 196 220 159 196 220 159 196 220 159 196 220 159 196 220 159 196 220 159 196 220 159 196 220 159 196 220 159 196 220 159 196 220 159 196 220 159 196 220 159 196 220 159 196 220 159 196 220 159 196 220 159 196 220 159 196 220 159 196 220 159 196 220 159 196 220 159 196 220 159 196 220 159 196 220 159 196 220 159 196 220 159 196 220 159 196 220 159 196 220 159 196 220 159 196 220 159 196 220 159 196 220 159 196 220 159 196 220 159 196 220 159 196 220 159 196 220 159 196 220 159 196 220 159 196 220 159 196 220 159 196 220 159 196 220 159 196 220 159 196 220 159 196 220 159 196 220 159 196 220 159 196 220 159 196 220 159 196 220 159 196 220 159 196 220 159 196 220 159 196 220 159 196 220 159 196 220 159 196 220 159 196 220 159 196 220 159 196 220 159 196 220 159 196 220 159 196 220 159 196 220 159 196 220 159 196 220 159 196 220 159 196 220 159 196 220 159 196 220 159 196 220 159 196 220 159 196 220 0 0 255 162 198 222 162 198 222 162 198 222 162 198 222 162 198 222 162 198 222 162 198 222 162 198 222 162 198 222 162 198 222 162 198 222 162 198 222 162 198 222 162 198 222 162 198 222 162 198 222 162 198 222 162 198 222 162 198 222 162 198 222 162 198 222 162 198 222 162 198 222 162 198 222 162 198 222 162 198 222 162 198 222 162 198 222 162 198 222 162 198 222 162 198 222 162 198 222 162 198 222 162 198 222 162 198 222 162 198 222 162 198 222 162 198 222 162 198 222 162 198 222 162 198 222 162 198 222 162 198 222 162 198 222 162 198 222 162 198 222 162 198 222 162 198 222 162 198 222 162 198 222 162 198 222 162 198 222 162 198 222 162 198 222 162 198 222 162 198 222 162 198 222 162 198 222 162 198 222 162 198 222 162 198 222 162 198 222 162 198 222 162 198 222 162 198 222 162 198 222 162 198 222 162 198 222 162 198 222 162 198 222 162 198 222 162 198 222 162 198 222 162 198 222 162 198 222 162 198 222 162 198 222 162 198 222 162 198 222 162 198 222 162 198 222 162 198 222 162 198 222 162 198 222 162 198 222 162 198 222 162 198 222 162 198 222 162 198 222 162 198 222 162 198 222 162 198 222 162 198 222 162 198 222 162 198 222 162 198 222 162 198 222 162 198 222 162 198 222 162 198 222 162 198 222 162 198 222 162 198 222 162 198 222 162 198 222 162 198 222 162 198 222 162 198 222 162 198 222 162 198 222 162 198 222 162 198 222 162 198 222 162 198 222 162 198 222 162 198 222 162 198 222 162 198 222 162 198 222 162 198 222 162 198 222 162 198 222 162 198 222 162 198 222 162 198 222 162 198 222 162 198 222 162 198 222 162 198 222 162 198 222 162 198 222 162 198 222 162 198 222 162 198 222 162 198 222 162 198 222 162 198 222 162 198 222 162 198 222 162 198 222 162 198 222 162 198 222 
159 196 220 159 196 220 159 196 220 159 196 220 159 196 220 159 196 220 159 196 220 159 196 220 159 196 220 159 196 220 159 196 220 159 196 220 159 196 220 159 196 220 159 196 220 159 196 220 159 196 220 159 196 220 159 196 220 159 196 220 159 196 220 159 196 220 159 196 220 159 196 220 159 196 220 159 196 220 159 196 220 159 196 220 159 196 220 159 196 220 159 196 220 159 196 220 159 196 220 159 196 220 159 196 220 159 196 220 159 196 220 159 196 220 159 196 220 159 196 220 159 196 220 159 196 220 159 196 220 159 196 220 159 196 220 159 196 220 159 196 220 159 196 220 159 196 220 159 196 220 159 196 220 159 196 220 159 196 220 159 196 220 159 196 220 159 196 220 159 196 220 159 196 220 159 196 220 159 196 220 159 196 220 159 196 220 159 196 220 159 196 220 159 196 220 159 196 220 159 196 220 159 196 220 159 196 220 159 196 220 159 196 220 159 196 220 159 196 220 159 196 220 159 196 220 159 196 220 159 196 220 159 196 220 159 196 220 159 196 220 159 196 220 159 196 220 159 196 220 159 196 220 159 196 220 159 196 220 159 196 220 159 196 220 159 196 220 159 196 220 159 196 220 159 196 220 0 0 255 0 0 255 159 196 220 159 196 220 159 196 220 159 196 220 159 196 220 159 196 220 159 196 220 159 196 220 159 196 220 159 196 220 159 196 220 159 196 220 159 196 220 159 196 220 159 196 220 159 196 220 159 196 220 159 196 220 159 196 220 0 0 255 162 198 222 162 198 222 162 198 222 162 198 222 162 198 222 162 198 222 162 198 222 162 198 222 162 198 222 162 198 222 162 198 222 162 198 222 162 198 222 162 198 222 162 198 222 162 198 222 162 198 222 162 198 222 162 198 222 162 198 222 162 198 222 162 198 222 162 198 222 162 198 222 162 198 222 162 198 222 162 198 222 162 198 222 162 198 222 162 198 222 162 198 222 162 198 222 162 198 222 162 198 222 162 198 222 162 198 222 162 198 222 162 198 222 162 198 222 162 198 222 162 198 222 162 198 222 162 198 222 162 198 222 162 198 222 162 198 222 162 198 222 162 198 222 162 198 222 162 198 222 162 198 222 162 198 222 162 198 222 162 198 222 162 198 222 162 198 222 162 198 222 162 198 222 162 198 222 162 198 222 162 198 222 162 198 222 162 198 222 162 198 222 162 198 222 162 198 222 162 198 222 162 198 222 162 198 222 162 198 222 162 198 222 162 198 222 162 198 222 162 198 222 162 198 222 162 198 222 162 198 222 162 198 222 162 198 222 162 198 222 162 198 222 162 198 222 162 198 222 162 198 222 162 198 222 162 198 222 162 198 222 162 198 222 162 198 222 162 198 222 162 198 222 162 198 222 162 198 222 162 198 222 162 198 222 162 198 222 162 198 222 162 198 222 162 198 222 162 198 222 162 198 222 162 198 222 162 198 222 162 198 222 162 198 222 162 198 222 162 198 222 162 198 222 162 198 222 162 198 222 162 198 222 162 198 222 162 198 222 162 198 222 162 198 222 162 198 222 162 198 222 162 198 222 162 198 222 162 198 222 162 198 222 162 198 222 162 198 222 162 198 222 162 198 222 162 198 222 162 198 222 162 198 222 162 198 222 162 198 222 162 198 222 162 198 222 162 198 222 162 198 222 162 198 222 162 198 222 162 198 222 162 198 222 162 198 222 162 198 222 162 198 222 162 198 222 
159 196 220 159 196 220 159 196 220 159 196 220 159 196 220 159 196 220 159 196 220 159 196 220 159 196 220 159 196 220 159 196 220 159 196 220 159 196 220 159 196 220 159 196 220 159 196 220 159 196 220 159 196 220 159 196 220 159 196 220 159 196 220 159 196 220 159 196 220 159 196 220 159 196 220 159 196 220 159 196 220 159 196 220 159 196 220 159 196 220 159 196 220 159 196 220 159 196 220 159 196 220 159 196 220 159 196 220 159 196 220 159 196 220 159 196 220 159 196 220 159 196 220 159 196 220 159 196 220 159 196 220 159 196 220 159 196 220 159 196 220 159 196 220 159 196 220 159 196 220 159 196 220 159 196 220 159 196 220 159 196 220 159 196 220 159 196 220 159 196 220 159 196 220 159 196 220 159 196 220 159 196 220 159 196 220 159 196 220 159 196 220 159 196 220 159 196 220 159 196 220 159 196 220 159 196 220 159 196 220 159 196 220 159 196 220 159 196 220 159 196 220 159 196 220 159 196 220 159 196 220 159 196 220 159 196 220 159 196 220 159 196 220 159 196 220 159 196 220 159 196 220 159 196 220 159 196 220 159 196 220 159 196 220 0 0 255 0 0 255 0 0 255 0 0 255 147 98 96 0 0 255 0 0 255 0 0 255 0 0 255 0 0 255 0 0 255 159 196 220 159 196 220 159 196 220 159 196 220 159 196 220 159 196 220 159 196 220 159 196 220 159 196 220 159 196 220 159 196 220 159 196 220 159 196 220 159 196 220 0 0 255 0 0 255 162 198 222 162 198 222 162 198 222 162 198 222 162 198 222 162 198 222 162 198 222 162 198 222 162 198 222 162 198 222 162 198 222 162 198 222 162 198 222 162 198 222 162 198 222 162 198 222 162 198 222 162 198 222 162 198 222 162 198 222 162 198 222 162 198 222 162 198 222 162 198 222 162 198 222 162 198 222 162 198 222 162 198 222 162 198 222 162 198 222 162 198 222 162 198 222 162 198 222 162 198 222 162 198 222 162 198 222 162 198 222 162 198 222 162 198 222 162 198 222 162 198 222 162 198 222 162 198 222 162 198 222 162 198 222 162 198 222 162 198 222 162 198 222 162 198 222 162 198 222 162 198 222 162 198 222 162 198 222 162 198 222 162 198 222 162 198 222 162 198 222 162 198 222 162 198 222 162 198 222 162 198 222 162 198 222 162 198 222 162 198 222 162 198 222 162 198 222 162 198 222 162 198 222 162 198 222 162 198 222 162 198 222 162 198 222 162 198 222 162 198 222 162 198 222 162 198 222 162 198 222 162 198 222 162 198 222 162 198 222 162 198 222 162 198 222 162 198 222 162 198 222 162 198 222 162 198 222 162 198 222 162 198 222 162 198 222 162 198 222 162 198 222 162 198 222 162 198 222 162 198 222 162 198 222 162 198 222 162 198 222 162 198 222 162 198 222 162 198 222 162 198 222 162 198 222 162 198 222 162 198 222 162 198 222 162 198 222 162 198 222 162 198 222 162 198 222 162 198 222 162 198 222 162 198 222 162 198 222 162 198 222 162 198 222 162 198 222 162 198 222 162 198 222 162 198 222 162 198 222 162 198 222 162 198 222 162 198 222 162 198 222 162 198 222 162 198 222 162 198 222 162 198 222 162 198 222 162 198 222 162 198 222 162 198 222 162 198 222 162 198 222 162 198 222 162 198 222 162 198 222 162 198 222 162 198 222 162 198 222 162 198 222 
159 196 220 159 196 220 159 196 220 159 196 220 159 196 220 159 196 220 159 196 220 159 196 220 159 196 220 159 196 220 159 196 220 159 196 220 159 196 220 159 196 220 159 196 220 159 196 220 159 196 220 159 196 220 159 196 220 159 196 220 159 196 220 159 196 220 159 196 220 159 196 220 159 196 220 159 196 220 159 196 220 159 196 220 159 196 220 159 196 220 159 196 220 159 196 220 159 196 220 159 196 220 159 196 220 159 196 220 159 196 220 159 196 220 159 196 220 159 196 220 159 196 220 159 196 220 159 196 220 159 196 220 159 196 220 159 196 220 159 196 220 159 196 220 159 196 220 159 196 220 159 196 220 159 196 220 159 196 220 159 196 220 159 196 220 159 196 220 159 196 220 159 196 220 159 196 220 159 196 220 159 196 220 159 196 220 159 196 220 159 196 220 159 196 220 159 196 220 159 196 220 159 196 220 159 196 220 159 196 220 159 196 220 159 196 220 159 196 220 159 196 220 159 196 220 159 196 220 159 196 220 159 196 220 159 196 220 159 196 220 159 196 220 159 196 220 159 196 220 159 196 220 159 196 220 159 196 220 0 0 255 0 0 255 147 98 96 147 98 96 147 98 96 147 98 96 147 98 96 147 98 96 147 98 96 147 98 96 147 98 96 147 98 96 0 0 255 0 0 255 0 0 255 0 0 255 0 0 255 0 0 255 159 196 220 159 196 220 159 196 220 159 196 220 159 196 220 159 196 220 159 196 220 159 196 220 159 196 220 159 196 220 0 0 255 162 198 222 162 198 222 162 198 222 162 198 222 162 198 222 162 198 222 162 198 222 162 198 222 162 198 222 162 198 222 162 198 222 162 198 222 162 198 222 162 198 222 162 198 222 162 198 222 162 198 222 162 198 222 162 198 222 162 198 222 162 198 222 162 198 222 162 198 222 162 198 222 162 198 222 162 198 222 162 198 222 162 198 222 162 198 222 162 198 222 162 198 222 162 198 222 162 198 222 162 198 222 162 198 222 162 198 222 162 198 222 162 198 222 162 198 222 162 198 222 162 198 222 162 198 222 162 198 222 162 198 222 162 198 222 162 198 222 162 198 222 162 198 222 162 198 222 162 198 222 162 198 222 162 198 222 162 198 222 162 198 222 162 198 222 162 198 222 162 198 222 162 198 222 162 198 222 162 198 222 162 198 222 162 198 222 162 198 222 162 198 222 162 198 222 162 198 222 162 198 222 162 198 222 162 198 222 162 198 222 162 198 222 162 198 222 162 198 222 162 198 222 162 198 222 162 198 222 162 198 222 162 198 222 162 198 222 162 198 222 162 198 222 162 198 222 162 198 222 162 198 222 162 198 222 162 198 222 162 198 222 162 198 222 162 198 222 162 198 222 162 198 222 162 198 222 162 198 222 162 198 222 162 198 222 162 198 222 162 198 222 162 198 222 162 198 222 162 198 222 162 198 222 162 198 222 162 198 222 162 198 222 162 198 222 162 198 222 162 198 222 162 198 222 162 198 222 162 198 222 162 198 222 162 198 222 162 198 222 162 198 222 162 198 222 162 198 222 162 198 222 162 198 222 162 198 222 162 198 222 162 198 222 162 198 222 162 198 222 162 198 222 162 198 222 162 198 222 162 198 222 162 198 222 162 198 222 162 198 222 162 198 222 162 198 222 162 198 222 162 198 222 162 198 222 162 198 222 162 198 222 162 198 222 162 198 222 162 198 222 162 198 222 
159 196 220 159 196 220 159 196 220 159 196 220 159 196 220 159 196 220 159 196 220 159 196 220 159 196 220 159 196 220 159 196 220 159 196 220 159 196 220 159 196 220 159 196 220 159 196 220 159 196 220 159 196 220 159 196 220 159 196 220 159 196 220 159 196 220 159 196 220 159 196 220 159 196 220 159 196 220 159 196 220 159 196 220 159 196 220 159 196 220 159 196 220 159 196 220 159 196 220 159 196 220 159 196 220 159 196 220 159 196 220 159 196 220 159 196 220 159 196 220 159 196 220 159 196 220 159 196 220 159 196 220 159 196 220 159 196 220 159 196 220 159 196 220 159 196 220 159 196 220 159 196 220 159 196 220 159 196 220 159 196 220 159 196 220 159 196 220 159 196 220 159 196 220 159 196 220 159 196 220 159 196 220 159 196 220 159 196 220 159 196 220 159 196 220 159 196 220 159 196 220 159 196 220 159 196 220 159 196 220 159 196 220 159 196 220 159 196 220 159 196 220 159 196 220 159 196 220 159 196 220 159 196 220 159 196 220 159 196 220 159 196 220 159 196 220 0 0 255 0 0 255 0 0 255 0 0 255 147 98 96 147 98 96 147 98 96 147 98 96 147 98 96 147 98 96 147 98 96 147 98 96 147 98 96 147 98 96 147 98 96 147 98 96 147 98 96 147 98 96 147 98 96 147 98 96 147 98 96 0 0 255 0 0 255 0 0 255 0 0 255 0 0 255 0 0 255 159 196 220 159 196 220 159 196 220 159 196 220 159 196 220 0 0 255 162 198 222 162 198 222 162 198 222 162 198 222 162 198 222 162 198 222 162 198 222 162 198 222 162 198 222 162 198 222 162 198 222 162 198 222 162 198 222 162 198 222 162 198 222 162 198 222 162 198 222 162 198 222 162 198 222 162 198 222 162 198 222 162 198 222 162 198 222 162 198 222 162 198 222 162 198 222 162 198 222 162 198 222 162 198 222 162 198 222 162 198 222 162 198 222 162 198 222 162 198 222 162 198 222 162 198 222 162 198 222 162 198 222 162 198 222 162 198 222 162 198 222 162 198 222 162 198 222 162 198 222 162 198 222 162 198 222 162 198 222 162 198 222 162 198 222 162 198 222 162 198 222 162 198 222 162 198 222 162 198 222 162 198 222 162 198 222 162 198 222 162 198 222 162 198 222 162 198 222 162 198 222 162 198 222 162 198 222 162 198 222 162 198 222 162 198 222 162 198 222 162 198 222 162 198 222 162 198 222 162 198 222 162 198 222 162 198 222 162 198 222 162 198 222 162 198 222 162 198 222 162 198 222 162 198 222 162 198 222 162 198 222 162 198 222 162 198 222 162 198 222 162 198 222 162 198 222 162 198 222 162 198 222 162 198 222 162 198 222 162 198 222 162 198 222 162 198 222 162 198 222 162 198 222 162 198 222 162 198 222 162 198 222 162 198 222 162 198 222 162 198 222 162 198 222 162 198 222 162 198 222 162 198 222 162 198 222 162 198 222 162 198 222 162 198 222 162 198 222 162 198 222 162 198 222 162 198 222 162 198 222 162 198 222 162 198 222 162 198 222 162 198 222 162 198 222 162 198 222 162 198 222 162 198 222 162 198 222 162 198 222 162 198 222 162 198 222 162 198 222 162 198 222 162 198 222 162 198 222 162 198 222 162 198 222 162 198 222 162 198 222 162 198 222 162 198 222 162 198 222 162 198 222 162 198 222 162 198 222 162 198 222 
159 196 220 159 196 220 159 196 220 159 196 220 159 196 220 159 196 220 159 196 220 159 196 220 159 196 220 159 196 220 159 196 220 159 196 220 159 196 220 159 196 220 159 196 220 159 196 220 159 196 220 159 196 220 159 196 220 159 196 220 159 196 220 159 196 220 159 196 220 159 196 220 159 196 220 159 196 220 159 196 220 159 196 220 159 196 220 159 196 220 159 196 220 159 196 220 159 196 220 159 196 220 159 196 220 159 196 220 159 196 220 159 196 220 159 196 220 159 196 220 159 196 220 159 196 220 159 196 220 159 196 220 159 196 220 159 196 220 159 196 220 159 196 220 159 196 220 159 196 220 159 196 220 159 196 220 159 196 220 159 196 220 159 196 220 159 196 220 159 196 220 159 196 220 159 196 220 159 196 220 159 196 220 159 196 220 159 196 220 159 196 220 159 196 220 159 196 220 159 196 220 159 196 220 159 196 220 159 196 220 159 196 220 159 196 220 159 196 220 159 196 220 159 196 220 159 196 220 159 196 220 159 196 220 159 196 220 159 196 220 0 0 255 0 0 255 147 98 96 147 98 96 147 98 96 147 98 96 147 98 96 147 98 96 147 98 96 147 98 96 147 98 96 147 98 96 147 98 96 147 98 96 147 98 96 147 98 96 147 98 96 147 98 96 147 98 96 147 98 96 147 98 96 147 98 96 147 98 96 147 98 96 147 98 96 147 98 96 147 98 96 147 98 96 0 0 255 0 0 255 0 0 255 0 0 255 0 0 255 0 0 255 0 0 255 162 198 222 162 198 222 162 198 222 162 198 222 162 198 222 162 198 222 162 198 222 162 198 222 162 198 222 162 198 222 162 198 222 162 198 222 162 198 222 162 198 222 162 198 222 162 198 222 162 198 222 162 198 222 162 198 222 162 198 222 162 198 222 162 198 222 162 198 222 162 198 222 162 198 222 162 198 222 162 198 222 162 198 222 162 198 222 162 198 222 162 198 222 162 198 222 162 198 222 162 198 222 162 198 222 162 198 222 162 198 222 162 198 222 162 198 222 162 198 222 162 198 222 162 198 222 162 198 222 162 198 222 162 198 222 162 198 222 162 198 222 162 198 222 162 198 222 162 198 222 162 198 222 162 198 222 162 198 222 162 198 222 162 198 222 162 198 222 162 198 222 162 198 222 162 198 222 162 198 222 162 198 222 162 198 222 162 198 222 162 198 222 162 198 222 162 198 222 162 198 222 162 198 222 162 198 222 162 198 222 162 198 222 162 198 222 162 198 222 162 198 222 162 198 222 162 198 222 162 198 222 162 198 222 162 198 222 162 198 222 162 198 222 162 198 222 162 198 222 162 198 222 162 198 222 162 198 222 162 198 222 162 198 222 162 198 222 162 198 222 162 198 222 162 198 222 162 198 222 162 198 222 162 198 222 162 198 222 162 198 222 162 198 222 162 198 222 162 198 222 162 198 222 162 198 222 162 198 222 162 198 222 162 198 222 162 198 222 162 198 222 162 198 222 162 198 222 162 198 222 162 198 222 162 198 222 162 198 222 162 198 222 162 198 222 162 198 222 162 198 222 162 198 222 162 198 222 162 198 222 162 198 222 162 198 222 162 198 222 162 198 222 162 198 222 162 198 222 162 198 222 162 198 222 162 198 222 162 198 222 162 198 222 162 198 222 162 198 222 162 198 222 162 198 222 162 198 222 162 198 222 162 198 222 162 198 222 162 198 222 162 198 222 
159 196 220 159 196 220 159 196 220 159 196 220 159 196 220 159 196 220 159 196 220 159 196 220 159 196 220 159 196 220 159 196 220 159 196 220 159 196 220 159 196 220 159 196 220 159 196 220 159 196 220 159 196 220 159 196 220 159 196 220 159 196 220 159 196 220 159 196 220 159 196 220 159 196 220 159 196 220 159 196 220 159 196 220 159 196 220 159 196 220 159 196 220 159 196 220 159 196 220 159 196 220 159 196 220 159 196 220 159 196 220 159 196 220 159 196 220 159 196 220 159 196 220 159 196 220 159 196 220 159 196 220 159 196 220 159 196 220 159 196 220 159 196 220 159 196 220 159 196 220 159 196 220 159 196 220 159 196 220 159 196 220 159 196 220 159 196 220 159 196 220 159 196 220 159 196 220 159 196 220 159 196 220 159 196 220 159 196 220 159 196 220 159 196 220 159 196 220 159 196 220 159 196 220 159 196 220 159 196 220 159 196 220 159 196 220 159 196 220 159 196 220 159 196 220 159 196 220 159 196 220 0 0 255 0 0 255 0 0 255 147 98 96 147 98 96 147 98 96 147 98 96 147 98 96 147 98 96 147 98 96 147 98 96 147 98 96 147 98 96 147 98 96 147 98 96 147 98 96 147 98 96 147 98 96 147 98 96 147 98 96 147 98 96 147 98 96 147 98 96 147 98 96 147 98 96 147 98 96 147 98 96 147 98 96 147 98 96 147 98 96 147 98 96 147 98 96 147 98 96 147 98 96 147 98 96 0 0 255 159 196 220 0 0 255 162 198 222 162 198 222 162 198 222 162 198 222 162 198 222 162 198 222 162 198 222 162 198 222 162 198 222 162 198 222 162 198 222 162 198 222 162 198 222 162 198 222 162 198 222 162 198 222 162 198 222 162 198 222 162 198 222 162 198 222 162 198 222 162 198 222 162 198 222 162 198 222 162 198 222 162 198 222 162 198 222 162 198 222 162 198 222 162 198 222 162 198 222 162 198 222 162 198 222 162 198 222 162 198 222 162 198 222 162 198 222 162 198 222 162 198 222 162 198 222 162 198 222 162 198 222 162 198 222 162 198 222 162 198 222 162 198 222 162 198 222 162 198 222 162 198 222 162 198 222 162 198 222 162 198 222 162 198 222 162 198 222 162 198 222 162 198 222 162 198 222 162 198 222 162 198 222 162 198 222 162 198 222 162 198 222 162 198 222 162 198 222 162 198 222 162 198 222 162 198 222 162 198 222 162 198 222 162 198 222 162 198 222 162 198 222 162 198 222 162 198 222 162 198 222 162 198 222 162 198 222 162 198 222 162 198 222 162 198 222 162 198 222 162 198 222 162 198 222 162 198 222 162 198 222 162 198 222 162 198 222 162 198 222 162 198 222 162 198 222 162 198 222 162 198 222 162 198 222 162 198 222 162 198 222 162 198 222 162 198 222 162 198 222 162 198 222 162 198 222 162 198 222 162 198 222 162 198 222 162 198 222 162 198 222 162 198 222 162 198 222 162 198 222 162 198 222 162 198 222 162 198 222 162 198 222 162 198 222 162 198 222 162 198 222 162 198 222 162 198 222 162 198 222 162 198 222 162 198 222 162 198 222 162 198 222 162 198 222 162 198 222 162 198 222 162 198 222 162 198 222 162 198 222 162 198 222 162 198 222 162 198 222 162 198 222 162 198 222 162 198 222 162 198 222 162 198 222 162 198 222 162 198 222 162 198 222 162 198 222 162 198 222 
159 196 220 159 196 220 159 196 220 159 196 220 159 196 220 159 196 220 159 196 220 159 196 220 159 196 220 159 196 220 159 196 220 159 196 220 159 196 220 159 196 220 159 196 220 159 196 220 159 196 220 159 196 220 159 196 220 159 196 220 159 196 220 159 196 220 159 196 220 159 196 220 159 196 220 159 196 220 159 196 220 159 196 220 159 196 220 159 196 220 159 196 220 159 196 220 159 196 220 159 196 220 159 196 220 159 196 220 159 196 220 159 196 220 159 196 220 159 196 220 159 196 220 159 196 220 159 196 220 159 196 220 159 196 220 159 196 220 159 196 220 159 196 220 159 196 220 159 196 220 159 196 220 159 196 220 159 196 220 159 196 220 159 196 220 159 196 220 159 196 220 159 196 220 159 196 220 159 196 220 159 196 220 159 196 220 159 196 220 159 196 220 159 196 220 159 196 220 159 196 220 159 196 220 159 196 220 159 196 220 159 196 220 159 196 220 159 196 220 159 196 220 0 0 255 0 0 255 0 0 255 147 98 96 147 98 96 147 98 96 147 98 96 147 98 96 147 98 96 147 98 96 147 98 96 147 98 96 147 98 96 147 98 96 147 98 96 147 98 96 147 98 96 147 98 96 147 98 96 147 98 96 147 98 96 147 98 96 147 98 96 147 98 96 147 98 96 147 98 96 147 98 96 147 98 96 147 98 96 147 98 96 147 98 96 147 98 96 147 98 96 147 98 96 147 98 96 147 98 96 147 98 96 147 98 96 0 0 255 159 196 220 0 0 255 162 198 222 162 198 222 162 198 222 162 198 222 162 198 222 162 198 222 162 198 222 162 198 222 162 198 222 162 198 222 162 198 222 162 198 222 162 198 222 162 198 222 162 198 222 162 198 222 162 198 222 162 198 222 162 198 222 162 198 222 162 198 222 162 198 222 162 198 222 162 198 222 162 198 222 162 198 222 162 198 222 162 198 222 162 198 222 162 198 222 162 198 222 162 198 222 162 198 222 162 198 222 162 198 222 162 198 222 162 198 222 162 198 222 162 198 222 162 198 222 162 198 222 162 198 222 162 198 222 162 198 222 162 198 222 162 198 222 162 198 222 162 198 222 162 198 222 162 198 222 162 198 222 162 198 222 162 198 222 162 198 222 162 198 222 162 198 222 162 198 222 162 198 222 162 198 222 162 198 222 162 198 222 162 198 222 162 198 222 162 198 222 162 198 222 162 198 222 162 198 222 162 198 222 162 198 222 162 198 222 162 198 222 162 198 222 162 198 222 162 198 222 162 198 222 162 198 222 162 198 222 162 198 222 162 198 222 162 198 222 162 198 222 162 198 222 162 198 222 162 198 222 162 198 222 162 198 222 162 198 222 162 198 222 162 198 222 162 198 222 162 198 222 162 198 222 162 198 222 162 198 222 162 198 222 162 198 222 162 198 222 162 198 222 162 198 222 162 198 222 162 198 222 162 198 222 162 198 222 162 198 222 162 198 222 162 198 222 162 198 222 162 198 222 162 198 222 162 198 222 162 198 222 162 198 222 162 198 222 162 198 222 162 198 222 162 198 222 162 198 222 162 198 222 162 198 222 162 198 222 162 198 222 162 198 222 162 198 222 162 198 222 162 198 222 162 198 222 162 198 222 162 198 222 162 198 222 162 198 222 162 198 222 162 198 222 162 198 222 162 198 222 162 198 222 162 198 222 162 198 222 162 198 222 162 198 222 162 198 222 162 198 222 
159 196 220 159 196 220 159 196 220 159 196 220 159 196 220 159 196 220 159 196 220 159 196 220 159 196 220 159 196 220 159 196 220 159 196 220 159 196 220 159 196 220 159 196 220 159 196 220 159 196 220 159 196 220 159 196 220 159 196 220 159 196 220 159 196 220 159 196 220 159 196 220 159 196 220 159 196 220 159 196 220 159 196 220 159 196 220 159 196 220 159 196 220 159 196 220 159 196 220 159 196 220 159 196 220 159 196 220 159 196 220 159 196 220 159 196 220 159 196 220 159 196 220 159 196 220 159 196 220 159 196 220 159 196 220 159 196 220 159 196 220 159 196 220 159 196 220 159 196 220 159 196 220 159 196 220 159 196 220 159 196 220 159 196 220 159 196 220 159 196 220 159 196 220 159 196 220 159 196 220 159 196 220 159 196 220 159 196 220 159 196 220 159 196 220 159 196 220 159 196 220 159 196 220 159 196 220 159 196 220 159 196 220 0 0 255 0 0 255 0 0 255 147 98 96 147 98 96 147 98 96 147 98 96 147 98 96 147 98 96 147 98 96 147 98 96 147 98 96 147 98 96 147 98 96 147 98 96 147 98 96 147 98 96 147 98 96 147 98 96 147 98 96 147 98 96 147 98 96 147 98 96 147 98 96 147 98 96 147 98 96 147 98 96 147 98 96 147 98 96 147 98 96 147 98 96 147 98 96 147 98 96 147 98 96 147 98 96 147 98 96 147 98 96 147 98 96 147 98 96 147 98 96 147 98 96 0 0 255 159 196 220 0 0 255 162 198 222 162 198 222 162 198 222 162 198 222 162 198 222 162 198 222 162 198 222 162 198 222 162 198 222 162 198 222 162 198 222 162 198 222 162 198 222 162 198 222 162 198 222 162 198 222 162 198 222 162 198 222 162 198 222 162 198 222 162 198 222 162 198 222 162 198 222 162 198 222 162 198 222 162 198 222 162 198 222 162 198 222 162 198 222 162 198 222 162 198 222 162 198 222 162 198 222 162 198 222 162 198 222 162 198 222 162 198 222 162 198 222 162 198 222 162 198 222 162 198 222 162 198 222 162 198 222 162 198 222 162 198 222 162 198 222 162 198 222 162 198 222 162 198 222 162 198 222 162 198 222 162 198 222 162 198 222 162 198 222 162 198 222 162 198 222 162 198 222 162 198 222 162 198 222 162 198 222 162 198 222 162 198 222 162 198 222 162 198 222 162 198 222 162 198 222 162 198 222 162 198 222 162 198 222 162 198 222 162 198 222 162 198 222 162 198 222 162 198 222 162 198 222 162 198 222 162 198 222 162 198 222 162 198 222 162 198 222 162 198 222 162 198 222 162 198 222 162 198 222 162 198 222 162 198 222 162 198 222 162 198 222 162 198 222 162 198 222 162 198 222 162 198 222 162 198 222 162 198 222 162 198 222 162 198 222 162 198 222 162 198 222 162 198 222 162 198 222 162 198 222 162 198 222 162 198 222 162 198 222 162 198 222 162 198 222 162 198 222 162 198 222 162 198 222 162 198 222 162 198 222 162 198 222 162 198 222 162 198 222 162 198 222 162 198 222 162 198 222 162 198 222 162 198 222 162 198 222 162 198 222 162 198 222 162 198 222 162 198 222 162 198 222 162 198 222 162 198 222 162 198 222 162 198 222 162 198 222 162 198 222 162 198 222 162 198 222 162 198 222 162 198 222 162 198 222 162 198 222 162 198 222 162 198 222 162 198 222 162 198 222 
159 196 220 159 196 220 159 196 220 159 196 220 159 196 220 159 196 220 159 196 220 159 196 220 159 196 220 159 196 220 159 196 220 159 196 220 159 196 220 159 196 220 159 196 220 159 196 220 159 196 220 159 196 220 159 196 220 159 196 220 159 196 220 159 196 220 159 196 220 159 196 220 159 196 220 159 196 220 159 196 220 159 196 220 159 196 220 159 196 220 159 196 220 159 196 220 159 196 220 159 196 220 159 196 220 159 196 220 159 196 220 159 196 220 159 196 220 159 196 220 159 196 220 159 196 220 159 196 220 159 196 220 159 196 220 159 196 220 159 196 220 159 196 220 159 196 220 159 196 220 159 196 220 159 196 220 159 196 220 159 196 220 159 196 220 159 196 220 159 196 220 159 196 220 159 196 220 159 196 220 159 196 220 159 196 220 159 196 220 159 196 220 159 196 220 159 196 220 159 196 220 159 196 220 0 0 255 0 0 255 0 0 255 147 98 96 147 98 96 147 98 96 147 98 96 147 98 96 147 98 96 147 98 96 147 98 96 147 98 96 147 98 96 147 98 96 147 98 96 147 98 96 147 98 96 147 98 96 147 98 96 147 98 96 147 98 96 147 98 96 147 98 96 147 98 96 147 98 96 147 98 96 147 98 96 147 98 96 147 98 96 147 98 96 147 98 96 147 98 96 147 98 96 147 98 96 147 98 96 147 98 96 147 98 96 147 98 96 147 98 96 147 98 96 147 98 96 147 98 96 147 98 96 147 98 96 0 0 255 159 196 220 0 0 255 162 198 222 162 198 222 162 198 222 162 198 222 162 198 222 162 198 222 162 198 222 162 198 222 162 198 222 162 198 222 162 198 222 162 198 222 162 198 222 162 198 222 162 198 222 162 198 222 162 198 222 162 198 222 162 198 222 162 198 222 162 198 222 162 198 222 162 198 222 162 198 222 162 198 222 162 198 222 162 198 222 162 198 222 162 198 222 162 198 222 162 198 222 162 198 222 162 198 222 162 198 222 162 198 222 162 198 222 162 198 222 162 198 222 162 198 222 162 198 222 162 198 222 162 198 222 162 198 222 162 198 222 162 198 222 162 198 222 162 198 222 162 198 222 162 198 222 162 198 222 162 198 222 162 198 222 162 198 222 162 198 222 162 198 222 162 198 222 162 198 222 162 198 222 162 198 222 162 198 222 162 198 222 162 198 222 162 198 222 162 198 222 162 198 222 162 198 222 162 198 222 162 198 222 162 198 222 162 198 222 162 198 222 162 198 222 162 198 222 162 198 222 162 198 222 162 198 222 162 198 222 162 198 222 162 198 222 162 198 222 162 198 222 162 198 222 162 198 222 162 198 222 162 198 222 162 198 222 162 198 222 162 198 222 162 198 222 162 198 222 162 198 222 162 198 222 162 198 222 162 198 222 162 198 222 162 198 222 162 198 222 162 198 222 162 198 222 162 198 222 162 198 222 162 198 222 162 198 222 162 198 222 162 198 222 162 198 222 162 198 222 162 198 222 162 198 222 162 198 222 162 198 222 162 198 222 162 198 222 162 198 222 162 198 222 162 198 222 162 198 222 162 198 222 162 198 222 162 198 222 162 198 222 162 198 222 162 198 222 162 198 222 162 198 222 162 198 222 162 198 222 162 198 222 162 198 222 162 198 222 162 198 222 162 198 222 162 198 222 162 198 222 162 198 222 162 198 222 162 198 222 162 198 222 162 198 222 162 198 222 162 198 222 
159 196 220 159 196 220 159 196 220 159 196 220 159 196 220 159 196 220 159 196 220 159 196 220 159 196 220 159 196 220 159 196 220 159 196 220 159 196 220 159 196 220 159 196 220 159 196 220 159 196 220 159 196 220 159 196 220 159 196 220 159 196 220 159 196 220 159 196 220 159 196 220 159 196 220 159 196 220 159 196 220 159 196 220 159 196 220 159 196 220 159 196 220 159 196 220 159 196 220 159 196 220 159 196 220 159 196 220 159 196 220 159 196 220 159 196 220 159 196 220 159 196 220 159 196 220 159 196 220 159 196 220 159 196 220 159 196 220 159 196 220 159 196 220 159 196 220 159 196 220 159 196 220 159 196 220 159 196 220 159 196 220 159 196 220 159 196 220 159 196 220 159 196 220 159 196 220 159 196 220 159 196 220 159 196 220 159 196 220 159 196 220 159 196 220 159 196 220 0 0 255 0 0 255 147 98 96 147 98 96 147 98 96 147 98 96 147 98 96 147 98 96 147 98 96 147 98 96 147 98 96 147 98 96 147 98 96 147 98 96 147 98 96 147 98 96 147 98 96 147 98 96 147 98 96 147 98 96 147 98 96 147 98 96 147 98 96 147 98 96 147 98 96 147 98 96 147 98 96 147 98 96 147 98 96 147 98 96 147 98 96 147 98 96 147 98 96 147 98 96 147 98 96 147 98 96 147 98 96 147 98 96 147 98 96 147 98 96 147 98 96 147 98 96 147 98 96 147 98 96 147 98 96 0 0 255 0 0 255 159 196 220 0 0 255 162 198 222 162 198 222 162 198 222 162 198 222 162 198 222 162 198 222 162 198 222 162 198 222 162 198 222 162 198 222 162 198 222 162 198 222 162 198 222 162 198 222 162 198 222 162 198 222 162 198 222 162 198 222 162 198 222 162 198 222 162 198 222 162 198 222 162 198 222 162 198 222 162 198 222 162 198 222 162 198 222 162 198 222 162 198 222 162 198 222 162 198 222 162 198 222 162 198 222 162 198 222 162 198 222 162 198 222 162 198 222 162 198 222 162 198 222 162 198 222 162 198 222 162 198 222 162 198 222 162 198 222 162 198 222 162 198 222 162 198 222 162 198 222 162 198 222 162 198 222 162 198 222 162 198 222 162 198 222 162 198 222 162 198 222 162 198 222 162 198 222 162 198 222 162 198 222 162 198 222 162 198 222 162 198 222 162 198 222 162 198 222 162 198 222 162 198 222 162 198 222 162 198 222 162 198 222 162 198 222 162 198 222 162 198 222 162 198 222 162 198 222 162 198 222 162 198 222 162 198 222 162 198 222 162 198 222 162 198 222 162 198 222 162 198 222 162 198 222 162 198 222 162 198 222 162 198 222 162 198 222 162 198 222 162 198 222 162 198 222 162 198 222 162 198 222 162 198 222 162 198 222 162 198 222 162 198 222 162 198 222 162 198 222 162 198 222 162 198 222 162 198 222 162 198 222 162 198 222 162 198 222 162 198 222 162 198 222 162 198 222 162 198 222 162 198 222 162 198 222 162 198 222 162 198 222 162 198 222 162 198 222 162 198 222 162 198 222 162 198 222 162 198 222 162 198 222 162 198 222 162 198 222 162 198 222 162 198 222 162 198 222 162 198 222 162 198 222 162 198 222 162 198 222 162 198 222 162 198 222 162 198 222 162 198 222 162 198 222 162 198 222 162 198 222 162 198 222 162 198 222 162 198 222 162 198 222 162 198 222 162 198 222 
159 196 220 159 196 220 159 196 220 159 196 220 159 196 220 159 196 220 159 196 220 159 196 220 159 196 220 159 196 220 159 196 220 159 196 220 159 196 220 159 196 220 159 196 220 159 196 220 159 196 220 159 196 220 159 196 220 159 196 220 159 196 220 159 196 220 159 196 220 159 196 220 159 196 220 159 196 220 159 196 220 159 196 220 159 196 220 159 196 220 159 196 220 159 196 220 159 196 220 159 196 220 159 196 220 159 196 220 159 196 220 159 196 220 159 196 220 159 196 220 159 196 220 159 196 220 159 196 220 159 196 220 159 196 220 159 196 220 159 196 220 159 196 220 159 196 220 159 196 220 159 196 220 159 196 220 159 196 220 159 196 220 159 196 220 159 196 220 159 196 220 159 196 220 159 196 220 159 196 220 159 196 220 159 196 220 159 196 220 159 196 220 159 196 220 0 0 255 147 98 96 147 98 96 147 98 96 147 98 96 147 98 96 147 98 96 147 98 96 147 98 96 147 98 96 147 98 96 147 98 96 147 98 96 147 98 96 147 98 96 147 98 96 147 98 96 147 98 96 147 98 96 147 98 96 147 98 96 147 98 96 147 98 96 147 98 96 147 98 96 147 98 96 147 98 96 147 98 96 147 98 96 147 98 96 147 98 96 147 98 96 147 98 96 147 98 96 147 98 96 147 98 96 147 98 96 147 98 96 147 98 96 147 98 96 147 98 96 147 98 96 147 98 96 147 98 96 147 98 96 147 98 96 147 98 96 0 0 255 159 196 220 0 0 255 162 198 222 162 198 222 162 198 222 162 198 222 162 198 222 162 198 222 162 198 222 162 198 222 162 198 222 162 198 222 162 198 222 162 198 222 162 198 222 162 198 222 162 198 222 162 198 222 162 198 222 162 198 222 162 198 222 162 198 222 162 198 222 162 198 222 162 198 222 162 198 222 162 198 222 162 198 222 162 198 222 162 198 222 162 198 222 162 198 222 162 198 222 162 198 222 162 198 222 162 198 222 162 198 222 162 198 222 162 198 222 162 198 222 162 198 222 162 198 222 162 198 222 162 198 222 162 198 222 162 198 222 162 198 222 162 198 222 162 198 222 162 198 222 162 198 222 162 198 222 162 198 222 162 198 222 162 198 222 162 198 222 162 198 222 162 198 222 162 198 222 162 198 222 162 198 222 162 198 222 162 198 222 162 198 222 162 198 222 162 198 222 162 198 222 162 198 222 162 198 222 162 198 222 162 198 222 162 198 222 162 198 222 162 198 222 162 198 222 162 198 222 162 198 222 162 198 222 162 198 222 162 198 222 162 198 222 162 198 222 162 198 222 162 198 222 162 198 222 162 198 222 162 198 222 162 198 222 162 198 222 162 198 222 162 198 222 162 198 222 162 198 222 162 198 222 162 198 222 162 198 222 162 198 222 162 198 222 162 198 222 162 198 222 162 198 222 162 198 222 162 198 222 162 198 222 162 198 222 162 198 222 162 198 222 162 198 222 162 198 222 162 198 222 162 198 222 162 198 222 162 198 222 162 198 222 162 198 222 162 198 222 162 198 222 162 198 222 162 198 222 162 198 222 162 198 222 162 198 222 162 198 222 162 198 222 162 198 222 162 198 222 162 198 222 162 198 222 162 198 222 162 198 222 162 198 222 162 198 222 162 198 222 162 198 222 162 198 222 162 198 222 162 198 222 162 198 222 162 198 222 162 198 222 162 198 222 162 198 222 162 198 222 
159 196 220 159 196 220 159 196 220 159 196 220 159 196 220 159 196 220 159 196 220 159 196 220 159 196 220 159 196 220 159 196 220 159 196 220 159 196 220 159 196 220 159 196 220 159 196 220 159 196 220 159 196 220 159 196 220 159 196 220 159 196 220 159 196 220 159 196 220 159 196 220 159 196 220 159 196 220 159 196 220 159 196 220 159 196 220 159 196 220 159 196 220 159 196 220 159 196 220 159 196 220 159 196 220 159 196 220 159 196 220 159 196 220 159 196 220 159 196 220 159 196 220 159 196 220 159 196 220 159 196 220 159 196 220 159 196 220 159 196 220 159 196 220 159 196 220 159 196 220 159 196 220 159 196 220 159 196 220 159 196 220 159 196 220 159 196 220 159 196 220 159 196 220 159 196 220 159 196 220 159 196 220 159 196 220 159 196 220 159 196 220 159 196 220 0 0 255 147 98 96 147 98 96 147 98 96 147 98 96 147 98 96 147 98 96 147 98 96 147 98 96 147 98 96 147 98 96 147 98 96 147 98 96 147 98 96 147 98 96 147 98 96 147 98 96 147 98 96 147 98 96 147 98 96 147 98 96 147 98 96 147 98 96 147 98 96 147 98 96 147 98 96 147 98 96 147 98 96 147 98 96 147 98 96 147 98 96 147 98 96 147 98 96 147 98 96 147 98 96 147 98 96 147 98 96 147 98 96 147 98 96 147 98 96 147 98 96 147 98 96 147 98 96 147 98 96 147 98 96 147 98 96 0 0 255 159 196 220 159 196 220 0 0 255 162 198 222 162 198 222 162 198 222 162 198 222 162 198 222 162 198 222 162 198 222 162 198 222 162 198 222 162 198 222 162 198 222 162 198 222 162 198 222 162 198 222 162 198 222 162 198 222 162 198 222 162 198 222 162 198 222 162 198 222 162 198 222 162 198 222 162 198 222 162 198 222 162 198 222 162 198 222 162 198 222 162 198 222 162 198 222 162 198 222 162 198 222 162 198 222 162 198 222 162 198 222 162 198 222 162 198 222 162 198 222 162 198 222 162 198 222 162 198 222 162 198 222 162 198 222 162 198 222 162 198 222 162 198 222 162 198 222 162 198 222 162 198 222 162 198 222 162 198 222 162 198 222 162 198 222 162 198 222 162 198 222 162 198 222 162 198 222 162 198 222 162 198 222 162 198 222 162 198 222 162 198 222 162 198 222 162 198 222 162 198 222 162 198 222 162 198 222 162 198 222 162 198 222 162 198 222 162 198 222 162 198 222 162 198 222 162 198 222 162 198 222 162 198 222 162 198 222 162 198 222 162 198 222 162 198 222 162 198 222 162 198 222 162 198 222 162 198 222 162 198 222 162 198 222 162 198 222 162 198 222 162 198 222 162 198 222 162 198 222 162 198 222 162 198 222 162 198 222 162 198 222 162 198 222 162 198 222 162 198 222 162 198 222 162 198 222 162 198 222 162 198 222 162 198 222 162 198 222 162 198 222 162 198 222 162 198 222 162 198 222 162 198 222 162 198 222 162 198 222 162 198 222 162 198 222 162 198 222 162 198 222 162 198 222 162 198 222 162 198 222 162 198 222 162 198 222 162 198 222 162 198 222 162 198 222 162 198 222 162 198 222 162 198 222 162 198 222 162 198 222 162 198 222 162 198 222 162 198 222 162 198 222 162 198 222 162 198 222 162 198 222 162 198 222 162 198 222 162 198 222 162 198 222 162 198 222 162 198 222 162 198 222 
159 196 220 159 196 220 159 196 220 159 196 220 159 196 220 159 196 220 159 196 220 159 196 220 159 196 220 159 196 220 159 196 220 159 196 220 159 196 220 159 196 220 159 196 220 159 196 220 159 196 220 159 196 220 159 196 220 159 196 220 159 196 220 159 196 220 159 196 220 159 196 220 159 196 220 159 196 220 159 196 220 159 196 220 159 196 220 159 196 220 159 196 220 159 196 220 159 196 220 159 196 220 159 196 220 159 196 220 159 196 220 159 196 220 159 196 220 159 196 220 159 196 220 159 196 220 159 196 220 159 196 220 159 196 220 159 196 220 159 196 220 159 196 220 159 196 220 159 196 220 159 196 220 159 196 220 159 196 220 159 196 220 159 196 220 159 196 220 159 196 220 159 196 220 159 196 220 159 196 220 159 196 220 159 196 220 159 196 220 159 196 220 159 196 220 0 0 255 147 98 96 147 98 96 147 98 96 147 98 96 147 98 96 147 98 96 147 98 96 147 98 96 147 98 96 147 98 96 147 98 96 147 98 96 147 98 96 147 98 96 147 98 96 147 98 96 147 98 96 147 98 96 147 98 96 147 98 96 147 98 96 147 98 96 147 98 96 147 98 96 147 98 96 147 98 96 147 98 96 147 98 96 147 98 96 147 98 96 147 98 96 147 98 96 147 98 96 147 98 96 147 98 96 147 98 96 147 98 96 147 98 96 147 98 96 147 98 96 147 98 96 147 98 96 147 98 96 147 98 96 147 98 96 0 0 255 159 196 220 159 196 220 0 0 255 162 198 222 162 198 222 162 198 222 162 198 222 162 198 222 162 198 222 162 198 222 162 198 222 162 198 222 162 198 222 162 198 222 162 198 222 162 198 222 162 198 222 162 198 222 162 198 222 162 198 222 162 198 222 162 198 222 162 198 222 162 198 222 162 198 222 162 198 222 162 198 222 162 198 222 162 198 222 162 198 222 162 198 222 162 198 222 162 198 222 162 198 222 162 198 222 162 198 222 162 198 222 162 198 222 162 198 222 162 198 222 162 198 222 162 198 222 162 198 222 162 198 222 162 198 222 162 198 222 162 198 222 162 198 222 162 198 222 162 198 222 162 198 222 162 198 222 162 198 222 162 198 222 162 198 222 162 198 222 162 198 222 162 198 222 162 198 222 162 198 222 162 198 222 162 198 222 162 198 222 162 198 222 162 198 222 162 198 222 162 198 222 162 198 222 162 198 222 162 198 222 162 198 222 162 198 222 162 198 222 162 198 222 162 198 222 162 198 222 162 198 222 162 198 222 162 198 222 162 198 222 162 198 222 162 198 222 162 198 222 162 198 222 162 198 222 162 198 222 162 198 222 162 198 222 162 198 222 162 198 222 162 198 222 162 198 222 162 198 222 162 198 222 162 198 222 162 198 222 162 198 222 162 198 222 162 198 222 162 198 222 162 198 222 162 198 222 162 198 222 162 198 222 162 198 222 162 198 222 162 198 222 162 198 222 162 198 222 162 198 222 162 198 222 162 198 222 162 198 222 162 198 222 162 198 222 162 198 222 162 198 222 162 198 222 162 198 222 162 198 222 162 198 222 162 198 222 162 198 222 162 198 222 162 198 222 162 198 222 162 198 222 162 198 222 162 198 222 162 198 222 162 198 222 162 198 222 162 198 222 162 198 222 162 198 222 162 198 222 162 198 222 162 198 222 162 198 222 162 198 222 162 198 222 162 198 222 162 198 222 162 198 222 
159 196 220 159 196 220 159 196 220 159 196 220 159 196 220 159 196 220 159 196 220 159 196 220 159 196 220 159 196 220 159 196 220 159 196 220 159 196 220 159 196 220 159 196 220 159 196 220 159 196 220 159 196 220 159 196 220 159 196 220 159 196 220 159 196 220 159 196 220 159 196 220 159 196 220 159 196 220 159 196 220 159 196 220 159 196 220 159 196 220 159 196 220 159 196 220 159 196 220 159 196 220 159 196 220 159 196 220 159 196 220 159 196 220 159 196 220 159 196 220 159 196 220 159 196 220 159 196 220 159 196 220 159 196 220 159 196 220 159 196 220 159 196 220 159 196 220 159 196 220 159 196 220 159 196 220 159 196 220 159 196 220 159 196 220 159 196 220 159 196 220 159 196 220 159 196 220 159 196 220 159 196 220 159 196 220 159 196 220 159 196 220 159 196 220 0 0 255 147 98 96 147 98 96 147 98 96 147 98 96 147 98 96 147 98 96 147 98 96 147 98 96 147 98 96 147 98 96 147 98 96 147 98 96 147 98 96 147 98 96 147 98 96 147 98 96 147 98 96 147 98 96 147 98 96 147 98 96 147 98 96 147 98 96 147 98 96 147 98 96 147 98 96 147 98 96 147 98 96 147 98 96 147 98 96 147 98 96 147 98 96 147 98 96 147 98 96 147 98 96 147 98 96 147 98 96 147 98 96 147 98 96 147 98 96 147 98 96 147 98 96 147 98 96 147 98 96 147 98 96 147 98 96 0 0 255 159 196 220 159 196 220 0 0 255 162 198 222 162 198 222 162 198 222 162 198 222 162 198 222 162 198 222 162 198 222 162 198 222 162 198 222 162 198 222 162 198 222 162 198 222 162 198 222 162 198 222 162 198 222 162 198 222 162 198 222 162 198 222 162 198 222 162 198 222 162 198 222 162 198 222 162 198 222 162 198 222 162 198 222 162 198 222 162 198 222 162 198 222 162 198 222 162 198 222 162 198 222 162 198 222 162 198 222 162 198 222 162 198 222 162 198 222 162 198 222 162 198 222 162 198 222 162 198 222 162 198 222 162 198 222 162 198 222 162 198 222 162 198 222 162 198 222 162 198 222 162 198 222 162 198 222 162 198 222 162 198 222 162 198 222 162 198 222 162 198 222 162 198 222 162 198 222 162 198 222 162 198 222 162 198 222 162 198 222 162 198 222 162 198 222 162 198 222 162 198 222 162 198 222 162 198 222 162 198 222 162 198 222 162 198 222 162 198 222 162 198 222 162 198 222 162 198 222 162 198 222 162 198 222 162 198 222 162 198 222 162 198 222 162 198 222 162 198 222 162 198 222 162 198 222 162 198 222 162 198 222 162 198 222 162 198 222 162 198 222 162 198 222 162 198 222 162 198 222 162 198 222 162 198 222 162 198 222 162 198 222 162 198 222 162 198 222 162 198 222 162 198 222 162 198 222 162 198 222 162 198 222 162 198 222 162 198 222 162 198 222 162 198 222 162 198 222 162 198 222 162 198 222 162 198 222 162 198 222 162 198 222 162 198 222 162 198 222 162 198 222 162 198 222 162 198 222 162 198 222 162 198 222 162 198 222 162 198 222 162 198 222 162 198 222 162 198 222 162 198 222 162 198 222 162 198 222 162 198 222 162 198 222 162 198 222 162 198 222 162 198 222 162 198 222 162 198 222 162 198 222 162 198 222 162 198 222 162 198 222 162 198 222 162 198 222 162 198 222 162 198 222 
159 196 220 159 196 220 159 196 220 159 196 220 159 196 220 159 196 220 159 196 220 159 196 220 159 196 220 159 196 220 159 196 220 159 196 220 159 196 220 159 196 220 159 196 220 159 196 220 159 196 220 159 196 220 159 196 220 159 196 220 159 196 220 159 196 220 159 196 220 159 196 220 159 196 220 159 196 220 159 196 220 159 196 220 159 196 220 159 196 220 159 196 220 159 196 220 159 196 220 159 196 220 159 196 220 159 196 220 159 196 220 159 196 220 159 196 220 159 196 220 159 196 220 159 196 220 159 196 220 159 196 220 159 196 220 159 196 220 159 196 220 159 196 220 159 196 220 159 196 220 159 196 220 159 196 220 159 196 220 159 196 220 159 196 220 159 196 220 159 196 220 159 196 220 159 196 220 159 196 220 159 196 220 159 196 220 159 196 220 159 196 220 159 196 220 0 0 255 147 98 96 147 98 96 147 98 96 147 98 96 147 98 96 147 98 96 147 98 96 147 98 96 147 98 96 147 98 96 147 98 96 147 98 96 147 98 96 147 98 96 147 98 96 147 98 96 147 98 96 147 98 96 147 98 96 147 98 96 147 98 96 147 98 96 147 98 96 147 98 96 147 98 96 147 98 96 147 98 96 147 98 96 147 98 96 147 98 96 147 98 96 147 98 96 147 98 96 147 98 96 147 98 96 147 98 96 147 98 96 147 98 96 147 98 96 147 98 96 147 98 96 147 98 96 147 98 96 147 98 96 147 98 96 0 0 255 159 196 220 159 196 220 0 0 255 162 198 222 162 198 222 162 198 222 162 198 222 162 198 222 162 198 222 162 198 222 162 198 222 162 198 222 162 198 222 162 198 222 162 198 222 162 198 222 162 198 222 162 198 222 162 198 222 162 198 222 162 198 222 162 198 222 162 198 222 162 198 222 162 198 222 162 198 222 162 198 222 162 198 222 162 198 222 162 198 222 162 198 222 162 198 222 162 198 222 162 198 222 162 198 222 162 198 222 162 198 222 162 198 222 162 198 222 162 198 222 162 198 222 162 198 222 162 198 222 162 198 222 162 198 222 162 198 222 162 198 222 162 198 222 162 198 222 162 198 222 162 198 222 162 198 222 162 198 222 162 198 222 162 198 222 162 198 222 162 198 222 162 198 222 162 198 222 162 198 222 162 198 222 162 198 222 162 198 222 162 198 222 162 198 222 162 198 222 162 198 222 162 198 222 162 198 222 162 198 222 162 198 222 162 198 222 162 198 222 162 198 222 162 198 222 162 198 222 162 198 222 162 198 222 162 198 222 162 198 222 162 198 222 162 198 222 162 198 222 162 198 222 162 198 222 162 198 222 162 198 222 162 198 222 162 198 222 162 198 222 162 198 222 162 198 222 162 198 222 162 198 222 162 198 222 162 198 222 162 198 222 162 198 222 162 198 222 162 198 222 162 198 222 162 198 222 162 198 222 162 198 222 162 198 222 162 198 222 162 198 222 162 198 222 162 198 222 162 198 222 162 198 222 162 198 222 162 198 222 162 198 222 162 198 222 162 198 222 162 198 222 162 198 222 162 198 222 162 198 222 162 198 222 162 198 222 162 198 222 162 198 222 162 198 222 162 198 222 162 198 222 162 198 222 162 198 222 162 198 222 162 198 222 162 198 222 162 198 222 162 198 222 162 198 222 162 198 222 162 198 222 162 198 222 162 198 222 162 198 222 162 198 222 162 198 222 162 198 222 162 198 222 
159 196 220 159 196 220 159 196 220 159 196 220 159 196 220 159 196 220 159 196 220 159 196 220 159 196 220 159 196 220 159 196 220 159 196 220 159 196 220 159 196 220 159 196 220 159 196 220 159 196 220 159 196 220 159 196 220 159 196 220 159 196 220 159 196 220 159 196 220 159 196 220 159 196 220 159 196 220 159 196 220 159 196 220 159 196 220 159 196 220 159 196 220 159 196 220 159 196 220 159 196 220 159 196 220 159 196 220 159 196 220 159 196 220 159 196 220 159 196 220 159 196 220 159 196 220 159 196 220 159 196 220 159 196 220 159 196 220 159 196 220 159 196 220 159 196 220 159 196 220 159 196 220 159 196 220 159 196 220 159 196 220 159 196 220 159 196 220 159 196 220 159 196 220 159 196 220 159 196 220 159 196 220 159 196 220 159 196 220 159 196 220 159 196 220 0 0 255 0 0 255 147 98 96 147 98 96 147 98 96 147 98 96 147 98 96 147 98 96 147 98 96 147 98 96 147 98 96 147 98 96 147 98 96 147 98 96 147 98 96 147 98 96 147 98 96 147 98 96 147 98 96 147 98 96 147 98 96 147 98 96 147 98 96 147 98 96 147 98 96 147 98 96 147 98 96 147 98 96 147 98 96 147 98 96 147 98 96 147 98 96 147 98 96 147 98 96 147 98 96 147 98 96 147 98 96 147 98 96 147 98 96 147 98 96 147 98 96 147 98 96 147 98 96 147 98 96 147 98 96 147 98 96 0 0 255 159 196 220 159 196 220 0 0 255 162 198 222 162 198 222 162 198 222 162 198 222 162 198 222 162 198 222 162 198 222 162 198 222 162 198 222 162 198 222 162 198 222 162 198 222 162 198 222 162 198 222 162 198 222 162 198 222 162 198 222 162 198 222 162 198 222 162 198 222 162 198 222 162 198 222 162 198 222 162 198 222 162 198 222 162 198 222 162 198 222 162 198 222 162 198 222 162 198 222 162 198 222 162 198 222 162 198 222 162 198 222 162 198 222 162 198 222 162 198 222 162 198 222 162 198 222 162 198 222 162 198 222 162 198 222 162 198 222 162 198 222 162 198 222 162 198 222 162 198 222 162 198 222 162 198 222 162 198 222 162 198 222 162 198 222 162 198 222 162 198 222 162 198 222 162 198 222 162 198 222 162 198 222 162 198 222 162 198 222 162 198 222 162 198 222 162 198 222 162 198 222 162 198 222 162 198 222 162 198 222 162 198 222 162 198 222 162 198 222 162 198 222 162 198 222 162 198 222 162 198 222 162 198 222 162 198 222 162 198 222 162 198 222 162 198 222 162 198 222 162 198 222 162 198 222 162 198 222 162 198 222 162 198 222 162 198 222 162 198 222 162 198 222 162 198 222 162 198 222 162 198 222 162 198 222 162 198 222 162 198 222 162 198 222 162 198 222 162 198 222 162 198 222 162 198 222 162 198 222 162 198 222 162 198 222 162 198 222 162 198 222 162 198 222 162 198 222 162 198 222 162 198 222 162 198 222 162 198 222 162 198 222 162 198 222 162 198 222 162 198 222 162 198 222 162 198 222 162 198 222 162 198 222 162 198 222 162 198 222 162 198 222 162 198 222 162 198 222 162 198 222 162 198 222 162 198 222 162 198 222 162 198 222 162 198 222 162 198 222 162 198 222 162 198 222 162 198 222 162 198 222 162 198 222 162 198 222 162 198 222 162 198 222 162 198 222 162 198 222 162 198 222 
159 196 220 159 196 220 159 196 220 159 196 220 159 196 220 159 196 220 159 196 220 159 196 220 159 196 220 159 196 220 159 196 220 159 196 220 159 196 220 159 196 220 159 196 220 159 196 220 159 196 220 159 196 220 159 196 220 159 196 220 159 196 220 159 196 220 159 196 220 159 196 220 159 196 220 159 196 220 159 196 220 159 196 220 159 196 220 159 196 220 159 196 220 159 196 220 159 196 220 159 196 220 159 196 220 159 196 220 159 196 220 159 196 220 159 196 220 159 196 220 159 196 220 159 196 220 159 196 220 159 196 220 159 196 220 159 196 220 159 196 220 159 196 220 159 196 220 159 196 220 159 196 220 159 196 220 159 196 220 159 196 220 159 196 220 159 196 220 159 196 220 159 196 220 159 196 220 159 196 220 159 196 220 159 196 220 159 196 220 159 196 220 159 196 220 159 196 220 0 0 255 147 98 96 147 98 96 147 98 96 147 98 96 147 98 96 147 98 96 147 98 96 147 98 96 147 98 96 147 98 96 147 98 96 147 98 96 147 98 96 147 98 96 147 98 96 147 98 96 147 98 96 147 98 96 147 98 96 147 98 96 147 98 96 147 98 96 147 98 96 147 98 96 147 98 96 147 98 96 147 98 96 147 98 96 147 98 96 147 98 96 147 98 96 147 98 96 147 98 96 147 98 96 147 98 96 147 98 96 147 98 96 147 98 96 147 98 96 147 98 96 147 98 96 147 98 96 147 98 96 147 98 96 0 0 255 159 196 220 159 196 220 0 0 255 0 0 255 162 198 222 162 198 222 162 198 222 162 198 222 162 198 222 162 198 222 162 198 222 162 198 222 162 198 222 162 198 222 162 198 222 162 198 222 162 198 222 162 198 222 162 198 222 162 198 222 162 198 222 162 198 222 162 198 222 162 198 222 162 198 222 162 198 222 162 198 222 162 198 222 162 198 222 162 198 222 162 198 222 162 198 222 162 198 222 162 198 222 162 198 222 162 198 222 162 198 222 162 198 222 162 198 222 162 198 222 162 198 222 162 198 222 162 198 222 162 198 222 162 198 222 162 198 222 162 198 222 162 198 222 162 198 222 162 198 222 162 198 222 162 198 222 162 198 222 162 198 222 162 198 222 162 198 222 162 198 222 162 198 222 162 198 222 162 198 222 162 198 222 162 198 222 162 198 222 162 198 222 162 198 222 162 198 222 162 198 222 162 198 222 162 198 222 162 198 222 162 198 222 162 198 222 162 198 222 162 198 222 162 198 222 162 198 222 162 198 222 162 198 222 162 198 222 162 198 222 162 198 222 162 198 222 162 198 222 162 198 222 162 198 222 162 198 222 162 198 222 162 198 222 162 198 222 162 198 222 162 198 222 162 198 222 162 198 222 162 198 222 162 198 222 162 198 222 162 198 222 162 198 222 162 198 222 162 198 222 162 198 222 162 198 222 162 198 222 162 198 222 162 198 222 162 198 222 162 198 222 162 198 222 162 198 222 162 198 222 162 198 222 162 198 222 162 198 222 162 198 222 162 198 222 162 198 222 162 198 222 162 198 222 162 198 222 162 198 222 162 198 222 162 198 222 162 198 222 162 198 222 162 198 222 162 198 222 162 198 222 162 198 222 162 198 222 162 198 222 162 198 222 162 198 222 162 198 222 162 198 222 162 198 222 162 198 222 162 198 222 162 198 222 162 198 222 162 198 222 162 198 222 162 198 222 162 198 222 162 198 222 
159 196 220 159 196 220 159 196 220 159 196 220 159 196 220 159 196 220 159 196 220 159 196 220 159 196 220 159 196 220 159 196 220 159 196 220 159 196 220 159 196 220 159 196 220 159 196 220 159 196 220 159 196 220 159 196 220 159 196 220 159 196 220 159 196 220 159 196 220 159 196 220 159 196 220 159 196 220 159 196 220 159 196 220 159 196 220 159 196 220 159 196 220 159 196 220 159 196 220 159 196 220 159 196 220 159 196 220 159 196 220 159 196 220 159 196 220 159 196 220 159 196 220 159 196 220 159 196 220 159 196 220 159 196 220 159 196 220 159 196 220 159 196 220 159 196 220 159 196 220 159 196 220 159 196 220 159 196 220 159 196 220 159 196 220 159 196 220 159 196 220 159 196 220 159 196 220 159 196 220 159 196 220 159 196 220 159 196 220 159 196 220 159 196 220 159 196 220 0 0 255 147 98 96 147 98 96 147 98 96 147 98 96 147 98 96 147 98 96 147 98 96 147 98 96 147 98 96 147 98 96 147 98 96 147 98 96 147 98 96 147 98 96 147 98 96 147 98 96 147 98 96 147 98 96 147 98 96 147 98 96 147 98 96 147 98 96 147 98 96 147 98 96 147 98 96 147 98 96 147 98 96 147 98 96 147 98 96 147 98 96 147 98 96 147 98 96 147 98 96 147 98 96 147 98 96 147 98 96 147 98 96 147 98 96 147 98 96 147 98 96 147 98 96 147 98 96 147 98 96 147 98 96 0 0 255 159 196 220 159 196 220 159 196 220 0 0 255 162 198 222 162 198 222 162 198 222 162 198 222 162 198 222 162 198 222 162 198 222 162 198 222 162 198 222 162 198 222 162 198 222 162 198 222 162 198 222 162 198 222 162 198 222 162 198 222 162 198 222 162 198 222 162 198 222 162 198 222 162 198 222 162 198 222 162 198 222 162 198 222 162 198 222 162 198 222 162 198 222 162 198 222 162 198 222 162 198 222 162 198 222 162 198 222 162 198 222 162 198 222 162 198 222 162 198 222 162 198 222 162 198 222 162 198 222 162 198 222 162 198 222 162 198 222 162 198 222 162 198 222 162 198 222 162 198 222 162 198 222 162 198 222 162 198 222 162 198 222 162 198 222 162 198 222 162 198 222 162 198 222 162 198 222 162 198 222 162 198 222 162 198 222 162 198 222 162 198 222 162 198 222 162 198 222 162 198 222 162 198 222 162 198 222 162 198 222 162 198 222 162 198 222 162 198 222 162 198 222 162 198 222 162 198 222 162 198 222 162 198 222 162 198 222 162 198 222 162 198 222 162 198 222 162 198 222 162 198 222 162 198 222 162 198 222 162 198 222 162 198 222 162 198 222 162 198 222 162 198 222 162 198 222 162 198 222 162 198 222 162 198 222 162 198 222 162 198 222 162 198 222 162 198 222 162 198 222 162 198 222 162 198 222 162 198 222 162 198 222 162 198 222 162 198 222 162 198 222 162 198 222 162 198 222 162 198 222 162 198 222 162 198 222 162 198 222 162 198 222 162 198 222 162 198 222 162 198 222 162 198 222 162 198 222 162 198 222 162 198 222 162 198 222 162 198 222 162 198 222 162 198 222 162 198 222 162 198 222 162 198 222 162 198 222 162 198 222 162 198 222 162 198 222 162 198 222 162 198 222 162 198 222 162 198 222 162 198 222 162 198 222 162 198 222 162 198 222 162 198 222 162 198 222 162 198 222 162 198 222 
159 196 220 159 196 220 159 196 220 159 196 220 159 196 220 159 196 220 159 196 220 159 196 220 159 196 220 159 196 220 159 196 220 159 196 220 159 196 220 159 196 220 159 196 220 159 196 220 159 196 220 159 196 220 159 196 220 159 196 220 159 196 220 159 196 220 159 196 220 159 196 220 159 196 220 159 196 220 159 196 220 159 196 220 159 196 220 159 196 220 159 196 220 159 196 220 159 196 220 159 196 220 159 196 220 159 196 220 159 196 220 159 196 220 159 196 220 159 196 220 159 196 220 159 196 220 159 196 220 159 196 220 159 196 220 159 196 220 159 196 220 159 196 220 159 196 220 159 196 220 159 196 220 159 196 220 159 196 220 159 196 220 159 196 220 159 196 220 159 196 220 159 196 220 159 196 220 159 196 220 159 196 220 159 196 220 159 196 220 159 196 220 159 196 220 159 196 220 0 0 255 147 98 96 147 98 96 147 98 96 147 98 96 147 98 96 147 98 96 147 98 96 147 98 96 147 98 96 147 98 96 147 98 96 147 98 96 147 98 96 147 98 96 147 98 96 147 98 96 147 98 96 147 98 96 147 98 96 147 98 96 147 98 96 147 98 96 147 98 96 147 98 96 147 98 96 147 98 96 147 98 96 147 98 96 147 98 96 147 98 96 147 98 96 147 98 96 147 98 96 147 98 96 147 98 96 147 98 96 147 98 96 147 98 96 147 98 96 147 98 96 147 98 96 147 98 96 147 98 96 147 98 96 0 0 255 159 196 220 159 196 220 159 196 220 0 0 255 162 198 222 162 198 222 162 198 222 162 198 222 162 198 222 162 198 222 162 198 222 162 198 222 162 198 222 162 198 222 162 198 222 162 198 222 162 198 222 162 198 222 162 198 222 162 198 222 162 198 222 162 198 222 162 198 222 162 198 222 162 198 222 162 198 222 162 198 222 162 198 222 162 198 222 162 198 222 162 198 222 162 198 222 162 198 222 162 198 222 162 198 222 162 198 222 162 198 222 162 198 222 162 198 222 162 198 222 162 198 222 162 198 222 162 198 222 162 198 222 162 198 222 162 198 222 162 198 222 162 198 222 162 198 222 162 198 222 162 198 222 162 198 222 162 198 222 162 198 222 162 198 222 162 198 222 162 198 222 162 198 222 162 198 222 162 198 222 162 198 222 162 198 222 162 198 222 162 198 222 162 198 222 162 198 222 162 198 222 162 198 222 162 198 222 162 198 222 162 198 222 162 198 222 162 198 222 162 198 222 162 198 222 162 198 222 162 198 222 162 198 222 162 198 222 162 198 222 162 198 222 162 198 222 162 198 222 162 198 222 162 198 222 162 198 222 162 198 222 162 198 222 162 198 222 162 198 222 162 198 222 162 198 222 162 198 222 162 198 222 162 198 222 162 198 222 162 198 222 162 198 222 162 198 222 162 198 222 162 198 222 162 198 222 162 198 222 162 198 222 162 198 222 162 198 222 162 198 222 162 198 222 162 198 222 162 198 222 162 198 222 162 198 222 162 198 222 162 198 222 162 198 222 162 198 222 162 198 222 162 198 222 162 198 222 162 198 222 162 198 222 162 198 222 162 198 222 162 198 222 162 198 222 162 198 222 162 198 222 162 198 222 162 198 222 162 198 222 162 198 222 162 198 222 162 198 222 162 198 222 162 198 222 162 198 222 162 198 222 162 198 222 162 198 222 162 198 222 162 198 222 162 198 222 162 198 222 162 198 222 
159 196 220 159 196 220 159 196 220 159 196 220 159 196 220 159 196 220 159 196 220 159 196 220 159 196 220 159 196 220 159 196 220 159 196 220 159 196 220 159 196 220 159 196 220 159 196 220 159 196 220 159 196 220 159 196 220 159 196 220 159 196 220 159 196 220 159 196 220 159 196 220 159 196 220 159 196 220 159 196 220 159 196 220 159 196 220 159 196 220 159 196 220 159 196 220 159 196 220 159 196 220 159 196 220 159 196 220 159 196 220 159 196 220 159 196 220 159 196 220 159 196 220 159 196 220 159 196 220 159 196 220 159 196 220 159 196 220 159 196 220 159 196 220 159 196 220 159 196 220 159 196 220 159 196 220 159 196 220 159 196 220 159 196 220 159 196 220 159 196 220 159 196 220 159 196 220 159 196 220 159 196 220 159 196 220 159 196 220 159 196 220 159 196 220 159 196 220 0 0 255 147 98 96 147 98 96 147 98 96 147 98 96 147 98 96 147 98 96 147 98 96 147 98 96 147 98 96 147 98 96 147 98 96 147 98 96 147 98 96 147 98 96 147 98 96 147 98 96 147 98 96 147 98 96 147 98 96 147 98 96 147 98 96 147 98 96 147 98 96 147 98 96 147 98 96 147 98 96 147 98 96 147 98 96 147 98 96 147 98 96 147 98 96 147 98 96 147 98 96 147 98 96 147 98 96 147 98 96 147 98 96 147 98 96 147 98 96 147 98 96 147 98 96 147 98 96 147 98 96 147 98 96 0 0 255 159 196 220 159 196 220 159 196 220 0 0 255 162 198 222 162 198 222 162 198 222 162 198 222 162 198 222 162 198 222 162 198 222 162 198 222 162 198 222 162 198 222 162 198 222 162 198 222 162 198 222 162 198 222 162 198 222 162 198 222 162 198 222 162 198 222 162 198 222 162 198 222 162 198 222 162 198 222 162 198 222 162 198 222 162 198 222 162 198 222 162 198 222 162 198 222 162 198 222 162 198 222 162 198 222 162 198 222 162 198 222 162 198 222 162 198 222 162 198 222 162 198 222 162 198 222 162 198 222 162 198 222 162 198 222 162 198 222 162 198 222 162 198 222 162 198 222 162 198 222 162 198 222 162 198 222 162 198 222 162 198 222 162 198 222 162 198 222 162 198 222 162 198 222 162 198 222 162 198 222 162 198 222 162 198 222 162 198 222 162 198 222 162 198 222 162 198 222 162 198 222 162 198 222 162 198 222 162 198 222 162 198 222 162 198 222 162 198 222 162 198 222 162 198 222 162 198 222 162 198 222 162 198 222 162 198 222 162 198 222 162 198 222 162 198 222 162 198 222 162 198 222 162 198 222 162 198 222 162 198 222 162 198 222 162 198 222 162 198 222 162 198 222 162 198 222 162 198 222 162 198 222 162 198 222 162 198 222 162 198 222 162 198 222 162 198 222 162 198 222 162 198 222 162 198 222 162 198 222 162 198 222 162 198 222 162 198 222 162 198 222 162 198 222 162 198 222 162 198 222 162 198 222 162 198 222 162 198 222 162 198 222 162 198 222 162 198 222 162 198 222 162 198 222 162 198 222 162 198 222 162 198 222 162 198 222 162 198 222 162 198 222 162 198 222 162 198 222 162 198 222 162 198 222 162 198 222 162 198 222 162 198 222 162 198 222 162 198 222 162 198 222 162 198 222 162 198 222 162 198 222 162 198 222 162 198 222 162 198 222 162 198 222 162 198 222 162 198 222 162 198 222 
159 196 220 159 196 220 159 196 220 159 196 220 159 196 220 159 196 220 159 196 220 159 196 220 159 196 220 159 196 220 159 196 220 159 196 220 159 196 220 159 196 220 159 196 220 159 196 220 159 196 220 159 196 220 159 196 220 159 196 220 159 196 220 159 196 220 159 196 220 159 196 220 159 196 220 159 196 220 159 196 220 159 196 220 159 196 220 159 196 220 159 196 220 159 196 220 159 196 220 159 196 220 159 196 220 159 196 220 159 196 220 159 196 220 159 196 220 159 196 220 159 196 220 159 196 220 159 196 220 159 196 220 159 196 220 159 196 220 159 196 220 159 196 220 159 196 220 159 196 220 159 196 220 159 196 220 159 196 220 159 196 220 159 196 220 159 196 220 159 196 220 159 196 220 159 196 220 159 196 220 159 196 220 159 196 220 159 196 220 159 196 220 159 196 220 159 196 220 0 0 255 147 98 96 147 98 96 147 98 96 147 98 96 147 98 96 147 98 96 147 98 96 147 98 96 147 98 96 147 98 96 147 98 96 147 98 96 147 98 96 147 98 96 147 98 96 147 98 96 147 98 96 147 98 96 147 98 96 147 98 96 147 98 96 147 98 96 147 98 96 147 98 96 147 98 96 147 98 96 147 98 96 147 98 96 147 98 96 147 98 96 147 98 96 147 98 96 147 98 96 147 98 96 147 98 96 147 98 96 147 98 96 147 98 96 147 98 96 147 98 96 147 98 96 147 98 96 147 98 96 147 98 96 0 0 255 159 196 220 159 196 220 159 196 220 0 0 255 162 198 222 162 198 222 162 198 222 162 198 222 162 198 222 162 198 222 162 198 222 162 198 222 162 198 222 162 198 222 162 198 222 162 198 222 162 198 222 162 198 222 162 198 222 162 198 222 162 198 222 162 198 222 162 198 222 162 198 222 162 198 222 162 198 222 162 198 222 162 198 222 162 198 222 162 198 222 162 198 222 162 198 222 162 198 222 162 198 222 162 198 222 162 198 222 162 198 222 162 198 222 162 198 222 162 198 222 162 198 222 162 198 222 162 198 222 162 198 222 162 198 222 162 198 222 162 198 222 162 198 222 162 198 222 162 198 222 162 198 222 162 198 222 162 198 222 162 198 222 162 198 222 162 198 222 162 198 222 162 198 222 162 198 222 162 198 222 162 198 222 162 198 222 162 198 222 162 198 222 162 198 222 162 198 222 162 198 222 162 198 222 162 198 222 162 198 222 162 198 222 162 198 222 162 198 222 162 198 222 162 198 222 162 198 222 162 198 222 162 198 222 162 198 222 162 198 222 162 198 222 162 198 222 162 198 222 162 198 222 162 198 222 162 198 222 162 198 222 162 198 222 162 198 222 162 198 222 162 198 222 162 198 222 162 198 222 162 198 222 162 198 222 162 198 222 162 198 222 162 198 222 162 198 222 162 198 222 162 198 222 162 198 222 162 198 222 162 198 222 162 198 222 162 198 222 162 198 222 162 198 222 162 198 222 162 198 222 162 198 222 162 198 222 162 198 222 162 198 222 162 198 222 162 198 222 162 198 222 162 198 222 162 198 222 162 198 222 162 198 222 162 198 222 162 198 222 162 198 222 162 198 222 162 198 222 162 198 222 162 198 222 162 198 222 162 198 222 162 198 222 162 198 222 162 198 222 162 198 222 162 198 222 162 198 222 162 198 222 162 198 222 162 198 222 162 198 222 162 198 222 162 198 222 162 198 222 162 198 222 
159 196 220 159 196 220 159 196 220 159 196 220 159 196 220 159 196 220 159 196 220 159 196 220 159 196 220 159 196 220 159 196 220 159 196 220 159 196 220 159 196 220 159 196 220 159 196 220 159 196 220 159 196 220 159 196 220 159 196 220 159 196 220 159 196 220 159 196 220 159 196 220 159 196 220 159 196 220 159 196 220 159 196 220 159 196 220 159 196 220 159 196 220 159 196 220 159 196 220 159 196 220 159 196 220 159 196 220 159 196 220 159 196 220 159 196 220 159 196 220 159 196 220 159 196 220 159 196 220 159 196 220 159 196 220 159 196 220 159 196 220 159 196 220 159 196 220 159 196 220 159 196 220 159 196 220 159 196 220 159 196 220 159 196 220 159 196 220 159 196 220 159 196 220 159 196 220 159 196 220 159 196 220 159 196 220 159 196 220 159 196 220 159 196 220 159 196 220 0 0 255 147 98 96 147 98 96 147 98 96 147 98 96 147 98 96 147 98 96 147 98 96 147 98 96 147 98 96 147 98 96 147 98 96 147 98 96 147 98 96 147 98 96 147 98 96 147 98 96 147 98 96 147 98 96 147 98 96 147 98 96 147 98 96 147 98 96 147 98 96 147 98 96 147 98 96 147 98 96 147 98 96 147 98 96 147 98 96 147 98 96 147 98 96 147 98 96 147 98 96 147 98 96 147 98 96 147 98 96 147 98 96 147 98 96 147 98 96 147 98 96 147 98 96 147 98 96 147 98 96 147 98 96 0 0 255 159 196 220 159 196 220 159 196 220 0 0 255 162 198 222 162 198 222 162 198 222 162 198 222 162 198 222 162 198 222 162 198 222 162 198 222 162 198 222 162 198 222 162 198 222 162 198 222 162 198 222 162 198 222 162 198 222 162 198 222 162 198 222 162 198 222 162 198 222 162 198 222 162 198 222 162 198 222 162 198 222 162 198 222 162 198 222 162 198 222 162 198 222 162 198 222 162 198 222 162 198 222 162 198 222 162 198 222 162 198 222 162 198 222 162 198 222 162 198 222 162 198 222 162 198 222 162 198 222 162 198 222 162 198 222 162 198 222 162 198 222 162 198 222 162 198 222 162 198 222 162 198 222 162 198 222 162 198 222 162 198 222 162 198 222 162 198 222 162 198 222 162 198 222 162 198 222 162 198 222 162 198 222 162 198 222 162 198 222 162 198 222 162 198 222 162 198 222 162 198 222 162 198 222 162 198 222 162 198 222 162 198 222 162 198 222 162 198 222 162 198 222 162 198 222 162 198 222 162 198 222 162 198 222 162 198 222 162 198 222 162 198 222 162 198 222 162 198 222 162 198 222 162 198 222 162 198 222 162 198 222 162 198 222 162 198 222 162 198 222 162 198 222 162 198 222 162 198 222 162 198 222 162 198 222 162 198 222 162 198 222 162 198 222 162 198 222 162 198 222 162 198 222 162 198 222 162 198 222 162 198 222 162 198 222 162 198 222 162 198 222 162 198 222 162 198 222 162 198 222 162 198 222 162 198 222 162 198 222 162 198 222 162 198 222 162 198 222 162 198 222 162 198 222 162 198 222 162 198 222 162 198 222 162 198 222 162 198 222 162 198 222 162 198 222 162 198 222 162 198 222 162 198 222 162 198 222 162 198 222 162 198 222 162 198 222 162 198 222 162 198 222 162 198 222 162 198 222 162 198 222 162 198 222 162 198 222 162 198 222 162 198 222 162 198 222 162 198 222 162 198 222 
159 196 220 159 196 220 159 196 220 159 196 220 159 196 220 159 196 220 159 196 220 159 196 220 159 196 220 159 196 220 159 196 220 159 196 220 159 196 220 159 196 220 159 196 220 159 196 220 159 196 220 159 196 220 159 196 220 159 196 220 159 196 220 159 196 220 159 196 220 159 196 220 159 196 220 159 196 220 159 196 220 159 196 220 159 196 220 159 196 220 159 196 220 159 196 220 159 196 220 159 196 220 159 196 220 159 196 220 159 196 220 159 196 220 159 196 220 159 196 220 159 196 220 159 196 220 159 196 220 159 196 220 159 196 220 159 196 220 159 196 220 159 196 220 159 196 220 159 196 220 159 196 220 159 196 220 159 196 220 159 196 220 159 196 220 159 196 220 159 196 220 159 196 220 159 196 220 159 196 220 159 196 220 159 196 220 159 196 220 159 196 220 159 196 220 159 196 220 0 0 255 147 98 96 147 98 96 147 98 96 147 98 96 147 98 96 147 98 96 147 98 96 147 98 96 147 98 96 147 98 96 147 98 96 147 98 96 147 98 96 147 98 96 147 98 96 147 98 96 147 98 96 147 98 96 147 98 96 147 98 96 147 98 96 147 98 96 147 98 96 147 98 96 147 98 96 147 98 96 147 98 96 147 98 96 147 98 96 147 98 96 147 98 96 147 98 96 147 98 96 147 98 96 147 98 96 147 98 96 147 98 96 147 98 96 147 98 96 147 98 96 147 98 96 147 98 96 147 98 96 147 98 96 0 0 255 159 196 220 159 196 220 159 196 220 0 0 255 162 198 222 162 198 222 162 198 222 162 198 222 162 198 222 162 198 222 162 198 222 162 198 222 162 198 222 162 198 222 162 198 222 162 198 222 162 198 222 162 198 222 162 198 222 162 198 222 162 198 222 162 198 222 162 198 222 162 198 222 162 198 222 162 198 222 162 198 222 162 198 222 162 198 222 162 198 222 162 198 222 162 198 222 162 198 222 162 198 222 162 198 222 162 198 222 162 198 222 162 198 222 162 198 222 162 198 222 162 198 222 162 198 222 162 198 222 162 198 222 162 198 222 162 198 222 162 198 222 162 198 222 162 198 222 162 198 222 162 198 222 162 198 222 162 198 222 162 198 222 162 198 222 162 198 222 162 198 222 162 198 222 162 198 222 162 198 222 162 198 222 162 198 222 162 198 222 162 198 222 162 198 222 162 198 222 162 198 222 162 198 222 162 198 222 162 198 222 162 198 222 162 198 222 162 198 222 162 198 222 162 198 222 162 198 222 162 198 222 162 198 222 162 198 222 162 198 222 162 198 222 162 198 222 162 198 222 162 198 222 162 198 222 162 198 222 162 198 222 162 198 222 162 198 222 162 198 222 162 198 222 162 198 222 162 198 222 162 198 222 162 198 222 162 198 222 162 198 222 162 198 222 162 198 222 162 198 222 162 198 222 162 198 222 162 198 222 162 198 222 162 198 222 162 198 222 162 198 222 162 198 222 162 198 222 162 198 222 162 198 222 162 198 222 162 198 222 162 198 222 162 198 222 162 198 222 162 198 222 162 198 222 162 198 222 162 198 222 162 198 222 162 198 222 162 198 222 162 198 222 162 198 222 162 198 222 162 198 222 162 198 222 162 198 222 162 198 222 162 198 222 162 198 222 162 198 222 162 198 222 162 198 222 162 198 222 162 198 222 162 198 222 162 198 222 162 198 222 162 198 222 162 198 222 162 198 222 162 198 222 
159 196 220 159 196 220 159 196 220 159 196 220 159 196 220 159 196 220 159 196 220 159 196 220 159 196 220 159 196 220 159 196 220 159 196 220 159 196 220 159 196 220 159 196 220 159 196 220 159 196 220 159 196 220 159 196 220 159 196 220 159 196 220 159 196 220 159 196 220 159 196 220 159 196 220 159 196 220 159 196 220 159 196 220 159 196 220 159 196 220 159 196 220 159 196 220 159 196 220 159 196 220 159 196 220 159 196 220 159 196 220 159 196 220 159 196 220 159 196 220 159 196 220 159 196 220 159 196 220 159 196 220 159 196 220 159 196 220 159 196 220 159 196 220 159 196 220 159 196 220 159 196 220 159 196 220 159 196 220 159 196 220 159 196 220 159 196 220 159 196 220 159 196 220 159 196 220 159 196 220 159 196 220 159 196 220 159 196 220 159 196 220 159 196 220 159 196 220 0 0 255 147 98 96 147 98 96 147 98 96 147 98 96 147 98 96 147 98 96 147 98 96 147 98 96 147 98 96 147 98 96 147 98 96 147 98 96 147 98 96 147 98 96 147 98 96 147 98 96 147 98 96 147 98 96 147 98 96 147 98 96 147 98 96 147 98 96 147 98 96 147 98 96 147 98 96 147 98 96 147 98 96 147 98 96 147 98 96 147 98 96 147 98 96 147 98 96 147 98 96 147 98 96 147 98 96 147 98 96 147 98 96 147 98 96 147 98 96 147 98 96 147 98 96 147 98 96 147 98 96 147 98 96 0 0 255 159 196 220 159 196 220 159 196 220 0 0 255 162 198 222 162 198 222 162 198 222 162 198 222 162 198 222 162 198 222 162 198 222 162 198 222 162 198 222 162 198 222 162 198 222 162 198 222 162 198 222 162 198 222 162 198 222 162 198 222 162 198 222 162 198 222 162 198 222 162 198 222 162 198 222 162 198 222 162 198 222 162 198 222 162 198 222 162 198 222 162 198 222 162 198 222 162 198 222 162 198 222 162 198 222 162 198 222 162 198 222 162 198 222 162 198 222 162 198 222 162 198 222 162 198 222 162 198 222 162 198 222 162 198 222 162 198 222 162 198 222 162 198 222 162 198 222 162 198 222 162 198 222 162 198 222 162 198 222 162 198 222 162 198 222 162 198 222 162 198 222 162 198 222 162 198 222 162 198 222 162 198 222 162 198 222 162 198 222 162 198 222 162 198 222 162 198 222 162 198 222 162 198 222 162 198 222 162 198 222 162 198 222 162 198 222 162 198 222 162 198 222 162 198 222 162 198 222 162 198 222 162 198 222 162 198 222 162 198 222 162 198 222 162 198 222 162 198 222 162 198 222 162 198 222 162 198 222 162 198 222 162 198 222 162 198 222 162 198 222 162 198 222 162 198 222 162 198 222 162 198 222 162 198 222 162 198 222 162 198 222 162 198 222 162 198 222 162 198 222 162 198 222 162 198 222 162 198 222 162 198 222 162 198 222 162 198 222 162 198 222 162 198 222 162 198 222 162 198 222 162 198 222 162 198 222 162 198 222 162 198 222 162 198 222 162 198 222 162 198 222 162 198 222 162 198 222 162 198 222 162 198 222 162 198 222 162 198 222 162 198 222 162 198 222 162 198 222 162 198 222 162 198 222 162 198 222 162 198 222 162 198 222 162 198 222 162 198 222 162 198 222 162 198 222 162 198 222 162 198 222 162 198 222 162 198 222 162 198 222 162 198 222 162 198 222 162 198 222 162 198 222 
159 196 220 159 196 220 159 196 220 159 196 220 159 196 220 159 196 220 159 196 220 159 196 220 159 196 220 159 196 220 159 196 220 159 196 220 159 196 220 159 196 220 159 196 220 159 196 220 159 196 220 159 196 220 159 196 220 159 196 220 159 196 220 159 196 220 159 196 220 159 196 220 159 196 220 159 196 220 159 196 220 159 196 220 159 196 220 159 196 220 159 196 220 159 196 220 159 196 220 159 196 220 159 196 220 159 196 220 159 196 220 159 196 220 159 196 220 159 196 220 159 196 220 159 196 220 159 196 220 159 196 220 159 196 220 159 196 220 159 196 220 159 196 220 159 196 220 159 196 220 159 196 220 159 196 220 159 196 220 159 196 220 159 196 220 159 196 220 159 196 220 159 196 220 159 196 220 159 196 220 159 196 220 159 196 220 159 196 220 159 196 220 159 196 220 159 196 220 0 0 255 147 98 96 147 98 96 147 98 96 147 98 96 147 98 96 147 98 96 147 98 96 147 98 96 147 98 96 147 98 96 147 98 96 147 98 96 147 98 96 147 98 96 147 98 96 147 98 96 147 98 96 147 98 96 147 98 96 147 98 96 147 98 96 147 98 96 147 98 96 147 98 96 147 98 96 147 98 96 147 98 96 147 98 96 147 98 96 147 98 96 147 98 96 147 98 96 147 98 96 147 98 96 147 98 96 147 98 96 147 98 96 147 98 96 147 98 96 147 98 96 147 98 96 147 98 96 147 98 96 147 98 96 0 0 255 159 196 220 159 196 220 159 196 220 0 0 255 162 198 222 162 198 222 162 198 222 162 198 222 162 198 222 162 198 222 162 198 222 162 198 222 162 198 222 162 198 222 162 198 222 162 198 222 162 198 222 162 198 222 162 198 222 162 198 222 162 198 222 162 198 222 162 198 222 162 198 222 162 198 222 162 198 222 162 198 222 162 198 222 162 198 222 162 198 222 162 198 222 162 198 222 162 198 222 162 198 222 162 198 222 162 198 222 162 198 222 162 198 222 162 198 222 162 198 222 162 198 222 162 198 222 162 198 222 162 198 222 162 198 222 162 198 222 162 198 222 162 198 222 162 198 222 162 198 222 162 198 222 162 198 222 162 198 222 162 198 222 162 198 222 162 198 222 162 198 222 162 198 222 162 198 222 162 198 222 162 198 222 162 198 222 162 198 222 162 198 222 162 198 222 162 198 222 162 198 222 162 198 222 162 198 222 162 198 222 162 198 222 162 198 222 162 198 222 162 198 222 162 198 222 162 198 222 162 198 222 162 198 222 162 198 222 162 198 222 162 198 222 162 198 222 162 198 222 162 198 222 162 198 222 162 198 222 162 198 222 162 198 222 162 198 222 162 198 222 162 198 222 162 198 222 162 198 222 162 198 222 162 198 222 162 198 222 162 198 222 162 198 222 162 198 222 162 198 222 162 198 222 162 198 222 162 198 222 162 198 222 162 198 222 162 198 222 162 198 222 162 198 222 162 198 222 162 198 222 162 198 222 162 198 222 162 198 222 162 198 222 162 198 222 162 198 222 162 198 222 162 198 222 162 198 222 162 198 222 162 198 222 162 198 222 162 198 222 162 198 222 162 198 222 162 198 222 162 198 222 162 198 222 162 198 222 162 198 222 162 198 222 162 198 222 162 198 222 162 198 222 162 198 222 162 198 222 162 198 222 162 198 222 162 198 222 162 198 222 162 198 222 162 198 222 162 198 222 162 198 222 
159 196 220 159 196 220 159 196 220 159 196 220 159 196 220 159 196 220 159 196 220 159 196 220 159 196 220 159 196 220 159 196 220 159 196 220 159 196 220 159 196 220 159 196 220 159 196 220 159 196 220 159 196 220 159 196 220 159 196 220 159 196 220 159 196 220 159 196 220 159 196 220 159 196 220 159 196 220 159 196 220 159 196 220 159 196 220 159 196 220 159 196 220 159 196 220 159 196 220 159 196 220 159 196 220 159 196 220 159 196 220 159 196 220 159 196 220 159 196 220 159 196 220 159 196 220 159 196 220 159 196 220 159 196 220 159 196 220 159 196 220 159 196 220 159 196 220 159 196 220 159 196 220 159 196 220 159 196 220 159 196 220 159 196 220 159 196 220 159 196 220 159 196 220 159 196 220 159 196 220 159 196 220 159 196 220 159 196 220 159 196 220 159 196 220 0 0 255 147 98 96 147 98 96 147 98 96 147 98 96 147 98 96 147 98 96 147 98 96 147 98 96 147 98 96 147 98 96 147 98 96 147 98 96 147 98 96 147 98 96 147 98 96 147 98 96 147 98 96 147 98 96 147 98 96 147 98 96 147 98 96 147 98 96 147 98 96 147 98 96 147 98 96 147 98 96 147 98 96 147 98 96 147 98 96 147 98 96 147 98 96 147 98 96 147 98 96 147 98 96 147 98 96 147 98 96 147 98 96 147 98 96 147 98 96 147 98 96 147 98 96 147 98 96 147 98 96 147 98 96 147 98 96 0 0 255 159 196 220 159 196 220 159 196 220 0 0 255 162 198 222 162 198 222 162 198 222 162 198 222 162 198 222 162 198 222 162 198 222 162 198 222 162 198 222 162 198 222 162 198 222 162 198 222 162 198 222 162 198 222 162 198 222 162 198 222 162 198 222 162 198 222 162 198 222 162 198 222 162 198 222 162 198 222 162 198 222 162 198 222 162 198 222 162 198 222 162 198 222 162 198 222 162 198 222 162 198 222 162 198 222 162 198 222 162 198 222 162 198 222 162 198 222 162 198 222 162 198 222 162 198 222 162 198 222 162 198 222 162 198 222 162 198 222 162 198 222 162 198 222 162 198 222 162 198 222 162 198 222 162 198 222 162 198 222 162 198 222 162 198 222 162 198 222 162 198 222 162 198 222 162 198 222 162 198 222 162 198 222 162 198 222 162 198 222 162 198 222 162 198 222 162 198 222 162 198 222 162 198 222 162 198 222 162 198 222 162 198 222 162 198 222 162 198 222 162 198 222 162 198 222 162 198 222 162 198 222 162 198 222 162 198 222 162 198 222 162 198 222 162 198 222 162 198 222 162 198 222 162 198 222 162 198 222 162 198 222 162 198 222 162 198 222 162 198 222 162 198 222 162 198 222 162 198 222 162 198 222 162 198 222 162 198 222 162 198 222 162 198 222 162 198 222 162 198 222 162 198 222 162 198 222 162 198 222 162 198 222 162 198 222 162 198 222 162 198 222 162 198 222 162 198 222 162 198 222 162 198 222 162 198 222 162 198 222 162 198 222 162 198 222 162 198 222 162 198 222 162 198 222 162 198 222 162 198 222 162 198 222 162 198 222 162 198 222 162 198 222 162 198 222 162 198 222 162 198 222 162 198 222 162 198 222 162 198 222 162 198 222 162 198 222 162 198 222 162 198 222 162 198 222 162 198 222 162 198 222 162 198 222 162 198 222 162 198 222 162 198 222 162 198 222 162 198 222 162 198 222 
159 196 220 159 196 220 159 196 220 159 196 220 159 196 220 159 196 220 159 196 220 159 196 220 159 196 220 159 196 220 159 196 220 159 196 220 159 196 220 159 196 220 159 196 220 159 196 220 159 196 220 159 196 220 159 196 220 159 196 220 159 196 220 159 196 220 159 196 220 159 196 220 159 196 220 159 196 220 159 196 220 159 196 220 159 196 220 159 196 220 159 196 220 159 196 220 159 196 220 159 196 220 159 196 220 159 196 220 159 196 220 159 196 220 159 196 220 159 196 220 159 196 220 159 196 220 159 196 220 159 196 220 159 196 220 159 196 220 159 196 220 159 196 220 159 196 220 159 196 220 159 196 220 159 196 220 159 196 220 159 196 220 159 196 220 159 196 220 159 196 220 159 196 220 159 196 220 159 196 220 159 196 220 159 196 220 159 196 220 159 196 220 159 196 220 0 0 255 147 98 96 147 98 96 147 98 96 147 98 96 147 98 96 147 98 96 147 98 96 147 98 96 147 98 96 147 98 96 147 98 96 147 98 96 147 98 96 147 98 96 147 98 96 147 98 96 147 98 96 147 98 96 147 98 96 147 98 96 147 98 96 147 98 96 147 98 96 147 98 96 147 98 96 147 98 96 147 98 96 147 98 96 147 98 96 147 98 96 147 98 96 147 98 96 147 98 96 147 98 96 147 98 96 147 98 96 147 98 96 147 98 96 147 98 96 147 98 96 147 98 96 147 98 96 147 98 96 147 98 96 0 0 255 0 0 255 159 196 220 159 196 220 159 196 220 0 0 255 162 198 222 162 198 222 162 198 222 162 198 222 162 198 222 162 198 222 162 198 222 162 198 222 162 198 222 162 198 222 162 198 222 162 198 222 162 198 222 162 198 222 162 198 222 162 198 222 162 198 222 162 198 222 162 198 222 162 198 222 162 198 222 162 198 222 162 198 222 162 198 222 162 198 222 162 198 222 162 198 222 162 198 222 162 198 222 162 198 222 162 198 222 162 198 222 162 198 222 162 198 222 162 198 222 162 198 222 162 198 222 162 198 222 162 198 222 162 198 222 162 198 222 162 198 222 162 198 222 162 198 222 162 198 222 162 198 222 162 198 222 162 198 222 162 198 222 162 198 222 162 198 222 162 198 222 162 198 222 162 198 222 162 198 222 162 198 222 162 198 222 162 198 222 162 198 222 162 198 222 162 198 222 162 198 222 162 198 222 162 198 222 162 198 222 162 198 222 162 198 222 162 198 222 162 198 222 162 198 222 162 198 222 162 198 222 162 198 222 162 198 222 162 198 222 162 198 222 162 198 222 162 198 222 162 198 222 162 198 222 162 198 222 162 198 222 162 198 222 162 198 222 162 198 222 162 198 222 162 198 222 162 198 222 162 198 222 162 198 222 162 198 222 162 198 222 162 198 222 162 198 222 162 198 222 162 198 222 162 198 222 162 198 222 162 198 222 162 198 222 162 198 222 162 198 222 162 198 222 162 198 222 162 198 222 162 198 222 162 198 222 162 198 222 162 198 222 162 198 222 162 198 222 162 198 222 162 198 222 162 198 222 162 198 222 162 198 222 162 198 222 162 198 222 162 198 222 162 198 222 162 198 222 162 198 222 162 198 222 162 198 222 162 198 222 162 198 222 162 198 222 162 198 222 162 198 222 162 198 222 162 198 222 162 198 222 162 198 222 162 198 222 162 198 222 162 198 222 162 198 222 162 198 222 162 198 222 162 198 222 
159 196 220 159 196 220 159 196 220 159 196 220 159 196 220 159 196 220 159 196 220 159 196 220 159 196 220 159 196 220 159 196 220 159 196 220 159 196 220 159 196 220 159 196 220 159 196 220 159 196 220 159 196 220 159 196 220 159 196 220 159 196 220 159 196 220 159 196 220 159 196 220 159 196 220 159 196 220 159 196 220 159 196 220 159 196 220 159 196 220 159 196 220 159 196 220 159 196 220 159 196 220 159 196 220 159 196 220 159 196 220 159 196 220 159 196 220 159 196 220 159 196 220 159 196 220 159 196 220 159 196 220 159 196 220 159 196 220 159 196 220 159 196 220 159 196 220 159 196 220 159 196 220 159 196 220 159 196 220 159 196 220 159 196 220 159 196 220 159 196 220 159 196 220 159 196 220 159 196 220 159 196 220 159 196 220 159 196 220 159 196 220 159 196 220 0 0 255 147 98 96 147 98 96 147 98 96 147 98 96 147 98 96 147 98 96 147 98 96 147 98 96 147 98 96 147 98 96 147 98 96 147 98 96 147 98 96 147 98 96 147 98 96 147 98 96 147 98 96 147 98 96 147 98 96 147 98 96 147 98 96 147 98 96 147 98 96 147 98 96 147 98 96 147 98 96 147 98 96 147 98 96 147 98 96 147 98 96 147 98 96 147 98 96 147 98 96 147 98 96 147 98 96 147 98 96 147 98 96 147 98 96 147 98 96 147 98 96 147 98 96 147 98 96 147 98 96 0 0 255 0 0 255 0 0 255 159 196 220 159 196 220 159 196 220 0 0 255 162 198 222 162 198 222 162 198 222 162 198 222 162 198 222 162 198 222 162 198 222 162 198 222 162 198 222 162 198 222 162 198 222 162 198 222 162 198 222 162 198 222 162 198 222 162 198 222 162 198 222 162 198 222 162 198 222 162 198 222 162 198 222 162 198 222 162 198 222 162 198 222 162 198 222 162 198 222 162 198 222 162 198 222 162 198 222 162 198 222 162 198 222 162 198 222 162 198 222 162 198 222 162 198 222 162 198 222 162 198 222 162 198 222 162 198 222 162 198 222 162 198 222 162 198 222 162 198 222 162 198 222 162 198 222 162 198 222 162 198 222 162 198 222 162 198 222 162 198 222 162 198 222 162 198 222 162 198 222 162 198 222 162 198 222 162 198 222 162 198 222 162 198 222 162 198 222 162 198 222 162 198 222 162 198 222 162 198 222 162 198 222 162 198 222 162 198 222 162 198 222 162 198 222 162 198 222 162 198 222 162 198 222 162 198 222 162 198 222 162 198 222 162 198 222 162 198 222 162 198 222 162 198 222 162 198 222 162 198 222 162 198 222 162 198 222 162 198 222 162 198 222 162 198 222 162 198 222 162 198 222 162 198 222 162 198 222 162 198 222 162 198 222 162 198 222 162 198 222 162 198 222 162 198 222 162 198 222 162 198 222 162 198 222 162 198 222 162 198 222 162 198 222 162 198 222 162 198 222 162 198 222 162 198 222 162 198 222 162 198 222 162 198 222 162 198 222 162 198 222 162 198 222 162 198 222 162 198 222 162 198 222 162 198 222 162 198 222 162 198 222 162 198 222 162 198 222 162 198 222 162 198 222 162 198 222 162 198 222 162 198 222 162 198 222 162 198 222 162 198 222 162 198 222 162 198 222 162 198 222 162 198 222 162 198 222 162 198 222 162 198 222 162 198 222 162 198 222 162 198 222 162 198 222 162 198 222 162 198 222 
159 196 220 159 196 220 159 196 220 159 196 220 159 196 220 159 196 220 159 196 220 159 196 220 159 196 220 159 196 220 159 196 220 159 196 220 159 196 220 159 196 220 159 196 220 159 196 220 159 196 220 159 196 220 159 196 220 159 196 220 159 196 220 159 196 220 159 196 220 159 196 220 159 196 220 159 196 220 159 196 220 159 196 220 159 196 220 159 196 220 159 196 220 159 196 220 159 196 220 159 196 220 159 196 220 159 196 220 159 196 220 159 196 220 159 196 220 159 196 220 159 196 220 159 196 220 159 196 220 159 196 220 159 196 220 159 196 220 159 196 220 159 196 220 159 196 220 159 196 220 159 196 220 159 196 220 159 196 220 159 196 220 159 196 220 159 196 220 159 196 220 159 196 220 159 196 220 159 196 220 159 196 220 159 196 220 159 196 220 159 196 220 159 196 220 0 0 255 147 98 96 147 98 96 147 98 96 147 98 96 147 98 96 147 98 96 147 98 96 147 98 96 147 98 96 147 98 96 147 98 96 147 98 96 147 98 96 147 98 96 147 98 96 147 98 96 147 98 96 147 98 96 147 98 96 147 98 96 147 98 96 147 98 96 147 98 96 147 98 96 147 98 96 147 98 96 147 98 96 147 98 96 147 98 96 147 98 96 147 98 96 147 98 96 147 98 96 0 0 255 0 0 255 147 98 96 147 98 96 147 98 96 147 98 96 147 98 96 147 98 96 147 98 96 147 98 96 147 98 96 147 98 96 0 0 255 0 0 255 0 0 255 159 196 220 0 0 255 0 0 255 162 198 222 162 198 222 162 198 222 162 198 222 162 198 222 162 198 222 162 198 222 162 198 222 162 198 222 162 198 222 162 198 222 162 198 222 162 198 222 162 198 222 162 198 222 162 198 222 162 198 222 162 198 222 162 198 222 162 198 222 162 198 222 162 198 222 162 198 222 162 198 222 162 198 222 162 198 222 162 198 222 162 198 222 162 198 222 162 198 222 162 198 222 162 198 222 162 198 222 162 198 222 162 198 222 162 198 222 162 198 222 162 198 222 162 198 222 162 198 222 162 198 222 162 198 222 162 198 222 162 198 222 162 198 222 162 198 222 162 198 222 162 198 222 162 198 222 162 198 222 162 198 222 162 198 222 162 198 222 162 198 222 162 198 222 162 198 222 162 198 222 162 198 222 162 198 222 162 198 222 162 198 222 162 198 222 162 198 222 162 198 222 162 198 222 162 198 222 162 198 222 162 198 222 162 198 222 162 198 222 162 198 222 162 198 222 162 198 222 162 198 222 162 198 222 162 198 222 162 198 222 162 198 222 162 198 222 162 198 222 162 198 222 162 198 222 162 198 222 162 198 222 162 198 222 162 198 222 162 198 222 162 198 222 162 198 222 162 198 222 162 198 222 162 198 222 162 198 222 162 198 222 162 198 222 162 198 222 162 198 222 162 198 222 162 198 222 162 198 222 162 198 222 162 198 222 162 198 222 162 198 222 162 198 222 162 198 222 162 198 222 162 198 222 162 198 222 162 198 222 162 198 222 162 198 222 162 198 222 162 198 222 162 198 222 162 198 222 162 198 222 162 198 222 162 198 222 162 198 222 162 198 222 162 198 222 162 198 222 162 198 222 162 198 222 162 198 222 162 198 222 162 198 222 162 198 222 162 198 222 162 198 222 162 198 222 162 198 222 162 198 222 162 198 222 162 198 222 162 198 222 162 198 222 162 198 222 
159 196 220 159 196 220 159 196 220 159 196 220 159 196 220 159 196 220 159 196 220 159 196 220 159 196 220 159 196 220 159 196 220 159 196 220 159 196 220 159 196 220 159 196 220 159 196 220 159 196 220 159 196 220 159 196 220 159 196 220 159 196 220 159 196 220 159 196 220 159 196 220 159 196 220 159 196 220 159 196 220 159 196 220 159 196 220 159 196 220 159 196 220 159 196 220 159 196 220 159 196 220 159 196 220 159 196 220 159 196 220 159 196 220 159 196 220 159 196 220 159 196 220 159 196 220 159 196 220 159 196 220 159 196 220 159 196 220 159 196 220 159 196 220 159 196 220 159 196 220 159 196 220 159 196 220 159 196 220 159 196 220 159 196 220 159 196 220 159 196 220 159 196 220 159 196 220 159 196 220 159 196 220 159 196 220 159 196 220 159 196 220 159 196 220 0 0 255 147 98 96 147 98 96 147 98 96 147 98 96 147 98 96 147 98 96 147 98 96 147 98 96 147 98 96 147 98 96 147 98 96 147 98 96 147 98 96 147 98 96 147 98 96 147 98 96 147 98 96 147 98 96 147 98 96 147 98 96 147 98 96 147 98 96 147 98 96 147 98 96 147 98 96 147 98 96 147 98 96 147 98 96 147 98 96 147 98 96 147 98 96 147 98 96 0 0 255 159 196 220 0 0 255 0 0 255 0 0 255 0 0 255 147 98 96 147 98 96 147 98 96 147 98 96 147 98 96 147 98 96 147 98 96 147 98 96 147 98 96 0 0 255 0 0 255 0 0 255 0 0 255 0 0 255 0 0 255 162 198 222 162 198 222 162 198 222 162 198 222 162 198 222 162 198 222 162 198 222 162 198 222 162 198 222 162 198 222 162 198 222 162 198 222 162 198 222 162 198 222 162 198 222 162 198 222 162 198 222 162 198 222 162 198 222 162 198 222 162 198 222 162 198 222 162 198 222 162 198 222 162 198 222 162 198 222 162 198 222 162 198 222 162 198 222 162 198 222 162 198 222 162 198 222 162 198 222 162 198 222 162 198 222 162 198 222 162 198 222 162 198 222 162 198 222 162 198 222 162 198 222 162 198 222 162 198 222 162 198 222 162 198 222 162 198 222 162 198 222 162 198 222 162 198 222 162 198 222 162 198 222 162 198 222 162 198 222 162 198 222 162 198 222 162 198 222 162 198 222 162 198 222 162 198 222 162 198 222 162 198 222 162 198 222 162 198 222 162 198 222 162 198 222 162 198 222 162 198 222 162 198 222 162 198 222 162 198 222 162 198 222 162 198 222 162 198 222 162 198 222 162 198 222 162 198 222 162 198 222 162 198 222 162 198 222 162 198 222 162 198 222 162 198 222 162 198 222 162 198 222 162 198 222 162 198 222 162 198 222 162 198 222 162 198 222 162 198 222 162 198 222 162 198 222 162 198 222 162 198 222 162 198 222 162 198 222 162 198 222 162 198 222 162 198 222 162 198 222 162 198 222 162 198 222 162 198 222 162 198 222 162 198 222 162 198 222 162 198 222 162 198 222 162 198 222 162 198 222 162 198 222 162 198 222 162 198 222 162 198 222 162 198 222 162 198 222 162 198 222 162 198 222 162 198 222 162 198 222 162 198 222 162 198 222 162 198 222 162 198 222 162 198 222 162 198 222 162 198 222 162 198 222 162 198 222 162 198 222 162 198 222 162 198 222 162 198 222 162 198 222 162 198 222 162 198 222 162 198 222 
159 196 220 159 196 220 159 196 220 159 196 220 159 196 220 159 196 220 159 196 220 159 196 220 159 196 220 159 196 220 159 196 220 159 196 220 159 196 220 159 196 220 159 196 220 159 196 220 159 196 220 159 196 220 159 196 220 159 196 220 159 196 220 159 196 220 159 196 220 159 196 220 159 196 220 159 196 220 159 196 220 159 196 220 159 196 220 159 196 220 159 196 220 159 196 220 159 196 220 159 196 220 159 196 220 159 196 220 159 196 220 159 196 220 159 196 220 159 196 220 159 196 220 159 196 220 159 196 220 159 196 220 159 196 220 159 196 220 159 196 220 159 196 220 159 196 220 159 196 220 159 196 220 159 196 220 159 196 220 159 196 220 159 196 220 159 196 220 159 196 220 159 196 220 159 196 220 159 196 220 159 196 220 159 196 220 159 196 220 159 196 220 159 196 220 0 0 255 147 98 96 147 98 96 147 98 96 147 98 96 147 98 96 147 98 96 147 98 96 147 98 96 147 98 96 147 98 96 147 98 96 147 98 96 147 98 96 147 98 96 147 98 96 147 98 96 147 98 96 147 98 96 147 98 96 147 98 96 147 98 96 147 98 96 147 98 96 147 98 96 147 98 96 147 98 96 147 98 96 147 98 96 147 98 96 147 98 96 147 98 96 147 98 96 0 0 255 159 196 220 159 196 220 159 196 220 159 196 220 0 0 255 0 0 255 147 98 96 147 98 96 147 98 96 147 98 96 147 98 96 147 98 96 147 98 96 147 98 96 147 98 96 147 98 96 147 98 96 147 98 96 147 98 96 0 0 255 0 0 255 0 0 255 0 0 255 0 0 255 0 0 255 162 198 222 162 198 222 162 198 222 162 198 222 162 198 222 162 198 222 162 198 222 162 198 222 162 198 222 162 198 222 162 198 222 162 198 222 162 198 222 162 198 222 162 198 222 162 198 222 162 198 222 162 198 222 162 198 222 162 198 222 162 198 222 162 198 222 162 198 222 162 198 222 162 198 222 162 198 222 162 198 222 162 198 222 162 198 222 162 198 222 162 198 222 162 198 222 162 198 222 162 198 222 162 198 222 162 198 222 162 198 222 162 198 222 162 198 222 162 198 222 162 198 222 162 198 222 162 198 222 162 198 222 162 198 222 162 198 222 162 198 222 162 198 222 162 198 222 162 198 222 162 198 222 162 198 222 162 198 222 162 198 222 162 198 222 162 198 222 162 198 222 162 198 222 162 198 222 162 198 222 162 198 222 162 198 222 162 198 222 162 198 222 162 198 222 162 198 222 162 198 222 162 198 222 162 198 222 162 198 222 162 198 222 162 198 222 162 198 222 162 198 222 162 198 222 162 198 222 162 198 222 162 198 222 162 198 222 162 198 222 162 198 222 162 198 222 162 198 222 162 198 222 162 198 222 162 198 222 162 198 222 162 198 222 162 198 222 162 198 222 162 198 222 162 198 222 162 198 222 162 198 222 162 198 222 162 198 222 162 198 222 162 198 222 162 198 222 162 198 222 162 198 222 162 198 222 162 198 222 162 198 222 162 198 222 162 198 222 162 198 222 162 198 222 162 198 222 162 198 222 162 198 222 162 198 222 162 198 222 162 198 222 162 198 222 162 198 222 162 198 222 162 198 222 162 198 222 162 198 222 162 198 222 162 198 222 162 198 222 162 198 222 162 198 222 162 198 222 162 198 222 162 198 222 162 198 222 162 198 222 162 198 222 162 198 222 
159 196 220 159 196 220 159 196 220 159 196 220 159 196 220 159 196 220 159 196 220 159 196 220 159 196 220 159 196 220 159 196 220 159 196 220 159 196 220 159 196 220 159 196 220 159 196 220 159 196 220 159 196 220 159 196 220 159 196 220 159 196 220 159 196 220 159 196 220 159 196 220 159 196 220 159 196 220 159 196 220 159 196 220 159 196 220 159 196 220 159 196 220 159 196 220 159 196 220 159 196 220 159 196 220 159 196 220 159 196 220 159 196 220 159 196 220 159 196 220 159 196 220 159 196 220 159 196 220 159 196 220 159 196 220 159 196 220 159 196 220 159 196 220 159 196 220 159 196 220 159 196 220 159 196 220 159 196 220 159 196 220 159 196 220 159 196 220 159 196 220 159 196 220 159 196 220 159 196 220 159 196 220 159 196 220 159 196 220 159 196 220 159 196 220 0 0 255 147 98 96 147 98 96 147 98 96 147 98 96 147 98 96 147 98 96 147 98 96 147 98 96 147 98 96 147 98 96 147 98 96 147 98 96 147 98 96 147 98 96 147 98 96 147 98 96 147 98 96 147 98 96 147 98 96 147 98 96 147 98 96 147 98 96 147 98 96 147 98 96 147 98 96 147 98 96 147 98 96 147 98 96 147 98 96 147 98 96 147 98 96 147 98 96 0 0 255 159 196 220 159 196 220 159 196 220 159 196 220 159 196 220 0 0 255 0 0 255 0 0 255 147 98 96 147 98 96 147 98 96 147 98 96 147 98 96 147 98 96 147 98 96 147 98 96 147 98 96 147 98 96 147 98 96 147 98 96 147 98 96 147 98 96 147 98 96 147 98 96 0 0 255 0 0 255 0 0 255 0 0 255 0 0 255 162 198 222 162 198 222 162 198 222 162 198 222 162 198 222 162 198 222 162 198 222 162 198 222 162 198 222 162 198 222 162 198 222 162 198 222 162 198 222 162 198 222 162 198 222 162 198 222 162 198 222 162 198 222 162 198 222 162 198 222 162 198 222 162 198 222 162 198 222 162 198 222 162 198 222 162 198 222 162 198 222 162 198 222 162 198 222 162 198 222 162 198 222 162 198 222 162 198 222 162 198 222 162 198 222 162 198 222 162 198 222 162 198 222 162 198 222 162 198 222 162 198 222 162 198 222 162 198 222 162 198 222 162 198 222 162 198 222 162 198 222 162 198 222 162 198 222 162 198 222 162 198 222 162 198 222 162 198 222 162 198 222 162 198 222 162 198 222 162 198 222 162 198 222 162 198 222 162 198 222 162 198 222 162 198 222 162 198 222 162 198 222 162 198 222 162 198 222 162 198 222 162 198 222 162 198 222 162 198 222 162 198 222 162 198 222 162 198 222 162 198 222 162 198 222 162 198 222 162 198 222 162 198 222 162 198 222 162 198 222 162 198 222 162 198 222 162 198 222 162 198 222 162 198 222 162 198 222 162 198 222 162 198 222 162 198 222 162 198 222 162 198 222 162 198 222 162 198 222 162 198 222 162 198 222 162 198 222 162 198 222 162 198 222 162 198 222 162 198 222 162 198 222 162 198 222 162 198 222 162 198 222 162 198 222 162 198 222 162 198 222 162 198 222 162 198 222 162 198 222 162 198 222 162 198 222 162 198 222 162 198 222 162 198 222 162 198 222 162 198 222 162 198 222 162 198 222 162 198 222 162 198 222 162 198 222 162 198 222 162 198 222 162 198 222 162 198 222 162 198 222 162 198 222 
159 196 220 159 196 220 159 196 220 159 196 220 159 196 220 159 196 220 159 196 220 159 196 220 159 196 220 159 196 220 159 196 220 159 196 220 159 196 220 159 196 220 159 196 220 159 196 220 159 196 220 159 196 220 159 196 220 159 196 220 159 196 220 159 196 220 159 196 220 159 196 220 159 196 220 159 196 220 159 196 220 159 196 220 159 196 220 159 196 220 159 196 220 159 196 220 159 196 220 159 196 220 159 196 220 159 196 220 159 196 220 159 196 220 159 196 220 159 196 220 159 196 220 159 196 220 159 196 220 159 196 220 159 196 220 159 196 220 159 196 220 159 196 220 159 196 220 159 196 220 159 196 220 159 196 220 159 196 220 159 196 220 159 196 220 159 196 220 159 196 220 159 196 220 159 196 220 159 196 220 159 196 220 159 196 220 159 196 220 159 196 220 159 196 220 0 0 255 147 98 96 147 98 96 147 98 96 147 98 96 147 98 96 147 98 96 147 98 96 147 98 96 147 98 96 147 98 96 147 98 96 147 98 96 147 98 96 147 98 96 147 98 96 147 98 96 147 98 96 147 98 96 147 98 96 147 98 96 147 98 96 147 98 96 147 98 96 147 98 96 147 98 96 147 98 96 147 98 96 147 98 96 147 98 96 147 98 96 147 98 96 147 98 96 0 0 255 159 196 220 159 196 220 159 196 220 159 196 220 159 196 220 159 196 220 159 196 220 0 0 255 0 0 255 0 0 255 147 98 96 147 98 96 147 98 96 147 98 96 147 98 96 147 98 96 147 98 96 147 98 96 147 98 96 147 98 96 147 98 96 147 98 96 147 98 96 147 98 96 147 98 96 147 98 96 147 98 96 147 98 96 0 0 255 0 0 255 0 0 255 0 0 255 0 0 255 0 0 255 162 198 222 162 198 222 162 198 222 162 198 222 162 198 222 162 198 222 162 198 222 162 198 222 162 198 222 162 198 222 162 198 222 162 198 222 162 198 222 162 198 222 162 198 222 162 198 222 162 198 222 162 198 222 162 198 222 162 198 222 162 198 222 162 198 222 162 198 222 0 0 255 0 0 255 0 0 255 0 0 255 0 0 255 162 198 222 162 198 222 162 198 222 162 198 222 162 198 222 162 198 222 162 198 222 162 198 222 162 198 222 162 198 222 162 198 222 162 198 222 162 198 222 162 198 222 162 198 222 162 198 222 162 198 222 162 198 222 162 198 222 162 198 222 162 198 222 162 198 222 162 198 222 162 198 222 162 198 222 162 198 222 162 198 222 162 198 222 162 198 222 162 198 222 162 198 222 162 198 222 162 198 222 162 198 222 162 198 222 162 198 222 162 198 222 162 198 222 162 198 222 162 198 222 162 198 222 162 198 222 162 198 222 162 198 222 162 198 222 162 198 222 162 198 222 162 198 222 162 198 222 162 198 222 162 198 222 162 198 222 162 198 222 162 198 222 162 198 222 162 198 222 162 198 222 162 198 222 162 198 222 162 198 222 162 198 222 162 198 222 162 198 222 162 198 222 162 198 222 162 198 222 162 198 222 162 198 222 162 198 222 162 198 222 162 198 222 162 198 222 162 198 222 162 198 222 162 198 222 162 198 222 162 198 222 162 198 222 162 198 222 162 198 222 162 198 222 162 198 222 162 198 222 162 198 222 162 198 222 162 198 222 162 198 222 162 198 222 162 198 222 162 198 222 162 198 222 162 198 222 162 198 222 162 198 222 162 198 222 
159 196 220 159 196 220 159 196 220 159 196 220 159 196 220 159 196 220 159 196 220 159 196 220 159 196 220 159 196 220 159 196 220 159 196 220 159 196 220 159 196 220 159 196 220 159 196 220 159 196 220 159 196 220 159 196 220 159 196 220 159 196 220 159 196 220 159 196 220 159 196 220 159 196 220 159 196 220 159 196 220 159 196 220 159 196 220 159 196 220 159 196 220 159 196 220 159 196 220 159 196 220 159 196 220 159 196 220 159 196 220 159 196 220 159 196 220 159 196 220 159 196 220 159 196 220 159 196 220 159 196 220 159 196 220 159 196 220 159 196 220 159 196 220 159 196 220 159 196 220 159 196 220 159 196 220 159 196 220 159 196 220 159 196 220 159 196 220 159 196 220 159 196 220 159 196 220 159 196 220 159 196 220 159 196 220 159 196 220 159 196 220 159 196 220 0 0 255 147 98 96 147 98 96 147 98 96 147 98 96 147 98 96 147 98 96 147 98 96 147 98 96 147 98 96 147 98 96 147 98 96 147 98 96 147 98 96 147 98 96 147 98 96 147 98 96 147 98 96 147 98 96 147 98 96 147 98 96 147 98 96 147 98 96 147 98 96 147 98 96 147 98 96 147 98 96 147 98 96 147 98 96 147 98 96 147 98 96 147 98 96 147 98 96 0 0 255 159 196 220 159 196 220 159 196 220 159 196 220 159 196 220 159 196 220 159 196 220 159 196 220 159 196 220 0 0 255 0 0 255 0 0 255 0 0 255 0 0 255 147 98 96 147 98 96 147 98 96 147 98 96 147 98 96 147 98 96 147 98 96 147 98 96 147 98 96 147 98 96 147 98 96 147 98 96 147 98 96 147 98 96 147 98 96 147 98 96 147 98 96 147 98 96 147 98 96 0 0 255 0 0 255 0 0 255 0 0 255 0 0 255 0 0 255 0 0 255 0 0 255 0 0 255 0 0 255 162 198 222 162 198 222 162 198 222 162 198 222 162 198 222 162 198 222 162 198 222 162 198 222 162 198 222 162 198 222 162 198 222 162 198 222 162 198 222 0 0 255 119 83 94 119 83 94 119 83 94 119 83 94 0 0 255 162 198 222 162 198 222 162 198 222 162 198 222 162 198 222 162 198 222 162 198 222 162 198 222 162 198 222 162 198 222 162 198 222 162 198 222 162 198 222 162 198 222 162 198 222 162 198 222 162 198 222 162 198 222 162 198 222 162 198 222 162 198 222 162 198 222 162 198 222 162 198 222 162 198 222 162 198 222 162 198 222 162 198 222 162 198 222 162 198 222 162 198 222 162 198 222 162 198 222 162 198 222 162 198 222 162 198 222 162 198 222 162 198 222 162 198 222 162 198 222 162 198 222 162 198 222 162 198 222 162 198 222 162 198 222 162 198 222 162 198 222 162 198 222 162 198 222 162 198 222 162 198 222 162 198 222 162 198 222 162 198 222 162 198 222 162 198 222 162 198 222 162 198 222 162 198 222 162 198 222 162 198 222 162 198 222 162 198 222 162 198 222 162 198 222 162 198 222 162 198 222 162 198 222 162 198 222 162 198 222 162 198 222 162 198 222 162 198 222 162 198 222 162 198 222 162 198 222 162 198 222 162 198 222 162 198 222 162 198 222 162 198 222 162 198 222 162 198 222 162 198 222 162 198 222 162 198 222 162 198 222 162 198 222 162 198 222 162 198 222 162 198 222 162 198 222 162 198 222 162 198 222 162 198 222 
159 196 220 159 196 220 159 196 220 159 196 220 159 196 220 159 196 220 159 196 220 159 196 220 159 196 220 159 196 220 159 196 220 159 196 220 159 196 220 159 196 220 159 196 220 159 196 220 159 196 220 159 196 220 159 196 220 159 196 220 159 196 220 159 196 220 159 196 220 159 196 220 159 196 220 159 196 220 159 196 220 159 196 220 159 196 220 159 196 220 159 196 220 159 196 220 159 196 220 159 196 220 159 196 220 159 196 220 159 196 220 159 196 220 159 196 220 159 196 220 159 196 220 159 196 220 159 196 220 159 196 220 159 196 220 159 196 220 159 196 220 159 196 220 159 196 220 159 196 220 159 196 220 159 196 220 159 196 220 159 196 220 159 196 220 159 196 220 159 196 220 159 196 220 159 196 220 159 196 220 159 196 220 159 196 220 159 196 220 159 196 220 159 196 220 0 0 255 147 98 96 147 98 96 147 98 96 147 98 96 147 98 96 147 98 96 147 98 96 147 98 96 147 98 96 147 98 96 147 98 96 147 98 96 147 98 96 147 98 96 147 98 96 147 98 96 147 98 96 147 98 96 147 98 96 147 98 96 147 98 96 147 98 96 147 98 96 147 98 96 147 98 96 147 98 96 147 98 96 147 98 96 147 98 96 147 98 96 147 98 96 147 98 96 0 0 255 159 196 220 159 196 220 159 196 220 159 196 220 159 196 220 159 196 220 159 196 220 159 196 220 159 196 220 159 196 220 159 196 220 159 196 220 159 196 220 0 0 255 0 0 255 147 98 96 147 98 96 147 98 96 147 98 96 147 98 96 147 98 96 147 98 96 147 98 96 147 98 96 147 98 96 147 98 96 147 98 96 147 98 96 147 98 96 147 98 96 147 98 96 147 98 96 147 98 96 147 98 96 147 98 96 147 98 96 147 98 96 147 98 96 147 98 96 147 98 96 147 98 96 147 98 96 0 0 255 0 0 255 0 0 255 0 0 255 0 0 255 0 0 255 0 0 255 162 198 222 162 198 222 162 198 222 162 198 222 162 198 222 162 198 222 162 198 222 0 0 255 119 83 94 119 83 94 119 83 94 119 83 94 0 0 255 162 198 222 162 198 222 162 198 222 162 198 222 162 198 222 162 198 222 162 198 222 162 198 222 162 198 222 162 198 222 162 198 222 162 198 222 162 198 222 162 198 222 162 198 222 162 198 222 162 198 222 162 198 222 162 198 222 162 198 222 162 198 222 162 198 222 162 198 222 162 198 222 162 198 222 162 198 222 162 198 222 162 198 222 162 198 222 162 198 222 162 198 222 162 198 222 162 198 222 162 198 222 162 198 222 162 198 222 162 198 222 162 198 222 162 198 222 162 198 222 162 198 222 162 198 222 162 198 222 162 198 222 162 198 222 162 198 222 162 198 222 162 198 222 162 198 222 162 198 222 162 198 222 162 198 222 162 198 222 162 198 222 162 198 222 162 198 222 162 198 222 162 198 222 162 198 222 162 198 222 162 198 222 162 198 222 162 198 222 162 198 222 162 198 222 162 198 222 162 198 222 162 198 222 162 198 222 162 198 222 162 198 222 162 198 222 162 198 222 162 198 222 162 198 222 162 198 222 162 198 222 162 198 222 162 198 222 162 198 222 162 198 222 162 198 222 162 198 222 162 198 222 162 198 222 162 198 222 162 198 222 162 198 222 162 198 222 162 198 222 162 198 222 162 198 222 162 198 222 162 198 222 162 198 222 
159 196 220 159 196 220 159 196 220 159 196 220 159 196 220 159 196 220 159 196 220 159 196 220 159 196 220 159 196 220 159 196 220 159 196 220 159 196 220 159 196 220 159 196 220 159 196 220 159 196 220 159 196 220 159 196 220 159 196 220 159 196 220 159 196 220 159 196 220 159 196 220 159 196 220 159 196 220 159 196 220 159 196 220 159 196 220 159 196 220 159 196 220 159 196 220 159 196 220 159 196 220 159 196 220 159 196 220 159 196 220 159 196 220 159 196 220 159 196 220 159 196 220 159 196 220 159 196 220 159 196 220 159 196 220 159 196 220 159 196 220 159 196 220 159 196 220 159 196 220 159 196 220 159 196 220 159 196 220 159 196 220 159 196 220 159 196 220 159 196 220 159 196 220 159 196 220 159 196 220 159 196 220 159 196 220 159 196 220 159 196 220 159 196 220 0 0 255 147 98 96 147 98 96 147 98 96 147 98 96 147 98 96 147 98 96 147 98 96 147 98 96 147 98 96 147 98 96 147 98 96 147 98 96 147 98 96 147 98 96 147 98 96 147 98 96 147 98 96 147 98 96 147 98 96 147 98 96 147 98 96 147 98 96 147 98 96 147 98 96 147 98 96 147 98 96 147 98 96 147 98 96 147 98 96 147 98 96 147 98 96 147 98 96 0 0 255 0 0 255 0 0 255 159 196 220 159 196 220 159 196 220 159 196 220 159 196 220 159 196 220 159 196 220 159 196 220 159 196 220 159 196 220 159 196 220 159 196 220 0 0 255 0 0 255 0 0 255 147 98 96 147 98 96 147 98 96 147 98 96 147 98 96 147 98 96 147 98 96 147 98 96 147 98 96 147 98 96 147 98 96 147 98 96 147 98 96 147 98 96 147 98 96 147 98 96 147 98 96 147 98 96 147 98 96 147 98 96 147 98 96 147 98 96 147 98 96 147 98 96 147 98 96 147 98 96 147 98 96 147 98 96 147 98 96 147 98 96 147 98 96 0 0 255 0 0 255 0 0 255 0 0 255 0 0 255 0 0 255 162 198 222 162 198 222 0 0 255 119 83 94 119 83 94 119 83 94 119 83 94 0 0 255 162 198 222 162 198 222 162 198 222 162 198 222 162 198 222 162 198 222 162 198 222 162 198 222 162 198 222 162 198 222 162 198 222 162 198 222 162 198 222 162 198 222 162 198 222 162 198 222 162 198 222 162 198 222 162 198 222 162 198 222 162 198 222 162 198 222 162 198 222 162 198 222 162 198 222 162 198 222 162 198 222 162 198 222 162 198 222 162 198 222 162 198 222 162 198 222 162 198 222 162 198 222 162 198 222 162 198 222 162 198 222 162 198 222 162 198 222 162 198 222 162 198 222 162 198 222 162 198 222 162 198 222 162 198 222 162 198 222 162 198 222 162 198 222 162 198 222 162 198 222 162 198 222 162 198 222 162 198 222 162 198 222 162 198 222 162 198 222 162 198 222 162 198 222 162 198 222 162 198 222 162 198 222 162 198 222 162 198 222 162 198 222 162 198 222 162 198 222 162 198 222 162 198 222 162 198 222 162 198 222 162 198 222 162 198 222 162 198 222 162 198 222 162 198 222 162 198 222 162 198 222 162 198 222 162 198 222 162 198 222 162 198 222 162 198 222 162 198 222 162 198 222 162 198 222 162 198 222 162 198 222 162 198 222 162 198 222 162 198 222 162 198 222 162 198 222 162 198 222 162 198 222 162 198 222 
159 196 220 159 196 220 159 196 220 159 196 220 159 196 220 159 196 220 159 196 220 159 196 220 159 196 220 159 196 220 159 196 220 159 196 220 159 196 220 159 196 220 159 196 220 159 196 220 159 196 220 159 196 220 159 196 220 159 196 220 159 196 220 159 196 220 159 196 220 159 196 220 159 196 220 159 196 220 159 196 220 159 196 220 159 196 220 159 196 220 159 196 220 159 196 220 159 196 220 159 196 220 159 196 220 159 196 220 159 196 220 159 196 220 159 196 220 159 196 220 159 196 220 159 196 220 159 196 220 159 196 220 159 196 220 159 196 220 159 196 220 159 196 220 159 196 220 159 196 220 159 196 220 159 196 220 159 196 220 159 196 220 159 196 220 159 196 220 159 196 220 159 196 220 159 196 220 159 196 220 159 196 220 159 196 220 159 196 220 159 196 220 159 196 220 0 0 255 147 98 96 147 98 96 147 98 96 147 98 96 147 98 96 147 98 96 147 98 96 147 98 96 147 98 96 147 98 96 147 98 96 147 98 96 147 98 96 147 98 96 147 98 96 147 98 96 147 98 96 147 98 96 147 98 96 147 98 96 147 98 96 147 98 96 147 98 96 147 98 96 147 98 96 147 98 96 147 98 96 147 98 96 147 98 96 147 98 96 147 98 96 147 98 96 147 98 96 147 98 96 0 0 255 0 0 255 159 196 220 159 196 220 159 196 220 159 196 220 159 196 220 159 196 220 159 196 220 159 196 220 159 196 220 159 196 220 159 196 220 159 196 220 159 196 220 0 0 255 0 0 255 0 0 255 147 98 96 147 98 96 147 98 96 147 98 96 147 98 96 147 98 96 147 98 96 147 98 96 147 98 96 147 98 96 147 98 96 147 98 96 147 98 96 147 98 96 147 98 96 147 98 96 147 98 96 147 98 96 147 98 96 147 98 96 147 98 96 147 98 96 147 98 96 147 98 96 147 98 96 147 98 96 147 98 96 147 98 96 147 98 96 147 98 96 147 98 96 147 98 96 147 98 96 0 0 255 0 0 255 0 0 255 0 0 255 119 83 94 119 83 94 119 83 94 119 83 94 119 83 94 0 0 255 162 198 222 162 198 222 162 198 222 162 198 222 162 198 222 162 198 222 162 198 222 162 198 222 162 198 222 162 198 222 162 198 222 162 198 222 162 198 222 162 198 222 162 198 222 162 198 222 162 198 222 162 198 222 162 198 222 162 198 222 162 198 222 162 198 222 162 198 222 162 198 222 162 198 222 162 198 222 162 198 222 162 198 222 162 198 222 162 198 222 162 198 222 162 198 222 162 198 222 162 198 222 162 198 222 162 198 222 162 198 222 162 198 222 162 198 222 162 198 222 162 198 222 162 198 222 162 198 222 162 198 222 162 198 222 162 198 222 162 198 222 162 198 222 162 198 222 162 198 222 162 198 222 162 198 222 162 198 222 162 198 222 162 198 222 162 198 222 162 198 222 162 198 222 162 198 222 162 198 222 162 198 222 162 198 222 162 198 222 162 198 222 162 198 222 162 198 222 162 198 222 162 198 222 162 198 222 162 198 222 162 198 222 162 198 222 162 198 222 162 198 222 162 198 222 162 198 222 162 198 222 162 198 222 162 198 222 162 198 222 162 198 222 162 198 222 162 198 222 162 198 222 162 198 222 162 198 222 162 198 222 162 198 222 162 198 222 162 198 222 162 198 222 162 198 222 162 198 222 162 198 222 162 198 222 
159 196 220 159 196 220 159 196 220 159 196 220 159 196 220 159 196 220 159 196 220 159 196 220 159 196 220 159 196 220 159 196 220 159 196 220 159 196 220 159 196 220 159 196 220 159 196 220 159 196 220 159 196 220 159 196 220 159 196 220 159 196 220 159 196 220 159 196 220 159 196 220 159 196 220 159 196 220 159 196 220 159 196 220 159 196 220 159 196 220 159 196 220 159 196 220 159 196 220 159 196 220 159 196 220 159 196 220 159 196 220 159 196 220 159 196 220 159 196 220 159 196 220 159 196 220 159 196 220 159 196 220 159 196 220 159 196 220 159 196 220 159 196 220 159 196 220 159 196 220 159 196 220 159 196 220 159 196 220 159 196 220 159 196 220 159 196 220 159 196 220 159 196 220 159 196 220 159 196 220 159 196 220 159 196 220 159 196 220 159 196 220 159 196 220 0 0 255 147 98 96 147 98 96 147 98 96 147 98 96 147 98 96 147 98 96 147 98 96 147 98 96 147 98 96 147 98 96 147 98 96 147 98 96 147 98 96 147 98 96 147 98 96 147 98 96 147 98 96 147 98 96 147 98 96 147 98 96 147 98 96 147 98 96 147 98 96 147 98 96 147 98 96 147 98 96 147 98 96 147 98 96 147 98 96 147 98 96 147 98 96 147 98 96 147 98 96 147 98 96 147 98 96 0 0 255 0 0 255 0 0 255 159 196 220 159 196 220 159 196 220 159 196 220 159 196 220 159 196 220 159 196 220 159 196 220 159 196 220 159 196 220 159 196 220 159 196 220 0 0 255 0 0 255 0 0 255 0 0 255 147 98 96 147 98 96 147 98 96 147 98 96 147 98 96 147 98 96 147 98 96 147 98 96 147 98 96 147 98 96 147 98 96 147 98 96 147 98 96 147 98 96 147 98 96 147 98 96 147 98 96 147 98 96 147 98 96 147 98 96 147 98 96 147 98 96 147 98 96 147 98 96 147 98 96 147 98 96 147 98 96 147 98 96 147 98 96 147 98 96 0 0 255 119 83 94 119 83 94 119 83 94 119 83 94 119 83 94 119 83 94 119 83 94 119 83 94 119 83 94 0 0 255 0 0 255 0 0 255 0 0 255 162 198 222 162 198 222 162 198 222 162 198 222 162 198 222 162 198 222 162 198 222 162 198 222 162 198 222 162 198 222 162 198 222 162 198 222 162 198 222 162 198 222 162 198 222 162 198 222 162 198 222 162 198 222 162 198 222 162 198 222 162 198 222 162 198 222 162 198 222 162 198 222 162 198 222 162 198 222 162 198 222 162 198 222 162 198 222 162 198 222 162 198 222 162 198 222 162 198 222 162 198 222 162 198 222 162 198 222 162 198 222 162 198 222 162 198 222 162 198 222 162 198 222 162 198 222 162 198 222 162 198 222 162 198 222 162 198 222 162 198 222 162 198 222 162 198 222 162 198 222 162 198 222 162 198 222 162 198 222 162 198 222 162 198 222 162 198 222 162 198 222 162 198 222 162 198 222 162 198 222 162 198 222 162 198 222 162 198 222 162 198 222 162 198 222 162 198 222 162 198 222 162 198 222 162 198 222 162 198 222 162 198 222 162 198 222 162 198 222 162 198 222 162 198 222 162 198 222 162 198 222 162 198 222 162 198 222 162 198 222 162 198 222 162 198 222 162 198 222 162 198 222 162 198 222 162 198 222 162 198 222 162 198 222 162 198 222 162 198 222 162 198 222 162 198 222 
159 196 220 159 196 220 159 196 220 159 196 220 159 196 220 159 196 220 159 196 220 159 196 220 159 196 220 159 196 220 159 196 220 159 196 220 159 196 220 159 196 220 159 196 220 159 196 220 159 196 220 159 196 220 159 196 220 159 196 220 159 196 220 159 196 220 159 196 220 159 196 220 159 196 220 159 196 220 159 196 220 159 196 220 159 196 220 159 196 220 159 196 220 159 196 220 159 196 220 159 196 220 159 196 220 159 196 220 159 196 220 159 196 220 159 196 220 159 196 220 159 196 220 159 196 220 159 196 220 159 196 220 159 196 220 159 196 220 159 196 220 159 196 220 159 196 220 159 196 220 159 196 220 159 196 220 159 196 220 159 196 220 159 196 220 159 196 220 159 196 220 159 196 220 159 196 220 159 196 220 159 196 220 159 196 220 159 196 220 159 196 220 159 196 220 0 0 255 147 98 96 147 98 96 147 98 96 147 98 96 147 98 96 147 98 96 147 98 96 147 98 96 147 98 96 147 98 96 147 98 96 147 98 96 147 98 96 147 98 96 147 98 96 147 98 96 147 98 96 147 98 96 147 98 96 147 98 96 147 98 96 147 98 96 147 98 96 147 98 96 147 98 96 147 98 96 147 98 96 147 98 96 147 98 96 147 98 96 147 98 96 147 98 96 147 98 96 147 98 96 147 98 96 147 98 96 147 98 96 0 0 255 0 0 255 0 0 255 159 196 220 159 196 220 159 196 220 159 196 220 159 196 220 159 196 220 159 196 220 159 196 220 159 196 220 0 0 255 162 198 222 162 198 222 162 198 222 0 0 255 0 0 255 0 0 255 147 98 96 147 98 96 147 98 96 147 98 96 147 98 96 147 98 96 147 98 96 147 98 96 147 98 96 147 98 96 147 98 96 147 98 96 147 98 96 147 98 96 147 98 96 147 98 96 147 98 96 147 98 96 147 98 96 147 98 96 147 98 96 147 98 96 147 98 96 147 98 96 147 98 96 147 98 96 147 98 96 147 98 96 0 0 255 0 0 255 0 0 255 0 0 255 0 0 255 119 83 94 119 83 94 0 0 255 0 0 255 119 83 94 119 83 94 119 83 94 119 83 94 0 0 255 0 0 255 0 0 255 0 0 255 0 0 255 0 0 255 0 0 255 162 198 222 162 198 222 162 198 222 162 198 222 162 198 222 162 198 222 162 198 222 162 198 222 162 198 222 162 198 222 162 198 222 162 198 222 162 198 222 162 198 222 162 198 222 162 198 222 162 198 222 162 198 222 162 198 222 162 198 222 162 198 222 162 198 222 162 198 222 162 198 222 162 198 222 162 198 222 162 198 222 162 198 222 162 198 222 162 198 222 162 198 222 162 198 222 162 198 222 162 198 222 162 198 222 162 198 222 162 198 222 162 198 222 162 198 222 162 198 222 162 198 222 162 198 222 162 198 222 162 198 222 162 198 222 162 198 222 162 198 222 162 198 222 162 198 222 162 198 222 162 198 222 162 198 222 162 198 222 162 198 222 162 198 222 162 198 222 162 198 222 162 198 222 162 198 222 162 198 222 162 198 222 162 198 222 162 198 222 162 198 222 162 198 222 162 198 222 162 198 222 162 198 222 162 198 222 162 198 222 162 198 222 162 198 222 162 198 222 162 198 222 162 198 222 162 198 222 162 198 222 162 198 222 162 198 222 162 198 222 162 198 222 162 198 222 162 198 222 162 198 222 162 198 222 162 198 222 
159 196 220 159 196 220 159 196 220 159 196 220 159 196 220 159 196 220 159 196 220 159 196 220 159 196 220 159 196 220 159 196 220 159 196 220 159 196 220 159 196 220 159 196 220 159 196 220 159 196 220 159 196 220 159 196 220 159 196 220 159 196 220 159 196 220 159 196 220 159 196 220 159 196 220 159 196 220 159 196 220 159 196 220 159 196 220 159 196 220 159 196 220 159 196 220 159 196 220 159 196 220 159 196 220 159 196 220 159 196 220 159 196 220 159 196 220 159 196 220 159 196 220 159 196 220 159 196 220 159 196 220 159 196 220 159 196 220 159 196 220 159 196 220 159 196 220 159 196 220 159 196 220 159 196 220 159 196 220 159 196 220 159 196 220 159 196 220 159 196 220 159 196 220 159 196 220 159 196 220 159 196 220 159 196 220 159 196 220 159 196 220 159 196 220 0 0 255 147 98 96 147 98 96 147 98 96 147 98 96 147 98 96 147 98 96 147 98 96 147 98 96 147 98 96 147 98 96 147 98 96 147 98 96 147 98 96 147 98 96 147 98 96 147 98 96 147 98 96 147 98 96 147 98 96 147 98 96 147 98 96 147 98 96 147 98 96 147 98 96 147 98 96 147 98 96 147 98 96 147 98 96 147 98 96 147 98 96 147 98 96 147 98 96 147 98 96 147 98 96 147 98 96 147 98 96 147 98 96 147 98 96 147 98 96 0 0 255 0 0 255 0 0 255 159 196 220 159 196 220 159 196 220 159 196 220 159 196 220 159 196 220 159 196 220 0 0 255 162 198 222 162 198 222 162 198 222 162 198 222 162 198 222 0 0 255 0 0 255 0 0 255 147 98 96 147 98 96 147 98 96 147 98 96 147 98 96 147 98 96 147 98 96 147 98 96 147 98 96 147 98 96 147 98 96 147 98 96 147 98 96 147 98 96 147 98 96 147 98 96 147 98 96 147 98 96 147 98 96 147 98 96 147 98 96 147 98 96 147 98 96 147 98 96 147 98 96 147 98 96 147 98 96 147 98 96 0 0 255 0 0 255 0 0 255 119 83 94 0 0 255 147 98 96 0 0 255 0 0 255 119 83 94 119 83 94 119 83 94 119 83 94 119 83 94 119 83 94 119 83 94 119 83 94 119 83 94 0 0 255 0 0 255 0 0 255 0 0 255 0 0 255 162 198 222 162 198 222 162 198 222 162 198 222 162 198 222 162 198 222 162 198 222 162 198 222 162 198 222 162 198 222 162 198 222 162 198 222 162 198 222 162 198 222 162 198 222 162 198 222 162 198 222 162 198 222 162 198 222 162 198 222 162 198 222 162 198 222 162 198 222 162 198 222 162 198 222 162 198 222 162 198 222 162 198 222 162 198 222 162 198 222 162 198 222 162 198 222 162 198 222 162 198 222 162 198 222 162 198 222 162 198 222 162 198 222 162 198 222 162 198 222 162 198 222 162 198 222 162 198 222 162 198 222 162 198 222 162 198 222 162 198 222 162 198 222 162 198 222 162 198 222 162 198 222 162 198 222 162 198 222 162 198 222 162 198 222 162 198 222 162 198 222 162 198 222 162 198 222 162 198 222 162 198 222 162 198 222 162 198 222 162 198 222 162 198 222 162 198 222 162 198 222 162 198 222 162 198 222 162 198 222 162 198 222 162 198 222 162 198 222 162 198 222 162 198 222 162 198 222 162 198 222 162 198 222 162 198 222 162 198 222 162 198 222 162 198 222 
159 196 220 159 196 220 159 196 220 159 196 220 159 196 220 159 196 220 159 196 220 159 196 220 159 196 220 159 196 220 159 196 220 159 196 220 159 196 220 159 196 220 159 196 220 159 196 220 159 196 220 159 196 220 159 196 220 159 196 220 159 196 220 159 196 220 159 196 220 159 196 220 159 196 220 159 196 220 159 196 220 159 196 220 159 196 220 159 196 220 159 196 220 159 196 220 159 196 220 159 196 220 159 196 220 159 196 220 159 196 220 159 196 220 159 196 220 159 196 220 159 196 220 159 196 220 159 196 220 159 196 220 159 196 220 159 196 220 159 196 220 159 196 220 159 196 220 159 196 220 159 196 220 159 196 220 159 196 220 159 196 220 159 196 220 159 196 220 159 196 220 159 196 220 159 196 220 159 196 220 159 196 220 159 196 220 159 196 220 159 196 220 159 196 220 0 0 255 147 98 96 147 98 96 147 98 96 147 98 96 147 98 96 147 98 96 147 98 96 147 98 96 147 98 96 147 98 96 147 98 96 147 98 96 147 98 96 147 98 96 147 98 96 147 98 96 147 98 96 147 98 96 147 98 96 147 98 96 147 98 96 147 98 96 147 98 96 147 98 96 147 98 96 147 98 96 147 98 96 147 98 96 147 98 96 147 98 96 147 98 96 147 98 96 147 98 96 147 98 96 147 98 96 147 98 96 147 98 96 147 98 96 0 0 255 0 0 255 147 98 96 0 0 255 0 0 255 159 196 220 159 196 220 159 196 220 159 196 220 159 196 220 0 0 255 162 198 222 162 198 222 162 198 222 162 198 222 162 198 222 162 198 222 162 198 222 162 198 222 0 0 255 0 0 255 147 98 96 147 98 96 147 98 96 147 98 96 147 98 96 147 98 96 147 98 96 147 98 96 147 98 96 147 98 96 147 98 96 147 98 96 147 98 96 147 98 96 147 98 96 147 98 96 147 98 96 147 98 96 147 98 96 147 98 96 147 98 96 147 98 96 147 98 96 147 98 96 147 98 96 147 98 96 0 0 255 119 83 94 0 0 255 0 0 255 0 0 255 0 0 255 147 98 96 147 98 96 0 0 255 0 0 255 119 83 94 119 83 94 119 83 94 119 83 94 119 83 94 119 83 94 119 83 94 119 83 94 119 83 94 119 83 94 119 83 94 119 83 94 0 0 255 0 0 255 0 0 255 0 0 255 0 0 255 162 198 222 162 198 222 162 198 222 162 198 222 162 198 222 162 198 222 162 198 222 162 198 222 162 198 222 162 198 222 162 198 222 162 198 222 162 198 222 162 198 222 162 198 222 162 198 222 162 198 222 162 198 222 162 198 222 162 198 222 162 198 222 162 198 222 162 198 222 162 198 222 162 198 222 162 198 222 162 198 222 162 198 222 162 198 222 162 198 222 162 198 222 162 198 222 162 198 222 162 198 222 162 198 222 162 198 222 162 198 222 162 198 222 162 198 222 162 198 222 162 198 222 162 198 222 162 198 222 162 198 222 162 198 222 162 198 222 162 198 222 162 198 222 162 198 222 162 198 222 162 198 222 162 198 222 162 198 222 162 198 222 162 198 222 162 198 222 162 198 222 162 198 222 162 198 222 162 198 222 162 198 222 162 198 222 162 198 222 162 198 222 162 198 222 162 198 222 162 198 222 162 198 222 162 198 222 162 198 222 162 198 222 162 198 222 162 198 222 162 198 222 162 198 222 162 198 222 162 198 222 162 198 222 
159 196 220 159 196 220 159 196 220 159 196 220 159 196 220 159 196 220 159 196 220 159 196 220 159 196 220 159 196 220 159 196 220 159 196 220 159 196 220 159 196 220 159 196 220 159 196 220 159 196 220 159 196 220 159 196 220 159 196 220 159 196 220 159 196 220 159 196 220 159 196 220 159 196 220 159 196 220 159 196 220 159 196 220 159 196 220 159 196 220 159 196 220 159 196 220 159 196 220 159 196 220 159 196 220 159 196 220 159 196 220 159 196 220 159 196 220 159 196 220 159 196 220 159 196 220 159 196 220 159 196 220 159 196 220 159 196 220 159 196 220 159 196 220 159 196 220 159 196 220 159 196 220 159 196 220 159 196 220 159 196 220 159 196 220 159 196 220 159 196 220 159 196 220 159 196 220 159 196 220 159 196 220 159 196 220 159 196 220 159 196 220 159 196 220 0 0 255 147 98 96 147 98 96 147 98 96 147 98 96 147 98 96 147 98 96 147 98 96 147 98 96 147 98 96 147 98 96 147 98 96 147 98 96 147 98 96 147 98 96 147 98 96 147 98 96 147 98 96 147 98 96 147 98 96 147 98 96 147 98 96 147 98 96 147 98 96 147 98 96 147 98 96 147 98 96 147 98 96 147 98 96 147 98 96 147 98 96 147 98 96 147 98 96 147 98 96 147 98 96 147 98 96 147 98 96 147 98 96 0 0 255 0 0 255 0 0 255 0 0 255 147 98 96 0 0 255 0 0 255 0 0 255 0 0 255 159 196 220 159 196 220 0 0 255 162 198 222 162 198 222 162 198 222 162 198 222 162 198 222 162 198 222 162 198 222 162 198 222 162 198 222 0 0 255 0 0 255 0 0 255 147 98 96 147 98 96 147 98 96 147 98 96 147 98 96 147 98 96 147 98 96 147 98 96 147 98 96 147 98 96 147 98 96 147 98 96 147 98 96 147 98 96 147 98 96 147 98 96 147 98 96 147 98 96 147 98 96 147 98 96 147 98 96 147 98 96 147 98 96 147 98 96 0 0 255 0 0 255 119 83 94 119 83 94 119 83 94 0 0 255 0 0 255 0 0 255 0 0 255 0 0 255 119 83 94 119 83 94 119 83 94 119 83 94 119 83 94 119 83 94 119 83 94 119 83 94 119 83 94 119 83 94 119 83 94 119 83 94 119 83 94 119 83 94 119 83 94 119 83 94 0 0 255 0 0 255 0 0 255 0 0 255 0 0 255 0 0 255 0 0 255 162 198 222 162 198 222 162 198 222 162 198 222 162 198 222 162 198 222 162 198 222 162 198 222 162 198 222 162 198 222 162 198 222 162 198 222 162 198 222 162 198 222 162 198 222 162 198 222 162 198 222 162 198 222 162 198 222 162 198 222 162 198 222 162 198 222 162 198 222 162 198 222 162 198 222 162 198 222 162 198 222 162 198 222 162 198 222 162 198 222 162 198 222 162 198 222 162 198 222 162 198 222 162 198 222 162 198 222 162 198 222 162 198 222 162 198 222 162 198 222 162 198 222 162 198 222 162 198 222 162 198 222 162 198 222 162 198 222 162 198 222 162 198 222 162 198 222 162 198 222 162 198 222 162 198 222 162 198 222 162 198 222 162 198 222 162 198 222 162 198 222 162 198 222 162 198 222 162 198 222 162 198 222 162 198 222 162 198 222 162 198 222 162 198 222 162 198 222 162 198 222 162 198 222 162 198 222 162 198 222 162 198 222 162 198 222 
159 196 220 159 196 220 159 196 220 159 196 220 159 196 220 159 196 220 159 196 220 159 196 220 159 196 220 159 196 220 159 196 220 159 196 220 159 196 220 159 196 220 159 196 220 159 196 220 159 196 220 159 196 220 159 196 220 159 196 220 159 196 220 159 196 220 159 196 220 159 196 220 159 196 220 159 196 220 159 196 220 159 196 220 159 196 220 159 196 220 159 196 220 159 196 220 159 196 220 159 196 220 159 196 220 159 196 220 159 196 220 159 196 220 159 196 220 159 196 220 159 196 220 159 196 220 159 196 220 159 196 220 159 196 220 159 196 220 159 196 220 159 196 220 159 196 220 159 196 220 159 196 220 159 196 220 159 196 220 159 196 220 159 196 220 159 196 220 159 196 220 159 196 220 159 196 220 159 196 220 159 196 220 159 196 220 159 196 220 159 196 220 159 196 220 0 0 255 147 98 96 147 98 96 147 98 96 147 98 96 147 98 96 147 98 96 147 98 96 147 98 96 147 98 96 147 98 96 147 98 96 147 98 96 147 98 96 147 98 96 147 98 96 147 98 96 147 98 96 147 98 96 147 98 96 147 98 96 147 98 96 147 98 96 147 98 96 147 98 96 147 98 96 147 98 96 147 98 96 147 98 96 147 98 96 147 98 96 147 98 96 147 98 96 147 98 96 147 98 96 147 98 96 147 98 96 147 98 96 147 98 96 0 0 255 0 0 255 0 0 255 147 98 96 147 98 96 147 98 96 147 98 96 0 0 255 0 0 255 159 196 220 0 0 255 0 0 255 162 198 222 162 198 222 162 198 222 162 198 222 162 198 222 162 198 222 162 198 222 162 198 222 162 198 222 162 198 222 0 0 255 0 0 255 0 0 255 147 98 96 147 98 96 147 98 96 147 98 96 147 98 96 147 98 96 147 98 96 147 98 96 147 98 96 147 98 96 147 98 96 147 98 96 147 98 96 147 98 96 147 98 96 147 98 96 147 98 96 147 98 96 147 98 96 147 98 96 147 98 96 147 98 96 147 98 96 0 0 255 119 83 94 119 83 94 119 83 94 119 83 94 119 83 94 119 83 94 119 83 94 119 83 94 119 83 94 119 83 94 119 83 94 119 83 94 119 83 94 119 83 94 119 83 94 119 83 94 119 83 94 119 83 94 119 83 94 119 83 94 119 83 94 119 83 94 119 83 94 119 83 94 119 83 94 119 83 94 119 83 94 119 83 94 119 83 94 119 83 94 0 0 255 0 0 255 0 0 255 0 0 255 0 0 255 0 0 255 0 0 255 162 198 222 162 198 222 162 198 222 162 198 222 162 198 222 162 198 222 162 198 222 162 198 222 162 198 222 162 198 222 162 198 222 162 198 222 162 198 222 162 198 222 162 198 222 162 198 222 162 198 222 162 198 222 162 198 222 162 198 222 162 198 222 162 198 222 162 198 222 162 198 222 162 198 222 162 198 222 162 198 222 162 198 222 162 198 222 162 198 222 162 198 222 162 198 222 162 198 222 162 198 222 162 198 222 162 198 222 162 198 222 162 198 222 162 198 222 162 198 222 162 198 222 162 198 222 162 198 222 162 198 222 162 198 222 162 198 222 162 198 222 162 198 222 162 198 222 162 198 222 162 198 222 162 198 222 162 198 222 162 198 222 162 198 222 162 198 222 162 198 222 162 198 222 162 198 222 162 198 222 162 198 222 162 198 222 162 198 222 162 198 222 162 198 222 162 198 222 
159 196 220 159 196 220 159 196 220 159 196 220 159 196 220 159 196 220 159 196 220 159 196 220 159 196 220 159 196 220 159 196 220 159 196 220 159 196 220 159 196 220 159 196 220 159 196 220 159 196 220 159 196 220 159 196 220 159 196 220 159 196 220 159 196 220 159 196 220 159 196 220 159 196 220 159 196 220 159 196 220 159 196 220 159 196 220 159 196 220 159 196 220 159 196 220 159 196 220 159 196 220 159 196 220 159 196 220 159 196 220 159 196 220 159 196 220 159 196 220 159 196 220 159 196 220 159 196 220 159 196 220 159 196 220 159 196 220 159 196 220 159 196 220 159 196 220 159 196 220 159 196 220 159 196 220 159 196 220 159 196 220 159 196 220 159 196 220 159 196 220 159 196 220 159 196 220 159 196 220 159 196 220 159 196 220 159 196 220 159 196 220 159 196 220 0 0 255 147 98 96 147 98 96 147 98 96 147 98 96 147 98 96 147 98 96 147 98 96 147 98 96 147 98 96 147 98 96 147 98 96 147 98 96 147 98 96 147 98 96 147 98 96 147 98 96 147 98 96 147 98 96 147 98 96 147 98 96 147 98 96 147 98 96 147 98 96 147 98 96 147 98 96 147 98 96 147 98 96 147 98 96 147 98 96 147 98 96 147 98 96 147 98 96 147 98 96 147 98 96 147 98 96 147 98 96 147 98 96 147 98 96 147 98 96 147 98 96 147 98 96 147 98 96 147 98 96 147 98 96 147 98 96 147 98 96 0 0 255 0 0 255 0 0 255 0 0 255 162 198 222 162 198 222 162 198 222 162 198 222 162 198 222 162 198 222 162 198 222 162 198 222 162 198 222 162 198 222 162 198 222 162 198 222 0 0 255 0 0 255 0 0 255 147 98 96 147 98 96 147 98 96 147 98 96 147 98 96 147 98 96 147 98 96 147 98 96 147 98 96 147 98 96 147 98 96 147 98 96 147 98 96 147 98 96 147 98 96 147 98 96 147 98 96 147 98 96 147 98 96 147 98 96 147 98 96 0 0 255 119 83 94 119 83 94 119 83 94 119 83 94 119 83 94 119 83 94 119 83 94 119 83 94 119 83 94 119 83 94 119 83 94 119 83 94 119 83 94 119 83 94 119 83 94 119 83 94 119 83 94 119 83 94 119 83 94 119 83 94 119 83 94 119 83 94 119 83 94 119 83 94 119 83 94 119 83 94 119 83 94 119 83 94 119 83 94 119 83 94 119 83 94 119 83 94 119 83 94 119 83 94 119 83 94 119 83 94 0 0 255 0 0 255 0 0 255 0 0 255 0 0 255 0 0 255 162 198 222 162 198 222 162 198 222 162 198 222 162 198 222 162 198 222 162 198 222 162 198 222 162 198 222 162 198 222 162 198 222 162 198 222 162 198 222 162 198 222 162 198 222 162 198 222 162 198 222 162 198 222 162 198 222 162 198 222 162 198 222 162 198 222 162 198 222 162 198 222 162 198 222 162 198 222 162 198 222 162 198 222 162 198 222 162 198 222 162 198 222 162 198 222 162 198 222 162 198 222 162 198 222 162 198 222 162 198 222 162 198 222 162 198 222 162 198 222 162 198 222 162 198 222 162 198 222 162 198 222 162 198 222 162 198 222 162 198 222 162 198 222 162 198 222 162 198 222 162 198 222 162 198 222 162 198 222 162 198 222 162 198 222 162 198 222 162 198 222 162 198 222 162 198 222 162 198 222 162 198 222 
159 196 220 159 196 220 159 196 220 159 196 220 159 196 220 159 196 220 159 196 220 159 196 220 159 196 220 159 196 220 159 196 220 159 196 220 159 196 220 159 196 220 159 196 220 159 196 220 159 196 220 159 196 220 159 196 220 159 196 220 159 196 220 159 196 220 159 196 220 159 196 220 159 196 220 159 196 220 159 196 220 159 196 220 159 196 220 159 196 220 159 196 220 159 196 220 159 196 220 159 196 220 159 196 220 159 196 220 159 196 220 159 196 220 159 196 220 159 196 220 159 196 220 159 196 220 159 196 220 159 196 220 159 196 220 159 196 220 159 196 220 159 196 220 159 196 220 159 196 220 159 196 220 159 196 220 159 196 220 159 196 220 159 196 220 159 196 220 159 196 220 159 196 220 159 196 220 159 196 220 159 196 220 159 196 220 159 196 220 159 196 220 159 196 220 0 0 255 147 98 96 147 98 96 147 98 96 147 98 96 147 98 96 147 98 96 147 98 96 147 98 96 147 98 96 147 98 96 147 98 96 147 98 96 147 98 96 147 98 96 147 98 96 147 98 96 147 98 96 147 98 96 147 98 96 147 98 96 147 98 96 147 98 96 147 98 96 147 98 96 147 98 96 147 98 96 147 98 96 147 98 96 147 98 96 147 98 96 147 98 96 147 98 96 147 98 96 147 98 96 147 98 96 147 98 96 147 98 96 147 98 96 147 98 96 147 98 96 147 98 96 147 98 96 147 98 96 147 98 96 147 98 96 147 98 96 147 98 96 147 98 96 0 0 255 0 0 255 0 0 255 162 198 222 162 198 222 162 198 222 162 198 222 162 198 222 162 198 222 162 198 222 162 198 222 162 198 222 162 198 222 162 198 222 162 198 222 162 198 222 0 0 255 0 0 255 0 0 255 147 98 96 147 98 96 147 98 96 147 98 96 147 98 96 147 98 96 147 98 96 147 98 96 147 98 96 147 98 96 147 98 96 147 98 96 147 98 96 147 98 96 147 98 96 147 98 96 147 98 96 147 98 96 147 98 96 0 0 255 0 0 255 0 0 255 119 83 94 119 83 94 119 83 94 119 83 94 119 83 94 119 83 94 119 83 94 119 83 94 119 83 94 119 83 94 119 83 94 119 83 94 119 83 94 119 83 94 119 83 94 119 83 94 119 83 94 119 83 94 119 83 94 119 83 94 119 83 94 119 83 94 119 83 94 119 83 94 119 83 94 119 83 94 119 83 94 119 83 94 119 83 94 119 83 94 119 83 94 119 83 94 119 83 94 119 83 94 119 83 94 119 83 94 119 83 94 119 83 94 119 83 94 0 0 255 0 0 255 0 0 255 0 0 255 0 0 255 0 0 255 0 0 255 162 198 222 162 198 222 162 198 222 162 198 222 162 198 222 162 198 222 162 198 222 162 198 222 162 198 222 162 198 222 162 198 222 162 198 222 162 198 222 162 198 222 162 198 222 162 198 222 162 198 222 162 198 222 162 198 222 162 198 222 162 198 222 162 198 222 162 198 222 162 198 222 162 198 222 162 198 222 162 198 222 162 198 222 162 198 222 162 198 222 162 198 222 162 198 222 162 198 222 162 198 222 162 198 222 162 198 222 162 198 222 162 198 222 162 198 222 162 198 222 162 198 222 162 198 222 162 198 222 162 198 222 162 198 222 162 198 222 162 198 222 162 198 222 162 198 222 162 198 222 162 198 222 162 198 222 162 198 222 162 198 222 162 198 222 
159 196 220 159 196 220 159 196 220 159 196 220 159 196 220 159 196 220 159 196 220 159 196 220 159 196 220 159 196 220 159 196 220 159 196 220 159 196 220 159 196 220 159 196 220 159 196 220 159 196 220 159 196 220 159 196 220 159 196 220 159 196 220 159 196 220 159 196 220 159 196 220 159 196 220 159 196 220 159 196 220 159 196 220 159 196 220 159 196 220 159 196 220 159 196 220 159 196 220 159 196 220 159 196 220 159 196 220 159 196 220 159 196 220 159 196 220 159 196 220 159 196 220 159 196 220 159 196 220 159 196 220 159 196 220 159 196 220 159 196 220 159 196 220 159 196 220 159 196 220 159 196 220 159 196 220 159 196 220 159 196 220 159 196 220 159 196 220 159 196 220 159 196 220 159 196 220 159 196 220 159 196 220 159 196 220 159 196 220 159 196 220 159 196 220 0 0 255 147 98 96 147 98 96 147 98 96 147 98 96 147 98 96 147 98 96 147 98 96 147 98 96 147 98 96 147 98 96 147 98 96 147 98 96 147 98 96 147 98 96 147 98 96 147 98 96 147 98 96 147 98 96 147 98 96 147 98 96 147 98 96 147 98 96 147 98 96 147 98 96 147 98 96 147 98 96 147 98 96 147 98 96 147 98 96 147 98 96 147 98 96 147 98 96 147 98 96 147 98 96 147 98 96 147 98 96 147 98 96 147 98 96 147 98 96 147 98 96 147 98 96 147 98 96 147 98 96 147 98 96 147 98 96 147 98 96 147 98 96 147 98 96 147 98 96 147 98 96 0 0 255 0 0 255 0 0 255 162 198 222 162 198 222 162 198 222 162 198 222 162 198 222 162 198 222 162 198 222 162 198 222 162 198 222 162 198 222 162 198 222 162 198 222 162 198 222 0 0 255 0 0 255 0 0 255 147 98 96 147 98 96 147 98 96 147 98 96 147 98 96 147 98 96 147 98 96 147 98 96 147 98 96 147 98 96 147 98 96 147 98 96 147 98 96 147 98 96 147 98 96 147 98 96 147 98 96 147 98 96 147 98 96 0 0 255 0 0 255 119 83 94 119 83 94 119 83 94 119 83 94 0 0 255 119 83 94 119 83 94 119 83 94 119 83 94 119 83 94 119 83 94 119 83 94 119 83 94 119 83 94 119 83 94 119 83 94 119 83 94 119 83 94 119 83 94 119 83 94 119 83 94 119 83 94 119 83 94 119 83 94 119 83 94 119 83 94 119 83 94 119 83 94 119 83 94 119 83 94 119 83 94 119 83 94 119 83 94 119 83 94 119 83 94 119 83 94 119 83 94 119 83 94 119 83 94 119 83 94 119 83 94 119 83 94 119 83 94 119 83 94 0 0 255 0 0 255 0 0 255 0 0 255 0 0 255 0 0 255 162 198 222 162 198 222 162 198 222 162 198 222 162 198 222 162 198 222 162 198 222 162 198 222 162 198 222 162 198 222 162 198 222 162 198 222 162 198 222 162 198 222 162 198 222 162 198 222 162 198 222 162 198 222 162 198 222 162 198 222 162 198 222 162 198 222 162 198 222 162 198 222 162 198 222 162 198 222 162 198 222 162 198 222 162 198 222 162 198 222 162 198 222 162 198 222 162 198 222 162 198 222 162 198 222 162 198 222 162 198 222 162 198 222 162 198 222 162 198 222 162 198 222 162 198 222 162 198 222 162 198 222 162 198 222 162 198 222 162 198 222 162 198 222 162 198 222 162 198 222 
159 196 220 159 196 220 159 196 220 159 196 220 159 196 220 159 196 220 159 196 220 159 196 220 159 196 220 159 196 220 159 196 220 159 196 220 159 196 220 159 196 220 159 196 220 159 196 220 159 196 220 159 196 220 159 196 220 159 196 220 159 196 220 159 196 220 159 196 220 159 196 220 159 196 220 159 196 220 159 196 220 159 196 220 159 196 220 159 196 220 159 196 220 159 196 220 159 196 220 159 196 220 159 196 220 159 196 220 159 196 220 159 196 220 159 196 220 159 196 220 159 196 220 159 196 220 159 196 220 159 196 220 159 196 220 159 196 220 159 196 220 159 196 220 159 196 220 159 196 220 159 196 220 159 196 220 159 196 220 159 196 220 159 196 220 159 196 220 159 196 220 159 196 220 159 196 220 159 196 220 159 196 220 159 196 220 159 196 220 159 196 220 159 196 220 0 0 255 147 98 96 147 98 96 147 98 96 147 98 96 147 98 96 147 98 96 147 98 96 147 98 96 147 98 96 147 98 96 147 98 96 147 98 96 147 98 96 147 98 96 147 98 96 147 98 96 147 98 96 147 98 96 147 98 96 147 98 96 147 98 96 147 98 96 147 98 96 147 98 96 147 98 96 147 98 96 147 98 96 147 98 96 147 98 96 147 98 96 147 98 96 147 98 96 147 98 96 147 98 96 147 98 96 147 98 96 147 98 96 147 98 96 147 98 96 147 98 96 147 98 96 147 98 96 147 98 96 147 98 96 147 98 96 147 98 96 147 98 96 147 98 96 147 98 96 147 98 96 147 98 96 147 98 96 0 0 255 0 0 255 0 0 255 162 198 222 162 198 222 162 198 222 162 198 222 162 198 222 162 198 222 162 198 222 162 198 222 162 198 222 162 198 222 162 198 222 162 198 222 162 198 222 0 0 255 0 0 255 0 0 255 147 98 96 147 98 96 147 98 96 147 98 96 147 98 96 147 98 96 147 98 96 147 98 96 147 98 96 147 98 96 147 98 96 147 98 96 0 0 255 0 0 255 0 0 255 147 98 96 0 0 255 0 0 255 0 0 255 119 83 94 119 83 94 119 83 94 0 0 255 0 0 255 119 83 94 119 83 94 119 83 94 119 83 94 119 83 94 119 83 94 119 83 94 119 83 94 119 83 94 119 83 94 119 83 94 119 83 94 119 83 94 119 83 94 119 83 94 119 83 94 119 83 94 119 83 94 119 83 94 119 83 94 119 83 94 119 83 94 119 83 94 119 83 94 119 83 94 119 83 94 119 83 94 119 83 94 119 83 94 119 83 94 119 83 94 119 83 94 119 83 94 119 83 94 119 83 94 119 83 94 119 83 94 119 83 94 119 83 94 119 83 94 119 83 94 119 83 94 119 83 94 119 83 94 0 0 255 0 0 255 0 0 255 0 0 255 0 0 255 0 0 255 0 0 255 162 198 222 162 198 222 162 198 222 162 198 222 162 198 222 162 198 222 162 198 222 162 198 222 162 198 222 162 198 222 162 198 222 162 198 222 162 198 222 162 198 222 162 198 222 162 198 222 162 198 222 162 198 222 162 198 222 162 198 222 162 198 222 162 198 222 162 198 222 162 198 222 162 198 222 162 198 222 162 198 222 162 198 222 162 198 222 162 198 222 162 198 222 162 198 222 162 198 222 162 198 222 162 198 222 162 198 222 162 198 222 162 198 222 162 198 222 162 198 222 162 198 222 162 198 222 162 198 222 162 198 222 
159 196 220 159 196 220 159 196 220 159 196 220 159 196 220 159 196 220 159 196 220 159 196 220 159 196 220 159 196 220 159 196 220 159 196 220 159 196 220 159 196 220 159 196 220 159 196 220 159 196 220 159 196 220 159 196 220 159 196 220 159 196 220 159 196 220 159 196 220 159 196 220 159 196 220 159 196 220 159 196 220 159 196 220 159 196 220 159 196 220 159 196 220 159 196 220 159 196 220 159 196 220 159 196 220 159 196 220 159 196 220 159 196 220 159 196 220 159 196 220 159 196 220 159 196 220 159 196 220 159 196 220 159 196 220 159 196 220 159 196 220 159 196 220 159 196 220 159 196 220 159 196 220 159 196 220 159 196 220 159 196 220 159 196 220 159 196 220 159 196 220 159 196 220 159 196 220 159 196 220 159 196 220 159 196 220 159 196 220 159 196 220 159 196 220 0 0 255 147 98 96 147 98 96 147 98 96 147 98 96 147 98 96 147 98 96 147 98 96 147 98 96 147 98 96 147 98 96 147 98 96 147 98 96 147 98 96 147 98 96 147 98 96 147 98 96 147 98 96 147 98 96 147 98 96 147 98 96 147 98 96 147 98 96 147 98 96 147 98 96 147 98 96 147 98 96 147 98 96 147 98 96 147 98 96 147 98 96 147 98 96 147 98 96 147 98 96 147 98 96 147 98 96 147 98 96 147 98 96 147 98 96 147 98 96 147 98 96 147 98 96 147 98 96 147 98 96 147 98 96 147 98 96 147 98 96 147 98 96 147 98 96 147 98 96 147 98 96 147 98 96 147 98 96 147 98 96 147 98 96 0 0 255 0 0 255 0 0 255 162 198 222 162 198 222 162 198 222 162 198 222 162 198 222 162 198 222 162 198 222 162 198 222 162 198 222 162 198 222 162 198 222 162 198 222 162 198 222 0 0 255 0 0 255 0 0 255 147 98 96 147 98 96 147 98 96 147 98 96 147 98 96 147 98 96 147 98 96 147 98 96 147 98 96 0 0 255 119 83 94 119 83 94 0 0 255 0 0 255 119 83 94 0 0 255 119 83 94 119 83 94 119 83 94 119 83 94 119 83 94 119 83 94 119 83 94 119 83 94 119 83 94 119 83 94 119 83 94 119 83 94 119 83 94 119 83 94 119 83 94 119 83 94 119 83 94 119 83 94 119 83 94 119 83 94 119 83 94 119 83 94 119 83 94 119 83 94 119 83 94 119 83 94 119 83 94 119 83 94 119 83 94 119 83 94 119 83 94 119 83 94 119 83 94 119 83 94 119 83 94 119 83 94 119 83 94 119 83 94 119 83 94 119 83 94 119 83 94 119 83 94 119 83 94 119 83 94 119 83 94 119 83 94 119 83 94 119 83 94 119 83 94 119 83 94 119 83 94 119 83 94 119 83 94 119 83 94 119 83 94 119 83 94 0 0 255 0 0 255 0 0 255 0 0 255 0 0 255 0 0 255 0 0 255 162 198 222 162 198 222 162 198 222 162 198 222 162 198 222 162 198 222 162 198 222 162 198 222 162 198 222 162 198 222 162 198 222 162 198 222 162 198 222 162 198 222 162 198 222 162 198 222 162 198 222 162 198 222 162 198 222 162 198 222 162 198 222 162 198 222 162 198 222 162 198 222 162 198 222 162 198 222 162 198 222 162 198 222 162 198 222 162 198 222 162 198 222 162 198 222 162 198 222 162 198 222 162 198 222 162 198 222 162 198 222 162 198 222 
159 196 220 159 196 220 159 196 220 159 196 220 159 196 220 159 196 220 159 196 220 159 196 220 159 196 220 159 196 220 159 196 220 159 196 220 159 196 220 159 196 220 159 196 220 159 196 220 159 196 220 159 196 220 159 196 220 159 196 220 159 196 220 159 196 220 159 196 220 159 196 220 159 196 220 159 196 220 159 196 220 159 196 220 159 196 220 159 196 220 159 196 220 159 196 220 159 196 220 159 196 220 159 196 220 159 196 220 159 196 220 159 196 220 159 196 220 159 196 220 159 196 220 159 196 220 159 196 220 159 196 220 159 196 220 159 196 220 159 196 220 159 196 220 159 196 220 159 196 220 159 196 220 159 196 220 159 196 220 159 196 220 159 196 220 159 196 220 159 196 220 159 196 220 159 196 220 159 196 220 159 196 220 159 196 220 159 196 220 159 196 220 159 196 220 0 0 255 147 98 96 147 98 96 147 98 96 147 98 96 147 98 96 147 98 96 147 98 96 147 98 96 147 98 96 147 98 96 147 98 96 147 98 96 147 98 96 147 98 96 147 98 96 147 98 96 147 98 96 147 98 96 147 98 96 147 98 96 147 98 96 147 98 96 147 98 96 147 98 96 147 98 96 147 98 96 147 98 96 147 98 96 147 98 96 147 98 96 147 98 96 147 98 96 147 98 96 147 98 96 147 98 96 147 98 96 147 98 96 147 98 96 147 98 96 147 98 96 147 98 96 147 98 96 147 98 96 147 98 96 147 98 96 147 98 96 147 98 96 147 98 96 147 98 96 147 98 96 147 98 96 147 98 96 147 98 96 147 98 96 147 98 96 147 98 96 0 0 255 0 0 255 0 0 255 162 198 222 162 198 222 162 198 222 162 198 222 162 198 222 162 198 222 162 198 222 162 198 222 162 198 222 162 198 222 162 198 222 162 198 222 162 198 222 0 0 255 0 0 255 0 0 255 147 98 96 147 98 96 147 98 96 147 98 96 147 98 96 147 98 96 147 98 96 0 0 255 0 0 255 0 0 255 0 0 255 0 0 255 0 0 255 0 0 255 119 83 94 119 83 94 0 0 255 119 83 94 119 83 94 119 83 94 119 83 94 119 83 94 119 83 94 119 83 94 119 83 94 119 83 94 119 83 94 119 83 94 119 83 94 119 83 94 119 83 94 119 83 94 119 83 94 119 83 94 119 83 94 119 83 94 119 83 94 119 83 94 119 83 94 119 83 94 119 83 94 119 83 94 119 83 94 119 83 94 119 83 94 119 83 94 119 83 94 119 83 94 119 83 94 119 83 94 119 83 94 119 83 94 119 83 94 119 83 94 119 83 94 119 83 94 119 83 94 119 83 94 119 83 94 119 83 94 119 83 94 119 83 94 119 83 94 119 83 94 119 83 94 119 83 94 119 83 94 119 83 94 119 83 94 119 83 94 119 83 94 119 83 94 119 83 94 119 83 94 119 83 94 119 83 94 0 0 255 0 0 255 0 0 255 0 0 255 0 0 255 0 0 255 162 198 222 162 198 222 162 198 222 162 198 222 162 198 222 162 198 222 162 198 222 162 198 222 162 198 222 162 198 222 162 198 222 162 198 222 162 198 222 162 198 222 162 198 222 162 198 222 162 198 222 162 198 222 162 198 222 162 198 222 162 198 222 162 198 222 162 198 222 162 198 222 162 198 222 162 198 222 162 198 222 162 198 222 162 198 222 162 198 222 162 198 222 162 198 222 162 198 222 
159 196 220 159 196 220 159 196 220 159 196 220 159 196 220 159 196 220 159 196 220 159 196 220 159 196 220 159 196 220 159 196 220 159 196 220 159 196 220 159 196 220 159 196 220 159 196 220 159 196 220 159 196 220 159 196 220 159 196 220 159 196 220 159 196 220 159 196 220 159 196 220 159 196 220 159 196 220 159 196 220 159 196 220 159 196 220 159 196 220 159 196 220 159 196 220 159 196 220 159 196 220 159 196 220 159 196 220 159 196 220 159 196 220 159 196 220 159 196 220 159 196 220 159 196 220 159 196 220 159 196 220 159 196 220 159 196 220 159 196 220 159 196 220 159 196 220 159 196 220 159 196 220 159 196 220 159 196 220 159 196 220 159 196 220 159 196 220 159 196 220 159 196 220 159 196 220 159 196 220 159 196 220 159 196 220 159 196 220 159 196 220 159 196 220 0 0 255 147 98 96 147 98 96 147 98 96 147 98 96 147 98 96 147 98 96 147 98 96 147 98 96 147 98 96 147 98 96 147 98 96 147 98 96 147 98 96 147 98 96 147 98 96 147 98 96 147 98 96 147 98 96 147 98 96 147 98 96 147 98 96 147 98 96 147 98 96 147 98 96 147 98 96 147 98 96 147 98 96 147 98 96 147 98 96 147 98 96 147 98 96 147 98 96 147 98 96 147 98 96 147 98 96 147 98 96 147 98 96 147 98 96 147 98 96 147 98 96 147 98 96 147 98 96 147 98 96 147 98 96 147 98 96 147 98 96 147 98 96 147 98 96 147 98 96 147 98 96 147 98 96 147 98 96 147 98 96 147 98 96 147 98 96 147 98 96 147 98 96 147 98 96 0 0 255 0 0 255 162 198 222 162 198 222 162 198 222 162 198 222 162 198 222 162 198 222 162 198 222 162 198 222 162 198 222 162 198 222 162 198 222 162 198 222 162 198 222 162 198 222 0 0 255 0 0 255 0 0 255 147 98 96 147 98 96 147 98 96 147 98 96 147 98 96 147 98 96 147 98 96 0 0 255 0 0 255 0 0 255 119 83 94 119 83 94 119 83 94 0 0 255 0 0 255 119 83 94 119 83 94 119 83 94 119 83 94 119 83 94 119 83 94 119 83 94 119 83 94 119 83 94 119 83 94 119 83 94 119 83 94 119 83 94 119 83 94 119 83 94 119 83 94 119 83 94 119 83 94 119 83 94 119 83 94 119 83 94 119 83 94 119 83 94 119 83 94 119 83 94 119 83 94 119 83 94 119 83 94 119 83 94 119 83 94 119 83 94 119 83 94 119 83 94 119 83 94 119 83 94 119 83 94 119 83 94 119 83 94 119 83 94 119 83 94 119 83 94 119 83 94 119 83 94 119 83 94 119 83 94 119 83 94 119 83 94 119 83 94 119 83 94 119 83 94 119 83 94 119 83 94 119 83 94 119 83 94 119 83 94 119 83 94 119 83 94 119 83 94 119 83 94 119 83 94 119 83 94 119 83 94 119 83 94 119 83 94 0 0 255 0 0 255 0 0 255 0 0 255 0 0 255 0 0 255 162 198 222 162 198 222 162 198 222 162 198 222 162 198 222 162 198 222 162 198 222 162 198 222 162 198 222 162 198 222 162 198 222 162 198 222 162 198 222 162 198 222 162 198 222 162 198 222 162 198 222 162 198 222 162 198 222 162 198 222 162 198 222 162 198 222 162 198 222 162 198 222 162 198 222 162 198 222 162 198 222 162 198 222 
159 196 220 159 196 220 159 196 220 159 196 220 159 196 220 159 196 220 159 196 220 159 196 220 159 196 220 159 196 220 159 196 220 159 196 220 159 196 220 159 196 220 159 196 220 159 196 220 159 196 220 159 196 220 159 196 220 159 196 220 159 196 220 159 196 220 159 196 220 159 196 220 159 196 220 159 196 220 159 196 220 159 196 220 159 196 220 159 196 220 159 196 220 159 196 220 159 196 220 159 196 220 159 196 220 159 196 220 159 196 220 159 196 220 159 196 220 159 196 220 159 196 220 159 196 220 159 196 220 159 196 220 159 196 220 159 196 220 159 196 220 159 196 220 159 196 220 159 196 220 159 196 220 159 196 220 159 196 220 159 196 220 159 196 220 159 196 220 159 196 220 159 196 220 159 196 220 159 196 220 159 196 220 159 196 220 159 196 220 159 196 220 159 196 220 0 0 255 147 98 96 147 98 96 147 98 96 147 98 96 147 98 96 147 98 96 147 98 96 147 98 96 147 98 96 147 98 96 147 98 96 147 98 96 147 98 96 147 98 96 147 98 96 147 98 96 147 98 96 147 98 96 147 98 96 147 98 96 147 98 96 147 98 96 147 98 96 147 98 96 147 98 96 147 98 96 147 98 96 147 98 96 147 98 96 147 98 96 147 98 96 147 98 96 147 98 96 147 98 96 147 98 96 147 98 96 147 98 96 147 98 96 147 98 96 147 98 96 147 98 96 147 98 96 147 98 96 147 98 96 147 98 96 147 98 96 147 98 96 147 98 96 147 98 96 147 98 96 147 98 96 147 98 96 147 98 96 147 98 96 147 98 96 147 98 96 147 98 96 147 98 96 147 98 96 0 0 255 0 0 255 0 0 255 162 198 222 162 198 222 162 198 222 162 198 222 162 198 222 162 198 222 162 198 222 162 198 222 162 198 222 162 198 222 162 198 222 162 198 222 162 198 222 162 198 222 0 0 255 0 0 255 0 0 255 147 98 96 147 98 96 147 98 96 147 98 96 0 0 255 0 0 255 0 0 255 0 0 255 0 0 255 0 0 255 119 83 94 119 83 94 119 83 94 119 83 94 119 83 94 119 83 94 119 83 94 119 83 94 119 83 94 119 83 94 119 83 94 119 83 94 119 83 94 119 83 94 119 83 94 119 83 94 119 83 94 119 83 94 119 83 94 119 83 94 119 83 94 119 83 94 119 83 94 119 83 94 119 83 94 119 83 94 119 83 94 119 83 94 119 83 94 119 83 94 119 83 94 119 83 94 119 83 94 119 83 94 119 83 94 119 83 94 119 83 94 119 83 94 119 83 94 119 83 94 119 83 94 119 83 94 119 83 94 119 83 94 119 83 94 119 83 94 119 83 94 119 83 94 119 83 94 119 83 94 119 83 94 119 83 94 119 83 94 119 83 94 119 83 94 119 83 94 119 83 94 119 83 94 119 83 94 119 83 94 119 83 94 119 83 94 119 83 94 119 83 94 119 83 94 119 83 94 119 83 94 119 83 94 119 83 94 119 83 94 119 83 94 119 83 94 0 0 255 0 0 255 0 0 255 0 0 255 0 0 255 0 0 255 0 0 255 162 198 222 162 198 222 162 198 222 162 198 222 162 198 222 162 198 222 162 198 222 162 198 222 162 198 222 162 198 222 162 198 222 162 198 222 162 198 222 162 198 222 162 198 222 162 198 222 162 198 222 162 198 222 162 198 222 162 198 222 162 198 222 162 198 222 
159 196 220 159 196 220 159 196 220 159 196 220 159 196 220 159 196 220 159 196 220 159 196 220 159 196 220 159 196 220 159 196 220 159 196 220 159 196 220 159 196 220 159 196 220 159 196 220 159 196 220 159 196 220 159 196 220 159 196 220 159 196 220 159 196 220 159 196 220 159 196 220 159 196 220 159 196 220 159 196 220 159 196 220 159 196 220 159 196 220 159 196 220 159 196 220 159 196 220 159 196 220 159 196 220 159 196 220 159 196 220 159 196 220 159 196 220 159 196 220 159 196 220 159 196 220 159 196 220 159 196 220 159 196 220 159 196 220 159 196 220 159 196 220 159 196 220 159 196 220 159 196 220 159 196 220 159 196 220 159 196 220 159 196 220 159 196 220 159 196 220 159 196 220 159 196 220 159 196 220 159 196 220 159 196 220 159 196 220 159 196 220 159 196 220 0 0 255 147 98 96 147 98 96 147 98 96 147 98 96 147 98 96 147 98 96 147 98 96 147 98 96 147 98 96 147 98 96 147 98 96 147 98 96 147 98 96 147 98 96 147 98 96 147 98 96 147 98 96 147 98 96 147 98 96 147 98 96 147 98 96 147 98 96 147 98 96 147 98 96 147 98 96 147 98 96 147 98 96 147 98 96 147 98 96 147 98 96 147 98 96 147 98 96 147 98 96 147 98 96 147 98 96 147 98 96 147 98 96 147 98 96 147 98 96 147 98 96 147 98 96 147 98 96 147 98 96 147 98 96 147 98 96 147 98 96 147 98 96 147 98 96 147 98 96 147 98 96 147 98 96 147 98 96 147 98 96 147 98 96 147 98 96 147 98 96 147 98 96 147 98 96 147 98 96 147 98 96 147 98 96 0 0 255 0 0 255 0 0 255 162 198 222 162 198 222 162 198 222 162 198 222 162 198 222 162 198 222 162 198 222 162 198 222 162 198 222 162 198 222 162 198 222 162 198 222 162 198 222 162 198 222 0 0 255 0 0 255 0 0 255 147 98 96 147 98 96 147 98 96 147 98 96 147 98 96 147 98 96 147 98 96 0 0 255 119 83 94 119 83 94 119 83 94 119 83 94 119 83 94 119 83 94 119 83 94 119 83 94 119 83 94 119 83 94 119 83 94 119 83 94 119 83 94 119 83 94 119 83 94 119 83 94 119 83 94 119 83 94 119 83 94 119 83 94 119 83 94 119 83 94 119 83 94 119 83 94 119 83 94 119 83 94 119 83 94 119 83 94 119 83 94 119 83 94 0 0 255 119 83 94 119 83 94 119 83 94 119 83 94 119 83 94 119 83 94 119 83 94 119 83 94 119 83 94 119 83 94 119 83 94 119 83 94 119 83 94 119 83 94 119 83 94 119 83 94 119 83 94 119 83 94 119 83 94 119 83 94 119 83 94 119 83 94 119 83 94 119 83 94 119 83 94 119 83 94 119 83 94 119 83 94 119 83 94 119 83 94 119 83 94 119 83 94 119 83 94 119 83 94 119 83 94 119 83 94 119 83 94 119 83 94 119 83 94 119 83 94 119 83 94 119 83 94 119 83 94 119 83 94 119 83 94 119 83 94 119 83 94 0 0 255 0 0 255 0 0 255 0 0 255 0 0 255 0 0 255 162 198 222 162 198 222 162 198 222 162 198 222 162 198 222 162 198 222 162 198 222 162 198 222 162 198 222 162 198 222 162 198 222 162 198 222 162 198 222 162 198 222 162 198 222 162 198 222 162 198 222 
159 196 220 159 196 220 159 196 220 159 196 220 159 196 220 159 196 220 159 196 220 159 196 220 159 196 220 159 196 220 159 196 220 159 196 220 159 196 220 159 196 220 159 196 220 159 196 220 159 196 220 159 196 220 159 196 220 159 196 220 159 196 220 159 196 220 159 196 220 159 196 220 159 196 220 159 196 220 159 196 220 159 196 220 159 196 220 159 196 220 159 196 220 159 196 220 159 196 220 159 196 220 159 196 220 159 196 220 159 196 220 159 196 220 159 196 220 159 196 220 159 196 220 159 196 220 159 196 220 159 196 220 159 196 220 159 196 220 159 196 220 159 196 220 159 196 220 159 196 220 159 196 220 159 196 220 159 196 220 159 196 220 159 196 220 159 196 220 159 196 220 159 196 220 159 196 220 159 196 220 159 196 220 159 196 220 159 196 220 159 196 220 159 196 220 0 0 255 147 98 96 147 98 96 147 98 96 147 98 96 147 98 96 147 98 96 147 98 96 147 98 96 147 98 96 147 98 96 147 98 96 147 98 96 147 98 96 147 98 96 147 98 96 147 98 96 147 98 96 147 98 96 147 98 96 147 98 96 147 98 96 147 98 96 147 98 96 147 98 96 147 98 96 147 98 96 147 98 96 147 98 96 147 98 96 147 98 96 147 98 96 147 98 96 147 98 96 147 98 96 147 98 96 147 98 96 147 98 96 147 98 96 147 98 96 147 98 96 147 98 96 147 98 96 147 98 96 147 98 96 147 98 96 147 98 96 147 98 96 147 98 96 147 98 96 147 98 96 147 98 96 147 98 96 147 98 96 147 98 96 147 98 96 147 98 96 147 98 96 147 98 96 147 98 96 147 98 96 147 98 96 147 98 96 147 98 96 0 0 255 0 0 255 0 0 255 162 198 222 162 198 222 162 198 222 162 198 222 162 198 222 162 198 222 162 198 222 162 198 222 162 198 222 162 198 222 162 198 222 162 198 222 162 198 222 162 198 222 0 0 255 0 0 255 0 0 255 147 98 96 147 98 96 147 98 96 147 98 96 0 0 255 119 83 94 119 83 94 119 83 94 119 83 94 119 83 94 119 83 94 119 83 94 119 83 94 119 83 94 119 83 94 119 83 94 119 83 94 119 83 94 119 83 94 119 83 94 119 83 94 119 83 94 119 83 94 119 83 94 119 83 94 119 83 94 119 83 94 119 83 94 119 83 94 119 83 94 119 83 94 119 83 94 119 83 94 119 83 94 119 83 94 0 0 255 0 0 255 119 83 94 119 83 94 119 83 94 119 83 94 119 83 94 119 83 94 119 83 94 119 83 94 119 83 94 119 83 94 119 83 94 119 83 94 119 83 94 119 83 94 119 83 94 119 83 94 119 83 94 119 83 94 119 83 94 119 83 94 119 83 94 119 83 94 119 83 94 119 83 94 119 83 94 119 83 94 119 83 94 119 83 94 119 83 94 119 83 94 119 83 94 119 83 94 119 83 94 119 83 94 119 83 94 119 83 94 119 83 94 119 83 94 119 83 94 119 83 94 119 83 94 119 83 94 119 83 94 119 83 94 119 83 94 119 83 94 119 83 94 119 83 94 119 83 94 119 83 94 119 83 94 119 83 94 0 0 255 0 0 255 0 0 255 0 0 255 0 0 255 0 0 255 0 0 255 162 198 222 162 198 222 162 198 222 162 198 222 162 198 222 162 198 222 162 198 222 162 198 222 162 198 222 162 198 222 162 198 222 
159 196 220 159 196 220 159 196 220 159 196 220 159 196 220 159 196 220 159 196 220 159 196 220 159 196 220 159 196 220 159 196 220 159 196 220 159 196 220 159 196 220 159 196 220 159 196 220 159 196 220 159 196 220 159 196 220 159 196 220 159 196 220 159 196 220 159 196 220 159 196 220 159 196 220 159 196 220 159 196 220 159 196 220 159 196 220 159 196 220 159 196 220 159 196 220 159 196 220 159 196 220 159 196 220 159 196 220 159 196 220 159 196 220 159 196 220 159 196 220 159 196 220 159 196 220 159 196 220 159 196 220 159 196 220 159 196 220 159 196 220 159 196 220 159 196 220 159 196 220 159 196 220 159 196 220 159 196 220 159 196 220 159 196 220 159 196 220 159 196 220 159 196 220 159 196 220 159 196 220 159 196 220 159 196 220 159 196 220 159 196 220 159 196 220 0 0 255 147 98 96 147 98 96 147 98 96 147 98 96 147 98 96 147 98 96 147 98 96 147 98 96 147 98 96 147 98 96 147 98 96 147 98 96 147 98 96 147 98 96 147 98 96 147 98 96 147 98 96 147 98 96 147 98 96 147 98 96 147 98 96 147 98 96 147 98 96 147 98 96 147 98 96 147 98 96 147 98 96 147 98 96 147 98 96 147 98 96 147 98 96 147 98 96 147 98 96 147 98 96 147 98 96 147 98 96 147 98 96 147 98 96 147 98 96 147 98 96 147 98 96 147 98 96 147 98 96 147 98 96 147 98 96 147 98 96 147 98 96 147 98 96 147 98 96 147 98 96 147 98 96 147 98 96 147 98 96 147 98 96 147 98 96 147 98 96 147 98 96 147 98 96 147 98 96 147 98 96 147 98 96 0 0 255 0 0 255 0 0 255 0 0 255 0 0 255 0 0 255 0 0 255 162 198 222 162 198 222 162 198 222 162 198 222 162 198 222 162 198 222 162 198 222 162 198 222 162 198 222 162 198 222 162 198 222 162 198 222 162 198 222 0 0 255 0 0 255 0 0 255 0 0 255 147 98 96 147 98 96 0 0 255 0 0 255 0 0 255 119 83 94 119 83 94 119 83 94 119 83 94 119 83 94 119 83 94 119 83 94 119 83 94 119 83 94 119 83 94 119 83 94 119 83 94 119 83 94 119 83 94 119 83 94 119 83 94 119 83 94 119 83 94 119 83 94 119 83 94 119 83 94 119 83 94 119 83 94 119 83 94 119 83 94 119 83 94 119 83 94 119 83 94 119 83 94 119 83 94 119 83 94 119 83 94 119 83 94 119 83 94 119 83 94 119 83 94 119 83 94 119 83 94 119 83 94 119 83 94 119 83 94 119 83 94 119 83 94 119 83 94 119 83 94 119 83 94 119 83 94 119 83 94 119 83 94 119 83 94 119 83 94 119 83 94 119 83 94 119 83 94 119 83 94 119 83 94 119 83 94 119 83 94 119 83 94 119 83 94 119 83 94 119 83 94 119 83 94 119 83 94 119 83 94 119 83 94 119 83 94 119 83 94 119 83 94 119 83 94 119 83 94 119 83 94 119 83 94 119 83 94 119 83 94 119 83 94 119 83 94 119 83 94 119 83 94 119 83 94 119 83 94 119 83 94 119 83 94 119 83 94 119 83 94 119 83 94 119 83 94 119 83 94 0 0 255 0 0 255 0 0 255 0 0 255 0 0 255 0 0 255 0 0 255 162 198 222 162 198 222 162 198 222 162 198 222 162 198 222 
159 196 220 159 196 220 159 196 220 159 196 220 159 196 220 159 196 220 159 196 220 159 196 220 159 196 220 159 196 220 159 196 220 159 196 220 159 196 220 159 196 220 159 196 220 159 196 220 159 196 220 159 196 220 159 196 220 159 196 220 159 196 220 159 196 220 159 196 220 159 196 220 159 196 220 159 196 220 159 196 220 159 196 220 159 196 220 159 196 220 159 196 220 159 196 220 159 196 220 159 196 220 159 196 220 159 196 220 159 196 220 159 196 220 159 196 220 159 196 220 159 196 220 159 196 220 159 196 220 159 196 220 159 196 220 159 196 220 159 196 220 159 196 220 159 196 220 159 196 220 159 196 220 159 196 220 159 196 220 159 196 220 159 196 220 159 196 220 159 196 220 159 196 220 159 196 220 159 196 220 159 196 220 159 196 220 159 196 220 159 196 220 0 0 255 147 98 96 147 98 96 147 98 96 147 98 96 147 98 96 147 98 96 147 98 96 147 98 96 147 98 96 147 98 96 147 98 96 147 98 96 147 98 96 147 98 96 147 98 96 147 98 96 147 98 96 147 98 96 147 98 96 147 98 96 147 98 96 147 98 96 147 98 96 147 98 96 147 98 96 147 98 96 147 98 96 147 98 96 147 98 96 147 98 96 147 98 96 147 98 96 147 98 96 147 98 96 147 98 96 147 98 96 147 98 96 147 98 96 147 98 96 147 98 96 147 98 96 147 98 96 147 98 96 147 98 96 147 98 96 147 98 96 147 98 96 147 98 96 147 98 96 147 98 96 147 98 96 147 98 96 147 98 96 147 98 96 147 98 96 147 98 96 147 98 96 147 98 96 147 98 96 147 98 96 147 98 96 0 0 255 0 0 255 0 0 255 119 83 94 0 0 255 0 0 255 0 0 255 0 0 255 0 0 255 0 0 255 162 198 222 162 198 222 162 198 222 162 198 222 162 198 222 162 198 222 162 198 222 162 198 222 162 198 222 162 198 222 162 198 222 162 198 222 162 198 222 0 0 255 0 0 255 0 0 255 147 98 96 147 98 96 0 0 255 0 0 255 119 83 94 119 83 94 119 83 94 119 83 94 119 83 94 119 83 94 119 83 94 119 83 94 119 83 94 119 83 94 119 83 94 119 83 94 119 83 94 119 83 94 119 83 94 119 83 94 119 83 94 119 83 94 119 83 94 119 83 94 119 83 94 119 83 94 119 83 94 119 83 94 119 83 94 119 83 94 119 83 94 119 83 94 119 83 94 119 83 94 119 83 94 119 83 94 119 83 94 119 83 94 119 83 94 119 83 94 119 83 94 119 83 94 119 83 94 119 83 94 119 83 94 119 83 94 119 83 94 119 83 94 119 83 94 119 83 94 119 83 94 119 83 94 119 83 94 119 83 94 119 83 94 119 83 94 119 83 94 119 83 94 119 83 94 119 83 94 119 83 94 119 83 94 119 83 94 119 83 94 119 83 94 119 83 94 119 83 94 119 83 94 119 83 94 119 83 94 119 83 94 119 83 94 119 83 94 119 83 94 119 83 94 119 83 94 119 83 94 119 83 94 119 83 94 119 83 94 119 83 94 119 83 94 119 83 94 119 83 94 119 83 94 119 83 94 119 83 94 119 83 94 119 83 94 119 83 94 119 83 94 119 83 94 119 83 94 119 83 94 119 83 94 119 83 94 119 83 94 119 83 94 0 0 255 0 0 255 0 0 255 0 0 255 0 0 255 0 0 255 
159 196 220 159 196 220 159 196 220 159 196 220 159 196 220 159 196 220 159 196 220 159 196 220 159 196 220 159 196 220 159 196 220 159 196 220 159 196 220 159 196 220 159 196 220 159 196 220 159 196 220 159 196 220 159 196 220 159 196 220 159 196 220 159 196 220 159 196 220 159 196 220 159 196 220 159 196 220 159 196 220 159 196 220 159 196 220 159 196 220 159 196 220 159 196 220 159 196 220 159 196 220 159 196 220 159 196 220 159 196 220 159 196 220 159 196 220 159 196 220 159 196 220 159 196 220 159 196 220 159 196 220 159 196 220 159 196 220 159 196 220 159 196 220 159 196 220 159 196 220 159 196 220 159 196 220 159 196 220 159 196 220 159 196 220 159 196 220 159 196 220 159 196 220 159 196 220 159 196 220 159 196 220 159 196 220 159 196 220 159 196 220 0 0 255 147 98 96 147 98 96 147 98 96 147 98 96 147 98 96 147 98 96 147 98 96 147 98 96 147 98 96 147 98 96 147 98 96 147 98 96 147 98 96 147 98 96 147 98 96 147 98 96 147 98 96 147 98 96 147 98 96 147 98 96 147 98 96 147 98 96 147 98 96 147 98 96 147 98 96 147 98 96 147 98 96 147 98 96 147 98 96 147 98 96 147 98 96 147 98 96 147 98 96 147 98 96 147 98 96 147 98 96 147 98 96 147 98 96 147 98 96 147 98 96 147 98 96 147 98 96 147 98 96 147 98 96 147 98 96 147 98 96 147 98 96 147 98 96 147 98 96 147 98 96 147 98 96 147 98 96 147 98 96 147 98 96 147 98 96 147 98 96 147 98 96 147 98 96 147 98 96 147 98 96 147 98 96 147 98 96 147 98 96 0 0 255 119 83 94 119 83 94 119 83 94 119 83 94 0 0 255 0 0 255 0 0 255 0 0 255 0 0 255 162 198 222 162 198 222 162 198 222 162 198 222 162 198 222 162 198 222 162 198 222 162 198 222 162 198 222 162 198 222 162 198 222 162 198 222 162 198 222 0 0 255 0 0 255 0 0 255 0 0 255 0 0 255 119 83 94 119 83 94 119 83 94 119 83 94 119 83 94 119 83 94 119 83 94 119 83 94 119 83 94 119 83 94 119 83 94 119 83 94 119 83 94 119 83 94 119 83 94 119 83 94 119 83 94 119 83 94 119 83 94 119 83 94 119 83 94 119 83 94 119 83 94 119 83 94 119 83 94 119 83 94 119 83 94 119 83 94 119 83 94 119 83 94 119 83 94 119 83 94 119 83 94 119 83 94 119 83 94 119 83 94 119 83 94 119 83 94 119 83 94 119 83 94 119 83 94 119 83 94 119 83 94 119 83 94 119 83 94 119 83 94 119 83 94 119 83 94 119 83 94 119 83 94 119 83 94 119 83 94 119 83 94 119 83 94 119 83 94 119 83 94 119 83 94 119 83 94 119 83 94 119 83 94 119 83 94 119 83 94 119 83 94 119 83 94 119 83 94 119 83 94 119 83 94 119 83 94 119 83 94 119 83 94 119 83 94 119 83 94 119 83 94 119 83 94 119 83 94 119 83 94 119 83 94 119 83 94 119 83 94 119 83 94 119 83 94 119 83 94 119 83 94 119 83 94 119 83 94 119 83 94 119 83 94 119 83 94 119 83 94 119 83 94 119 83 94 119 83 94 119 83 94 119 83 94 119 83 94 119 83 94 119 83 94 119 83 94 119 83 94 119 83 94 
159 196 220 159 196 220 159 196 220 159 196 220 159 196 220 159 196 220 159 196 220 159 196 220 159 196 220 159 196 220 159 196 220 159 196 220 159 196 220 159 196 220 159 196 220 159 196 220 159 196 220 159 196 220 159 196 220 159 196 220 159 196 220 159 196 220 159 196 220 159 196 220 159 196 220 159 196 220 159 196 220 159 196 220 159 196 220 159 196 220 159 196 220 159 196 220 159 196 220 159 196 220 159 196 220 159 196 220 159 196 220 159 196 220 159 196 220 159 196 220 159 196 220 159 196 220 159 196 220 159 196 220 159 196 220 159 196 220 159 196 220 159 196 220 159 196 220 159 196 220 159 196 220 159 196 220 159 196 220 159 196 220 159 196 220 159 196 220 159 196 220 159 196 220 159 196 220 159 196 220 159 196 220 159 196 220 159 196 220 159 196 220 0 0 255 147 98 96 147 98 96 147 98 96 147 98 96 147 98 96 147 98 96 147 98 96 147 98 96 147 98 96 147 98 96 147 98 96 147 98 96 147 98 96 147 98 96 147 98 96 147 98 96 147 98 96 147 98 96 147 98 96 147 98 96 147 98 96 147 98 96 147 98 96 147 98 96 147 98 96 147 98 96 147 98 96 147 98 96 147 98 96 147 98 96 147 98 96 147 98 96 147 98 96 147 98 96 147 98 96 147 98 96 147 98 96 147 98 96 147 98 96 147 98 96 147 98 96 147 98 96 147 98 96 147 98 96 147 98 96 147 98 96 147 98 96 147 98 96 147 98 96 147 98 96 147 98 96 147 98 96 147 98 96 147 98 96 147 98 96 147 98 96 147 98 96 147 98 96 147 98 96 147 98 96 147 98 96 147 98 96 147 98 96 0 0 255 0 0 255 0 0 255 119 83 94 119 83 94 119 83 94 119 83 94 0 0 255 0 0 255 0 0 255 0 0 255 0 0 255 162 198 222 162 198 222 162 198 222 162 198 222 162 198 222 162 198 222 162 198 222 162 198 222 162 198 222 162 198 222 162 198 222 162 198 222 162 198 222 0 0 255 0 0 255 0 0 255 0 0 255 119 83 94 119 83 94 119 83 94 119 83 94 119 83 94 119 83 94 119 83 94 119 83 94 119 83 94 119 83 94 119 83 94 119 83 94 119 83 94 119 83 94 119 83 94 119 83 94 119 83 94 119 83 94 119 83 94 119 83 94 119 83 94 119 83 94 119 83 94 119 83 94 119 83 94 119 83 94 119 83 94 119 83 94 119 83 94 119 83 94 119 83 94 119 83 94 119 83 94 119 83 94 119 83 94 119 83 94 119 83 94 119 83 94 119 83 94 119 83 94 119 83 94 119 83 94 119 83 94 119 83 94 119 83 94 119 83 94 119 83 94 119 83 94 119 83 94 119 83 94 119 83 94 119 83 94 119 83 94 119 83 94 119 83 94 119 83 94 119 83 94 119 83 94 119 83 94 119 83 94 119 83 94 119 83 94 119 83 94 119 83 94 119 83 94 119 83 94 119 83 94 119 83 94 119 83 94 119 83 94 119 83 94 119 83 94 119 83 94 119 83 94 119 83 94 119 83 94 119 83 94 119 83 94 119 83 94 119 83 94 119 83 94 119 83 94 119 83 94 119 83 94 119 83 94 119 83 94 119 83 94 119 83 94 119 83 94 119 83 94 119 83 94 119 83 94 119 83 94 119 83 94 119 83 94 119 83 94 119 83 94 119 83 94 119 83 94 
159 196 220 159 196 220 159 196 220 159 196 220 159 196 220 159 196 220 159 196 220 159 196 220 159 196 220 159 196 220 159 196 220 159 196 220 159 196 220 159 196 220 159 196 220 159 196 220 159 196 220 159 196 220 159 196 220 159 196 220 159 196 220 159 196 220 159 196 220 159 196 220 159 196 220 159 196 220 159 196 220 159 196 220 159 196 220 159 196 220 159 196 220 159 196 220 159 196 220 159 196 220 159 196 220 159 196 220 159 196 220 159 196 220 159 196 220 159 196 220 159 196 220 159 196 220 159 196 220 159 196 220 159 196 220 159 196 220 159 196 220 159 196 220 159 196 220 159 196 220 159 196 220 159 196 220 159 196 220 159 196 220 159 196 220 159 196 220 159 196 220 159 196 220 159 196 220 159 196 220 159 196 220 159 196 220 159 196 220 159 196 220 0 0 255 147 98 96 147 98 96 147 98 96 147 98 96 147 98 96 147 98 96 147 98 96 147 98 96 147 98 96 147 98 96 147 98 96 147 98 96 147 98 96 147 98 96 147 98 96 147 98 96 147 98 96 147 98 96 147 98 96 147 98 96 147 98 96 147 98 96 147 98 96 147 98 96 147 98 96 147 98 96 147 98 96 147 98 96 147 98 96 147 98 96 147 98 96 147 98 96 147 98 96 147 98 96 147 98 96 147 98 96 147 98 96 147 98 96 147 98 96 147 98 96 147 98 96 147 98 96 147 98 96 147 98 96 147 98 96 147 98 96 147 98 96 147 98 96 147 98 96 147 98 96 147 98 96 147 98 96 147 98 96 147 98 96 147 98 96 147 98 96 147 98 96 147 98 96 147 98 96 147 98 96 147 98 96 147 98 96 147 98 96 147 98 96 147 98 96 0 0 255 0 0 255 119 83 94 119 83 94 119 83 94 119 83 94 119 83 94 0 0 255 0 0 255 0 0 255 0 0 255 0 0 255 162 198 222 162 198 222 162 198 222 162 198 222 162 198 222 162 198 222 162 198 222 162 198 222 162 198 222 162 198 222 162 198 222 162 198 222 162 198 222 0 0 255 0 0 255 0 0 255 0 0 255 119 83 94 119 83 94 119 83 94 119 83 94 119 83 94 119 83 94 119 83 94 119 83 94 119 83 94 119 83 94 119 83 94 119 83 94 119 83 94 119 83 94 119 83 94 119 83 94 119 83 94 119 83 94 119 83 94 119 83 94 119 83 94 119 83 94 119 83 94 119 83 94 119 83 94 119 83 94 119 83 94 119 83 94 119 83 94 119 83 94 119 83 94 119 83 94 119 83 94 119 83 94 119 83 94 119 83 94 119 83 94 119 83 94 119 83 94 119 83 94 119 83 94 119 83 94 119 83 94 119 83 94 119 83 94 119 83 94 119 83 94 119 83 94 119 83 94 119 83 94 119 83 94 119 83 94 119 83 94 119 83 94 119 83 94 119 83 94 119 83 94 119 83 94 119 83 94 119 83 94 119 83 94 119 83 94 119 83 94 119 83 94 119 83 94 119 83 94 119 83 94 119 83 94 119 83 94 119 83 94 119 83 94 119 83 94 119 83 94 119 83 94 119 83 94 119 83 94 119 83 94 119 83 94 119 83 94 119 83 94 119 83 94 119 83 94 119 83 94 119 83 94 119 83 94 119 83 94 119 83 94 119 83 94 119 83 94 119 83 94 119 83 94 119 83 94 119 83 94 119 83 94 119 83 94 119 83 94 119 83 94 
159 196 220 159 196 220 159 196 220 159 196 220 159 196 220 159 196 220 159 196 220 159 196 220 159 196 220 159 196 220 159 196 220 159 196 220 159 196 220 159 196 220 159 196 220 159 196 220 159 196 220 159 196 220 159 196 220 159 196 220 159 196 220 159 196 220 159 196 220 159 196 220 159 196 220 159 196 220 159 196 220 159 196 220 159 196 220 159 196 220 159 196 220 159 196 220 159 196 220 159 196 220 159 196 220 159 196 220 159 196 220 159 196 220 159 196 220 159 196 220 159 196 220 159 196 220 159 196 220 159 196 220 159 196 220 159 196 220 159 196 220 159 196 220 159 196 220 159 196 220 159 196 220 159 196 220 159 196 220 159 196 220 159 196 220 159 196 220 159 196 220 159 196 220 159 196 220 159 196 220 159 196 220 159 196 220 159 196 220 159 196 220 0 0 255 147 98 96 147 98 96 147 98 96 147 98 96 147 98 96 147 98 96 147 98 96 147 98 96 147 98 96 147 98 96 147 98 96 147 98 96 147 98 96 147 98 96 147 98 96 147 98 96 147 98 96 147 98 96 147 98 96 147 98 96 147 98 96 147 98 96 147 98 96 147 98 96 147 98 96 147 98 96 147 98 96 147 98 96 147 98 96 147 98 96 147 98 96 147 98 96 147 98 96 147 98 96 147 98 96 147 98 96 147 98 96 147 98 96 147 98 96 147 98 96 147 98 96 147 98 96 147 98 96 147 98 96 147 98 96 147 98 96 147 98 96 147 98 96 147 98 96 147 98 96 147 98 96 147 98 96 147 98 96 147 98 96 147 98 96 147 98 96 147 98 96 147 98 96 147 98 96 147 98 96 147 98 96 147 98 96 147 98 96 147 98 96 147 98 96 147 98 96 0 0 255 119 83 94 119 83 94 119 83 94 119 83 94 119 83 94 119 83 94 119 83 94 0 0 255 0 0 255 0 0 255 0 0 255 0 0 255 162 198 222 162 198 222 162 198 222 162 198 222 162 198 222 162 198 222 162 198 222 162 198 222 162 198 222 162 198 222 162 198 222 162 198 222 162 198 222 0 0 255 0 0 255 0 0 255 119 83 94 119 83 94 119 83 94 119 83 94 119 83 94 119 83 94 119 83 94 119 83 94 119 83 94 119 83 94 119 83 94 119 83 94 119 83 94 119 83 94 119 83 94 119 83 94 119 83 94 119 83 94 119 83 94 119 83 94 119 83 94 119 83 94 119 83 94 119 83 94 119 83 94 119 83 94 119 83 94 119 83 94 119 83 94 119 83 94 119 83 94 119 83 94 119 83 94 119 83 94 119 83 94 119 83 94 119 83 94 119 83 94 119 83 94 119 83 94 119 83 94 119 83 94 119 83 94 119 83 94 119 83 94 119 83 94 119 83 94 119 83 94 119 83 94 119 83 94 119 83 94 119 83 94 119 83 94 119 83 94 119 83 94 119 83 94 119 83 94 119 83 94 119 83 94 119 83 94 119 83 94 119 83 94 119 83 94 119 83 94 119 83 94 119 83 94 119 83 94 119 83 94 119 83 94 119 83 94 119 83 94 119 83 94 119 83 94 119 83 94 119 83 94 119 83 94 119 83 94 119 83 94 119 83 94 119 83 94 119 83 94 119 83 94 119 83 94 119 83 94 119 83 94 119 83 94 119 83 94 119 83 94 119 83 94 119 83 94 119 83 94 119 83 94 119 83 94 119 83 94 119 83 94 119 83 94 
159 196 220 159 196 220 159 196 220 159 196 220 159 196 220 159 196 220 159 196 220 159 196 220 159 196 220 159 196 220 159 196 220 159 196 220 159 196 220 159 196 220 159 196 220 159 196 220 159 196 220 159 196 220 159 196 220 159 196 220 159 196 220 159 196 220 159 196 220 159 196 220 159 196 220 159 196 220 159 196 220 159 196 220 159 196 220 159 196 220 159 196 220 159 196 220 159 196 220 159 196 220 159 196 220 159 196 220 159 196 220 159 196 220 159 196 220 159 196 220 159 196 220 159 196 220 159 196 220 159 196 220 159 196 220 159 196 220 159 196 220 159 196 220 159 196 220 159 196 220 159 196 220 159 196 220 159 196 220 159 196 220 159 196 220 159 196 220 159 196 220 159 196 220 159 196 220 159 196 220 159 196 220 159 196 220 159 196 220 159 196 220 0 0 255 147 98 96 147 98 96 147 98 96 147 98 96 147 98 96 147 98 96 147 98 96 147 98 96 147 98 96 147 98 96 147 98 96 147 98 96 147 98 96 147 98 96 147 98 96 147 98 96 147 98 96 147 98 96 147 98 96 147 98 96 147 98 96 147 98 96 147 98 96 147 98 96 147 98 96 147 98 96 147 98 96 147 98 96 147 98 96 147 98 96 147 98 96 147 98 96 147 98 96 147 98 96 147 98 96 147 98 96 147 98 96 147 98 96 147 98 96 147 98 96 147 98 96 147 98 96 147 98 96 147 98 96 147 98 96 147 98 96 147 98 96 147 98 96 147 98 96 147 98 96 147 98 96 147 98 96 147 98 96 147 98 96 147 98 96 147 98 96 147 98 96 147 98 96 147 98 96 147 98 96 147 98 96 147 98 96 147 98 96 147 98 96 147 98 96 147 98 96 0 0 255 0 0 255 119 83 94 119 83 94 119 83 94 119 83 94 119 83 94 119 83 94 119 83 94 119 83 94 0 0 255 0 0 255 0 0 255 0 0 255 0 0 255 162 198 222 162 198 222 162 198 222 162 198 222 162 198 222 162 198 222 162 198 222 162 198 222 162 198 222 162 198 222 162 198 222 162 198 222 162 198 222 0 0 255 0 0 255 0 0 255 119 83 94 119 83 94 119 83 94 119 83 94 119 83 94 119 83 94 119 83 94 119 83 94 119 83 94 119 83 94 119 83 94 119 83 94 119 83 94 119 83 94 119 83 94 119 83 94 119 83 94 119 83 94 119 83 94 119 83 94 119 83 94 119 83 94 119 83 94 119 83 94 119 83 94 119 83 94 119 83 94 119 83 94 119 83 94 119 83 94 119 83 94 119 83 94 119 83 94 119 83 94 119 83 94 119 83 94 119 83 94 119 83 94 119 83 94 119 83 94 119 83 94 119 83 94 119 83 94 119 83 94 119 83 94 119 83 94 119 83 94 119 83 94 119 83 94 119 83 94 119 83 94 119 83 94 119 83 94 119 83 94 119 83 94 119 83 94 119 83 94 119 83 94 119 83 94 119 83 94 119 83 94 119 83 94 119 83 94 119 83 94 119 83 94 119 83 94 119 83 94 119 83 94 119 83 94 119 83 94 119 83 94 119 83 94 119 83 94 119 83 94 119 83 94 119 83 94 119 83 94 119 83 94 119 83 94 119 83 94 119 83 94 119 83 94 119 83 94 119 83 94 119 83 94 119 83 94 119 83 94 119 83 94 119 83 94 119 83 94 119 83 94 119 83 94 119 83 94 119 83 94 
159 196 220 159 196 220 159 196 220 159 196 220 159 196 220 159 196 220 159 196 220 159 196 220 159 196 220 159 196 220 159 196 220 159 196 220 159 196 220 159 196 220 159 196 220 159 196 220 159 196 220 159 196 220 159 196 220 159 196 220 159 196 220 159 196 220 159 196 220 159 196 220 159 196 220 159 196 220 159 196 220 159 196 220 159 196 220 159 196 220 159 196 220 159 196 220 159 196 220 159 196 220 159 196 220 159 196 220 159 196 220 159 196 220 159 196 220 159 196 220 159 196 220 159 196 220 159 196 220 159 196 220 159 196 220 159 196 220 159 196 220 159 196 220 159 196 220 159 196 220 159 196 220 159 196 220 159 196 220 159 196 220 159 196 220 159 196 220 159 196 220 159 196 220 159 196 220 159 196 220 159 196 220 159 196 220 159 196 220 159 196 220 0 0 255 147 98 96 147 98 96 147 98 96 147 98 96 147 98 96 147 98 96 147 98 96 147 98 96 147 98 96 147 98 96 147 98 96 147 98 96 147 98 96 147 98 96 147 98 96 147 98 96 147 98 96 147 98 96 147 98 96 147 98 96 147 98 96 147 98 96 147 98 96 147 98 96 147 98 96 147 98 96 147 98 96 147 98 96 147 98 96 147 98 96 147 98 96 147 98 96 147 98 96 147 98 96 147 98 96 147 98 96 147 98 96 147 98 96 147 98 96 147 98 96 147 98 96 147 98 96 147 98 96 147 98 96 147 98 96 147 98 96 147 98 96 147 98 96 147 98 96 147 98 96 147 98 96 147 98 96 147 98 96 147 98 96 147 98 96 147 98 96 147 98 96 147 98 96 147 98 96 147 98 96 147 98 96 147 98 96 147 98 96 147 98 96 147 98 96 147 98 96 147 98 96 0 0 255 119 83 94 0 0 255 119 83 94 119 83 94 119 83 94 119 83 94 119 83 94 119 83 94 119 83 94 119 83 94 0 0 255 0 0 255 0 0 255 0 0 255 0 0 255 162 198 222 162 198 222 162 198 222 162 198 222 162 198 222 162 198 222 162 198 222 162 198 222 162 198 222 162 198 222 162 198 222 162 198 222 0 0 255 0 0 255 0 0 255 0 0 255 119 83 94 119 83 94 119 83 94 119 83 94 119 83 94 119 83 94 119 83 94 119 83 94 119 83 94 119 83 94 119 83 94 119 83 94 119 83 94 119 83 94 119 83 94 119 83 94 119 83 94 119 83 94 119 83 94 119 83 94 119 83 94 119 83 94 119 83 94 119 83 94 119 83 94 119 83 94 119 83 94 119 83 94 119 83 94 119 83 94 119 83 94 119 83 94 119 83 94 119 83 94 119 83 94 119 83 94 119 83 94 119 83 94 119 83 94 119 83 94 119 83 94 119 83 94 119 83 94 119 83 94 119 83 94 119 83 94 119 83 94 119 83 94 119 83 94 119 83 94 119 83 94 119 83 94 119 83 94 119 83 94 119 83 94 119 83 94 119 83 94 119 83 94 119 83 94 119 83 94 119 83 94 119 83 94 119 83 94 119 83 94 119 83 94 119 83 94 119 83 94 119 83 94 119 83 94 119 83 94 119 83 94 119 83 94 119 83 94 119 83 94 119 83 94 119 83 94 119 83 94 119 83 94 119 83 94 119 83 94 119 83 94 119 83 94 119 83 94 119 83 94 119 83 94 119 83 94 119 83 94 119 83 94 119 83 94 119 83 94 119 83 94 119 83 94 
159 196 220 159 196 220 159 196 220 159 196 220 159 196 220 159 196 220 159 196 220 159 196 220 159 196 220 159 196 220 159 196 220 159 196 220 159 196 220 159 196 220 159 196 220 159 196 220 159 196 220 159 196 220 159 196 220 159 196 220 159 196 220 159 196 220 159 196 220 159 196 220 159 196 220 159 196 220 159 196 220 159 196 220 159 196 220 159 196 220 159 196 220 159 196 220 159 196 220 159 196 220 159 196 220 159 196 220 159 196 220 159 196 220 159 196 220 159 196 220 159 196 220 159 196 220 159 196 220 159 196 220 159 196 220 159 196 220 159 196 220 159 196 220 159 196 220 159 196 220 159 196 220 159 196 220 159 196 220 159 196 220 159 196 220 159 196 220 159 196 220 159 196 220 159 196 220 159 196 220 159 196 220 159 196 220 159 196 220 159 196 220 0 0 255 147 98 96 147 98 96 147 98 96 147 98 96 147 98 96 147 98 96 147 98 96 147 98 96 147 98 96 147 98 96 147 98 96 147 98 96 147 98 96 147 98 96 147 98 96 147 98 96 147 98 96 147 98 96 147 98 96 147 98 96 147 98 96 147 98 96 147 98 96 147 98 96 147 98 96 147 98 96 147 98 96 147 98 96 147 98 96 147 98 96 147 98 96 147 98 96 147 98 96 147 98 96 147 98 96 147 98 96 147 98 96 147 98 96 147 98 96 147 98 96 147 98 96 147 98 96 147 98 96 147 98 96 147 98 96 147 98 96 147 98 96 147 98 96 147 98 96 147 98 96 147 98 96 147 98 96 147 98 96 147 98 96 147 98 96 147 98 96 147 98 96 147 98 96 147 98 96 147 98 96 147 98 96 147 98 96 147 98 96 147 98 96 147 98 96 147 98 96 147 98 96 0 0 255 0 0 255 0 0 255 119 83 94 119 83 94 119 83 94 119 83 94 119 83 94 119 83 94 119 83 94 119 83 94 119 83 94 119 83 94 0 0 255 0 0 255 0 0 255 0 0 255 162 198 222 162 198 222 162 198 222 162 198 222 162 198 222 162 198 222 162 198 222 162 198 222 162 198 222 162 198 222 162 198 222 162 198 222 162 198 222 0 0 255 0 0 255 0 0 255 0 0 255 119 83 94 119 83 94 119 83 94 119 83 94 119 83 94 119 83 94 119 83 94 119 83 94 119 83 94 119 83 94 119 83 94 119 83 94 119 83 94 119 83 94 119 83 94 119 83 94 119 83 94 119 83 94 119 83 94 119 83 94 119 83 94 119 83 94 119 83 94 119 83 94 119 83 94 119 83 94 119 83 94 119 83 94 119 83 94 119 83 94 119 83 94 119 83 94 119 83 94 119 83 94 119 83 94 119 83 94 119 83 94 119 83 94 119 83 94 119 83 94 119 83 94 119 83 94 119 83 94 119 83 94 119 83 94 119 83 94 119 83 94 119 83 94 119 83 94 119 83 94 119 83 94 119 83 94 119 83 94 119 83 94 119 83 94 119 83 94 119 83 94 119 83 94 119 83 94 119 83 94 119 83 94 119 83 94 119 83 94 119 83 94 119 83 94 119 83 94 119 83 94 119 83 94 119 83 94 119 83 94 119 83 94 119 83 94 119 83 94 119 83 94 119 83 94 119 83 94 119 83 94 119 83 94 119 83 94 119 83 94 119 83 94 119 83 94 119 83 94 119 83 94 119 83 94 119 83 94 119 83 94 119 83 94 119 83 94 119 83 94 
159 196 220 159 196 220 159 196 220 159 196 220 159 196 220 159 196 220 159 196 220 159 196 220 159 196 220 159 196 220 159 196 220 159 196 220 159 196 220 159 196 220 159 196 220 159 196 220 159 196 220 159 196 220 159 196 220 159 196 220 159 196 220 159 196 220 159 196 220 159 196 220 159 196 220 159 196 220 159 196 220 159 196 220 159 196 220 159 196 220 159 196 220 159 196 220 159 196 220 159 196 220 159 196 220 159 196 220 159 196 220 159 196 220 159 196 220 159 196 220 159 196 220 159 196 220 159 196 220 159 196 220 159 196 220 159 196 220 159 196 220 159 196 220 159 196 220 159 196 220 159 196 220 159 196 220 159 196 220 159 196 220 159 196 220 159 196 220 159 196 220 159 196 220 159 196 220 159 196 220 159 196 220 159 196 220 159 196 220 159 196 220 0 0 255 147 98 96 147 98 96 147 98 96 147 98 96 147 98 96 147 98 96 147 98 96 147 98 96 147 98 96 147 98 96 147 98 96 147 98 96 147 98 96 147 98 96 147 98 96 147 98 96 147 98 96 147 98 96 147 98 96 147 98 96 147 98 96 147 98 96 147 98 96 147 98 96 147 98 96 147 98 96 147 98 96 147 98 96 147 98 96 147 98 96 147 98 96 147 98 96 147 98 96 147 98 96 147 98 96 147 98 96 147 98 96 147 98 96 147 98 96 147 98 96 147 98 96 147 98 96 147 98 96 147 98 96 147 98 96 147 98 96 147 98 96 147 98 96 147 98 96 147 98 96 147 98 96 147 98 96 147 98 96 147 98 96 147 98 96 147 98 96 147 98 96 147 98 96 147 98 96 147 98 96 147 98 96 147 98 96 147 98 96 147 98 96 147 98 96 147 98 96 147 98 96 147 98 96 147 98 96 0 0 255 119 83 94 119 83 94 119 83 94 119 83 94 119 83 94 119 83 94 119 83 94 119 83 94 119 83 94 119 83 94 119 83 94 119 83 94 0 0 255 0 0 255 0 0 255 0 0 255 162 198 222 162 198 222 162 198 222 162 198 222 162 198 222 162 198 222 162 198 222 162 198 222 162 198 222 162 198 222 162 198 222 162 198 222 162 198 222 0 0 255 0 0 255 0 0 255 0 0 255 119 83 94 119 83 94 119 83 94 119 83 94 119 83 94 119 83 94 119 83 94 119 83 94 119 83 94 119 83 94 119 83 94 119 83 94 119 83 94 119 83 94 119 83 94 119 83 94 119 83 94 119 83 94 119 83 94 119 83 94 119 83 94 119 83 94 119 83 94 119 83 94 119 83 94 119 83 94 119 83 94 119 83 94 119 83 94 119 83 94 119 83 94 119 83 94 119 83 94 119 83 94 119 83 94 119 83 94 119 83 94 119 83 94 119 83 94 119 83 94 119 83 94 119 83 94 119 83 94 119 83 94 119 83 94 119 83 94 119 83 94 119 83 94 119 83 94 119 83 94 119 83 94 119 83 94 119 83 94 119 83 94 119 83 94 119 83 94 119 83 94 119 83 94 119 83 94 119 83 94 119 83 94 119 83 94 119 83 94 119 83 94 119 83 94 119 83 94 119 83 94 119 83 94 119 83 94 119 83 94 119 83 94 119 83 94 119 83 94 119 83 94 119 83 94 119 83 94 119 83 94 119 83 94 119 83 94 119 83 94 119 83 94 119 83 94 119 83 94 119 83 94 119 83 94 119 83 94 119 83 94 119 83 94 
159 196 220 159 196 220 159 196 220 159 196 220 159 196 220 159 196 220 159 196 220 159 196 220 159 196 220 159 196 220 159 196 220 159 196 220 159 196 220 159 196 220 159 196 220 159 196 220 159 196 220 159 196 220 159 196 220 159 196 220 159 196 220 159 196 220 159 196 220 159 196 220 159 196 220 159 196 220 159 196 220 159 196 220 159 196 220 159 196 220 159 196 220 159 196 220 159 196 220 159 196 220 159 196 220 159 196 220 159 196 220 159 196 220 159 196 220 159 196 220 159 196 220 159 196 220 159 196 220 159 196 220 159 196 220 159 196 220 159 196 220 159 196 220 159 196 220 159 196 220 159 196 220 159 196 220 159 196 220 159 196 220 159 196 220 159 196 220 159 196 220 159 196 220 159 196 220 159 196 220 159 196 220 159 196 220 159 196 220 0 0 255 147 98 96 147 98 96 147 98 96 147 98 96 147 98 96 147 98 96 147 98 96 147 98 96 147 98 96 147 98 96 147 98 96 147 98 96 147 98 96 147 98 96 147 98 96 147 98 96 147 98 96 147 98 96 147 98 96 147 98 96 147 98 96 147 98 96 147 98 96 147 98 96 147 98 96 147 98 96 147 98 96 147 98 96 147 98 96 147 98 96 147 98 96 147 98 96 147 98 96 147 98 96 147 98 96 147 98 96 147 98 96 147 98 96 147 98 96 147 98 96 147 98 96 147 98 96 147 98 96 147 98 96 147 98 96 147 98 96 147 98 96 147 98 96 147 98 96 147 98 96 147 98 96 147 98 96 147 98 96 147 98 96 147 98 96 147 98 96 147 98 96 147 98 96 147 98 96 147 98 96 147 98 96 147 98 96 147 98 96 147 98 96 147 98 96 147 98 96 147 98 96 147 98 96 147 98 96 147 98 96 0 0 255 0 0 255 0 0 255 119 83 94 119 83 94 119 83 94 119 83 94 119 83 94 119 83 94 119 83 94 119 83 94 119 83 94 119 83 94 119 83 94 119 83 94 0 0 255 0 0 255 0 0 255 0 0 255 162 198 222 162 198 222 162 198 222 162 198 222 162 198 222 162 198 222 162 198 222 162 198 222 162 198 222 162 198 222 162 198 222 162 198 222 162 198 222 0 0 255 0 0 255 0 0 255 0 0 255 119 83 94 119 83 94 119 83 94 119 83 94 119 83 94 119 83 94 119 83 94 119 83 94 119 83 94 119 83 94 119 83 94 119 83 94 119 83 94 119 83 94 119 83 94 119 83 94 119 83 94 119 83 94 119 83 94 119 83 94 119 83 94 119 83 94 119 83 94 119 83 94 119 83 94 119 83 94 119 83 94 119 83 94 119 83 94 119 83 94 119 83 94 119 83 94 119 83 94 119 83 94 119 83 94 119 83 94 119 83 94 119 83 94 119 83 94 119 83 94 119 83 94 119 83 94 119 83 94 119 83 94 119 83 94 119 83 94 119 83 94 119 83 94 119 83 94 119 83 94 119 83 94 119 83 94 119 83 94 119 83 94 119 83 94 119 83 94 119 83 94 119 83 94 119 83 94 119 83 94 119 83 94 119 83 94 119 83 94 119 83 94 119 83 94 119 83 94 119 83 94 119 83 94 119 83 94 119 83 94 119 83 94 119 83 94 119 83 94 119 83 94 119 83 94 119 83 94 119 83 94 119 83 94 119 83 94 119 83 94 119 83 94 119 83 94 119 83 94 119 83 94 119 83 94 119 83 94 
159 196 220 159 196 220 159 196 220 159 196 220 159 196 220 159 196 220 159 196 220 159 196 220 159 196 220 159 196 220 159 196 220 159 196 220 159 196 220 159 196 220 159 196 220 159 196 220 159 196 220 159 196 220 159 196 220 159 196 220 159 196 220 159 196 220 159 196 220 159 196 220 159 196 220 159 196 220 159 196 220 159 196 220 159 196 220 159 196 220 159 196 220 159 196 220 159 196 220 159 196 220 159 196 220 159 196 220 159 196 220 159 196 220 159 196 220 159 196 220 159 196 220 159 196 220 159 196 220 159 196 220 159 196 220 159 196 220 159 196 220 159 196 220 159 196 220 159 196 220 159 196 220 159 196 220 159 196 220 159 196 220 159 196 220 159 196 220 159 196 220 159 196 220 159 196 220 159 196 220 159 196 220 159 196 220 0 0 255 147 98 96 0 0 255 147 98 96 147 98 96 147 98 96 147 98 96 147 98 96 147 98 96 147 98 96 147 98 96 147 98 96 147 98 96 147 98 96 147 98 96 147 98 96 147 98 96 147 98 96 147 98 96 147 98 96 147 98 96 147 98 96 147 98 96 147 98 96 147 98 96 147 98 96 147 98 96 147 98 96 147 98 96 147 98 96 147 98 96 147 98 96 147 98 96 147 98 96 147 98 96 147 98 96 147 98 96 147 98 96 147 98 96 147 98 96 147 98 96 147 98 96 147 98 96 147 98 96 147 98 96 147 98 96 147 98 96 147 98 96 147 98 96 147 98 96 147 98 96 147 98 96 147 98 96 147 98 96 147 98 96 147 98 96 147 98 96 147 98 96 147 98 96 147 98 96 147 98 96 147 98 96 147 98 96 147 98 96 147 98 96 147 98 96 147 98 96 147 98 96 147 98 96 147 98 96 147 98 96 147 98 96 147 98 96 147 98 96 0 0 255 119 83 94 119 83 94 119 83 94 119 83 94 119 83 94 119 83 94 119 83 94 119 83 94 119 83 94 119 83 94 119 83 94 119 83 94 119 83 94 119 83 94 0 0 255 0 0 255 0 0 255 0 0 255 162 198 222 162 198 222 162 198 222 162 198 222 162 198 222 162 198 222 162 198 222 162 198 222 162 198 222 162 198 222 162 198 222 162 198 222 162 198 222 0 0 255 0 0 255 0 0 255 0 0 255 119 83 94 119 83 94 119 83 94 119 83 94 119 83 94 119 83 94 119 83 94 119 83 94 119 83 94 119 83 94 119 83 94 119 83 94 119 83 94 119 83 94 119 83 94 119 83 94 119 83 94 119 83 94 119 83 94 119 83 94 119 83 94 119 83 94 119 83 94 119 83 94 119 83 94 119 83 94 119 83 94 119 83 94 119 83 94 119 83 94 119 83 94 119 83 94 119 83 94 119 83 94 119 83 94 119 83 94 119 83 94 119 83 94 119 83 94 119 83 94 119 83 94 119 83 94 119 83 94 119 83 94 119 83 94 119 83 94 119 83 94 119 83 94 119 83 94 119 83 94 119 83 94 119 83 94 119 83 94 119 83 94 119 83 94 119 83 94 119 83 94 119 83 94 119 83 94 119 83 94 119 83 94 119 83 94 119 83 94 119 83 94 119 83 94 119 83 94 119 83 94 119 83 94 119 83 94 119 83 94 119 83 94 119 83 94 119 83 94 119 83 94 119 83 94 119 83 94 119 83 94 119 83 94 119 83 94 119 83 94 119 83 94 119 83 94 119 83 94 119 83 94 
159 196 220 159 196 220 159 196 220 159 196 220 159 196 220 159 196 220 159 196 220 159 196 220 159 196 220 159 196 220 159 196 220 159 196 220 159 196 220 159 196 220 159 196 220 159 196 220 159 196 220 159 196 220 159 196 220 159 196 220 159 196 220 159 196 220 159 196 220 159 196 220 159 196 220 159 196 220 159 196 220 159 196 220 159 196 220 159 196 220 159 196 220 159 196 220 159 196 220 159 196 220 159 196 220 159 196 220 159 196 220 159 196 220 159 196 220 159 196 220 159 196 220 159 196 220 159 196 220 159 196 220 159 196 220 159 196 220 159 196 220 159 196 220 159 196 220 159 196 220 159 196 220 159 196 220 159 196 220 159 196 220 159 196 220 159 196 220 159 196 220 159 196 220 159 196 220 159 196 220 159 196 220 0 0 255 147 98 96 0 0 255 0 0 255 147 98 96 147 98 96 147 98 96 147 98 96 147 98 96 147 98 96 147 98 96 147 98 96 147 98 96 147 98 96 147 98 96 147 98 96 147 98 96 147 98 96 147 98 96 147 98 96 147 98 96 147 98 96 147 98 96 147 98 96 147 98 96 147 98 96 147 98 96 147 98 96 147 98 96 147 98 96 147 98 96 147 98 96 147 98 96 147 98 96 147 98 96 147 98 96 147 98 96 147 98 96 147 98 96 147 98 96 147 98 96 147 98 96 147 98 96 147 98 96 147 98 96 147 98 96 147 98 96 147 98 96 147 98 96 147 98 96 147 98 96 147 98 96 147 98 96 147 98 96 147 98 96 147 98 96 147 98 96 147 98 96 147 98 96 147 98 96 147 98 96 147 98 96 147 98 96 147 98 96 147 98 96 147 98 96 147 98 96 147 98 96 147 98 96 147 98 96 147 98 96 147 98 96 147 98 96 147 98 96 0 0 255 0 0 255 0 0 255 119 83 94 119 83 94 119 83 94 119 83 94 119 83 94 119 83 94 119 83 94 119 83 94 119 83 94 119 83 94 119 83 94 119 83 94 119 83 94 119 83 94 119 83 94 0 0 255 0 0 255 0 0 255 0 0 255 162 198 222 162 198 222 162 198 222 162 198 222 162 198 222 162 198 222 162 198 222 162 198 222 162 198 222 162 198 222 162 198 222 162 198 222 0 0 255 0 0 255 0 0 255 0 0 255 0 0 255 119 83 94 119 83 94 119 83 94 119 83 94 119 83 94 119 83 94 119 83 94 119 83 94 119 83 94 119 83 94 119 83 94 119 83 94 119 83 94 119 83 94 119 83 94 119 83 94 119 83 94 119 83 94 119 83 94 119 83 94 119 83 94 119 83 94 119 83 94 119 83 94 119 83 94 119 83 94 119 83 94 119 83 94 119 83 94 119 83 94 119 83 94 119 83 94 119 83 94 119 83 94 119 83 94 119 83 94 119 83 94 119 83 94 119 83 94 119 83 94 119 83 94 119 83 94 119 83 94 119 83 94 119 83 94 119 83 94 119 83 94 119 83 94 119 83 94 119 83 94 119 83 94 119 83 94 119 83 94 119 83 94 119 83 94 119 83 94 119 83 94 119 83 94 119 83 94 119 83 94 119 83 94 119 83 94 119 83 94 119 83 94 119 83 94 119 83 94 119 83 94 119 83 94 119 83 94 119 83 94 119 83 94 119 83 94 119 83 94 119 83 94 119 83 94 119 83 94 119 83 94 119 83 94 119 83 94 119 83 94 119 83 94 119 83 94 
159 196 220 159 196 220 159 196 220 159 196 220 159 196 220 159 196 220 159 196 220 159 196 220 159 196 220 159 196 220 159 196 220 159 196 220 159 196 220 159 196 220 159 196 220 159 196 220 159 196 220 159 196 220 159 196 220 159 196 220 159 196 220 159 196 220 159 196 220 159 196 220 159 196 220 159 196 220 159 196 220 159 196 220 159 196 220 159 196 220 159 196 220 159 196 220 159 196 220 159 196 220 159 196 220 159 196 220 159 196 220 159 196 220 159 196 220 159 196 220 159 196 220 159 196 220 159 196 220 159 196 220 159 196 220 159 196 220 159 196 220 159 196 220 159 196 220 159 196 220 159 196 220 159 196 220 159 196 220 159 196 220 159 196 220 159 196 220 159 196 220 159 196 220 159 196 220 159 196 220 159 196 220 0 0 255 0 0 255 159 196 220 0 0 255 147 98 96 147 98 96 147 98 96 147 98 96 147 98 96 147 98 96 147 98 96 147 98 96 147 98 96 147 98 96 147 98 96 147 98 96 147 98 96 147 98 96 147 98 96 147 98 96 147 98 96 147 98 96 147 98 96 147 98 96 147 98 96 147 98 96 147 98 96 147 98 96 147 98 96 147 98 96 147 98 96 147 98 96 147 98 96 147 98 96 147 98 96 147 98 96 147 98 96 147 98 96 147 98 96 147 98 96 147 98 96 147 98 96 147 98 96 147 98 96 147 98 96 147 98 96 147 98 96 147 98 96 147 98 96 147 98 96 147 98 96 147 98 96 147 98 96 147 98 96 147 98 96 147 98 96 147 98 96 147 98 96 147 98 96 147 98 96 147 98 96 147 98 96 147 98 96 147 98 96 147 98 96 147 98 96 147 98 96 147 98 96 147 98 96 147 98 96 147 98 96 147 98 96 147 98 96 147 98 96 147 98 96 147 98 96 0 0 255 119 83 94 119 83 94 119 83 94 119 83 94 119 83 94 119 83 94 119 83 94 119 83 94 119 83 94 119 83 94 119 83 94 119 83 94 119 83 94 119 83 94 119 83 94 119 83 94 119 83 94 0 0 255 0 0 255 0 0 255 0 0 255 162 198 222 162 198 222 162 198 222 162 198 222 162 198 222 162 198 222 162 198 222 162 198 222 162 198 222 162 198 222 162 198 222 162 198 222 0 0 255 0 0 255 0 0 255 0 0 255 0 0 255 119 83 94 119 83 94 119 83 94 119 83 94 119 83 94 119 83 94 119 83 94 119 83 94 119 83 94 119 83 94 119 83 94 119 83 94 119 83 94 119 83 94 119 83 94 119 83 94 119 83 94 119 83 94 119 83 94 119 83 94 119 83 94 119 83 94 119 83 94 119 83 94 119 83 94 119 83 94 119 83 94 119 83 94 119 83 94 119 83 94 119 83 94 119 83 94 119 83 94 119 83 94 119 83 94 119 83 94 119 83 94 119 83 94 119 83 94 119 83 94 119 83 94 119 83 94 119 83 94 119 83 94 119 83 94 119 83 94 119 83 94 119 83 94 119 83 94 119 83 94 119 83 94 119 83 94 119 83 94 119 83 94 119 83 94 119 83 94 119 83 94 119 83 94 119 83 94 119 83 94 119 83 94 119 83 94 119 83 94 119 83 94 119 83 94 119 83 94 119 83 94 119 83 94 119 83 94 119 83 94 119 83 94 119 83 94 119 83 94 119 83 94 119 83 94 119 83 94 119 83 94 119 83 94 119 83 94 119 83 94 
159 196 220 159 196 220 159 196 220 159 196 220 159 196 220 159 196 220 159 196 220 159 196 220 159 196 220 159 196 220 159 196 220 159 196 220 159 196 220 159 196 220 159 196 220 159 196 220 159 196 220 159 196 220 159 196 220 159 196 220 159 196 220 159 196 220 159 196 220 159 196 220 159 196 220 159 196 220 159 196 220 159 196 220 159 196 220 159 196 220 159 196 220 159 196 220 159 196 220 159 196 220 159 196 220 159 196 220 159 196 220 159 196 220 159 196 220 159 196 220 159 196 220 159 196 220 159 196 220 159 196 220 159 196 220 159 196 220 159 196 220 159 196 220 159 196 220 159 196 220 159 196 220 159 196 220 159 196 220 159 196 220 159 196 220 159 196 220 159 196 220 159 196 220 159 196 220 159 196 220 0 0 255 0 0 255 159 196 220 159 196 220 0 0 255 147 98 96 147 98 96 147 98 96 147 98 96 147 98 96 147 98 96 147 98 96 147 98 96 147 98 96 147 98 96 147 98 96 147 98 96 147 98 96 147 98 96 147 98 96 147 98 96 147 98 96 147 98 96 147 98 96 147 98 96 147 98 96 147 98 96 147 98 96 147 98 96 147 98 96 147 98 96 147 98 96 147 98 96 147 98 96 147 98 96 147 98 96 147 98 96 147 98 96 147 98 96 147 98 96 147 98 96 147 98 96 147 98 96 147 98 96 147 98 96 147 98 96 147 98 96 147 98 96 147 98 96 147 98 96 147 98 96 147 98 96 147 98 96 147 98 96 147 98 96 147 98 96 147 98 96 147 98 96 147 98 96 147 98 96 147 98 96 147 98 96 147 98 96 147 98 96 147 98 96 147 98 96 147 98 96 147 98 96 147 98 96 147 98 96 147 98 96 147 98 96 147 98 96 147 98 96 147 98 96 147 98 96 0 0 255 119 83 94 119 83 94 119 83 94 0 0 255 119 83 94 119 83 94 119 83 94 119 83 94 119 83 94 119 83 94 119 83 94 119 83 94 119 83 94 119 83 94 119 83 94 119 83 94 119 83 94 119 83 94 119 83 94 119 83 94 0 0 255 0 0 255 0 0 255 0 0 255 162 198 222 162 198 222 162 198 222 162 198 222 162 198 222 162 198 222 162 198 222 162 198 222 162 198 222 162 198 222 162 198 222 162 198 222 0 0 255 0 0 255 0 0 255 0 0 255 119 83 94 119 83 94 119 83 94 119 83 94 119 83 94 119 83 94 119 83 94 119 83 94 119 83 94 119 83 94 119 83 94 119 83 94 119 83 94 119 83 94 119 83 94 119 83 94 119 83 94 119 83 94 119 83 94 119 83 94 119 83 94 119 83 94 119 83 94 119 83 94 119 83 94 119 83 94 119 83 94 119 83 94 119 83 94 119 83 94 119 83 94 119 83 94 119 83 94 119 83 94 119 83 94 119 83 94 119 83 94 119 83 94 119 83 94 119 83 94 119 83 94 119 83 94 119 83 94 119 83 94 119 83 94 119 83 94 119 83 94 119 83 94 119 83 94 119 83 94 119 83 94 119 83 94 119 83 94 119 83 94 119 83 94 119 83 94 119 83 94 119 83 94 119 83 94 119 83 94 119 83 94 119 83 94 119 83 94 119 83 94 119 83 94 119 83 94 119 83 94 119 83 94 119 83 94 119 83 94 119 83 94 119 83 94 119 83 94 119 83 94 119 83 94 119 83 94 119 83 94 119 83 94 119 83 94 
159 196 220 159 196 220 159 196 220 159 196 220 159 196 220 159 196 220 159 196 220 159 196 220 159 196 220 159 196 220 159 196 220 159 196 220 159 196 220 159 196 220 159 196 220 159 196 220 159 196 220 159 196 220 159 196 220 159 196 220 159 196 220 159 196 220 159 196 220 159 196 220 159 196 220 159 196 220 159 196 220 159 196 220 159 196 220 159 196 220 159 196 220 159 196 220 159 196 220 159 196 220 159 196 220 159 196 220 159 196 220 159 196 220 159 196 220 159 196 220 159 196 220 159 196 220 159 196 220 159 196 220 159 196 220 159 196 220 159 196 220 159 196 220 159 196 220 159 196 220 159 196 220 159 196 220 159 196 220 159 196 220 159 196 220 159 196 220 159 196 220 159 196 220 159 196 220 0 0 255 0 0 255 159 196 220 159 196 220 159 196 220 0 0 255 147 98 96 147 98 96 147 98 96 147 98 96 147 98 96 147 98 96 147 98 96 147 98 96 147 98 96 147 98 96 147 98 96 147 98 96 147 98 96 147 98 96 147 98 96 147 98 96 147 98 96 147 98 96 147 98 96 147 98 96 147 98 96 147 98 96 147 98 96 147 98 96 147 98 96 147 98 96 147 98 96 147 98 96 147 98 96 147 98 96 147 98 96 147 98 96 147 98 96 147 98 96 147 98 96 147 98 96 147 98 96 147 98 96 147 98 96 147 98 96 147 98 96 147 98 96 147 98 96 147 98 96 147 98 96 147 98 96 147 98 96 147 98 96 147 98 96 147 98 96 147 98 96 147 98 96 147 98 96 147 98 96 147 98 96 147 98 96 147 98 96 147 98 96 147 98 96 147 98 96 147 98 96 147 98 96 147 98 96 147 98 96 147 98 96 147 98 96 147 98 96 147 98 96 147 98 96 147 98 96 147 98 96 0 0 255 0 0 255 119 83 94 0 0 255 0 0 255 119 83 94 119 83 94 119 83 94 119 83 94 119 83 94 119 83 94 119 83 94 119 83 94 119 83 94 119 83 94 119 83 94 119 83 94 119 83 94 119 83 94 119 83 94 119 83 94 119 83 94 119 83 94 0 0 255 0 0 255 0 0 255 0 0 255 162 198 222 162 198 222 162 198 222 162 198 222 162 198 222 162 198 222 162 198 222 162 198 222 162 198 222 162 198 222 162 198 222 162 198 222 0 0 255 0 0 255 0 0 255 0 0 255 119 83 94 119 83 94 119 83 94 119 83 94 119 83 94 119 83 94 119 83 94 119 83 94 119 83 94 119 83 94 119 83 94 119 83 94 119 83 94 119 83 94 119 83 94 119 83 94 119 83 94 119 83 94 119 83 94 119 83 94 119 83 94 119 83 94 119 83 94 119 83 94 119 83 94 119 83 94 119 83 94 119 83 94 119 83 94 119 83 94 119 83 94 119 83 94 119 83 94 119 83 94 119 83 94 119 83 94 119 83 94 119 83 94 119 83 94 119 83 94 119 83 94 119 83 94 119 83 94 119 83 94 119 83 94 119 83 94 119 83 94 119 83 94 119 83 94 119 83 94 119 83 94 119 83 94 119 83 94 119 83 94 119 83 94 119 83 94 119 83 94 119 83 94 119 83 94 119 83 94 119 83 94 119 83 94 119 83 94 119 83 94 119 83 94 119 83 94 119 83 94 119 83 94 119 83 94 119 83 94 119 83 94 119 83 94 119 83 94 119 83 94 119 83 94 119 83 94 119 83 94 
159 196 220 159 196 220 159 196 220 159 196 220 159 196 220 159 196 220 159 196 220 159 196 220 159 196 220 159 196 220 159 196 220 159 196 220 159 196 220 159 196 220 159 196 220 159 196 220 159 196 220 159 196 220 159 196 220 159 196 220 159 196 220 159 196 220 159 196 220 159 196 220 159 196 220 159 196 220 159 196 220 159 196 220 159 196 220 159 196 220 159 196 220 159 196 220 159 196 220 159 196 220 159 196 220 159 196 220 159 196 220 159 196 220 159 196 220 159 196 220 159 196 220 159 196 220 159 196 220 159 196 220 159 196 220 159 196 220 159 196 220 159 196 220 159 196 220 159 196 220 159 196 220 159 196 220 159 196 220 159 196 220 159 196 220 159 196 220 159 196 220 159 196 220 0 0 255 0 0 255 159 196 220 159 196 220 159 196 220 159 196 220 0 0 255 147 98 96 147 98 96 147 98 96 147 98 96 147 98 96 147 98 96 147 98 96 147 98 96 147 98 96 147 98 96 147 98 96 147 98 96 147 98 96 147 98 96 147 98 96 147 98 96 147 98 96 147 98 96 147 98 96 147 98 96 147 98 96 147 98 96 147 98 96 147 98 96 147 98 96 147 98 96 147 98 96 147 98 96 147 98 96 147 98 96 147 98 96 147 98 96 147 98 96 147 98 96 147 98 96 147 98 96 147 98 96 147 98 96 147 98 96 147 98 96 147 98 96 147 98 96 147 98 96 147 98 96 147 98 96 147 98 96 147 98 96 147 98 96 147 98 96 147 98 96 147 98 96 147 98 96 147 98 96 147 98 96 147 98 96 147 98 96 147 98 96 147 98 96 147 98 96 147 98 96 147 98 96 147 98 96 147 98 96 147 98 96 147 98 96 147 98 96 147 98 96 147 98 96 147 98 96 147 98 96 147 98 96 147 98 96 0 0 255 119 83 94 119 83 94 119 83 94 119 83 94 119 83 94 119 83 94 119 83 94 119 83 94 119 83 94 119 83 94 119 83 94 119 83 94 119 83 94 119 83 94 119 83 94 119 83 94 119 83 94 119 83 94 119 83 94 119 83 94 119 83 94 119 83 94 0 0 255 0 0 255 0 0 255 0 0 255 162 198 222 162 198 222 162 198 222 162 198 222 162 198 222 162 198 222 162 198 222 162 198 222 162 198 222 162 198 222 162 198 222 162 198 222 162 198 222 0 0 255 0 0 255 0 0 255 0 0 255 119 83 94 119 83 94 119 83 94 119 83 94 119 83 94 119 83 94 119 83 94 119 83 94 119 83 94 119 83 94 119 83 94 119 83 94 119 83 94 119 83 94 119 83 94 119 83 94 119 83 94 119 83 94 119 83 94 119 83 94 119 83 94 119 83 94 119 83 94 119 83 94 119 83 94 119 83 94 119 83 94 119 83 94 119 83 94 119 83 94 119 83 94 119 83 94 119 83 94 119 83 94 119 83 94 119 83 94 119 83 94 119 83 94 119 83 94 119 83 94 119 83 94 119 83 94 119 83 94 119 83 94 119 83 94 119 83 94 119 83 94 119 83 94 119 83 94 119 83 94 119 83 94 119 83 94 119 83 94 119 83 94 119 83 94 119 83 94 119 83 94 119 83 94 119 83 94 119 83 94 119 83 94 119 83 94 119 83 94 119 83 94 119 83 94 119 83 94 119 83 94 119 83 94 119 83 94 119 83 94 119 83 94 119 83 94 119 83 94 119 83 94 119 83 94 
159 196 220 159 196 220 159 196 220 159 196 220 159 196 220 159 196 220 159 196 220 159 196 220 159 196 220 159 196 220 159 196 220 159 196 220 159 196 220 159 196 220 159 196 220 159 196 220 159 196 220 159 196 220 159 196 220 159 196 220 159 196 220 159 196 220 159 196 220 159 196 220 159 196 220 159 196 220 159 196 220 159 196 220 159 196 220 159 196 220 159 196 220 159 196 220 159 196 220 159 196 220 159 196 220 159 196 220 159 196 220 159 196 220 159 196 220 159 196 220 159 196 220 159 196 220 159 196 220 159 196 220 159 196 220 159 196 220 159 196 220 159 196 220 159 196 220 159 196 220 159 196 220 159 196 220 159 196 220 159 196 220 159 196 220 159 196 220 159 196 220 0 0 255 0 0 255 159 196 220 159 196 220 159 196 220 159 196 220 159 196 220 0 0 255 147 98 96 147 98 96 147 98 96 147 98 96 147 98 96 147 98 96 147 98 96 147 98 96 147 98 96 147 98 96 147 98 96 147 98 96 147 98 96 147 98 96 147 98 96 147 98 96 147 98 96 147 98 96 147 98 96 147 98 96 147 98 96 147 98 96 147 98 96 147 98 96 147 98 96 147 98 96 147 98 96 147 98 96 147 98 96 147 98 96 147 98 96 147 98 96 147 98 96 147 98 96 147 98 96 147 98 96 147 98 96 147 98 96 147 98 96 147 98 96 147 98 96 147 98 96 147 98 96 147 98 96 147 98 96 147 98 96 147 98 96 147 98 96 147 98 96 147 98 96 147 98 96 147 98 96 147 98 96 147 98 96 147 98 96 147 98 96 147 98 96 147 98 96 147 98 96 147 98 96 147 98 96 147 98 96 147 98 96 147 98 96 147 98 96 147 98 96 147 98 96 147 98 96 147 98 96 147 98 96 147 98 96 147 98 96 0 0 255 0 0 255 0 0 255 119 83 94 119 83 94 119 83 94 119 83 94 119 83 94 119 83 94 119 83 94 119 83 94 119 83 94 119 83 94 119 83 94 119 83 94 119 83 94 119 83 94 119 83 94 119 83 94 119 83 94 119 83 94 119 83 94 119 83 94 119 83 94 119 83 94 119 83 94 0 0 255 0 0 255 0 0 255 162 198 222 162 198 222 162 198 222 162 198 222 162 198 222 162 198 222 162 198 222 162 198 222 162 198 222 162 198 222 162 198 222 162 198 222 0 0 255 0 0 255 0 0 255 0 0 255 0 0 255 119 83 94 119 83 94 119 83 94 119 83 94 119 83 94 119 83 94 119 83 94 119 83 94 119 83 94 119 83 94 119 83 94 119 83 94 119 83 94 119 83 94 119 83 94 119 83 94 119 83 94 119 83 94 119 83 94 119 83 94 119 83 94 119 83 94 119 83 94 119 83 94 119 83 94 119 83 94 119 83 94 119 83 94 119 83 94 119 83 94 119 83 94 119 83 94 119 83 94 119 83 94 119 83 94 119 83 94 119 83 94 119 83 94 119 83 94 119 83 94 119 83 94 119 83 94 119 83 94 119 83 94 119 83 94 119 83 94 119 83 94 119 83 94 119 83 94 119 83 94 119 83 94 119 83 94 119 83 94 119 83 94 119 83 94 119 83 94 119 83 94 119 83 94 119 83 94 119 83 94 119 83 94 119 83 94 119 83 94 119 83 94 119 83 94 119 83 94 119 83 94 119 83 94 119 83 94 119 83 94 119 83 94 119 83 94 119 83 94 
159 196 220 159 196 220 159 196 220 159 196 220 159 196 220 159 196 220 159 196 220 159 196 220 159 196 220 159 196 220 159 196 220 159 196 220 159 196 220 159 196 220 159 196 220 159 196 220 159 196 220 159 196 220 159 196 220 159 196 220 159 196 220 159 196 220 159 196 220 159 196 220 159 196 220 159 196 220 159 196 220 159 196 220 159 196 220 159 196 220 159 196 220 159 196 220 159 196 220 159 196 220 159 196 220 159 196 220 159 196 220 159 196 220 159 196 220 159 196 220 159 196 220 159 196 220 159 196 220 159 196 220 159 196 220 159 196 220 159 196 220 159 196 220 159 196 220 159 196 220 159 196 220 159 196 220 159 196 220 159 196 220 159 196 220 159 196 220 0 0 255 0 0 255 159 196 220 159 196 220 159 196 220 159 196 220 159 196 220 159 196 220 0 0 255 147 98 96 147 98 96 147 98 96 147 98 96 147 98 96 147 98 96 147 98 96 147 98 96 147 98 96 147 98 96 147 98 96 147 98 96 147 98 96 147 98 96 147 98 96 147 98 96 147 98 96 147 98 96 147 98 96 147 98 96 147 98 96 147 98 96 147 98 96 147 98 96 147 98 96 147 98 96 147 98 96 147 98 96 147 98 96 147 98 96 147 98 96 147 98 96 147 98 96 147 98 96 147 98 96 147 98 96 147 98 96 147 98 96 147 98 96 147 98 96 147 98 96 147 98 96 147 98 96 147 98 96 147 98 96 147 98 96 147 98 96 147 98 96 147 98 96 147 98 96 147 98 96 147 98 96 147 98 96 147 98 96 147 98 96 147 98 96 147 98 96 147 98 96 147 98 96 147 98 96 147 98 96 147 98 96 147 98 96 147 98 96 147 98 96 147 98 96 147 98 96 147 98 96 147 98 96 147 98 96 147 98 96 147 98 96 147 98 96 0 0 255 0 0 255 119 83 94 119 83 94 119 83 94 119 83 94 119 83 94 119 83 94 119 83 94 119 83 94 119 83 94 119 83 94 119 83 94 119 83 94 119 83 94 119 83 94 119 83 94 119 83 94 119 83 94 119 83 94 119 83 94 119 83 94 119 83 94 119 83 94 119 83 94 119 83 94 0 0 255 0 0 255 0 0 255 0 0 255 162 198 222 162 198 222 162 198 222 162 198 222 162 198 222 162 198 222 162 198 222 162 198 222 162 198 222 162 198 222 162 198 222 162 198 222 0 0 255 0 0 255 0 0 255 0 0 255 0 0 255 119 83 94 119 83 94 119 83 94 119 83 94 119 83 94 119 83 94 119 83 94 119 83 94 119 83 94 119 83 94 119 83 94 119 83 94 119 83 94 119 83 94 119 83 94 119 83 94 119 83 94 119 83 94 119 83 94 119 83 94 119 83 94 119 83 94 119 83 94 119 83 94 119 83 94 119 83 94 119 83 94 119 83 94 119 83 94 119 83 94 119 83 94 119 83 94 119 83 94 119 83 94 119 83 94 119 83 94 119 83 94 119 83 94 119 83 94 119 83 94 119 83 94 119 83 94 119 83 94 119 83 94 119 83 94 119 83 94 119 83 94 119 83 94 119 83 94 119 83 94 119 83 94 119 83 94 119 83 94 119 83 94 119 83 94 119 83 94 119 83 94 119 83 94 119 83 94 119 83 94 119 83 94 119 83 94 119 83 94 119 83 94 119 83 94 119 83 94 119 83 94 119 83 94 119 83 94 119 83 94 119 83 94 
159 196 220 159 196 220 159 196 220 159 196 220 159 196 220 159 196 220 159 196 220 159 196 220 159 196 220 159 196 220 159 196 220 159 196 220 159 196 220 159 196 220 159 196 220 159 196 220 159 196 220 159 196 220 159 196 220 159 196 220 159 196 220 159 196 220 159 196 220 159 196 220 159 196 220 159 196 220 159 196 220 159 196 220 159 196 220 159 196 220 159 196 220 159 196 220 159 196 220 159 196 220 159 196 220 159 196 220 159 196 220 159 196 220 159 196 220 159 196 220 159 196 220 159 196 220 159 196 220 159 196 220 159 196 220 159 196 220 159 196 220 159 196 220 159 196 220 159 196 220 159 196 220 159 196 220 159 196 220 159 196 220 159 196 220 0 0 255 0 0 255 159 196 220 159 196 220 159 196 220 159 196 220 159 196 220 159 196 220 159 196 220 0 0 255 147 98 96 147 98 96 147 98 96 147 98 96 147 98 96 147 98 96 147 98 96 147 98 96 147 98 96 147 98 96 147 98 96 147 98 96 147 98 96 147 98 96 147 98 96 147 98 96 147 98 96 147 98 96 147 98 96 147 98 96 147 98 96 147 98 96 147 98 96 147 98 96 147 98 96 147 98 96 147 98 96 147 98 96 147 98 96 147 98 96 147 98 96 147 98 96 147 98 96 147 98 96 147 98 96 147 98 96 147 98 96 147 98 96 147 98 96 147 98 96 147 98 96 147 98 96 147 98 96 147 98 96 147 98 96 147 98 96 147 98 96 147 98 96 147 98 96 147 98 96 147 98 96 147 98 96 147 98 96 147 98 96 147 98 96 147 98 96 147 98 96 147 98 96 147 98 96 147 98 96 147 98 96 147 98 96 147 98 96 147 98 96 147 98 96 147 98 96 147 98 96 147 98 96 147 98 96 147 98 96 147 98 96 147 98 96 0 0 255 119 83 94 119 83 94 0 0 255 119 83 94 119 83 94 119 83 94 119 83 94 119 83 94 119 83 94 119 83 94 119 83 94 119 83 94 119 83 94 119 83 94 119 83 94 119 83 94 119 83 94 119 83 94 119 83 94 119 83 94 119 83 94 119 83 94 119 83 94 119 83 94 119 83 94 119 83 94 119 83 94 119 83 94 0 0 255 0 0 255 0 0 255 0 0 255 162 198 222 162 198 222 162 198 222 162 198 222 162 198 222 162 198 222 162 198 222 162 198 222 162 198 222 162 198 222 162 198 222 162 198 222 0 0 255 0 0 255 0 0 255 0 0 255 0 0 255 119 83 94 119 83 94 119 83 94 119 83 94 119 83 94 119 83 94 119 83 94 119 83 94 119 83 94 119 83 94 119 83 94 119 83 94 119 83 94 119 83 94 119 83 94 119 83 94 119 83 94 119 83 94 119 83 94 119 83 94 119 83 94 119 83 94 119 83 94 119 83 94 119 83 94 119 83 94 119 83 94 119 83 94 119 83 94 119 83 94 119 83 94 119 83 94 119 83 94 119 83 94 119 83 94 119 83 94 119 83 94 119 83 94 119 83 94 119 83 94 119 83 94 119 83 94 119 83 94 119 83 94 119 83 94 119 83 94 119 83 94 119 83 94 119 83 94 119 83 94 119 83 94 119 83 94 119 83 94 119 83 94 119 83 94 119 83 94 119 83 94 119 83 94 119 83 94 119 83 94 119 83 94 119 83 94 119 83 94 119 83 94 119 83 94 119 83 94 119 83 94 119 83 94 119 83 94 
159 196 220 159 196 220 159 196 220 159 196 220 159 196 220 159 196 220 159 196 220 159 196 220 159 196 220 159 196 220 159 196 220 159 196 220 159 196 220 159 196 220 159 196 220 159 196 220 159 196 220 159 196 220 159 196 220 159 196 220 159 196 220 159 196 220 159 196 220 159 196 220 159 196 220 159 196 220 159 196 220 159 196 220 159 196 220 159 196 220 159 196 220 159 196 220 159 196 220 159 196 220 159 196 220 159 196 220 159 196 220 159 196 220 159 196 220 159 196 220 159 196 220 159 196 220 159 196 220 159 196 220 159 196 220 159 196 220 159 196 220 159 196 220 159 196 220 159 196 220 159 196 220 159 196 220 159 196 220 159 196 220 0 0 255 0 0 255 159 196 220 159 196 220 159 196 220 159 196 220 159 196 220 159 196 220 159 196 220 0 0 255 147 98 96 147 98 96 147 98 96 147 98 96 147 98 96 147 98 96 147 98 96 147 98 96 147 98 96 147 98 96 147 98 96 147 98 96 147 98 96 147 98 96 147 98 96 147 98 96 147 98 96 147 98 96 147 98 96 147 98 96 147 98 96 147 98 96 147 98 96 147 98 96 147 98 96 147 98 96 147 98 96 147 98 96 147 98 96 147 98 96 147 98 96 147 98 96 147 98 96 147 98 96 147 98 96 147 98 96 147 98 96 147 98 96 147 98 96 147 98 96 147 98 96 147 98 96 147 98 96 147 98 96 147 98 96 147 98 96 147 98 96 147 98 96 147 98 96 147 98 96 147 98 96 147 98 96 147 98 96 147 98 96 147 98 96 147 98 96 147 98 96 147 98 96 147 98 96 147 98 96 147 98 96 147 98 96 147 98 96 147 98 96 147 98 96 147 98 96 147 98 96 147 98 96 147 98 96 147 98 96 147 98 96 147 98 96 0 0 255 0 0 255 0 0 255 0 0 255 0 0 255 119 83 94 119 83 94 119 83 94 119 83 94 119 83 94 119 83 94 119 83 94 119 83 94 119 83 94 119 83 94 119 83 94 119 83 94 119 83 94 119 83 94 119 83 94 119 83 94 119 83 94 119 83 94 119 83 94 119 83 94 119 83 94 119 83 94 119 83 94 119 83 94 119 83 94 119 83 94 119 83 94 0 0 255 0 0 255 0 0 255 0 0 255 162 198 222 162 198 222 162 198 222 162 198 222 162 198 222 162 198 222 162 198 222 162 198 222 162 198 222 162 198 222 162 198 222 162 198 222 0 0 255 0 0 255 0 0 255 0 0 255 119 83 94 119 83 94 119 83 94 119 83 94 119 83 94 119 83 94 119 83 94 119 83 94 119 83 94 119 83 94 119 83 94 119 83 94 119 83 94 119 83 94 119 83 94 119 83 94 119 83 94 119 83 94 119 83 94 119 83 94 119 83 94 119 83 94 119 83 94 119 83 94 119 83 94 119 83 94 119 83 94 119 83 94 119 83 94 119 83 94 119 83 94 119 83 94 119 83 94 119 83 94 119 83 94 119 83 94 119 83 94 119 83 94 119 83 94 119 83 94 119 83 94 119 83 94 119 83 94 119 83 94 119 83 94 119 83 94 119 83 94 119 83 94 119 83 94 119 83 94 119 83 94 119 83 94 119 83 94 119 83 94 119 83 94 119 83 94 119 83 94 119 83 94 119 83 94 119 83 94 119 83 94 119 83 94 119 83 94 119 83 94 119 83 94 119 83 94 119 83 94 119 83 94 
159 196 220 159 196 220 159 196 220 159 196 220 159 196 220 159 196 220 159 196 220 159 196 220 159 196 220 159 196 220 159 196 220 159 196 220 159 196 220 159 196 220 159 196 220 159 196 220 159 196 220 159 196 220 159 196 220 159 196 220 159 196 220 159 196 220 159 196 220 159 196 220 159 196 220 159 196 220 159 196 220 159 196 220 159 196 220 159 196 220 159 196 220 159 196 220 159 196 220 159 196 220 159 196 220 159 196 220 159 196 220 159 196 220 159 196 220 159 196 220 159 196 220 159 196 220 159 196 220 159 196 220 159 196 220 159 196 220 159 196 220 159 196 220 159 196 220 159 196 220 159 196 220 159 196 220 159 196 220 0 0 255 0 0 255 159 196 220 159 196 220 159 196 220 159 196 220 159 196 220 159 196 220 159 196 220 0 0 255 147 98 96 147 98 96 147 98 96 147 98 96 147 98 96 147 98 96 147 98 96 147 98 96 147 98 96 147 98 96 147 98 96 147 98 96 147 98 96 147 98 96 147 98 96 147 98 96 147 98 96 147 98 96 147 98 96 147 98 96 147 98 96 147 98 96 147 98 96 147 98 96 147 98 96 147 98 96 147 98 96 147 98 96 147 98 96 147 98 96 147 98 96 147 98 96 147 98 96 147 98 96 147 98 96 147 98 96 147 98 96 147 98 96 147 98 96 147 98 96 147 98 96 147 98 96 147 98 96 147 98 96 147 98 96 147 98 96 147 98 96 147 98 96 147 98 96 147 98 96 147 98 96 147 98 96 147 98 96 147 98 96 147 98 96 147 98 96 147 98 96 147 98 96 147 98 96 147 98 96 147 98 96 147 98 96 147 98 96 147 98 96 147 98 96 147 98 96 147 98 96 147 98 96 147 98 96 147 98 96 147 98 96 147 98 96 147 98 96 147 98 96 147 98 96 0 0 255 119 83 94 119 83 94 119 83 94 119 83 94 119 83 94 119 83 94 119 83 94 119 83 94 119 83 94 119 83 94 119 83 94 119 83 94 119 83 94 119 83 94 119 83 94 119 83 94 119 83 94 119 83 94 119 83 94 119 83 94 119 83 94 119 83 94 119 83 94 119 83 94 119 83 94 119 83 94 119 83 94 119 83 94 119 83 94 119 83 94 119 83 94 0 0 255 0 0 255 0 0 255 162 198 222 162 198 222 162 198 222 162 198 222 162 198 222 162 198 222 162 198 222 162 198 222 162 198 222 162 198 222 162 198 222 162 198 222 162 198 222 0 0 255 0 0 255 0 0 255 0 0 255 119 83 94 119 83 94 119 83 94 119 83 94 119 83 94 119 83 94 119 83 94 119 83 94 119 83 94 119 83 94 119 83 94 119 83 94 119 83 94 119 83 94 119 83 94 119 83 94 119 83 94 119 83 94 119 83 94 119 83 94 119 83 94 119 83 94 119 83 94 119 83 94 119 83 94 119 83 94 119 83 94 119 83 94 119 83 94 119 83 94 119 83 94 119 83 94 119 83 94 119 83 94 119 83 94 119 83 94 119 83 94 119 83 94 119 83 94 119 83 94 119 83 94 119 83 94 119 83 94 119 83 94 119 83 94 119 83 94 119 83 94 119 83 94 119 83 94 119 83 94 119 83 94 119 83 94 119 83 94 119 83 94 119 83 94 119 83 94 119 83 94 119 83 94 119 83 94 119 83 94 119 83 94 119 83 94 119 83 94 119 83 94 119 83 94 119 83 94 
159 196 220 159 196 220 159 196 220 159 196 220 159 196 220 159 196 220 159 196 220 159 196 220 159 196 220 159 196 220 159 196 220 159 196 220 159 196 220 159 196 220 159 196 220 159 196 220 159 196 220 159 196 220 159 196 220 159 196 220 159 196 220 159 196 220 159 196 220 159 196 220 159 196 220 159 196 220 159 196 220 159 196 220 159 196 220 159 196 220 159 196 220 159 196 220 159 196 220 159 196 220 159 196 220 159 196 220 159 196 220 159 196 220 159 196 220 159 196 220 159 196 220 159 196 220 159 196 220 159 196 220 159 196 220 159 196 220 159 196 220 159 196 220 159 196 220 159 196 220 159 196 220 159 196 220 0 0 255 0 0 255 159 196 220 159 196 220 159 196 220 159 196 220 159 196 220 159 196 220 159 196 220 0 0 255 147 98 96 147 98 96 147 98 96 147 98 96 147 98 96 147 98 96 147 98 96 147 98 96 147 98 96 147 98 96 147 98 96 147 98 96 147 98 96 147 98 96 147 98 96 147 98 96 147 98 96 147 98 96 147 98 96 147 98 96 147 98 96 147 98 96 147 98 96 147 98 96 147 98 96 147 98 96 147 98 96 147 98 96 147 98 96 147 98 96 147 98 96 147 98 96 147 98 96 147 98 96 147 98 96 147 98 96 147 98 96 147 98 96 147 98 96 147 98 96 147 98 96 147 98 96 147 98 96 147 98 96 147 98 96 147 98 96 147 98 96 147 98 96 147 98 96 147 98 96 147 98 96 147 98 96 147 98 96 147 98 96 147 98 96 147 98 96 147 98 96 147 98 96 147 98 96 147 98 96 147 98 96 147 98 96 147 98 96 147 98 96 147 98 96 147 98 96 147 98 96 147 98 96 147 98 96 147 98 96 147 98 96 147 98 96 147 98 96 147 98 96 147 98 96 0 0 255 0 0 255 0 0 255 119 83 94 119 83 94 119 83 94 119 83 94 119 83 94 119 83 94 119 83 94 119 83 94 119 83 94 119 83 94 119 83 94 119 83 94 119 83 94 119 83 94 119 83 94 119 83 94 119 83 94 119 83 94 119 83 94 119 83 94 119 83 94 119 83 94 119 83 94 119 83 94 119 83 94 119 83 94 119 83 94 119 83 94 119 83 94 119 83 94 119 83 94 119 83 94 0 0 255 0 0 255 162 198 222 162 198 222 162 198 222 162 198 222 162 198 222 162 198 222 162 198 222 162 198 222 162 198 222 162 198 222 162 198 222 162 198 222 0 0 255 0 0 255 167 176 177 0 0 255 119 83 94 0 0 255 0 0 255 119 83 94 119 83 94 119 83 94 119 83 94 119 83 94 119 83 94 119 83 94 119 83 94 119 83 94 119 83 94 119 83 94 119 83 94 119 83 94 119 83 94 119 83 94 119 83 94 119 83 94 119 83 94 119 83 94 119 83 94 119 83 94 119 83 94 119 83 94 119 83 94 119 83 94 119 83 94 119 83 94 119 83 94 119 83 94 119 83 94 119 83 94 119 83 94 119 83 94 119 83 94 119 83 94 119 83 94 119 83 94 119 83 94 119 83 94 119 83 94 119 83 94 119 83 94 119 83 94 119 83 94 119 83 94 119 83 94 119 83 94 119 83 94 119 83 94 119 83 94 119 83 94 119 83 94 119 83 94 119 83 94 119 83 94 119 83 94 119 83 94 119 83 94 119 83 94 119 83 94 119 83 94 119 83 94 119 83 94 
159 196 220 159 196 220 159 196 220 159 196 220 159 196 220 159 196 220 159 196 220 159 196 220 159 196 220 159 196 220 159 196 220 159 196 220 159 196 220 159 196 220 159 196 220 159 196 220 159 196 220 159 196 220 159 196 220 159 196 220 159 196 220 159 196 220 159 196 220 159 196 220 159 196 220 159 196 220 159 196 220 159 196 220 159 196 220 159 196 220 159 196 220 159 196 220 159 196 220 159 196 220 159 196 220 159 196 220 159 196 220 159 196 220 159 196 220 159 196 220 159 196 220 159 196 220 159 196 220 159 196 220 159 196 220 159 196 220 159 196 220 159 196 220 159 196 220 159 196 220 159 196 220 0 0 255 147 98 96 0 0 255 159 196 220 159 196 220 159 196 220 159 196 220 159 196 220 159 196 220 0 0 255 147 98 96 147 98 96 147 98 96 147 98 96 147 98 96 147 98 96 147 98 96 147 98 96 147 98 96 147 98 96 147 98 96 147 98 96 147 98 96 147 98 96 147 98 96 147 98 96 147 98 96 147 98 96 147 98 96 147 98 96 147 98 96 147 98 96 147 98 96 147 98 96 147 98 96 147 98 96 147 98 96 147 98 96 147 98 96 147 98 96 147 98 96 147 98 96 147 98 96 147 98 96 147 98 96 147 98 96 147 98 96 147 98 96 147 98 96 147 98 96 147 98 96 147 98 96 147 98 96 147 98 96 147 98 96 147 98 96 147 98 96 147 98 96 147 98 96 147 98 96 147 98 96 147 98 96 147 98 96 147 98 96 147 98 96 147 98 96 147 98 96 147 98 96 147 98 96 147 98 96 147 98 96 147 98 96 147 98 96 147 98 96 147 98 96 147 98 96 147 98 96 147 98 96 147 98 96 147 98 96 147 98 96 147 98 96 147 98 96 147 98 96 147 98 96 147 98 96 147 98 96 147 98 96 0 0 255 119 83 94 119 83 94 119 83 94 119 83 94 119 83 94 119 83 94 119 83 94 119 83 94 119 83 94 119 83 94 119 83 94 119 83 94 119 83 94 119 83 94 119 83 94 119 83 94 119 83 94 119 83 94 119 83 94 119 83 94 119 83 94 119 83 94 119 83 94 119 83 94 119 83 94 119 83 94 119 83 94 119 83 94 119 83 94 119 83 94 119 83 94 119 83 94 119 83 94 0 0 255 0 0 255 162 198 222 162 198 222 162 198 222 162 198 222 162 198 222 162 198 222 162 198 222 162 198 222 162 198 222 162 198 222 162 198 222 162 198 222 0 0 255 0 0 255 0 0 255 0 0 255 167 176 177 0 0 255 0 0 255 0 0 255 0 0 255 0 0 255 0 0 255 0 0 255 0 0 255 119 83 94 119 83 94 119 83 94 119 83 94 119 83 94 119 83 94 119 83 94 119 83 94 119 83 94 119 83 94 119 83 94 119 83 94 119 83 94 119 83 94 119 83 94 119 83 94 119 83 94 119 83 94 119 83 94 119 83 94 119 83 94 119 83 94 119 83 94 119 83 94 119 83 94 119 83 94 119 83 94 119 83 94 119 83 94 119 83 94 119 83 94 119 83 94 119 83 94 119 83 94 119 83 94 119 83 94 119 83 94 119 83 94 119 83 94 119 83 94 119 83 94 119 83 94 119 83 94 119 83 94 119 83 94 119 83 94 119 83 94 119 83 94 119 83 94 119 83 94 119 83 94 119 83 94 119 83 94 119 83 94 119 83 94 119 83 94 
0 0 255 159 196 220 159 196 220 159 196 220 159 196 220 159 196 220 159 196 220 159 196 220 159 196 220 159 196 220 159 196 220 159 196 220 159 196 220 159 196 220 159 196 220 159 196 220 159 196 220 159 196 220 159 196 220 159 196 220 159 196 220 159 196 220 159 196 220 159 196 220 159 196 220 159 196 220 159 196 220 159 196 220 159 196 220 159 196 220 159 196 220 159 196 220 159 196 220 159 196 220 159 196 220 159 196 220 159 196 220 159 196 220 159 196 220 159 196 220 159 196 220 159 196 220 159 196 220 159 196 220 159 196 220 159 196 220 159 196 220 159 196 220 159 196 220 159 196 220 0 0 255 147 98 96 0 0 255 159 196 220 159 196 220 159 196 220 159 196 220 159 196 220 159 196 220 0 0 255 147 98 96 147 98 96 147 98 96 147 98 96 147 98 96 147 98 96 147 98 96 147 98 96 147 98 96 147 98 96 147 98 96 147 98 96 147 98 96 147 98 96 147 98 96 147 98 96 147 98 96 147 98 96 147 98 96 147 98 96 147 98 96 147 98 96 147 98 96 147 98 96 147 98 96 147 98 96 147 98 96 147 98 96 147 98 96 147 98 96 147 98 96 147 98 96 147 98 96 147 98 96 147 98 96 147 98 96 147 98 96 147 98 96 147 98 96 147 98 96 147 98 96 147 98 96 147 98 96 147 98 96 147 98 96 147 98 96 147 98 96 147 98 96 147 98 96 147 98 96 147 98 96 147 98 96 147 98 96 147 98 96 147 98 96 147 98 96 147 98 96 147 98 96 147 98 96 147 98 96 147 98 96 147 98 96 147 98 96 147 98 96 147 98 96 147 98 96 147 98 96 147 98 96 147 98 96 147 98 96 147 98 96 147 98 96 147 98 96 147 98 96 147 98 96 147 98 96 147 98 96 147 98 96 0 0 255 0 0 255 119 83 94 119 83 94 119 83 94 119 83 94 119 83 94 119 83 94 119 83 94 119 83 94 119 83 94 119 83 94 119 83 94 119 83 94 119 83 94 119 83 94 119 83 94 119 83 94 119 83 94 119 83 94 119 83 94 119 83 94 119 83 94 119 83 94 119 83 94 119 83 94 119 83 94 119 83 94 119 83 94 119 83 94 119 83 94 119 83 94 119 83 94 119 83 94 119 83 94 0 0 255 0 0 255 162 198 222 162 198 222 162 198 222 162 198 222 162 198 222 162 198 222 162 198 222 162 198 222 162 198 222 162 198 222 162 198 222 162 198 222 162 198 222 0 0 255 0 0 255 0 0 255 0 0 255 0 0 255 0 0 255 0 0 255 167 176 177 167 176 177 167 176 177 0 0 255 0 0 255 0 0 255 0 0 255 0 0 255 0 0 255 0 0 255 119 83 94 119 83 94 119 83 94 119 83 94 119 83 94 119 83 94 119 83 94 119 83 94 119 83 94 119 83 94 119 83 94 119 83 94 119 83 94 119 83 94 119 83 94 119 83 94 119 83 94 119 83 94 119 83 94 119 83 94 119 83 94 119 83 94 119 83 94 119 83 94 119 83 94 119 83 94 119 83 94 119 83 94 119 83 94 119 83 94 119 83 94 119 83 94 119 83 94 119 83 94 119 83 94 119 83 94 119 83 94 119 83 94 119 83 94 119 83 94 119 83 94 119 83 94 119 83 94 119 83 94 119 83 94 119 83 94 119 83 94 119 83 94 119 83 94 119 83 94 119 83 94 
0 0 255 0 0 255 0 0 255 0 0 255 0 0 255 0 0 255 159 196 220 159 196 220 159 196 220 159 196 220 159 196 220 159 196 220 159 196 220 159 196 220 159 196 220 159 196 220 159 196 220 159 196 220 159 196 220 159 196 220 159 196 220 159 196 220 159 196 220 159 196 220 159 196 220 159 196 220 159 196 220 159 196 220 159 196 220 159 196 220 159 196 220 159 196 220 159 196 220 159 196 220 159 196 220 159 196 220 159 196 220 159 196 220 159 196 220 159 196 220 159 196 220 159 196 220 159 196 220 159 196 220 159 196 220 159 196 220 159 196 220 159 196 220 159 196 220 159 196 220 0 0 255 0 0 255 159 196 220 159 196 220 159 196 220 159 196 220 159 196 220 159 196 220 0 0 255 147 98 96 147 98 96 147 98 96 147 98 96 147 98 96 147 98 96 147 98 96 147 98 96 147 98 96 147 98 96 147 98 96 147 98 96 147 98 96 147 98 96 147 98 96 147 98 96 147 98 96 147 98 96 147 98 96 147 98 96 147 98 96 147 98 96 147 98 96 147 98 96 147 98 96 147 98 96 147 98 96 147 98 96 147 98 96 147 98 96 147 98 96 147 98 96 147 98 96 147 98 96 147 98 96 147 98 96 147 98 96 147 98 96 147 98 96 147 98 96 147 98 96 147 98 96 147 98 96 147 98 96 147 98 96 147 98 96 147 98 96 147 98 96 147 98 96 147 98 96 147 98 96 147 98 96 147 98 96 147 98 96 147 98 96 147 98 96 147 98 96 147 98 96 147 98 96 147 98 96 147 98 96 147 98 96 147 98 96 147 98 96 147 98 96 147 98 96 147 98 96 147 98 96 147 98 96 147 98 96 147 98 96 147 98 96 147 98 96 147 98 96 147 98 96 147 98 96 147 98 96 147 98 96 0 0 255 0 0 255 0 0 255 0 0 255 0 0 255 119 83 94 119 83 94 119 83 94 119 83 94 119 83 94 119 83 94 119 83 94 119 83 94 119 83 94 119 83 94 119 83 94 119 83 94 119 83 94 119 83 94 119 83 94 119 83 94 119 83 94 119 83 94 119 83 94 119 83 94 119 83 94 119 83 94 119 83 94 119 83 94 119 83 94 119 83 94 119 83 94 119 83 94 119 83 94 119 83 94 119 83 94 119 83 94 0 0 255 0 0 255 162 198 222 162 198 222 162 198 222 162 198 222 162 198 222 162 198 222 162 198 222 162 198 222 162 198 222 162 198 222 162 198 222 162 198 222 162 198 222 162 198 222 0 0 255 167 176 177 167 176 177 167 176 177 167 176 177 167 176 177 167 176 177 0 0 255 0 0 255 0 0 255 0 0 255 167 176 177 167 176 177 0 0 255 0 0 255 0 0 255 0 0 255 0 0 255 0 0 255 0 0 255 0 0 255 119 83 94 119 83 94 119 83 94 119 83 94 119 83 94 119 83 94 119 83 94 119 83 94 119 83 94 119 83 94 119 83 94 119 83 94 119 83 94 119 83 94 119 83 94 119 83 94 119 83 94 119 83 94 119 83 94 119 83 94 119 83 94 119 83 94 119 83 94 119 83 94 119 83 94 119 83 94 119 83 94 119 83 94 119 83 94 119 83 94 119 83 94 119 83 94 119 83 94 119 83 94 119 83 94 119 83 94 119 83 94 119 83 94 119 83 94 119 83 94 119 83 94 119 83 94 119 83 94 119 83 94 119 83 94 
164 196 214 164 196 214 164 196 214 164 196 214 164 196 214 0 0 255 0 0 255 0 0 255 0 0 255 0 0 255 0 0 255 159 196 220 159 196 220 159 196 220 159 196 220 159 196 220 159 196 220 159 196 220 159 196 220 159 196 220 159 196 220 159 196 220 159 196 220 159 196 220 159 196 220 159 196 220 159 196 220 159 196 220 159 196 220 159 196 220 159 196 220 159 196 220 159 196 220 159 196 220 159 196 220 159 196 220 159 196 220 159 196 220 159 196 220 159 196 220 159 196 220 159 196 220 159 196 220 159 196 220 159 196 220 159 196 220 159 196 220 159 196 220 159 196 220 0 0 255 0 0 255 159 196 220 159 196 220 159 196 220 159 196 220 159 196 220 159 196 220 159 196 220 0 0 255 147 98 96 147 98 96 147 98 96 147 98 96 147 98 96 147 98 96 147 98 96 147 98 96 147 98 96 147 98 96 147 98 96 147 98 96 147 98 96 147 98 96 147 98 96 147 98 96 147 98 96 147 98 96 147 98 96 147 98 96 147 98 96 147 98 96 147 98 96 147 98 96 147 98 96 147 98 96 147 98 96 147 98 96 147 98 96 147 98 96 147 98 96 147 98 96 147 98 96 147 98 96 147 98 96 147 98 96 147 98 96 147 98 96 147 98 96 147 98 96 147 98 96 147 98 96 147 98 96 147 98 96 147 98 96 147 98 96 147 98 96 147 98 96 147 98 96 147 98 96 147 98 96 147 98 96 147 98 96 147 98 96 147 98 96 147 98 96 147 98 96 147 98 96 147 98 96 147 98 96 147 98 96 147 98 96 147 98 96 147 98 96 147 98 96 147 98 96 147 98 96 147 98 96 147 98 96 147 98 96 147 98 96 147 98 96 147 98 96 147 98 96 147 98 96 147 98 96 147 98 96 147 98 96 147 98 96 147 98 96 147 98 96 147 98 96 0 0 255 119 83 94 119 83 94 119 83 94 119 83 94 119 83 94 119 83 94 119 83 94 119 83 94 119 83 94 119 83 94 119 83 94 119 83 94 119 83 94 119 83 94 119 83 94 119 83 94 119 83 94 119 83 94 119 83 94 119 83 94 119 83 94 119 83 94 119 83 94 119 83 94 119 83 94 119 83 94 119 83 94 119 83 94 119 83 94 119 83 94 119 83 94 119 83 94 0 0 255 0 0 255 162 198 222 162 198 222 162 198 222 162 198 222 162 198 222 162 198 222 162 198 222 162 198 222 162 198 222 162 198 222 162 198 222 162 198 222 162 198 222 162 198 222 0 0 255 167 176 177 167 176 177 167 176 177 167 176 177 167 176 177 167 176 177 167 176 177 167 176 177 167 176 177 167 176 177 167 176 177 0 0 255 0 0 255 0 0 255 0 0 255 0 0 255 0 0 255 167 176 177 167 176 177 0 0 255 0 0 255 0 0 255 0 0 255 0 0 255 0 0 255 0 0 255 0 0 255 119 83 94 119 83 94 119 83 94 119 83 94 119 83 94 119 83 94 119 83 94 119 83 94 119 83 94 119 83 94 119 83 94 119 83 94 119 83 94 119 83 94 119 83 94 119 83 94 119 83 94 119 83 94 119 83 94 119 83 94 119 83 94 119 83 94 119 83 94 119 83 94 119 83 94 119 83 94 119 83 94 119 83 94 119 83 94 119 83 94 119 83 94 119 83 94 119 83 94 119 83 94 119 83 94 119 83 94 119 83 94 119 83 94 
164 196 214 164 196 214 164 196 214 164 196 214 164 196 214 164 196 214 164 196 214 164 196 214 164 196 214 164 196 214 0 0 255 0 0 255 0 0 255 0 0 255 0 0 255 159 196 220 159 196 220 159 196 220 159 196 220 159 196 220 159 196 220 159 196 220 159 196 220 159 196 220 159 196 220 159 196 220 159 196 220 159 196 220 159 196 220 159 196 220 159 196 220 159 196 220 159 196 220 159 196 220 159 196 220 159 196 220 159 196 220 159 196 220 159 196 220 159 196 220 159 196 220 159 196 220 159 196 220 159 196 220 159 196 220 159 196 220 159 196 220 159 196 220 0 0 255 0 0 255 159 196 220 159 196 220 159 196 220 159 196 220 159 196 220 159 196 220 159 196 220 0 0 255 147 98 96 147 98 96 147 98 96 147 98 96 147 98 96 147 98 96 147 98 96 147 98 96 147 98 96 147 98 96 147 98 96 147 98 96 147 98 96 147 98 96 147 98 96 147 98 96 147 98 96 147 98 96 147 98 96 147 98 96 147 98 96 147 98 96 147 98 96 147 98 96 147 98 96 147 98 96 147 98 96 147 98 96 147 98 96 147 98 96 147 98 96 147 98 96 147 98 96 147 98 96 147 98 96 147 98 96 147 98 96 147 98 96 147 98 96 147 98 96 147 98 96 147 98 96 147 98 96 147 98 96 147 98 96 147 98 96 147 98 96 147 98 96 147 98 96 147 98 96 147 98 96 147 98 96 147 98 96 147 98 96 147 98 96 147 98 96 147 98 96 147 98 96 147 98 96 147 98 96 147 98 96 147 98 96 147 98 96 147 98 96 147 98 96 147 98 96 147 98 96 147 98 96 147 98 96 147 98 96 147 98 96 147 98 96 147 98 96 147 98 96 147 98 96 147 98 96 147 98 96 147 98 96 147 98 96 0 0 255 147 98 96 147 98 96 0 0 255 0 0 255 119 83 94 0 0 255 119 83 94 119 83 94 119 83 94 119 83 94 119 83 94 119 83 94 119 83 94 119 83 94 119 83 94 119 83 94 119 83 94 119 83 94 119 83 94 119 83 94 119 83 94 119 83 94 119 83 94 119 83 94 119 83 94 119 83 94 119 83 94 119 83 94 119 83 94 119 83 94 119 83 94 119 83 94 119 83 94 119 83 94 119 83 94 119 83 94 0 0 255 0 0 255 162 198 222 162 198 222 162 198 222 162 198 222 162 198 222 162 198 222 162 198 222 162 198 222 162 198 222 162 198 222 162 198 222 162 198 222 162 198 222 0 0 255 167 176 177 0 0 255 0 0 255 0 0 255 0 0 255 167 176 177 167 176 177 167 176 177 167 176 177 167 176 177 167 176 177 167 176 177 167 176 177 167 176 177 167 176 177 167 176 177 167 176 177 167 176 177 167 176 177 0 0 255 0 0 255 0 0 255 167 176 177 167 176 177 167 176 177 0 0 255 0 0 255 0 0 255 0 0 255 0 0 255 0 0 255 0 0 255 0 0 255 119 83 94 119 83 94 119 83 94 119 83 94 119 83 94 119 83 94 119 83 94 119 83 94 119 83 94 119 83 94 119 83 94 119 83 94 119 83 94 119 83 94 119 83 94 119 83 94 119 83 94 119 83 94 119 83 94 119 83 94 119 83 94 119 83 94 119 83 94 119 83 94 119 83 94 119 83 94 119 83 94 119 83 94 119 83 94 119 83 94 119 83 94 119 83 94 119 83 94 
164 196 214 164 196 214 164 196 214 164 196 214 164 196 214 164 196 214 164 196 214 164 196 214 164 196 214 164 196 214 164 196 214 164 196 214 164 196 214 164 196 214 0 0 255 0 0 255 0 0 255 0 0 255 0 0 255 0 0 255 159 196 220 159 196 220 159 196 220 159 196 220 159 196 220 159 196 220 159 196 220 159 196 220 159 196 220 159 196 220 159 196 220 159 196 220 159 196 220 159 196 220 159 196 220 159 196 220 159 196 220 159 196 220 159 196 220 159 196 220 159 196 220 159 196 220 159 196 220 159 196 220 159 196 220 159 196 220 159 196 220 0 0 255 0 0 255 159 196 220 159 196 220 159 196 220 159 196 220 159 196 220 159 196 220 159 196 220 0 0 255 147 98 96 147 98 96 147 98 96 147 98 96 147 98 96 147 98 96 147 98 96 147 98 96 147 98 96 147 98 96 147 98 96 147 98 96 147 98 96 147 98 96 147 98 96 147 98 96 147 98 96 147 98 96 147 98 96 147 98 96 147 98 96 147 98 96 147 98 96 147 98 96 147 98 96 147 98 96 147 98 96 147 98 96 147 98 96 147 98 96 147 98 96 147 98 96 147 98 96 147 98 96 147 98 96 147 98 96 147 98 96 147 98 96 147 98 96 147 98 96 147 98 96 147 98 96 147 98 96 147 98 96 147 98 96 147 98 96 147 98 96 147 98 96 147 98 96 147 98 96 147 98 96 147 98 96 147 98 96 147 98 96 147 98 96 147 98 96 147 98 96 147 98 96 147 98 96 147 98 96 147 98 96 147 98 96 147 98 96 147 98 96 147 98 96 147 98 96 147 98 96 147 98 96 147 98 96 147 98 96 147 98 96 147 98 96 147 98 96 147 98 96 147 98 96 147 98 96 147 98 96 147 98 96 147 98 96 0 0 255 0 0 255 147 98 96 147 98 96 147 98 96 0 0 255 0 0 255 0 0 255 119 83 94 119 83 94 119 83 94 119 83 94 119 83 94 119 83 94 119 83 94 119 83 94 119 83 94 119 83 94 119 83 94 119 83 94 119 83 94 119 83 94 119 83 94 119 83 94 119 83 94 119 83 94 119 83 94 119 83 94 119 83 94 119 83 94 119 83 94 119 83 94 119 83 94 119 83 94 119 83 94 119 83 94 119 83 94 119 83 94 0 0 255 0 0 255 162 198 222 162 198 222 162 198 222 162 198 222 162 198 222 162 198 222 162 198 222 162 198 222 162 198 222 162 198 222 162 198 222 162 198 222 0 0 255 167 176 177 0 0 255 119 83 94 119 83 94 119 83 94 0 0 255 0 0 255 0 0 255 0 0 255 0 0 255 0 0 255 0 0 255 167 176 177 167 176 177 167 176 177 167 176 177 167 176 177 167 176 177 167 176 177 167 176 177 167 176 177 167 176 177 167 176 177 167 176 177 167 176 177 0 0 255 0 0 255 0 0 255 0 0 255 0 0 255 167 176 177 167 176 177 167 176 177 0 0 255 0 0 255 0 0 255 0 0 255 0 0 255 0 0 255 0 0 255 119 83 94 119 83 94 119 83 94 119 83 94 119 83 94 119 83 94 119 83 94 119 83 94 119 83 94 119 83 94 119 83 94 119 83 94 119 83 94 119 83 94 119 83 94 119 83 94 119 83 94 119 83 94 119 83 94 119 83 94 119 83 94 119 83 94 119 83 94 119 83 94 119 83 94 119 83 94 119 83 94 
164 196 214 164 196 214 164 196 214 164 196 214 164 196 214 164 196 214 164 196 214 164 196 214 164 196 214 164 196 214 164 196 214 164 196 214 164 196 214 164 196 214 164 196 214 164 196 214 164 196 214 164 196 214 164 196 214 0 0 255 0 0 255 0 0 255 0 0 255 0 0 255 0 0 255 159 196 220 159 196 220 159 196 220 159 196 220 159 196 220 159 196 220 159 196 220 159 196 220 159 196 220 159 196 220 159 196 220 159 196 220 159 196 220 159 196 220 159 196 220 159 196 220 159 196 220 159 196 220 159 196 220 159 196 220 159 196 220 0 0 255 0 0 255 159 196 220 159 196 220 159 196 220 159 196 220 159 196 220 159 196 220 159 196 220 0 0 255 147 98 96 147 98 96 147 98 96 147 98 96 147 98 96 147 98 96 147 98 96 147 98 96 147 98 96 147 98 96 147 98 96 147 98 96 147 98 96 147 98 96 147 98 96 147 98 96 147 98 96 147 98 96 147 98 96 147 98 96 147 98 96 147 98 96 147 98 96 147 98 96 147 98 96 147 98 96 147 98 96 147 98 96 147 98 96 147 98 96 147 98 96 147 98 96 147 98 96 147 98 96 147 98 96 147 98 96 147 98 96 147 98 96 147 98 96 147 98 96 147 98 96 147 98 96 147 98 96 147 98 96 147 98 96 147 98 96 147 98 96 147 98 96 147 98 96 147 98 96 147 98 96 147 98 96 147 98 96 147 98 96 147 98 96 147 98 96 147 98 96 147 98 96 147 98 96 147 98 96 147 98 96 147 98 96 147 98 96 147 98 96 147 98 96 147 98 96 147 98 96 147 98 96 147 98 96 147 98 96 147 98 96 147 98 96 147 98 96 147 98 96 147 98 96 147 98 96 147 98 96 147 98 96 147 98 96 147 98 96 147 98 96 147 98 96 147 98 96 147 98 96 0 0 255 0 0 255 119 83 94 119 83 94 119 83 94 119 83 94 119 83 94 119 83 94 119 83 94 119 83 94 119 83 94 119 83 94 119 83 94 119 83 94 119 83 94 119 83 94 119 83 94 119 83 94 119 83 94 119 83 94 119 83 94 119 83 94 119 83 94 119 83 94 119 83 94 119 83 94 119 83 94 119 83 94 119 83 94 119 83 94 119 83 94 119 83 94 119 83 94 119 83 94 0 0 255 0 0 255 162 198 222 162 198 222 162 198 222 162 198 222 162 198 222 162 198 222 162 198 222 162 198 222 162 198 222 162 198 222 162 198 222 162 198 222 0 0 255 167 176 177 0 0 255 0 0 255 0 0 255 119 83 94 119 83 94 119 83 94 119 83 94 119 83 94 119 83 94 119 83 94 0 0 255 0 0 255 0 0 255 0 0 255 0 0 255 167 176 177 167 176 177 167 176 177 167 176 177 167 176 177 167 176 177 167 176 177 167 176 177 167 176 177 167 176 177 167 176 177 167 176 177 167 176 177 167 176 177 167 176 177 167 176 177 0 0 255 0 0 255 0 0 255 167 176 177 167 176 177 167 176 177 167 176 177 0 0 255 0 0 255 0 0 255 0 0 255 0 0 255 0 0 255 0 0 255 119 83 94 119 83 94 119 83 94 119 83 94 119 83 94 119 83 94 119 83 94 119 83 94 119 83 94 119 83 94 119 83 94 119 83 94 119 83 94 119 83 94 119 83 94 119 83 94 119 83 94 119 83 94 119 83 94 119 83 94 119 83 94 
164 196 214 164 196 214 164 196 214 164 196 214 164 196 214 164 196 214 164 196 214 164 196 214 164 196 214 164 196 214 164 196 214 164 196 214 164 196 214 164 196 214 164 196 214 164 196 214 164 196 214 164 196 214 164 196 214 164 196 214 164 196 214 164 196 214 164 196 214 164 196 214 0 0 255 0 0 255 0 0 255 0 0 255 0 0 255 0 0 255 159 196 220 159 196 220 159 196 220 159 196 220 159 196 220 159 196 220 159 196 220 159 196 220 159 196 220 159 196 220 159 196 220 159 196 220 159 196 220 159 196 220 159 196 220 0 0 255 0 0 255 159 196 220 159 196 220 159 196 220 159 196 220 159 196 220 159 196 220 159 196 220 0 0 255 147 98 96 147 98 96 147 98 96 147 98 96 147 98 96 147 98 96 147 98 96 147 98 96 147 98 96 147 98 96 147 98 96 147 98 96 147 98 96 147 98 96 147 98 96 147 98 96 147 98 96 147 98 96 147 98 96 147 98 96 147 98 96 147 98 96 147 98 96 147 98 96 147 98 96 147 98 96 147 98 96 147 98 96 147 98 96 147 98 96 147 98 96 147 98 96 147 98 96 147 98 96 147 98 96 147 98 96 147 98 96 147 98 96 147 98 96 147 98 96 147 98 96 147 98 96 147 98 96 147 98 96 147 98 96 147 98 96 147 98 96 147 98 96 147 98 96 147 98 96 147 98 96 147 98 96 147 98 96 147 98 96 147 98 96 147 98 96 147 98 96 147 98 96 147 98 96 147 98 96 147 98 96 147 98 96 147 98 96 147 98 96 147 98 96 147 98 96 147 98 96 147 98 96 147 98 96 147 98 96 147 98 96 147 98 96 147 98 96 147 98 96 147 98 96 147 98 96 147 98 96 147 98 96 147 98 96 147 98 96 147 98 96 147 98 96 147 98 96 147 98 96 0 0 255 119 83 94 119 83 94 119 83 94 119 83 94 119 83 94 119 83 94 119 83 94 119 83 94 119 83 94 119 83 94 119 83 94 119 83 94 119 83 94 119 83 94 119 83 94 119 83 94 119 83 94 119 83 94 119 83 94 119 83 94 119 83 94 119 83 94 119 83 94 119 83 94 119 83 94 119 83 94 119 83 94 119 83 94 119 83 94 119 83 94 119 83 94 119 83 94 119 83 94 119 83 94 0 0 255 0 0 255 162 198 222 162 198 222 162 198 222 162 198 222 162 198 222 162 198 222 162 198 222 162 198 222 162 198 222 162 198 222 162 198 222 162 198 222 0 0 255 167 176 177 167 176 177 167 176 177 0 0 255 0 0 255 0 0 255 0 0 255 0 0 255 0 0 255 119 83 94 119 83 94 119 83 94 119 83 94 119 83 94 119 83 94 0 0 255 167 176 177 0 0 255 0 0 255 167 176 177 0 0 255 0 0 255 0 0 255 0 0 255 0 0 255 167 176 177 167 176 177 167 176 177 167 176 177 167 176 177 167 176 177 167 176 177 167 176 177 167 176 177 167 176 177 167 176 177 167 176 177 167 176 177 0 0 255 0 0 255 0 0 255 0 0 255 167 176 177 167 176 177 167 176 177 0 0 255 0 0 255 0 0 255 0 0 255 0 0 255 0 0 255 0 0 255 119 83 94 119 83 94 119 83 94 119 83 94 119 83 94 119 83 94 119 83 94 119 83 94 119 83 94 119 83 94 119 83 94 119 83 94 119 83 94 119 83 94 119 83 94 
164 196 214 164 196 214 164 196 214 164 196 214 164 196 214 164 196 214 164 196 214 164 196 214 164 196 214 164 196 214 164 196 214 164 196 214 164 196 214 164 196 214 164 196 214 164 196 214 164 196 214 164 196 214 164 196 214 164 196 214 164 196 214 164 196 214 164 196 214 164 196 214 164 196 214 164 196 214 164 196 214 164 196 214 164 196 214 0 0 255 0 0 255 0 0 255 0 0 255 0 0 255 159 196 220 159 196 220 159 196 220 159 196 220 159 196 220 159 196 220 159 196 220 159 196 220 159 196 220 159 196 220 0 0 255 0 0 255 159 196 220 159 196 220 159 196 220 159 196 220 159 196 220 159 196 220 159 196 220 0 0 255 147 98 96 147 98 96 147 98 96 147 98 96 147 98 96 147 98 96 147 98 96 147 98 96 147 98 96 147 98 96 147 98 96 147 98 96 147 98 96 147 98 96 147 98 96 147 98 96 147 98 96 147 98 96 147 98 96 147 98 96 147 98 96 147 98 96 147 98 96 147 98 96 147 98 96 147 98 96 147 98 96 147 98 96 147 98 96 147 98 96 147 98 96 147 98 96 147 98 96 147 98 96 147 98 96 147 98 96 147 98 96 147 98 96 147 98 96 147 98 96 147 98 96 147 98 96 147 98 96 147 98 96 147 98 96 147 98 96 147 98 96 147 98 96 147 98 96 147 98 96 147 98 96 147 98 96 147 98 96 147 98 96 147 98 96 147 98 96 147 98 96 147 98 96 147 98 96 147 98 96 147 98 96 147 98 96 147 98 96 147 98 96 147 98 96 147 98 96 147 98 96 147 98 96 147 98 96 147 98 96 147 98 96 147 98 96 147 98 96 147 98 96 147 98 96 147 98 96 147 98 96 147 98 96 147 98 96 147 98 96 147 98 96 147 98 96 147 98 96 147 98 96 147 98 96 0 0 255 119 83 94 119 83 94 119 83 94 119 83 94 119 83 94 119 83 94 119 83 94 119 83 94 119 83 94 119 83 94 119 83 94 119 83 94 119 83 94 119 83 94 119 83 94 119 83 94 119 83 94 119 83 94 119 83 94 119 83 94 119 83 94 119 83 94 119 83 94 119 83 94 119 83 94 119 83 94 119 83 94 119 83 94 119 83 94 119 83 94 119 83 94 119 83 94 119 83 94 119 83 94 0 0 255 0 0 255 162 198 222 162 198 222 162 198 222 162 198 222 162 198 222 162 198 222 162 198 222 162 198 222 0 0 255 0 0 255 0 0 255 0 0 255 167 176 177 0 0 255 0 0 255 0 0 255 0 0 255 0 0 255 0 0 255 0 0 255 0 0 255 0 0 255 0 0 255 0 0 255 0 0 255 0 0 255 0 0 255 119 83 94 0 0 255 0 0 255 162 198 222 0 0 255 0 0 255 119 83 94 119 83 94 119 83 94 119 83 94 0 0 255 0 0 255 0 0 255 0 0 255 0 0 255 0 0 255 0 0 255 0 0 255 0 0 255 167 176 177 167 176 177 167 176 177 167 176 177 167 176 177 167 176 177 167 176 177 167 176 177 167 176 177 167 176 177 167 176 177 0 0 255 0 0 255 0 0 255 167 176 177 167 176 177 167 176 177 167 176 177 0 0 255 0 0 255 0 0 255 0 0 255 0 0 255 0 0 255 0 0 255 119 83 94 119 83 94 119 83 94 119 83 94 119 83 94 119 83 94 119 83 94 119 83 94 119 83 94 
164 196 214 164 196 214 164 196 214 164 196 214 164 196 214 164 196 214 164 196 214 164 196 214 164 196 214 164 196 214 164 196 214 164 196 214 164 196 214 164 196 214 164 196 214 164 196 214 164 196 214 164 196 214 164 196 214 164 196 214 164 196 214 164 196 214 164 196 214 164 196 214 164 196 214 164 196 214 164 196 214 164 196 214 164 196 214 164 196 214 164 196 214 164 196 214 164 196 214 0 0 255 0 0 255 0 0 255 0 0 255 0 0 255 0 0 255 0 0 255 0 0 255 0 0 255 0 0 255 0 0 255 0 0 255 0 0 255 0 0 255 0 0 255 0 0 255 0 0 255 0 0 255 0 0 255 0 0 255 147 98 96 147 98 96 147 98 96 147 98 96 147 98 96 147 98 96 147 98 96 147 98 96 147 98 96 147 98 96 147 98 96 147 98 96 147 98 96 147 98 96 147 98 96 147 98 96 147 98 96 147 98 96 147 98 96 147 98 96 147 98 96 147 98 96 147 98 96 147 98 96 147 98 96 147 98 96 147 98 96 147 98 96 147 98 96 147 98 96 147 98 96 147 98 96 147 98 96 147 98 96 147 98 96 147 98 96 147 98 96 147 98 96 147 98 96 147 98 96 147 98 96 147 98 96 147 98 96 147 98 96 147 98 96 147 98 96 147 98 96 147 98 96 147 98 96 147 98 96 147 98 96 147 98 96 147 98 96 147 98 96 147 98 96 147 98 96 147 98 96 147 98 96 147 98 96 147 98 96 147 98 96 147 98 96 147 98 96 147 98 96 147 98 96 147 98 96 147 98 96 147 98 96 147 98 96 147 98 96 147 98 96 147 98 96 147 98 96 147 98 96 147 98 96 147 98 96 147 98 96 147 98 96 147 98 96 147 98 96 147 98 96 147 98 96 147 98 96 147 98 96 147 98 96 0 0 255 0 0 255 0 0 255 0 0 255 0 0 255 0 0 255 119 83 94 119 83 94 119 83 94 119 83 94 119 83 94 119 83 94 119 83 94 119 83 94 119 83 94 119 83 94 119 83 94 119 83 94 119 83 94 119 83 94 119 83 94 119 83 94 119 83 94 119 83 94 119 83 94 119 83 94 119 83 94 119 83 94 119 83 94 119 83 94 119 83 94 119 83 94 119 83 94 119 83 94 119 83 94 119 83 94 0 0 255 0 0 255 162 198 222 162 198 222 162 198 222 162 198 222 0 0 255 0 0 255 0 0 255 0 0 255 0 0 255 0 0 255 0 0 255 0 0 255 0 0 255 119 83 94 119 83 94 119 83 94 119 83 94 119 83 94 119 83 94 119 83 94 0 0 255 0 0 255 0 0 255 0 0 255 0 0 255 0 0 255 0 0 255 119 83 94 0 0 255 0 0 255 162 198 222 162 198 222 0 0 255 0 0 255 119 83 94 119 83 94 119 83 94 119 83 94 119 83 94 119 83 94 119 83 94 119 83 94 119 83 94 119 83 94 119 83 94 0 0 255 0 0 255 0 0 255 0 0 255 0 0 255 0 0 255 167 176 177 167 176 177 167 176 177 167 176 177 167 176 177 167 176 177 167 176 177 167 176 177 167 176 177 167 176 177 167 176 177 167 176 177 0 0 255 0 0 255 167 176 177 167 176 177 167 176 177 167 176 177 0 0 255 0 0 255 0 0 255 0 0 255 0 0 255 0 0 255 0 0 255 119 83 94 119 83 94 119 83 94 119 83 94 
164 196 214 164 196 214 164 196 214 164 196 214 164 196 214 164 196 214 164 196 214 164 196 214 164 196 214 164 196 214 164 196 214 164 196 214 164 196 214 164 196 214 164 196 214 164 196 214 164 196 214 164 196 214 164 196 214 164 196 214 164 196 214 164 196 214 164 196 214 164 196 214 164 196 214 164 196 214 164 196 214 164 196 214 164 196 214 164 196 214 164 196 214 164 196 214 164 196 214 164 196 214 164 196 214 164 196 214 164 196 214 164 196 214 164 196 214 164 196 214 164 196 214 164 196 214 0 0 255 0 0 255 164 196 214 164 196 214 164 196 214 164 196 214 164 196 214 164 196 214 164 196 214 0 0 255 147 98 96 147 98 96 147 98 96 147 98 96 147 98 96 147 98 96 147 98 96 147 98 96 147 98 96 147 98 96 147 98 96 147 98 96 147 98 96 147 98 96 147 98 96 147 98 96 147 98 96 147 98 96 147 98 96 147 98 96 147 98 96 147 98 96 147 98 96 147 98 96 147 98 96 147 98 96 147 98 96 147 98 96 147 98 96 147 98 96 147 98 96 147 98 96 147 98 96 147 98 96 147 98 96 147 98 96 147 98 96 147 98 96 147 98 96 147 98 96 147 98 96 147 98 96 147 98 96 147 98 96 147 98 96 147 98 96 147 98 96 147 98 96 147 98 96 147 98 96 147 98 96 147 98 96 147 98 96 147 98 96 147 98 96 147 98 96 147 98 96 147 98 96 147 98 96 147 98 96 147 98 96 147 98 96 147 98 96 147 98 96 147 98 96 147 98 96 147 98 96 147 98 96 147 98 96 147 98 96 147 98 96 147 98 96 147 98 96 147 98 96 147 98 96 147 98 96 147 98 96 147 98 96 147 98 96 147 98 96 147 98 96 147 98 96 147 98 96 147 98 96 147 98 96 147 98 96 147 98 96 147 98 96 147 98 96 147 98 96 0 0 255 0 0 255 119 83 94 119 83 94 119 83 94 119 83 94 119 83 94 119 83 94 119 83 94 119 83 94 119 83 94 119 83 94 119 83 94 119 83 94 119 83 94 119 83 94 119 83 94 119 83 94 119 83 94 119 83 94 119 83 94 119 83 94 119 83 94 119 83 94 119 83 94 119 83 94 119 83 94 119 83 94 119 83 94 119 83 94 119 83 94 119 83 94 0 0 255 0 0 255 0 0 255 0 0 255 0 0 255 0 0 255 0 0 255 0 0 255 0 0 255 0 0 255 119 83 94 119 83 94 119 83 94 119 83 94 119 83 94 119 83 94 119 83 94 119 83 94 119 83 94 119 83 94 119 83 94 119 83 94 119 83 94 119 83 94 119 83 94 119 83 94 119 83 94 119 83 94 119 83 94 0 0 255 0 0 255 162 198 222 162 198 222 162 198 222 0 0 255 0 0 255 0 0 255 0 0 255 0 0 255 0 0 255 0 0 255 0 0 255 0 0 255 0 0 255 119 83 94 119 83 94 119 83 94 119 83 94 119 83 94 119 83 94 119 83 94 119 83 94 0 0 255 0 0 255 0 0 255 0 0 255 0 0 255 0 0 255 167 176 177 167 176 177 167 176 177 167 176 177 167 176 177 167 176 177 167 176 177 167 176 177 167 176 177 167 176 177 167 176 177 167 176 177 0 0 255 0 0 255 0 0 255 167 176 177 167 176 177 167 176 177 167 176 177 0 0 255 0 0 255 0 0 255 0 0 255 0 0 255 
164 196 214 164 196 214 164 196 214 164 196 214 164 196 214 164 196 214 164 196 214 164 196 214 164 196 214 164 196 214 164 196 214 164 196 214 164 196 214 164 196 214 164 196 214 164 196 214 164 196 214 164 196 214 164 196 214 164 196 214 164 196 214 164 196 214 164 196 214 164 196 214 164 196 214 164 196 214 164 196 214 164 196 214 164 196 214 164 196 214 164 196 214 164 196 214 164 196 214 164 196 214 164 196 214 164 196 214 164 196 214 164 196 214 164 196 214 164 196 214 164 196 214 0 0 255 0 0 255 164 196 214 164 196 214 164 196 214 164 196 214 164 196 214 164 196 214 164 196 214 0 0 255 147 98 96 147 98 96 147 98 96 147 98 96 147 98 96 147 98 96 147 98 96 147 98 96 147 98 96 147 98 96 147 98 96 147 98 96 147 98 96 147 98 96 147 98 96 147 98 96 147 98 96 147 98 96 147 98 96 147 98 96 147 98 96 147 98 96 147 98 96 147 98 96 147 98 96 147 98 96 147 98 96 147 98 96 147 98 96 147 98 96 147 98 96 147 98 96 147 98 96 147 98 96 147 98 96 147 98 96 147 98 96 147 98 96 147 98 96 147 98 96 147 98 96 147 98 96 147 98 96 147 98 96 147 98 96 147 98 96 147 98 96 147 98 96 147 98 96 147 98 96 147 98 96 147 98 96 147 98 96 147 98 96 147 98 96 147 98 96 147 98 96 147 98 96 147 98 96 147 98 96 147 98 96 147 98 96 147 98 96 147 98 96 147 98 96 147 98 96 147 98 96 147 98 96 147 98 96 147 98 96 147 98 96 147 98 96 147 98 96 147 98 96 147 98 96 147 98 96 147 98 96 147 98 96 147 98 96 147 98 96 147 98 96 147 98 96 147 98 96 147 98 96 147 98 96 147 98 96 147 98 96 147 98 96 147 98 96 147 98 96 0 0 255 0 0 255 119 83 94 119 83 94 119 83 94 119 83 94 119 83 94 119 83 94 119 83 94 119 83 94 119 83 94 119 83 94 119 83 94 119 83 94 119 83 94 119 83 94 119 83 94 119 83 94 119 83 94 119 83 94 119 83 94 119 83 94 119 83 94 119 83 94 119 83 94 119 83 94 119 83 94 119 83 94 119 83 94 119 83 94 119 83 94 119 83 94 119 83 94 0 0 255 0 0 255 0 0 255 0 0 255 0 0 255 0 0 255 119 83 94 119 83 94 119 83 94 119 83 94 119 83 94 119 83 94 119 83 94 119 83 94 119 83 94 119 83 94 119 83 94 119 83 94 119 83 94 119 83 94 119 83 94 119 83 94 119 83 94 119 83 94 119 83 94 119 83 94 119 83 94 119 83 94 119 83 94 0 0 255 0 0 255 162 198 222 162 198 222 0 0 255 0 0 255 0 0 255 0 0 255 0 0 255 0 0 255 0 0 255 0 0 255 0 0 255 167 176 177 0 0 255 0 0 255 0 0 255 0 0 255 0 0 255 0 0 255 119 83 94 119 83 94 119 83 94 119 83 94 119 83 94 119 83 94 119 83 94 119 83 94 0 0 255 0 0 255 0 0 255 0 0 255 0 0 255 0 0 255 0 0 255 167 176 177 0 0 255 167 176 177 167 176 177 167 176 177 167 176 177 167 176 177 167 176 177 167 176 177 167 176 177 167 176 177 167 176 177 167 176 177 0 0 255 0 0 255 167 176 177 167 176 177 167 176 177 
164 196 214 164 196 214 164 196 214 164 196 214 164 196 214 164 196 214 164 196 214 164 196 214 164 196 214 164 196 214 164 196 214 164 196 214 164 196 214 164 196 214 164 196 214 164 196 214 164 196 214 164 196 214 164 196 214 164 196 214 164 196 214 164 196 214 164 196 214 164 196 214 164 196 214 164 196 214 164 196 214 164 196 214 164 196 214 164 196 214 164 196 214 164 196 214 164 196 214 164 196 214 164 196 214 164 196 214 164 196 214 164 196 214 164 196 214 164 196 214 164 196 214 0 0 255 0 0 255 164 196 214 164 196 214 164 196 214 164 196 214 164 196 214 164 196 214 0 0 255 147 98 96 147 98 96 147 98 96 147 98 96 147 98 96 147 98 96 147 98 96 147 98 96 147 98 96 147 98 96 147 98 96 147 98 96 147 98 96 147 98 96 147 98 96 147 98 96 147 98 96 147 98 96 147 98 96 147 98 96 147 98 96 147 98 96 147 98 96 147 98 96 147 98 96 147 98 96 147 98 96 147 98 96 147 98 96 147 98 96 147 98 96 147 98 96 147 98 96 147 98 96 147 98 96 147 98 96 147 98 96 147 98 96 147 98 96 147 98 96 147 98 96 147 98 96 147 98 96 147 98 96 147 98 96 147 98 96 147 98 96 147 98 96 147 98 96 147 98 96 147 98 96 147 98 96 147 98 96 147 98 96 147 98 96 147 98 96 147 98 96 147 98 96 147 98 96 147 98 96 147 98 96 147 98 96 147 98 96 147 98 96 147 98 96 147 98 96 147 98 96 147 98 96 147 98 96 147 98 96 147 98 96 147 98 96 147 98 96 147 98 96 147 98 96 147 98 96 147 98 96 147 98 96 147 98 96 147 98 96 147 98 96 147 98 96 147 98 96 147 98 96 147 98 96 147 98 96 147 98 96 147 98 96 147 98 96 147 98 96 147 98 96 147 98 96 0 0 255 0 0 255 119 83 94 119 83 94 119 83 94 119 83 94 119 83 94 119 83 94 119 83 94 119 83 94 119 83 94 119 83 94 119 83 94 119 83 94 119 83 94 119 83 94 119 83 94 119 83 94 119 83 94 119 83 94 119 83 94 119 83 94 119 83 94 119 83 94 119 83 94 119 83 94 119 83 94 119 83 94 119 83 94 119 83 94 119 83 94 119 83 94 119 83 94 119 83 94 119 83 94 119 83 94 119 83 94 119 83 94 119 83 94 119 83 94 119 83 94 119 83 94 119 83 94 119 83 94 119 83 94 119 83 94 119 83 94 119 83 94 119 83 94 119 83 94 119 83 94 119 83 94 119 83 94 119 83 94 119 83 94 119 83 94 119 83 94 119 83 94 119 83 94 119 83 94 119 83 94 0 0 255 0 0 255 0 0 255 0 0 255 167 176 177 0 0 255 119 83 94 119 83 94 119 83 94 119 83 94 119 83 94 119 83 94 0 0 255 0 0 255 0 0 255 0 0 255 0 0 255 0 0 255 0 0 255 0 0 255 0 0 255 0 0 255 0 0 255 0 0 255 0 0 255 0 0 255 119 83 94 119 83 94 119 83 94 119 83 94 119 83 94 119 83 94 119 83 94 119 83 94 0 0 255 0 0 255 0 0 255 0 0 255 0 0 255 0 0 255 0 0 255 0 0 255 0 0 255 167 176 177 167 176 177 167 176 177 167 176 177 167 176 177 167 176 177 167 176 177 167 176 177 167 176 177 167 176 177 
164 196 214 164 196 214 164 196 214 164 196 214 164 196 214 164 196 214 164 196 214 164 196 214 164 196 214 164 196 214 164 196 214 164 196 214 164 196 214 164 196 214 164 196 214 164 196 214 164 196 214 164 196 214 164 196 214 164 196 214 164 196 214 164 196 214 164 196 214 164 196 214 164 196 214 164 196 214 164 196 214 164 196 214 164 196 214 164 196 214 164 196 214 164 196 214 164 196 214 164 196 214 164 196 214 164 196 214 164 196 214 164 196 214 164 196 214 164 196 214 0 0 255 0 0 255 164 196 214 164 196 214 164 196 214 164 196 214 164 196 214 164 196 214 164 196 214 0 0 255 147 98 96 147 98 96 147 98 96 147 98 96 147 98 96 147 98 96 147 98 96 147 98 96 147 98 96 147 98 96 147 98 96 147 98 96 147 98 96 147 98 96 147 98 96 147 98 96 147 98 96 147 98 96 147 98 96 147 98 96 147 98 96 147 98 96 147 98 96 147 98 96 147 98 96 147 98 96 147 98 96 147 98 96 147 98 96 147 98 96 147 98 96 147 98 96 147 98 96 147 98 96 147 98 96 147 98 96 147 98 96 147 98 96 147 98 96 147 98 96 147 98 96 147 98 96 147 98 96 147 98 96 147 98 96 147 98 96 147 98 96 147 98 96 147 98 96 147 98 96 147 98 96 147 98 96 147 98 96 147 98 96 147 98 96 147 98 96 147 98 96 147 98 96 147 98 96 147 98 96 147 98 96 147 98 96 147 98 96 147 98 96 147 98 96 147 98 96 147 98 96 147 98 96 147 98 96 147 98 96 147 98 96 147 98 96 147 98 96 147 98 96 147 98 96 147 98 96 147 98 96 147 98 96 147 98 96 147 98 96 147 98 96 147 98 96 147 98 96 147 98 96 147 98 96 147 98 96 147 98 96 147 98 96 147 98 96 147 98 96 147 98 96 147 98 96 147 98 96 0 0 255 0 0 255 0 0 255 119 83 94 119 83 94 119 83 94 119 83 94 119 83 94 119 83 94 119 83 94 119 83 94 119 83 94 119 83 94 119 83 94 119 83 94 119 83 94 119 83 94 119 83 94 119 83 94 119 83 94 119 83 94 119 83 94 119 83 94 119 83 94 119 83 94 119 83 94 119 83 94 119 83 94 119 83 94 119 83 94 119 83 94 119 83 94 119 83 94 119 83 94 119 83 94 119 83 94 119 83 94 119 83 94 119 83 94 119 83 94 119 83 94 119 83 94 119 83 94 119 83 94 119 83 94 119 83 94 119 83 94 119 83 94 119 83 94 119 83 94 119 83 94 119 83 94 119 83 94 119 83 94 119 83 94 119 83 94 119 83 94 119 83 94 119 83 94 119 83 94 0 0 255 167 176 177 167 176 177 167 176 177 167 176 177 0 0 255 119 83 94 119 83 94 119 83 94 119 83 94 119 83 94 119 83 94 119 83 94 119 83 94 119 83 94 119 83 94 119 83 94 119 83 94 119 83 94 0 0 255 0 0 255 0 0 255 0 0 255 0 0 255 0 0 255 0 0 255 0 0 255 119 83 94 119 83 94 0 0 255 0 0 255 0 0 255 119 83 94 119 83 94 119 83 94 119 83 94 119 83 94 119 83 94 119 83 94 119 83 94 119 83 94 119 83 94 0 0 255 0 0 255 0 0 255 0 0 255 0 0 255 0 0 255 0 0 255 0 0 255 167 176 177 167 176 177 167 176 177 
164 196 214 164 196 214 164 196 214 164 196 214 164 196 214 164 196 214 164 196 214 164 196 214 164 196 214 164 196 214 164 196 214 164 196 214 164 196 214 164 196 214 164 196 214 164 196 214 164 196 214 164 196 214 164 196 214 164 196 214 164 196 214 164 196 214 164 196 214 164 196 214 164 196 214 164 196 214 164 196 214 164 196 214 164 196 214 164 196 214 164 196 214 164 196 214 164 196 214 164 196 214 164 196 214 164 196 214 164 196 214 164 196 214 164 196 214 0 0 255 0 0 255 164 196 214 164 196 214 164 196 214 164 196 214 164 196 214 164 196 214 164 196 214 0 0 255 147 98 96 147 98 96 147 98 96 147 98 96 147 98 96 147 98 96 147 98 96 147 98 96 147 98 96 147 98 96 147 98 96 147 98 96 147 98 96 147 98 96 147 98 96 147 98 96 147 98 96 147 98 96 147 98 96 147 98 96 147 98 96 147 98 96 147 98 96 147 98 96 147 98 96 147 98 96 147 98 96 147 98 96 147 98 96 147 98 96 147 98 96 147 98 96 147 98 96 147 98 96 147 98 96 147 98 96 147 98 96 147 98 96 147 98 96 147 98 96 147 98 96 147 98 96 147 98 96 147 98 96 147 98 96 147 98 96 147 98 96 147 98 96 147 98 96 147 98 96 147 98 96 147 98 96 147 98 96 147 98 96 147 98 96 147 98 96 147 98 96 147 98 96 147 98 96 147 98 96 147 98 96 147 98 96 147 98 96 147 98 96 147 98 96 147 98 96 147 98 96 147 98 96 147 98 96 147 98 96 147 98 96 147 98 96 147 98 96 147 98 96 147 98 96 147 98 96 147 98 96 147 98 96 147 98 96 147 98 96 147 98 96 147 98 96 147 98 96 147 98 96 147 98 96 147 98 96 147 98 96 147 98 96 147 98 96 147 98 96 147 98 96 147 98 96 147 98 96 147 98 96 147 98 96 147 98 96 0 0 255 0 0 255 119 83 94 119 83 94 119 83 94 119 83 94 119 83 94 119 83 94 119 83 94 119 83 94 119 83 94 119 83 94 119 83 94 119 83 94 119 83 94 119 83 94 119 83 94 119 83 94 119 83 94 119 83 94 119 83 94 119 83 94 119 83 94 119 83 94 119 83 94 119 83 94 119 83 94 119 83 94 119 83 94 119 83 94 119 83 94 119 83 94 119 83 94 119 83 94 119 83 94 119 83 94 119 83 94 119 83 94 119 83 94 119 83 94 119 83 94 119 83 94 119 83 94 119 83 94 119 83 94 119 83 94 119 83 94 119 83 94 119 83 94 119 83 94 119 83 94 119 83 94 119 83 94 119 83 94 119 83 94 119 83 94 119 83 94 0 0 255 167 176 177 167 176 177 167 176 177 167 176 177 0 0 255 119 83 94 119 83 94 119 83 94 119 83 94 119 83 94 119 83 94 119 83 94 119 83 94 119 83 94 119 83 94 119 83 94 119 83 94 119 83 94 119 83 94 119 83 94 119 83 94 119 83 94 119 83 94 119 83 94 119 83 94 0 0 255 0 0 255 119 83 94 0 0 255 0 0 255 0 0 255 0 0 255 119 83 94 119 83 94 0 0 255 0 0 255 0 0 255 0 0 255 0 0 255 119 83 94 119 83 94 119 83 94 119 83 94 119 83 94 119 83 94 119 83 94 119 83 94 119 83 94 119 83 94 0 0 255 0 0 255 0 0 255 0 0 255 
164 196 214 164 196 214 164 196 214 164 196 214 164 196 214 164 196 214 164 196 214 164 196 214 164 196 214 164 196 214 164 196 214 164 196 214 164 196 214 164 196 214 164 196 214 164 196 214 164 196 214 164 196 214 164 196 214 164 196 214 164 196 214 164 196 214 164 196 214 164 196 214 164 196 214 164 196 214 164 196 214 164 196 214 164 196 214 164 196 214 164 196 214 164 196 214 164 196 214 164 196 214 164 196 214 164 196 214 164 196 214 164 196 214 0 0 255 0 0 255 164 196 214 164 196 214 164 196 214 164 196 214 164 196 214 164 196 214 164 196 214 0 0 255 147 98 96 147 98 96 147 98 96 147 98 96 147 98 96 147 98 96 147 98 96 147 98 96 147 98 96 147 98 96 147 98 96 147 98 96 147 98 96 147 98 96 147 98 96 147 98 96 147 98 96 147 98 96 147 98 96 147 98 96 147 98 96 147 98 96 147 98 96 147 98 96 147 98 96 147 98 96 147 98 96 147 98 96 147 98 96 147 98 96 147 98 96 147 98 96 147 98 96 147 98 96 147 98 96 147 98 96 147 98 96 147 98 96 147 98 96 147 98 96 147 98 96 147 98 96 147 98 96 147 98 96 147 98 96 147 98 96 147 98 96 147 98 96 147 98 96 147 98 96 147 98 96 147 98 96 147 98 96 147 98 96 147 98 96 147 98 96 147 98 96 147 98 96 147 98 96 147 98 96 147 98 96 147 98 96 147 98 96 147 98 96 147 98 96 147 98 96 147 98 96 147 98 96 147 98 96 147 98 96 147 98 96 147 98 96 147 98 96 147 98 96 147 98 96 147 98 96 147 98 96 147 98 96 147 98 96 147 98 96 147 98 96 147 98 96 147 98 96 147 98 96 147 98 96 147 98 96 147 98 96 147 98 96 147 98 96 147 98 96 147 98 96 147 98 96 147 98 96 147 98 96 147 98 96 147 98 96 147 98 96 147 98 96 0 0 255 0 0 255 119 83 94 119 83 94 119 83 94 119 83 94 119 83 94 119 83 94 119 83 94 119 83 94 119 83 94 119 83 94 119 83 94 119 83 94 119 83 94 119 83 94 119 83 94 119 83 94 119 83 94 119 83 94 119 83 94 119 83 94 119 83 94 119 83 94 119 83 94 119 83 94 119 83 94 119 83 94 119 83 94 119 83 94 119 83 94 119 83 94 119 83 94 119 83 94 119 83 94 119 83 94 119 83 94 119 83 94 119 83 94 119 83 94 119 83 94 119 83 94 119 83 94 119 83 94 119 83 94 119 83 94 119 83 94 119 83 94 119 83 94 119 83 94 119 83 94 119 83 94 119 83 94 119 83 94 119 83 94 0 0 255 167 176 177 167 176 177 167 176 177 0 0 255 0 0 255 119 83 94 119 83 94 119 83 94 119 83 94 119 83 94 119 83 94 119 83 94 119 83 94 119 83 94 119 83 94 119 83 94 119 83 94 119 83 94 119 83 94 119 83 94 119 83 94 119 83 94 119 83 94 119 83 94 119 83 94 119 83 94 119 83 94 119 83 94 119 83 94 119 83 94 119 83 94 119 83 94 119 83 94 119 83 94 0 0 255 0 0 255 0 0 255 0 0 255 0 0 255 0 0 255 0 0 255 0 0 255 0 0 255 0 0 255 0 0 255 119 83 94 119 83 94 119 83 94 119 83 94 119 83 94 119 83 94 119 83 94 119 83 94 119 83 94 
164 196 214 164 196 214 164 196 214 164 196 214 164 196 214 164 196 214 164 196 214 164 196 214 164 196 214 164 196 214 164 196 214 164 196 214 164 196 214 164 196 214 164 196 214 164 196 214 164 196 214 164 196 214 164 196 214 164 196 214 164 196 214 164 196 214 164 196 214 164 196 214 164 196 214 164 196 214 164 196 214 164 196 214 164 196 214 164 196 214 164 196 214 164 196 214 164 196 214 164 196 214 164 196 214 164 196 214 164 196 214 0 0 255 0 0 255 164 196 214 164 196 214 164 196 214 164 196 214 164 196 214 164 196 214 164 196 214 0 0 255 147 98 96 147 98 96 147 98 96 147 98 96 147 98 96 147 98 96 147 98 96 147 98 96 147 98 96 147 98 96 147 98 96 147 98 96 147 98 96 147 98 96 147 98 96 147 98 96 147 98 96 147 98 96 147 98 96 147 98 96 147 98 96 147 98 96 147 98 96 147 98 96 147 98 96 147 98 96 147 98 96 147 98 96 147 98 96 147 98 96 147 98 96 147 98 96 147 98 96 147 98 96 147 98 96 147 98 96 147 98 96 147 98 96 147 98 96 147 98 96 147 98 96 147 98 96 147 98 96 147 98 96 147 98 96 147 98 96 147 98 96 147 98 96 147 98 96 147 98 96 147 98 96 147 98 96 147 98 96 147 98 96 147 98 96 147 98 96 147 98 96 147 98 96 147 98 96 147 98 96 147 98 96 147 98 96 147 98 96 147 98 96 147 98 96 147 98 96 147 98 96 147 98 96 147 98 96 147 98 96 147 98 96 147 98 96 147 98 96 147 98 96 147 98 96 147 98 96 147 98 96 147 98 96 147 98 96 147 98 96 147 98 96 147 98 96 147 98 96 147 98 96 147 98 96 147 98 96 147 98 96 147 98 96 147 98 96 147 98 96 147 98 96 147 98 96 147 98 96 147 98 96 147 98 96 147 98 96 147 98 96 147 98 96 147 98 96 147 98 96 0 0 255 0 0 255 0 0 255 119 83 94 119 83 94 119 83 94 119 83 94 119 83 94 119 83 94 119 83 94 119 83 94 119 83 94 119 83 94 119 83 94 119 83 94 119 83 94 119 83 94 119 83 94 119 83 94 119 83 94 119 83 94 119 83 94 119 83 94 119 83 94 0 0 255 0 0 255 119 83 94 119 83 94 119 83 94 119 83 94 119 83 94 119 83 94 119 83 94 119 83 94 119 83 94 119 83 94 119 83 94 119 83 94 119 83 94 119 83 94 119 83 94 119 83 94 119 83 94 119 83 94 119 83 94 119 83 94 119 83 94 119 83 94 119 83 94 119 83 94 119 83 94 119 83 94 119 83 94 0 0 255 0 0 255 0 0 255 0 0 255 0 0 255 119 83 94 119 83 94 119 83 94 119 83 94 119 83 94 119 83 94 119 83 94 119 83 94 119 83 94 119 83 94 119 83 94 119 83 94 119 83 94 119 83 94 119 83 94 119 83 94 119 83 94 119 83 94 119 83 94 119 83 94 119 83 94 119 83 94 119 83 94 119 83 94 119 83 94 119 83 94 119 83 94 119 83 94 119 83 94 119 83 94 119 83 94 119 83 94 119 83 94 119 83 94 119 83 94 119 83 94 0 0 255 0 0 255 0 0 255 0 0 255 0 0 255 0 0 255 119 83 94 0 0 255 0 0 255 0 0 255 0 0 255 0 0 255 0 0 255 119 83 94 119 83 94 
164 196 214 164 196 214 164 196 214 164 196 214 164 196 214 164 196 214 164 196 214 164 196 214 164 196 214 164 196 214 164 196 214 164 196 214 164 196 214 164 196 214 164 196 214 164 196 214 164 196 214 164 196 214 164 196 214 164 196 214 164 196 214 164 196 214 164 196 214 164 196 214 164 196 214 164 196 214 164 196 214 164 196 214 164 196 214 164 196 214 164 196 214 164 196 214 164 196 214 164 196 214 164 196 214 164 196 214 0 0 255 0 0 255 164 196 214 164 196 214 164 196 214 164 196 214 164 196 214 164 196 214 164 196 214 0 0 255 147 98 96 147 98 96 147 98 96 147 98 96 147 98 96 147 98 96 147 98 96 147 98 96 147 98 96 147 98 96 147 98 96 147 98 96 147 98 96 147 98 96 147 98 96 147 98 96 147 98 96 147 98 96 147 98 96 147 98 96 147 98 96 147 98 96 147 98 96 147 98 96 147 98 96 147 98 96 147 98 96 147 98 96 147 98 96 147 98 96 147 98 96 147 98 96 147 98 96 147 98 96 147 98 96 147 98 96 147 98 96 147 98 96 147 98 96 147 98 96 147 98 96 147 98 96 147 98 96 147 98 96 147 98 96 147 98 96 147 98 96 147 98 96 147 98 96 147 98 96 147 98 96 147 98 96 147 98 96 147 98 96 147 98 96 147 98 96 147 98 96 147 98 96 147 98 96 147 98 96 147 98 96 147 98 96 147 98 96 147 98 96 147 98 96 147 98 96 147 98 96 147 98 96 147 98 96 147 98 96 147 98 96 147 98 96 147 98 96 147 98 96 147 98 96 147 98 96 147 98 96 147 98 96 147 98 96 147 98 96 147 98 96 147 98 96 147 98 96 147 98 96 147 98 96 147 98 96 147 98 96 147 98 96 147 98 96 147 98 96 147 98 96 147 98 96 147 98 96 147 98 96 147 98 96 147 98 96 147 98 96 147 98 96 147 98 96 147 98 96 147 98 96 147 98 96 147 98 96 0 0 255 0 0 255 0 0 255 119 83 94 119 83 94 119 83 94 119 83 94 119 83 94 119 83 94 119 83 94 119 83 94 119 83 94 119 83 94 119 83 94 119 83 94 119 83 94 119 83 94 0 0 255 0 0 255 0 0 255 0 0 255 0 0 255 167 176 177 0 0 255 119 83 94 119 83 94 119 83 94 119 83 94 119 83 94 119 83 94 119 83 94 119 83 94 119 83 94 119 83 94 119 83 94 119 83 94 119 83 94 119 83 94 119 83 94 119 83 94 119 83 94 119 83 94 119 83 94 119 83 94 119 83 94 119 83 94 119 83 94 119 83 94 119 83 94 119 83 94 0 0 255 167 176 177 0 0 255 119 83 94 119 83 94 119 83 94 119 83 94 119 83 94 119 83 94 119 83 94 119 83 94 119 83 94 119 83 94 119 83 94 119 83 94 119 83 94 119 83 94 119 83 94 119 83 94 119 83 94 119 83 94 119 83 94 119 83 94 119 83 94 119 83 94 119 83 94 119 83 94 119 83 94 119 83 94 119 83 94 119 83 94 119 83 94 119 83 94 119 83 94 119 83 94 119 83 94 119 83 94 119 83 94 119 83 94 119 83 94 119 83 94 119 83 94 119 83 94 119 83 94 119 83 94 119 83 94 119 83 94 119 83 94 0 0 255 0 0 255 0 0 255 0 0 255 0 0 255 0 0 255 0 0 255 119 83 94 119 83 94 
164 196 214 164 196 214 164 196 214 164 196 214 164 196 214 164 196 214 164 196 214 164 196 214 164 196 214 164 196 214 164 196 214 164 196 214 164 196 214 164 196 214 164 196 214 164 196 214 164 196 214 164 196 214 164 196 214 164 196 214 164 196 214 164 196 214 164 196 214 164 196 214 164 196 214 164 196 214 164 196 214 164 196 214 164 196 214 164 196 214 164 196 214 164 196 214 164 196 214 164 196 214 164 196 214 0 0 255 0 0 255 164 196 214 164 196 214 164 196 214 164 196 214 164 196 214 164 196 214 164 196 214 0 0 255 147 98 96 147 98 96 147 98 96 147 98 96 147 98 96 147 98 96 147 98 96 147 98 96 147 98 96 147 98 96 147 98 96 147 98 96 147 98 96 147 98 96 147 98 96 147 98 96 147 98 96 147 98 96 147 98 96 147 98 96 147 98 96 147 98 96 147 98 96 147 98 96 147 98 96 147 98 96 147 98 96 147 98 96 147 98 96 147 98 96 147 98 96 147 98 96 147 98 96 147 98 96 147 98 96 147 98 96 147 98 96 147 98 96 147 98 96 147 98 96 147 98 96 147 98 96 147 98 96 147 98 96 147 98 96 147 98 96 147 98 96 147 98 96 147 98 96 147 98 96 147 98 96 147 98 96 147 98 96 147 98 96 147 98 96 147 98 96 147 98 96 147 98 96 147 98 96 147 98 96 147 98 96 147 98 96 147 98 96 147 98 96 147 98 96 147 98 96 147 98 96 147 98 96 147 98 96 147 98 96 147 98 96 147 98 96 147 98 96 147 98 96 147 98 96 147 98 96 147 98 96 147 98 96 147 98 96 147 98 96 147 98 96 147 98 96 147 98 96 147 98 96 147 98 96 147 98 96 147 98 96 147 98 96 147 98 96 147 98 96 147 98 96 147 98 96 147 98 96 147 98 96 147 98 96 147 98 96 147 98 96 147 98 96 147 98 96 147 98 96 147 98 96 147 98 96 147 98 96 147 98 96 147 98 96 147 98 96 0 0 255 0 0 255 119 83 94 119 83 94 119 83 94 119 83 94 119 83 94 119 83 94 119 83 94 119 83 94 119 83 94 0 0 255 0 0 255 0 0 255 0 0 255 167 176 177 167 176 177 167 176 177 167 176 177 167 176 177 167 176 177 0 0 255 0 0 255 119 83 94 119 83 94 119 83 94 119 83 94 119 83 94 119 83 94 119 83 94 119 83 94 119 83 94 119 83 94 119 83 94 119 83 94 119 83 94 119 83 94 119 83 94 119 83 94 119 83 94 119 83 94 119 83 94 119 83 94 119 83 94 119 83 94 119 83 94 119 83 94 0 0 255 167 176 177 0 0 255 0 0 255 119 83 94 119 83 94 119 83 94 119 83 94 119 83 94 119 83 94 119 83 94 119 83 94 119 83 94 119 83 94 119 83 94 119 83 94 119 83 94 119 83 94 119 83 94 119 83 94 119 83 94 119 83 94 119 83 94 119 83 94 119 83 94 119 83 94 119 83 94 119 83 94 119 83 94 119 83 94 119 83 94 119 83 94 119 83 94 119 83 94 119 83 94 119 83 94 119 83 94 119 83 94 119 83 94 119 83 94 119 83 94 119 83 94 119 83 94 119 83 94 119 83 94 119 83 94 119 83 94 119 83 94 119 83 94 119 83 94 119 83 94 119 83 94 119 83 94 119 83 94 119 83 94 119 83 94 119 83 94 119 83 94 
164 196 214 164 196 214 164 196 214 164 196 214 164 196 214 164 196 214 164 196 214 164 196 214 164 196 214 164 196 214 164 196 214 164 196 214 164 196 214 164 196 214 164 196 214 164 196 214 164 196 214 164 196 214 164 196 214 164 196 214 164 196 214 164 196 214 164 196 214 164 196 214 164 196 214 164 196 214 164 196 214 164 196 214 164 196 214 164 196 214 164 196 214 164 196 214 164 196 214 164 196 214 0 0 255 0 0 255 164 196 214 164 196 214 164 196 214 164 196 214 164 196 214 164 196 214 164 196 214 0 0 255 147 98 96 147 98 96 147 98 96 147 98 96 147 98 96 147 98 96 147 98 96 147 98 96 147 98 96 147 98 96 147 98 96 147 98 96 147 98 96 147 98 96 147 98 96 147 98 96 147 98 96 147 98 96 147 98 96 147 98 96 147 98 96 147 98 96 147 98 96 147 98 96 147 98 96 147 98 96 147 98 96 147 98 96 147 98 96 147 98 96 147 98 96 147 98 96 147 98 96 147 98 96 147 98 96 147 98 96 147 98 96 147 98 96 147 98 96 147 98 96 147 98 96 147 98 96 147 98 96 147 98 96 147 98 96 147 98 96 147 98 96 147 98 96 147 98 96 147 98 96 147 98 96 147 98 96 147 98 96 147 98 96 147 98 96 147 98 96 147 98 96 147 98 96 147 98 96 147 98 96 147 98 96 147 98 96 147 98 96 147 98 96 147 98 96 147 98 96 147 98 96 147 98 96 147 98 96 147 98 96 147 98 96 147 98 96 147 98 96 147 98 96 147 98 96 147 98 96 147 98 96 147 98 96 147 98 96 147 98 96 147 98 96 147 98 96 147 98 96 147 98 96 147 98 96 147 98 96 147 98 96 147 98 96 147 98 96 147 98 96 147 98 96 147 98 96 147 98 96 147 98 96 147 98 96 147 98 96 147 98 96 147 98 96 147 98 96 147 98 96 147 98 96 147 98 96 147 98 96 147 98 96 147 98 96 147 98 96 147 98 96 0 0 255 0 0 255 119 83 94 119 83 94 119 83 94 119 83 94 119 83 94 119 83 94 0 0 255 0 0 255 0 0 255 167 176 177 167 176 177 167 176 177 167 176 177 167 176 177 167 176 177 167 176 177 167 176 177 167 176 177 167 176 177 167 176 177 0 0 255 119 83 94 119 83 94 119 83 94 119 83 94 119 83 94 119 83 94 119 83 94 119 83 94 119 83 94 119 83 94 119 83 94 119 83 94 119 83 94 119 83 94 119 83 94 119 83 94 119 83 94 119 83 94 119 83 94 119 83 94 119 83 94 119 83 94 119 83 94 0 0 255 0 0 255 0 0 255 119 83 94 119 83 94 119 83 94 119 83 94 119 83 94 119 83 94 119 83 94 119 83 94 119 83 94 119 83 94 119 83 94 119 83 94 119 83 94 119 83 94 119 83 94 119 83 94 119 83 94 119 83 94 119 83 94 119 83 94 119 83 94 119 83 94 119 83 94 119 83 94 119 83 94 119 83 94 119 83 94 119 83 94 119 83 94 119 83 94 119 83 94 119 83 94 119 83 94 119 83 94 119 83 94 119 83 94 119 83 94 119 83 94 119 83 94 119 83 94 119 83 94 119 83 94 119 83 94 119 83 94 119 83 94 119 83 94 119 83 94 119 83 94 119 83 94 119 83 94 119 83 94 119 83 94 119 83 94 119 83 94 119 83 94 119 83 94 
164 196 214 164 196 214 164 196 214 164 196 214 164 196 214 164 196 214 164 196 214 164 196 214 164 196 214 164 196 214 164 196 214 164 196 214 164 196 214 164 196 214 164 196 214 164 196 214 164 196 214 164 196 214 164 196 214 164 196 214 164 196 214 164 196 214 164 196 214 164 196 214 164 196 214 164 196 214 164 196 214 164 196 214 164 196 214 164 196 214 164 196 214 164 196 214 164 196 214 0 0 255 147 98 96 0 0 255 164 196 214 164 196 214 164 196 214 164 196 214 164 196 214 164 196 214 0 0 255 147 98 96 147 98 96 147 98 96 147 98 96 147 98 96 147 98 96 147 98 96 147 98 96 147 98 96 147 98 96 147 98 96 147 98 96 147 98 96 147 98 96 147 98 96 147 98 96 147 98 96 147 98 96 147 98 96 147 98 96 147 98 96 147 98 96 147 98 96 147 98 96 147 98 96 147 98 96 147 98 96 147 98 96 147 98 96 147 98 96 147 98 96 147 98 96 147 98 96 147 98 96 147 98 96 147 98 96 147 98 96 147 98 96 147 98 96 147 98 96 147 98 96 147 98 96 147 98 96 147 98 96 147 98 96 147 98 96 147 98 96 147 98 96 147 98 96 147 98 96 147 98 96 147 98 96 147 98 96 147 98 96 147 98 96 147 98 96 147 98 96 147 98 96 147 98 96 147 98 96 147 98 96 147 98 96 147 98 96 147 98 96 147 98 96 147 98 96 147 98 96 147 98 96 147 98 96 147 98 96 147 98 96 147 98 96 147 98 96 147 98 96 147 98 96 147 98 96 147 98 96 147 98 96 147 98 96 147 98 96 147 98 96 147 98 96 147 98 96 147 98 96 147 98 96 147 98 96 147 98 96 147 98 96 147 98 96 147 98 96 147 98 96 147 98 96 147 98 96 147 98 96 147 98 96 147 98 96 147 98 96 147 98 96 147 98 96 147 98 96 147 98 96 147 98 96 147 98 96 147 98 96 147 98 96 147 98 96 147 98 96 0 0 255 119 83 94 119 83 94 119 83 94 119 83 94 119 83 94 0 0 255 0 0 255 0 0 255 167 176 177 167 176 177 167 176 177 167 176 177 167 176 177 167 176 177 167 176 177 167 176 177 167 176 177 167 176 177 167 176 177 167 176 177 0 0 255 0 0 255 119 83 94 119 83 94 119 83 94 119 83 94 119 83 94 119 83 94 119 83 94 119 83 94 119 83 94 119 83 94 119 83 94 119 83 94 119 83 94 119 83 94 119 83 94 119 83 94 119 83 94 119 83 94 119 83 94 119 83 94 119 83 94 119 83 94 119 83 94 0 0 255 0 0 255 119 83 94 119 83 94 119 83 94 119 83 94 119 83 94 119 83 94 119 83 94 119 83 94 119 83 94 119 83 94 119 83 94 119 83 94 119 83 94 119 83 94 119 83 94 119 83 94 119 83 94 119 83 94 119 83 94 119 83 94 119 83 94 119 83 94 119 83 94 119 83 94 119 83 94 119 83 94 119 83 94 119 83 94 119 83 94 119 83 94 119 83 94 119 83 94 119 83 94 119 83 94 119 83 94 119 83 94 119 83 94 119 83 94 119 83 94 119 83 94 119 83 94 119 83 94 119 83 94 119 83 94 119 83 94 119 83 94 119 83 94 119 83 94 119 83 94 119 83 94 119 83 94 119 83 94 119 83 94 119 83 94 119 83 94 119 83 94 119 83 94 119 83 94 
164 196 214 164 196 214 164 196 214 164 196 214 164 196 214 164 196 214 164 196 214 164 196 214 164 196 214 164 196 214 164 196 214 164 196 214 164 196 214 164 196 214 164 196 214 164 196 214 164 196 214 164 196 214 164 196 214 164 196 214 164 196 214 164 196 214 164 196 214 164 196 214 164 196 214 164 196 214 164 196 214 164 196 214 164 196 214 164 196 214 164 196 214 164 196 214 164 196 214 0 0 255 0 0 255 164 196 214 164 196 214 164 196 214 164 196 214 164 196 214 164 196 214 0 0 255 147 98 96 147 98 96 147 98 96 147 98 96 147 98 96 147 98 96 147 98 96 147 98 96 147 98 96 147 98 96 147 98 96 147 98 96 147 98 96 147 98 96 147 98 96 147 98 96 147 98 96 147 98 96 147 98 96 147 98 96 147 98 96 147 98 96 147 98 96 147 98 96 147 98 96 147 98 96 147 98 96 147 98 96 147 98 96 147 98 96 147 98 96 147 98 96 147 98 96 147 98 96 147 98 96 147 98 96 147 98 96 147 98 96 147 98 96 147 98 96 147 98 96 147 98 96 147 98 96 147 98 96 147 98 96 147 98 96 147 98 96 147 98 96 147 98 96 147 98 96 147 98 96 147 98 96 147 98 96 147 98 96 147 98 96 147 98 96 147 98 96 147 98 96 147 98 96 147 98 96 147 98 96 147 98 96 147 98 96 147 98 96 147 98 96 147 98 96 147 98 96 147 98 96 147 98 96 147 98 96 147 98 96 147 98 96 147 98 96 147 98 96 147 98 96 147 98 96 147 98 96 147 98 96 147 98 96 147 98 96 147 98 96 147 98 96 147 98 96 147 98 96 147 98 96 147 98 96 147 98 96 147 98 96 147 98 96 147 98 96 147 98 96 147 98 96 147 98 96 147 98 96 147 98 96 147 98 96 147 98 96 147 98 96 147 98 96 147 98 96 147 98 96 147 98 96 147 98 96 147 98 96 147 98 96 147 98 96 147 98 96 147 98 96 0 0 255 119 83 94 119 83 94 119 83 94 0 0 255 0 0 255 167 176 177 167 176 177 167 176 177 167 176 177 167 176 177 167 176 177 167 176 177 167 176 177 167 176 177 167 176 177 167 176 177 167 176 177 167 176 177 0 0 255 0 0 255 119 83 94 119 83 94 119 83 94 119 83 94 119 83 94 119 83 94 119 83 94 119 83 94 119 83 94 119 83 94 119 83 94 119 83 94 119 83 94 119 83 94 119 83 94 119 83 94 119 83 94 119 83 94 119 83 94 119 83 94 119 83 94 119 83 94 119 83 94 119 83 94 0 0 255 119 83 94 119 83 94 119 83 94 119 83 94 119 83 94 119 83 94 119 83 94 119 83 94 119 83 94 119 83 94 119 83 94 119 83 94 119 83 94 119 83 94 119 83 94 119 83 94 119 83 94 119 83 94 119 83 94 119 83 94 119 83 94 119 83 94 119 83 94 119 83 94 119 83 94 119 83 94 119 83 94 119 83 94 119 83 94 119 83 94 119 83 94 119 83 94 119 83 94 119 83 94 119 83 94 119 83 94 119 83 94 119 83 94 119 83 94 119 83 94 119 83 94 119 83 94 119 83 94 119 83 94 119 83 94 119 83 94 119 83 94 119 83 94 119 83 94 119 83 94 119 83 94 119 83 94 119 83 94 119 83 94 119 83 94 119 83 94 119 83 94 119 83 94 119 83 94 119 83 94 
164 196 214 164 196 214 164 196 214 164 196 214 164 196 214 164 196 214 164 196 214 164 196 214 164 196 214 164 196 214 164 196 214 164 196 214 164 196 214 164 196 214 164 196 214 164 196 214 164 196 214 164 196 214 164 196 214 164 196 214 164 196 214 164 196 214 164 196 214 164 196 214 164 196 214 164 196 214 164 196 214 164 196 214 164 196 214 164 196 214 164 196 214 164 196 214 0 0 255 0 0 255 164 196 214 164 196 214 164 196 214 164 196 214 164 196 214 164 196 214 0 0 255 147 98 96 147 98 96 147 98 96 147 98 96 147 98 96 147 98 96 147 98 96 147 98 96 147 98 96 147 98 96 147 98 96 147 98 96 147 98 96 147 98 96 147 98 96 147 98 96 147 98 96 147 98 96 147 98 96 147 98 96 147 98 96 147 98 96 147 98 96 147 98 96 147 98 96 147 98 96 147 98 96 147 98 96 147 98 96 147 98 96 147 98 96 147 98 96 147 98 96 147 98 96 147 98 96 147 98 96 147 98 96 147 98 96 147 98 96 147 98 96 147 98 96 147 98 96 147 98 96 147 98 96 147 98 96 147 98 96 147 98 96 147 98 96 147 98 96 147 98 96 147 98 96 147 98 96 147 98 96 147 98 96 147 98 96 147 98 96 147 98 96 147 98 96 147 98 96 147 98 96 147 98 96 147 98 96 147 98 96 147 98 96 147 98 96 147 98 96 147 98 96 147 98 96 147 98 96 147 98 96 147 98 96 147 98 96 147 98 96 147 98 96 147 98 96 147 98 96 147 98 96 147 98 96 147 98 96 147 98 96 147 98 96 147 98 96 147 98 96 147 98 96 147 98 96 147 98 96 147 98 96 147 98 96 147 98 96 147 98 96 147 98 96 147 98 96 147 98 96 147 98 96 147 98 96 147 98 96 147 98 96 147 98 96 147 98 96 147 98 96 147 98 96 147 98 96 147 98 96 147 98 96 147 98 96 147 98 96 147 98 96 147 98 96 147 98 96 0 0 255 119 83 94 119 83 94 0 0 255 167 176 177 167 176 177 167 176 177 167 176 177 167 176 177 167 176 177 0 0 255 167 176 177 167 176 177 0 0 255 0 0 255 0 0 255 0 0 255 0 0 255 0 0 255 119 83 94 119 83 94 119 83 94 119 83 94 119 83 94 119 83 94 119 83 94 119 83 94 119 83 94 119 83 94 119 83 94 119 83 94 119 83 94 119 83 94 119 83 94 119 83 94 119 83 94 119 83 94 119 83 94 119 83 94 119 83 94 119 83 94 119 83 94 119 83 94 119 83 94 0 0 255 0 0 255 119 83 94 119 83 94 119 83 94 119 83 94 119 83 94 119 83 94 119 83 94 119 83 94 119 83 94 119 83 94 119 83 94 119 83 94 119 83 94 119 83 94 119 83 94 119 83 94 119 83 94 119 83 94 119 83 94 119 83 94 119 83 94 119 83 94 119 83 94 119 83 94 119 83 94 119 83 94 119 83 94 119 83 94 119 83 94 119 83 94 119 83 94 119 83 94 119 83 94 119 83 94 119 83 94 119 83 94 119 83 94 119 83 94 119 83 94 119 83 94 119 83 94 119 83 94 119 83 94 119 83 94 119 83 94 119 83 94 119 83 94 119 83 94 119 83 94 119 83 94 119 83 94 119 83 94 119 83 94 119 83 94 119 83 94 119 83 94 119 83 94 119 83 94 119 83 94 119 83 94 
164 196 214 164 196 214 164 196 214 164 196 214 164 196 214 164 196 214 164 196 214 164 196 214 164 196 214 164 196 214 164 196 214 164 196 214 164 196 214 164 196 214 164 196 214 164 196 214 164 196 214 164 196 214 164 196 214 164 196 214 164 196 214 164 196 214 164 196 214 164 196 214 164 196 214 164 196 214 164 196 214 164 196 214 164 196 214 164 196 214 164 196 214 0 0 255 0 0 255 164 196 214 164 196 214 164 196 214 164 196 214 164 196 214 164 196 214 164 196 214 0 0 255 147 98 96 147 98 96 147 98 96 147 98 96 147 98 96 147 98 96 147 98 96 147 98 96 147 98 96 147 98 96 147 98 96 147 98 96 147 98 96 147 98 96 147 98 96 147 98 96 147 98 96 147 98 96 147 98 96 147 98 96 147 98 96 147 98 96 147 98 96 147 98 96 147 98 96 147 98 96 147 98 96 147 98 96 147 98 96 147 98 96 147 98 96 147 98 96 147 98 96 147 98 96 147 98 96 147 98 96 147 98 96 147 98 96 147 98 96 147 98 96 147 98 96 147 98 96 147 98 96 147 98 96 147 98 96 147 98 96 147 98 96 147 98 96 147 98 96 147 98 96 147 98 96 147 98 96 147 98 96 147 98 96 147 98 96 147 98 96 147 98 96 147 98 96 147 98 96 147 98 96 147 98 96 147 98 96 147 98 96 147 98 96 147 98 96 147 98 96 147 98 96 147 98 96 147 98 96 147 98 96 147 98 96 147 98 96 147 98 96 147 98 96 147 98 96 147 98 96 147 98 96 147 98 96 147 98 96 147 98 96 147 98 96 147 98 96 147 98 96 147 98 96 147 98 96 147 98 96 147 98 96 147 98 96 147 98 96 147 98 96 147 98 96 147 98 96 147 98 96 147 98 96 147 98 96 147 98 96 147 98 96 147 98 96 147 98 96 147 98 96 147 98 96 147 98 96 147 98 96 147 98 96 147 98 96 147 98 96 147 98 96 147 98 96 147 98 96 0 0 255 0 0 255 0 0 255 0 0 255 167 176 177 167 176 177 167 176 177 0 0 255 0 0 255 0 0 255 0 0 255 0 0 255 0 0 255 119 83 94 119 83 94 119 83 94 119 83 94 119 83 94 119 83 94 119 83 94 119 83 94 119 83 94 119 83 94 119 83 94 119 83 94 119 83 94 119 83 94 119 83 94 119 83 94 119 83 94 119 83 94 119 83 94 119 83 94 119 83 94 119 83 94 119 83 94 119 83 94 119 83 94 119 83 94 119 83 94 119 83 94 119 83 94 119 83 94 119 83 94 0 0 255 0 0 255 0 0 255 119 83 94 119 83 94 119 83 94 119 83 94 119 83 94 119 83 94 119 83 94 119 83 94 119 83 94 119 83 94 119 83 94 119 83 94 119 83 94 119 83 94 119 83 94 119 83 94 119 83 94 119 83 94 119 83 94 119 83 94 119 83 94 119 83 94 119 83 94 119 83 94 119 83 94 119 83 94 119 83 94 119 83 94 119 83 94 119 83 94 119 83 94 119 83 94 119 83 94 119 83 94 119 83 94 119 83 94 119 83 94 119 83 94 119 83 94 119 83 94 119 83 94 119 83 94 119 83 94 119 83 94 119 83 94 119 83 94 119 83 94 119 83 94 119 83 94 119 83 94 119 83 94 119 83 94 119 83 94 119 83 94 119 83 94 119 83 94 119 83 94 119 83 94 119 83 94 
164 196 214 164 196 214 164 196 214 164 196 214 164 196 214 164 196 214 164 196 214 164 196 214 164 196 214 164 196 214 164 196 214 164 196 214 164 196 214 164 196 214 164 196 214 164 196 214 164 196 214 164 196 214 164 196 214 164 196 214 164 196 214 164 196 214 164 196 214 164 196 214 164 196 214 164 196 214 164 196 214 164 196 214 164 196 214 164 196 214 0 0 255 0 0 255 164 196 214 164 196 214 164 196 214 164 196 214 164 196 214 164 196 214 164 196 214 0 0 255 147 98 96 147 98 96 147 98 96 147 98 96 147 98 96 147 98 96 147 98 96 147 98 96 147 98 96 147 98 96 147 98 96 147 98 96 147 98 96 147 98 96 147 98 96 147 98 96 147 98 96 147 98 96 147 98 96 147 98 96 147 98 96 147 98 96 147 98 96 147 98 96 147 98 96 147 98 96 147 98 96 147 98 96 147 98 96 147 98 96 147 98 96 147 98 96 147 98 96 147 98 96 147 98 96 147 98 96 147 98 96 147 98 96 147 98 96 147 98 96 147 98 96 147 98 96 147 98 96 147 98 96 147 98 96 147 98 96 147 98 96 147 98 96 147 98 96 147 98 96 147 98 96 147 98 96 147 98 96 147 98 96 147 98 96 147 98 96 147 98 96 147 98 96 147 98 96 147 98 96 147 98 96 147 98 96 147 98 96 147 98 96 147 98 96 147 98 96 147 98 96 147 98 96 147 98 96 147 98 96 147 98 96 147 98 96 147 98 96 147 98 96 147 98 96 147 98 96 147 98 96 147 98 96 147 98 96 147 98 96 147 98 96 147 98 96 147 98 96 147 98 96 147 98 96 147 98 96 147 98 96 147 98 96 147 98 96 147 98 96 147 98 96 147 98 96 147 98 96 147 98 96 147 98 96 147 98 96 147 98 96 147 98 96 147 98 96 147 98 96 147 98 96 147 98 96 147 98 96 147 98 96 147 98 96 147 98 96 147 98 96 147 98 96 147 98 96 147 98 96 147 98 96 0 0 255 0 0 255 167 176 177 167 176 177 167 176 177 0 0 255 0 0 255 119 83 94 119 83 94 119 83 94 119 83 94 119 83 94 119 83 94 119 83 94 119 83 94 119 83 94 119 83 94 119 83 94 119 83 94 119 83 94 119 83 94 119 83 94 119 83 94 119 83 94 119 83 94 119 83 94 119 83 94 119 83 94 119 83 94 119 83 94 119 83 94 119 83 94 119 83 94 119 83 94 119 83 94 119 83 94 119 83 94 119 83 94 119 83 94 119 83 94 119 83 94 119 83 94 119 83 94 0 0 255 167 176 177 0 0 255 0 0 255 119 83 94 119 83 94 119 83 94 119 83 94 119 83 94 119 83 94 119 83 94 119 83 94 119 83 94 119 83 94 119 83 94 119 83 94 119 83 94 119 83 94 119 83 94 119 83 94 119 83 94 119 83 94 119 83 94 119 83 94 119 83 94 119 83 94 119 83 94 119 83 94 119 83 94 119 83 94 119 83 94 119 83 94 119 83 94 119 83 94 119 83 94 119 83 94 119 83 94 119 83 94 119 83 94 119 83 94 119 83 94 119 83 94 119 83 94 119 83 94 119 83 94 119 83 94 119 83 94 119 83 94 119 83 94 119 83 94 119 83 94 119 83 94 119 83 94 119 83 94 119 83 94 119 83 94 119 83 94 119 83 94 119 83 94 119 83 94 119 83 94 119 83 94 
164 196 214 164 196 214 164 196 214 164 196 214 164 196 214 164 196 214 164 196 214 164 196 214 164 196 214 164 196 214 164 196 214 164 196 214 164 196 214 164 196 214 164 196 214 164 196 214 164 196 214 164 196 214 164 196 214 164 196 214 164 196 214 164 196 214 164 196 214 164 196 214 164 196 214 164 196 214 164 196 214 164 196 214 164 196 214 0 0 255 0 0 255 164 196 214 164 196 214 164 196 214 164 196 214 164 196 214 164 196 214 164 196 214 0 0 255 147 98 96 147 98 96 147 98 96 147 98 96 147 98 96 147 98 96 147 98 96 147 98 96 147 98 96 147 98 96 147 98 96 147 98 96 147 98 96 147 98 96 147 98 96 147 98 96 147 98 96 147 98 96 147 98 96 147 98 96 147 98 96 147 98 96 147 98 96 147 98 96 147 98 96 147 98 96 147 98 96 147 98 96 147 98 96 147 98 96 147 98 96 147 98 96 147 98 96 147 98 96 147 98 96 147 98 96 147 98 96 147 98 96 147 98 96 147 98 96 147 98 96 147 98 96 147 98 96 147 98 96 147 98 96 147 98 96 147 98 96 147 98 96 147 98 96 147 98 96 147 98 96 147 98 96 147 98 96 147 98 96 147 98 96 147 98 96 147 98 96 147 98 96 147 98 96 147 98 96 147 98 96 147 98 96 147 98 96 147 98 96 147 98 96 147 98 96 147 98 96 147 98 96 147 98 96 147 98 96 147 98 96 147 98 96 147 98 96 147 98 96 147 98 96 147 98 96 147 98 96 147 98 96 147 98 96 147 98 96 147 98 96 147 98 96 147 98 96 147 98 96 147 98 96 147 98 96 147 98 96 147 98 96 147 98 96 147 98 96 147 98 96 147 98 96 147 98 96 147 98 96 147 98 96 147 98 96 147 98 96 147 98 96 147 98 96 147 98 96 147 98 96 147 98 96 147 98 96 147 98 96 147 98 96 147 98 96 147 98 96 147 98 96 147 98 96 147 98 96 147 98 96 147 98 96 0 0 255 0 0 255 167 176 177 167 176 177 167 176 177 167 176 177 0 0 255 119 83 94 119 83 94 119 83 94 119 83 94 119 83 94 119 83 94 119 83 94 119 83 94 119 83 94 119 83 94 119 83 94 119 83 94 119 83 94 119 83 94 0 0 255 119 83 94 119 83 94 119 83 94 119 83 94 119 83 94 119 83 94 119 83 94 119 83 94 119 83 94 119 83 94 119 83 94 119 83 94 119 83 94 119 83 94 119 83 94 119 83 94 119 83 94 119 83 94 119 83 94 119 83 94 0 0 255 167 176 177 167 176 177 167 176 177 0 0 255 0 0 255 0 0 255 0 0 255 119 83 94 119 83 94 119 83 94 119 83 94 119 83 94 119 83 94 119 83 94 119 83 94 119 83 94 119 83 94 119 83 94 119 83 94 119 83 94 119 83 94 119 83 94 119 83 94 119 83 94 119 83 94 119 83 94 119 83 94 119 83 94 119 83 94 119 83 94 119 83 94 119 83 94 119 83 94 119 83 94 119 83 94 119 83 94 119 83 94 119 83 94 119 83 94 119 83 94 119 83 94 119 83 94 119 83 94 119 83 94 119 83 94 119 83 94 119 83 94 119 83 94 119 83 94 119 83 94 119 83 94 119 83 94 119 83 94 119 83 94 119 83 94 119 83 94 119 83 94 119 83 94 119 83 94 119 83 94 119 83 94 119 83 94 
164 196 214 164 196 214 164 196 214 164 196 214 164 196 214 164 196 214 164 196 214 164 196 214 164 196 214 164 196 214 164 196 214 164 196 214 164 196 214 164 196 214 164 196 214 164 196 214 164 196 214 164 196 214 164 196 214 164 196 214 164 196 214 164 196 214 164 196 214 164 196 214 164 196 214 164 196 214 164 196 214 164 196 214 0 0 255 0 0 255 164 196 214 164 196 214 164 196 214 164 196 214 164 196 214 164 196 214 164 196 214 0 0 255 147 98 96 147 98 96 147 98 96 147 98 96 147 98 96 147 98 96 147 98 96 147 98 96 147 98 96 147 98 96 147 98 96 147 98 96 147 98 96 147 98 96 147 98 96 147 98 96 147 98 96 147 98 96 147 98 96 147 98 96 147 98 96 147 98 96 147 98 96 147 98 96 147 98 96 147 98 96 147 98 96 147 98 96 147 98 96 147 98 96 147 98 96 147 98 96 147 98 96 147 98 96 147 98 96 147 98 96 147 98 96 147 98 96 147 98 96 147 98 96 147 98 96 147 98 96 147 98 96 147 98 96 147 98 96 147 98 96 147 98 96 147 98 96 147 98 96 147 98 96 147 98 96 147 98 96 147 98 96 147 98 96 147 98 96 147 98 96 147 98 96 147 98 96 147 98 96 147 98 96 147 98 96 147 98 96 147 98 96 147 98 96 147 98 96 147 98 96 147 98 96 147 98 96 147 98 96 147 98 96 147 98 96 147 98 96 147 98 96 147 98 96 147 98 96 147 98 96 147 98 96 147 98 96 147 98 96 147 98 96 147 98 96 147 98 96 147 98 96 147 98 96 147 98 96 147 98 96 147 98 96 147 98 96 147 98 96 147 98 96 147 98 96 147 98 96 147 98 96 147 98 96 0 0 255 0 0 255 0 0 255 0 0 255 147 98 96 147 98 96 147 98 96 147 98 96 147 98 96 147 98 96 147 98 96 147 98 96 147 98 96 147 98 96 147 98 96 147 98 96 147 98 96 147 98 96 0 0 255 0 0 255 0 0 255 167 176 177 167 176 177 167 176 177 167 176 177 0 0 255 119 83 94 119 83 94 119 83 94 119 83 94 119 83 94 119 83 94 119 83 94 119 83 94 119 83 94 119 83 94 119 83 94 119 83 94 119 83 94 0 0 255 0 0 255 0 0 255 0 0 255 0 0 255 119 83 94 119 83 94 119 83 94 119 83 94 119 83 94 119 83 94 119 83 94 119 83 94 119 83 94 119 83 94 119 83 94 119 83 94 119 83 94 119 83 94 119 83 94 119 83 94 119 83 94 0 0 255 167 176 177 167 176 177 167 176 177 167 176 177 167 176 177 167 176 177 0 0 255 0 0 255 119 83 94 119 83 94 119 83 94 119 83 94 119 83 94 119 83 94 119 83 94 119 83 94 119 83 94 119 83 94 119 83 94 119 83 94 119 83 94 119 83 94 119 83 94 119 83 94 119 83 94 119 83 94 119 83 94 119 83 94 119 83 94 119 83 94 119 83 94 119 83 94 119 83 94 119 83 94 119 83 94 119 83 94 119 83 94 119 83 94 119 83 94 119 83 94 119 83 94 119 83 94 119 83 94 119 83 94 119 83 94 119 83 94 119 83 94 119 83 94 119 83 94 119 83 94 119 83 94 119 83 94 119 83 94 119 83 94 119 83 94 119 83 94 119 83 94 119 83 94 119 83 94 119 83 94 119 83 94 119 83 94 
164 196 214 164 196 214 164 196 214 164 196 214 164 196 214 164 196 214 164 196 214 164 196 214 164 196 214 164 196 214 164 196 214 164 196 214 164 196 214 164 196 214 164 196 214 164 196 214 164 196 214 164 196 214 164 196 214 164 196 214 164 196 214 164 196 214 164 196 214 164 196 214 164 196 214 164 196 214 164 196 214 0 0 255 0 0 255 164 196 214 164 196 214 164 196 214 164 196 214 164 196 214 164 196 214 164 196 214 0 0 255 147 98 96 147 98 96 147 98 96 147 98 96 147 98 96 147 98 96 147 98 96 147 98 96 147 98 96 147 98 96 147 98 96 147 98 96 147 98 96 147 98 96 147 98 96 147 98 96 147 98 96 147 98 96 147 98 96 147 98 96 147 98 96 147 98 96 147 98 96 147 98 96 147 98 96 147 98 96 147 98 96 147 98 96 147 98 96 147 98 96 147 98 96 147 98 96 147 98 96 147 98 96 147 98 96 147 98 96 147 98 96 147 98 96 147 98 96 147 98 96 147 98 96 147 98 96 147 98 96 147 98 96 147 98 96 147 98 96 147 98 96 147 98 96 147 98 96 147 98 96 147 98 96 147 98 96 147 98 96 147 98 96 147 98 96 147 98 96 147 98 96 147 98 96 147 98 96 147 98 96 147 98 96 147 98 96 147 98 96 147 98 96 147 98 96 147 98 96 147 98 96 147 98 96 147 98 96 147 98 96 147 98 96 147 98 96 147 98 96 147 98 96 147 98 96 147 98 96 147 98 96 147 98 96 147 98 96 147 98 96 147 98 96 147 98 96 147 98 96 147 98 96 147 98 96 147 98 96 147 98 96 147 98 96 147 98 96 147 98 96 147 98 96 147 98 96 0 0 255 0 0 255 0 0 255 167 176 177 167 176 177 0 0 255 0 0 255 147 98 96 147 98 96 147 98 96 147 98 96 147 98 96 147 98 96 147 98 96 147 98 96 147 98 96 147 98 96 147 98 96 147 98 96 147 98 96 147 98 96 147 98 96 0 0 255 167 176 177 167 176 177 167 176 177 167 176 177 167 176 177 0 0 255 119 83 94 119 83 94 119 83 94 119 83 94 119 83 94 119 83 94 119 83 94 119 83 94 119 83 94 119 83 94 119 83 94 119 83 94 0 0 255 167 176 177 167 176 177 167 176 177 167 176 177 0 0 255 0 0 255 0 0 255 0 0 255 119 83 94 119 83 94 119 83 94 119 83 94 119 83 94 119 83 94 119 83 94 119 83 94 119 83 94 119 83 94 119 83 94 119 83 94 119 83 94 119 83 94 0 0 255 167 176 177 167 176 177 167 176 177 167 176 177 167 176 177 0 0 255 0 0 255 0 0 255 119 83 94 119 83 94 119 83 94 119 83 94 119 83 94 119 83 94 119 83 94 119 83 94 119 83 94 119 83 94 119 83 94 119 83 94 119 83 94 119 83 94 119 83 94 119 83 94 119 83 94 119 83 94 119 83 94 119 83 94 119 83 94 119 83 94 119 83 94 119 83 94 119 83 94 119 83 94 119 83 94 119 83 94 119 83 94 119 83 94 119 83 94 119 83 94 119 83 94 119 83 94 119 83 94 119 83 94 119 83 94 119 83 94 119 83 94 119 83 94 119 83 94 119 83 94 119 83 94 119 83 94 119 83 94 119 83 94 119 83 94 119 83 94 119 83 94 119 83 94 119 83 94 119 83 94 119 83 94 119 83 94 
164 196 214 164 196 214 164 196 214 164 196 214 164 196 214 164 196 214 164 196 214 164 196 214 164 196 214 164 196 214 164 196 214 164 196 214 164 196 214 164 196 214 164 196 214 164 196 214 164 196 214 164 196 214 164 196 214 164 196 214 164 196 214 164 196 214 164 196 214 164 196 214 164 196 214 164 196 214 0 0 255 0 0 255 164 196 214 164 196 214 164 196 214 164 196 214 164 196 214 164 196 214 164 196 214 0 0 255 147 98 96 147 98 96 147 98 96 147 98 96 147 98 96 147 98 96 147 98 96 147 98 96 147 98 96 147 98 96 147 98 96 147 98 96 147 98 96 147 98 96 147 98 96 147 98 96 147 98 96 147 98 96 147 98 96 147 98 96 147 98 96 147 98 96 147 98 96 147 98 96 147 98 96 147 98 96 147 98 96 147 98 96 147 98 96 147 98 96 147 98 96 147 98 96 147 98 96 147 98 96 147 98 96 147 98 96 147 98 96 147 98 96 147 98 96 147 98 96 147 98 96 147 98 96 147 98 96 147 98 96 147 98 96 147 98 96 147 98 96 147 98 96 147 98 96 147 98 96 147 98 96 147 98 96 147 98 96 147 98 96 147 98 96 147 98 96 147 98 96 147 98 96 147 98 96 147 98 96 147 98 96 147 98 96 147 98 96 147 98 96 147 98 96 147 98 96 147 98 96 147 98 96 147 98 96 147 98 96 147 98 96 147 98 96 147 98 96 147 98 96 147 98 96 147 98 96 147 98 96 147 98 96 147 98 96 147 98 96 147 98 96 147 98 96 147 98 96 147 98 96 147 98 96 147 98 96 147 98 96 147 98 96 0 0 255 0 0 255 0 0 255 0 0 255 0 0 255 0 0 255 0 0 255 0 0 255 0 0 255 0 0 255 147 98 96 147 98 96 147 98 96 147 98 96 147 98 96 147 98 96 147 98 96 147 98 96 147 98 96 147 98 96 147 98 96 147 98 96 147 98 96 147 98 96 147 98 96 147 98 96 147 98 96 0 0 255 167 176 177 167 176 177 167 176 177 167 176 177 167 176 177 0 0 255 119 83 94 119 83 94 119 83 94 119 83 94 119 83 94 119 83 94 119 83 94 119 83 94 0 0 255 119 83 94 0 0 255 119 83 94 0 0 255 167 176 177 167 176 177 167 176 177 167 176 177 0 0 255 167 176 177 167 176 177 0 0 255 119 83 94 119 83 94 119 83 94 119 83 94 119 83 94 119 83 94 119 83 94 119 83 94 119 83 94 119 83 94 119 83 94 119 83 94 119 83 94 119 83 94 0 0 255 167 176 177 167 176 177 167 176 177 167 176 177 0 0 255 119 83 94 0 0 255 0 0 255 119 83 94 119 83 94 119 83 94 119 83 94 119 83 94 119 83 94 119 83 94 119 83 94 119 83 94 119 83 94 119 83 94 119 83 94 119 83 94 119 83 94 119 83 94 119 83 94 119 83 94 119 83 94 119 83 94 119 83 94 119 83 94 119 83 94 119 83 94 119 83 94 119 83 94 119 83 94 119 83 94 119 83 94 119 83 94 119 83 94 119 83 94 119 83 94 119 83 94 119 83 94 119 83 94 119 83 94 119 83 94 119 83 94 119 83 94 119 83 94 119 83 94 119 83 94 119 83 94 119 83 94 119 83 94 119 83 94 119 83 94 119 83 94 119 83 94 119 83 94 119 83 94 119 83 94 119 83 94 119 83 94 
164 196 214 164 196 214 164 196 214 164 196 214 164 196 214 164 196 214 164 196 214 164 196 214 164 196 214 164 196 214 164 196 214 164 196 214 164 196 214 164 196 214 164 196 214 164 196 214 164 196 214 164 196 214 164 196 214 164 196 214 164 196 214 164 196 214 164 196 214 164 196 214 164 196 214 164 196 214 164 196 214 164 196 214 164 196 214 164 196 214 164 196 214 164 196 214 164 196 214 164 196 214 0 0 255 147 98 96 147 98 96 147 98 96 147 98 96 147 98 96 147 98 96 147 98 96 147 98 96 147 98 96 147 98 96 147 98 96 147 98 96 147 98 96 147 98 96 147 98 96 147 98 96 147 98 96 147 98 96 147 98 96 147 98 96 147 98 96 147 98 96 147 98 96 147 98 96 147 98 96 147 98 96 147 98 96 147 98 96 147 98 96 147 98 96 147 98 96 147 98 96 147 98 96 147 98 96 147 98 96 147 98 96 147 98 96 147 98 96 147 98 96 147 98 96 147 98 96 147 98 96 147 98 96 147 98 96 147 98 96 147 98 96 147 98 96 147 98 96 147 98 96 147 98 96 147 98 96 147 98 96 147 98 96 147 98 96 147 98 96 147 98 96 147 98 96 147 98 96 147 98 96 147 98 96 147 98 96 147 98 96 147 98 96 147 98 96 147 98 96 147 98 96 147 98 96 147 98 96 147 98 96 147 98 96 147 98 96 147 98 96 147 98 96 147 98 96 147 98 96 147 98 96 147 98 96 147 98 96 147 98 96 147 98 96 147 98 96 147 98 96 147 98 96 147 98 96 147 98 96 147 98 96 0 0 255 0 0 255 0 0 255 0 0 255 0 0 255 167 176 177 167 176 177 0 0 255 147 98 96 147 98 96 147 98 96 147 98 96 147 98 96 147 98 96 147 98 96 147 98 96 147 98 96 147 98 96 147 98 96 147 98 96 147 98 96 147 98 96 147 98 96 147 98 96 147 98 96 147 98 96 147 98 96 147 98 96 147 98 96 147 98 96 0 0 255 167 176 177 167 176 177 167 176 177 167 176 177 167 176 177 0 0 255 119 83 94 119 83 94 119 83 94 119 83 94 119 83 94 119 83 94 0 0 255 0 0 255 0 0 255 0 0 255 0 0 255 0 0 255 0 0 255 167 176 177 167 176 177 167 176 177 0 0 255 0 0 255 0 0 255 167 176 177 0 0 255 119 83 94 119 83 94 119 83 94 119 83 94 119 83 94 119 83 94 119 83 94 119 83 94 119 83 94 119 83 94 119 83 94 119 83 94 119 83 94 119 83 94 0 0 255 167 176 177 167 176 177 167 176 177 167 176 177 0 0 255 119 83 94 119 83 94 119 83 94 119 83 94 119 83 94 119 83 94 119 83 94 119 83 94 119 83 94 119 83 94 119 83 94 119 83 94 119 83 94 119 83 94 119 83 94 119 83 94 119 83 94 119 83 94 119 83 94 119 83 94 119 83 94 119 83 94 119 83 94 119 83 94 119 83 94 119 83 94 119 83 94 119 83 94 119 83 94 119 83 94 119 83 94 119 83 94 119 83 94 119 83 94 119 83 94 119 83 94 119 83 94 119 83 94 119 83 94 119 83 94 119 83 94 119 83 94 119 83 94 119 83 94 119 83 94 119 83 94 119 83 94 119 83 94 119 83 94 119 83 94 119 83 94 119 83 94 119 83 94 119 83 94 119 83 94 119 83 94 119 83 94 
164 196 214 164 196 214 164 196 214 164 196 214 164 196 214 164 196 214 164 196 214 164 196 214 164 196 214 164 196 214 164 196 214 164 196 214 164 196 214 164 196 214 164 196 214 164 196 214 164 196 214 164 196 214 164 196 214 164 196 214 164 196 214 164 196 214 164 196 214 164 196 214 164 196 214 164 196 214 164 196 214 164 196 214 164 196 214 164 196 214 164 196 214 164 196 214 164 196 214 0 0 255 147 98 96 147 98 96 147 98 96 147 98 96 147 98 96 147 98 96 147 98 96 147 98 96 147 98 96 147 98 96 147 98 96 147 98 96 147 98 96 147 98 96 147 98 96 147 98 96 147 98 96 147 98 96 147 98 96 147 98 96 147 98 96 147 98 96 147 98 96 147 98 96 147 98 96 147 98 96 147 98 96 147 98 96 147 98 96 147 98 96 147 98 96 147 98 96 147 98 96 147 98 96 147 98 96 147 98 96 147 98 96 147 98 96 147 98 96 147 98 96 147 98 96 147 98 96 147 98 96 147 98 96 147 98 96 147 98 96 147 98 96 147 98 96 147 98 96 147 98 96 147 98 96 147 98 96 147 98 96 147 98 96 147 98 96 147 98 96 147 98 96 147 98 96 147 98 96 147 98 96 147 98 96 147 98 96 147 98 96 147 98 96 147 98 96 147 98 96 147 98 96 147 98 96 147 98 96 147 98 96 147 98 96 147 98 96 147 98 96 147 98 96 147 98 96 147 98 96 147 98 96 147 98 96 147 98 96 147 98 96 147 98 96 147 98 96 147 98 96 147 98 96 147 98 96 147 98 96 0 0 255 0 0 255 0 0 255 147 98 96 147 98 96 0 0 255 167 176 177 0 0 255 147 98 96 147 98 96 147 98 96 147 98 96 147 98 96 147 98 96 147 98 96 147 98 96 147 98 96 147 98 96 147 98 96 147 98 96 147 98 96 147 98 96 147 98 96 147 98 96 147 98 96 147 98 96 147 98 96 147 98 96 147 98 96 147 98 96 147 98 96 0 0 255 167 176 177 167 176 177 167 176 177 167 176 177 167 176 177 0 0 255 119 83 94 0 0 255 119 83 94 119 83 94 119 83 94 0 0 255 0 0 255 0 0 255 167 176 177 167 176 177 167 176 177 167 176 177 167 176 177 167 176 177 167 176 177 0 0 255 119 83 94 119 83 94 0 0 255 0 0 255 0 0 255 119 83 94 119 83 94 119 83 94 119 83 94 119 83 94 119 83 94 119 83 94 119 83 94 119 83 94 119 83 94 119 83 94 119 83 94 119 83 94 119 83 94 0 0 255 167 176 177 167 176 177 167 176 177 167 176 177 0 0 255 119 83 94 119 83 94 119 83 94 119 83 94 119 83 94 119 83 94 119 83 94 119 83 94 119 83 94 119 83 94 119 83 94 119 83 94 119 83 94 119 83 94 119 83 94 119 83 94 119 83 94 119 83 94 119 83 94 119 83 94 119 83 94 119 83 94 119 83 94 119 83 94 119 83 94 119 83 94 119 83 94 119 83 94 119 83 94 119 83 94 119 83 94 119 83 94 119 83 94 119 83 94 119 83 94 119 83 94 119 83 94 119 83 94 119 83 94 119 83 94 119 83 94 119 83 94 119 83 94 119 83 94 119 83 94 119 83 94 119 83 94 119 83 94 119 83 94 119 83 94 119 83 94 119 83 94 119 83 94 119 83 94 119 83 94 119 83 94 119 83 94 
164 196 214 164 196 214 164 196 214 164 196 214 164 196 214 164 196 214 164 196 214 164 196 214 164 196 214 164 196 214 164 196 214 164 196 214 164 196 214 164 196 214 164 196 214 164 196 214 164 196 214 164 196 214 164 196 214 164 196 214 164 196 214 164 196 214 164 196 214 164 196 214 164 196 214 164 196 214 164 196 214 164 196 214 164 196 214 164 196 214 164 196 214 164 196 214 164 196 214 0 0 255 147 98 96 147 98 96 147 98 96 147 98 96 147 98 96 147 98 96 147 98 96 147 98 96 147 98 96 147 98 96 147 98 96 147 98 96 147 98 96 147 98 96 147 98 96 147 98 96 147 98 96 147 98 96 147 98 96 147 98 96 147 98 96 147 98 96 147 98 96 147 98 96 147 98 96 147 98 96 147 98 96 147 98 96 147 98 96 147 98 96 147 98 96 147 98 96 147 98 96 147 98 96 147 98 96 147 98 96 147 98 96 147 98 96 147 98 96 147 98 96 147 98 96 147 98 96 147 98 96 147 98 96 147 98 96 147 98 96 147 98 96 147 98 96 147 98 96 147 98 96 147 98 96 147 98 96 147 98 96 147 98 96 147 98 96 147 98 96 147 98 96 147 98 96 147 98 96 147 98 96 147 98 96 147 98 96 147 98 96 147 98 96 147 98 96 147 98 96 147 98 96 147 98 96 147 98 96 147 98 96 147 98 96 147 98 96 147 98 96 147 98 96 147 98 96 147 98 96 147 98 96 147 98 96 147 98 96 147 98 96 147 98 96 0 0 255 147 98 96 147 98 96 147 98 96 147 98 96 147 98 96 147 98 96 147 98 96 147 98 96 147 98 96 0 0 255 167 176 177 0 0 255 0 0 255 147 98 96 147 98 96 147 98 96 147 98 96 147 98 96 147 98 96 147 98 96 147 98 96 147 98 96 147 98 96 147 98 96 147 98 96 147 98 96 147 98 96 147 98 96 147 98 96 147 98 96 147 98 96 147 98 96 147 98 96 147 98 96 147 98 96 0 0 255 167 176 177 167 176 177 167 176 177 167 176 177 167 176 177 0 0 255 0 0 255 0 0 255 119 83 94 119 83 94 0 0 255 167 176 177 167 176 177 167 176 177 167 176 177 167 176 177 167 176 177 167 176 177 167 176 177 167 176 177 0 0 255 119 83 94 119 83 94 119 83 94 119 83 94 119 83 94 119 83 94 119 83 94 119 83 94 119 83 94 119 83 94 119 83 94 119 83 94 119 83 94 119 83 94 119 83 94 119 83 94 119 83 94 119 83 94 119 83 94 119 83 94 0 0 255 167 176 177 167 176 177 167 176 177 167 176 177 0 0 255 119 83 94 119 83 94 119 83 94 119 83 94 119 83 94 119 83 94 119 83 94 119 83 94 119 83 94 119 83 94 119 83 94 119 83 94 119 83 94 119 83 94 119 83 94 119 83 94 119 83 94 119 83 94 119 83 94 119 83 94 119 83 94 119 83 94 119 83 94 119 83 94 119 83 94 119 83 94 119 83 94 119 83 94 119 83 94 119 83 94 119 83 94 119 83 94 119 83 94 119 83 94 119 83 94 119 83 94 119 83 94 119 83 94 119 83 94 119 83 94 119 83 94 119 83 94 119 83 94 119 83 94 119 83 94 119 83 94 119 83 94 119 83 94 119 83 94 119 83 94 119 83 94 119 83 94 119 83 94 119 83 94 119 83 94 119 83 94 119 83 94 
164 196 214 164 196 214 164 196 214 164 196 214 164 196 214 164 196 214 164 196 214 164 196 214 164 196 214 164 196 214 164 196 214 164 196 214 164 196 214 164 196 214 164 196 214 164 196 214 164 196 214 164 196 214 164 196 214 164 196 214 164 196 214 164 196 214 164 196 214 164 196 214 164 196 214 164 196 214 164 196 214 164 196 214 164 196 214 164 196 214 164 196 214 164 196 214 0 0 255 147 98 96 147 98 96 147 98 96 147 98 96 147 98 96 147 98 96 147 98 96 147 98 96 147 98 96 147 98 96 147 98 96 147 98 96 147 98 96 147 98 96 147 98 96 147 98 96 147 98 96 147 98 96 147 98 96 147 98 96 147 98 96 147 98 96 147 98 96 147 98 96 147 98 96 147 98 96 147 98 96 147 98 96 147 98 96 147 98 96 147 98 96 147 98 96 147 98 96 147 98 96 147 98 96 147 98 96 147 98 96 147 98 96 147 98 96 147 98 96 147 98 96 147 98 96 147 98 96 147 98 96 147 98 96 147 98 96 147 98 96 147 98 96 147 98 96 147 98 96 147 98 96 147 98 96 147 98 96 147 98 96 147 98 96 147 98 96 147 98 96 147 98 96 147 98 96 147 98 96 147 98 96 147 98 96 147 98 96 147 98 96 147 98 96 147 98 96 147 98 96 147 98 96 147 98 96 147 98 96 147 98 96 147 98 96 147 98 96 147 98 96 147 98 96 147 98 96 147 98 96 147 98 96 147 98 96 147 98 96 147 98 96 0 0 255 0 0 255 147 98 96 147 98 96 147 98 96 147 98 96 147 98 96 147 98 96 147 98 96 147 98 96 147 98 96 0 0 255 167 176 177 167 176 177 0 0 255 147 98 96 147 98 96 147 98 96 147 98 96 147 98 96 147 98 96 147 98 96 147 98 96 147 98 96 147 98 96 147 98 96 147 98 96 147 98 96 147 98 96 147 98 96 147 98 96 147 98 96 147 98 96 147 98 96 147 98 96 147 98 96 147 98 96 0 0 255 167 176 177 167 176 177 167 176 177 167 176 177 167 176 177 167 176 177 167 176 177 0 0 255 119 83 94 0 0 255 0 0 255 167 176 177 167 176 177 167 176 177 167 176 177 167 176 177 167 176 177 167 176 177 167 176 177 0 0 255 0 0 255 119 83 94 119 83 94 119 83 94 119 83 94 119 83 94 119 83 94 119 83 94 119 83 94 119 83 94 119 83 94 119 83 94 119 83 94 119 83 94 119 83 94 119 83 94 119 83 94 119 83 94 119 83 94 119 83 94 119 83 94 0 0 255 167 176 177 167 176 177 167 176 177 167 176 177 0 0 255 119 83 94 119 83 94 119 83 94 119 83 94 119 83 94 119 83 94 119 83 94 119 83 94 119 83 94 119 83 94 119 83 94 119 83 94 119 83 94 119 83 94 119 83 94 119 83 94 119 83 94 119 83 94 119 83 94 119 83 94 119 83 94 119 83 94 119 83 94 119 83 94 119 83 94 119 83 94 119 83 94 119 83 94 119 83 94 119 83 94 119 83 94 119 83 94 119 83 94 119 83 94 119 83 94 119 83 94 119 83 94 119 83 94 119 83 94 119 83 94 119 83 94 119 83 94 119 83 94 119 83 94 119 83 94 119 83 94 119 83 94 119 83 94 119 83 94 119 83 94 119 83 94 119 83 94 119 83 94 119 83 94 119 83 94 119 83 94 119 83 94 
164 196 214 164 196 214 164 196 214 164 196 214 164 196 214 164 196 214 164 196 214 164 196 214 164 196 214 164 196 214 164 196 214 164 196 214 164 196 214 164 196 214 164 196 214 164 196 214 164 196 214 164 196 214 164 196 214 164 196 214 164 196 214 164 196 214 0 0 255 164 196 214 164 196 214 164 196 214 164 196 214 164 196 214 164 196 214 164 196 214 164 196 214 0 0 255 147 98 96 147 98 96 147 98 96 147 98 96 147 98 96 147 98 96 147 98 96 147 98 96 147 98 96 147 98 96 147 98 96 147 98 96 147 98 96 147 98 96 147 98 96 147 98 96 147 98 96 147 98 96 147 98 96 147 98 96 147 98 96 147 98 96 147 98 96 147 98 96 147 98 96 147 98 96 147 98 96 147 98 96 147 98 96 147 98 96 147 98 96 147 98 96 147 98 96 147 98 96 147 98 96 147 98 96 147 98 96 147 98 96 147 98 96 147 98 96 147 98 96 147 98 96 147 98 96 147 98 96 147 98 96 147 98 96 147 98 96 147 98 96 147 98 96 147 98 96 147 98 96 147 98 96 147 98 96 147 98 96 147 98 96 147 98 96 147 98 96 147 98 96 147 98 96 147 98 96 147 98 96 147 98 96 147 98 96 147 98 96 147 98 96 147 98 96 147 98 96 147 98 96 147 98 96 147 98 96 147 98 96 147 98 96 147 98 96 147 98 96 147 98 96 147 98 96 147 98 96 147 98 96 147 98 96 147 98 96 147 98 96 147 98 96 0 0 255 0 0 255 147 98 96 147 98 96 147 98 96 147 98 96 147 98 96 147 98 96 147 98 96 147 98 96 147 98 96 0 0 255 167 176 177 167 176 177 0 0 255 147 98 96 147 98 96 147 98 96 147 98 96 147 98 96 0 0 255 147 98 96 147 98 96 147 98 96 147 98 96 147 98 96 147 98 96 147 98 96 147 98 96 147 98 96 147 98 96 147 98 96 147 98 96 147 98 96 147 98 96 147 98 96 147 98 96 0 0 255 167 176 177 167 176 177 167 176 177 167 176 177 167 176 177 167 176 177 167 176 177 0 0 255 0 0 255 167 176 177 167 176 177 167 176 177 167 176 177 167 176 177 167 176 177 167 176 177 167 176 177 167 176 177 167 176 177 167 176 177 0 0 255 119 83 94 119 83 94 119 83 94 119 83 94 119 83 94 119 83 94 119 83 94 119 83 94 119 83 94 119 83 94 119 83 94 119 83 94 119 83 94 119 83 94 119 83 94 119 83 94 119 83 94 119 83 94 119 83 94 119 83 94 0 0 255 167 176 177 167 176 177 167 176 177 167 176 177 0 0 255 119 83 94 119 83 94 119 83 94 119 83 94 119 83 94 119 83 94 119 83 94 119 83 94 119 83 94 119 83 94 119 83 94 119 83 94 119 83 94 119 83 94 119 83 94 119 83 94 119 83 94 119 83 94 119 83 94 119 83 94 119 83 94 119 83 94 119 83 94 119 83 94 119 83 94 119 83 94 119 83 94 119 83 94 119 83 94 119 83 94 119 83 94 119 83 94 119 83 94 119 83 94 119 83 94 119 83 94 119 83 94 119 83 94 119 83 94 119 83 94 119 83 94 119 83 94 119 83 94 119 83 94 119 83 94 119 83 94 119 83 94 119 83 94 119 83 94 119 83 94 119 83 94 119 83 94 119 83 94 119 83 94 119 83 94 119 83 94 119 83 94 
164 196 214 164 196 214 164 196 214 164 196 214 164 196 214 164 196 214 164 196 214 164 196 214 164 196 214 164 196 214 164 196 214 164 196 214 164 196 214 164 196 214 164 196 214 164 196 214 164 196 214 164 196 214 164 196 214 164 196 214 164 196 214 0 0 255 0 0 255 164 196 214 164 196 214 164 196 214 164 196 214 164 196 214 164 196 214 164 196 214 0 0 255 147 98 96 147 98 96 147 98 96 147 98 96 147 98 96 147 98 96 147 98 96 147 98 96 147 98 96 147 98 96 147 98 96 147 98 96 147 98 96 147 98 96 147 98 96 147 98 96 147 98 96 147 98 96 147 98 96 147 98 96 147 98 96 147 98 96 147 98 96 147 98 96 147 98 96 147 98 96 147 98 96 147 98 96 147 98 96 147 98 96 147 98 96 147 98 96 147 98 96 147 98 96 147 98 96 147 98 96 147 98 96 147 98 96 147 98 96 147 98 96 147 98 96 147 98 96 147 98 96 147 98 96 147 98 96 147 98 96 147 98 96 147 98 96 147 98 96 147 98 96 147 98 96 147 98 96 147 98 96 147 98 96 147 98 96 147 98 96 147 98 96 147 98 96 147 98 96 147 98 96 147 98 96 147 98 96 147 98 96 147 98 96 147 98 96 147 98 96 147 98 96 147 98 96 147 98 96 147 98 96 147 98 96 147 98 96 147 98 96 147 98 96 147 98 96 147 98 96 147 98 96 147 98 96 147 98 96 147 98 96 147 98 96 147 98 96 147 98 96 0 0 255 0 0 255 147 98 96 147 98 96 147 98 96 147 98 96 147 98 96 147 98 96 147 98 96 147 98 96 147 98 96 0 0 255 167 176 177 167 176 177 0 0 255 0 0 255 147 98 96 147 98 96 147 98 96 0 0 255 0 0 255 0 0 255 147 98 96 147 98 96 147 98 96 147 98 96 147 98 96 147 98 96 147 98 96 147 98 96 147 98 96 147 98 96 147 98 96 147 98 96 147 98 96 147 98 96 147 98 96 0 0 255 167 176 177 167 176 177 167 176 177 167 176 177 167 176 177 167 176 177 167 176 177 0 0 255 0 0 255 167 176 177 167 176 177 167 176 177 167 176 177 167 176 177 167 176 177 167 176 177 167 176 177 167 176 177 167 176 177 167 176 177 0 0 255 119 83 94 119 83 94 119 83 94 119 83 94 119 83 94 119 83 94 119 83 94 119 83 94 119 83 94 119 83 94 119 83 94 119 83 94 119 83 94 119 83 94 119 83 94 119 83 94 119 83 94 119 83 94 119 83 94 119 83 94 0 0 255 167 176 177 167 176 177 167 176 177 167 176 177 0 0 255 119 83 94 119 83 94 119 83 94 119 83 94 119 83 94 119 83 94 119 83 94 119 83 94 119 83 94 119 83 94 119 83 94 119 83 94 119 83 94 119 83 94 119 83 94 119 83 94 119 83 94 119 83 94 119 83 94 119 83 94 119 83 94 119 83 94 119 83 94 119 83 94 119 83 94 119 83 94 119 83 94 119 83 94 119 83 94 119 83 94 119 83 94 119 83 94 119 83 94 119 83 94 119 83 94 119 83 94 119 83 94 119 83 94 119 83 94 119 83 94 119 83 94 119 83 94 119 83 94 119 83 94 119 83 94 119 83 94 119 83 94 119 83 94 119 83 94 119 83 94 119 83 94 119 83 94 119 83 94 119 83 94 119 83 94 119 83 94 119 83 94 
164 196 214 164 196 214 164 196 214 164 196 214 164 196 214 164 196 214 164 196 214 164 196 214 164 196 214 164 196 214 164 196 214 164 196 214 164 196 214 164 196 214 164 196 214 164 196 214 164 196 214 164 196 214 164 196 214 164 196 214 0 0 255 0 0 255 164 196 214 164 196 214 164 196 214 164 196 214 164 196 214 164 196 214 164 196 214 0 0 255 147 98 96 147 98 96 147 98 96 147 98 96 147 98 96 147 98 96 147 98 96 147 98 96 147 98 96 147 98 96 147 98 96 147 98 96 147 98 96 147 98 96 147 98 96 147 98 96 147 98 96 147 98 96 147 98 96 147 98 96 147 98 96 147 98 96 147 98 96 147 98 96 147 98 96 147 98 96 147 98 96 147 98 96 147 98 96 147 98 96 147 98 96 147 98 96 147 98 96 147 98 96 147 98 96 147 98 96 147 98 96 147 98 96 147 98 96 147 98 96 147 98 96 147 98 96 147 98 96 147 98 96 147 98 96 147 98 96 147 98 96 147 98 96 147 98 96 147 98 96 147 98 96 147 98 96 147 98 96 147 98 96 147 98 96 147 98 96 147 98 96 147 98 96 147 98 96 147 98 96 147 98 96 147 98 96 147 98 96 147 98 96 147 98 96 147 98 96 147 98 96 147 98 96 147 98 96 147 98 96 147 98 96 147 98 96 147 98 96 147 98 96 147 98 96 147 98 96 147 98 96 147 98 96 147 98 96 147 98 96 147 98 96 147 98 96 147 98 96 0 0 255 167 176 177 0 0 255 0 0 255 147 98 96 147 98 96 147 98 96 147 98 96 147 98 96 147 98 96 147 98 96 147 98 96 0 0 255 167 176 177 167 176 177 167 176 177 0 0 255 147 98 96 147 98 96 147 98 96 0 0 255 167 176 177 0 0 255 147 98 96 147 98 96 147 98 96 147 98 96 147 98 96 147 98 96 147 98 96 147 98 96 147 98 96 147 98 96 147 98 96 147 98 96 147 98 96 147 98 96 147 98 96 0 0 255 167 176 177 167 176 177 167 176 177 167 176 177 167 176 177 167 176 177 167 176 177 167 176 177 167 176 177 167 176 177 167 176 177 167 176 177 167 176 177 167 176 177 167 176 177 167 176 177 167 176 177 167 176 177 167 176 177 167 176 177 0 0 255 119 83 94 119 83 94 119 83 94 119 83 94 119 83 94 119 83 94 119 83 94 119 83 94 119 83 94 119 83 94 119 83 94 119 83 94 119 83 94 119 83 94 119 83 94 119 83 94 119 83 94 119 83 94 119 83 94 119 83 94 0 0 255 167 176 177 167 176 177 167 176 177 167 176 177 0 0 255 119 83 94 119 83 94 119 83 94 119 83 94 119 83 94 119 83 94 119 83 94 119 83 94 119 83 94 119 83 94 119 83 94 119 83 94 119 83 94 119 83 94 119 83 94 119 83 94 119 83 94 119 83 94 119 83 94 119 83 94 119 83 94 119 83 94 119 83 94 119 83 94 119 83 94 119 83 94 119 83 94 119 83 94 119 83 94 119 83 94 119 83 94 119 83 94 119 83 94 119 83 94 119 83 94 119 83 94 119 83 94 119 83 94 119 83 94 119 83 94 119 83 94 119 83 94 119 83 94 119 83 94 119 83 94 119 83 94 119 83 94 119 83 94 119 83 94 119 83 94 119 83 94 119 83 94 119 83 94 119 83 94 119 83 94 119 83 94 119 83 94 
164 196 214 164 196 214 164 196 214 164 196 214 164 196 214 164 196 214 164 196 214 164 196 214 164 196 214 164 196 214 164 196 214 164 196 214 164 196 214 164 196 214 164 196 214 164 196 214 164 196 214 164 196 214 164 196 214 0 0 255 0 0 255 164 196 214 164 196 214 164 196 214 164 196 214 164 196 214 164 196 214 164 196 214 164 196 214 0 0 255 147 98 96 147 98 96 147 98 96 147 98 96 147 98 96 147 98 96 147 98 96 147 98 96 147 98 96 147 98 96 147 98 96 147 98 96 147 98 96 147 98 96 147 98 96 147 98 96 147 98 96 147 98 96 147 98 96 147 98 96 147 98 96 147 98 96 147 98 96 147 98 96 147 98 96 147 98 96 147 98 96 147 98 96 147 98 96 147 98 96 147 98 96 147 98 96 147 98 96 147 98 96 147 98 96 147 98 96 147 98 96 147 98 96 147 98 96 147 98 96 147 98 96 147 98 96 147 98 96 147 98 96 147 98 96 147 98 96 147 98 96 147 98 96 147 98 96 147 98 96 147 98 96 147 98 96 147 98 96 147 98 96 147 98 96 147 98 96 147 98 96 147 98 96 147 98 96 147 98 96 147 98 96 147 98 96 147 98 96 147 98 96 147 98 96 147 98 96 147 98 96 147 98 96 147 98 96 147 98 96 147 98 96 147 98 96 147 98 96 147 98 96 147 98 96 147 98 96 147 98 96 147 98 96 147 98 96 147 98 96 147 98 96 147 98 96 147 98 96 0 0 255 167 176 177 167 176 177 0 0 255 147 98 96 147 98 96 147 98 96 147 98 96 147 98 96 147 98 96 147 98 96 0 0 255 167 176 177 167 176 177 167 176 177 167 176 177 0 0 255 147 98 96 147 98 96 0 0 255 0 0 255 167 176 177 0 0 255 147 98 96 147 98 96 147 98 96 147 98 96 147 98 96 147 98 96 147 98 96 147 98 96 147 98 96 147 98 96 147 98 96 147 98 96 147 98 96 147 98 96 147 98 96 0 0 255 167 176 177 167 176 177 167 176 177 167 176 177 167 176 177 167 176 177 167 176 177 167 176 177 167 176 177 167 176 177 167 176 177 167 176 177 167 176 177 167 176 177 167 176 177 167 176 177 167 176 177 167 176 177 167 176 177 167 176 177 0 0 255 119 83 94 119 83 94 119 83 94 119 83 94 119 83 94 119 83 94 119 83 94 119 83 94 119 83 94 119 83 94 119 83 94 119 83 94 119 83 94 119 83 94 119 83 94 119 83 94 119 83 94 119 83 94 119 83 94 119 83 94 0 0 255 167 176 177 167 176 177 167 176 177 167 176 177 0 0 255 119 83 94 119 83 94 119 83 94 119 83 94 119 83 94 119 83 94 119 83 94 119 83 94 119 83 94 119 83 94 119 83 94 119 83 94 119 83 94 119 83 94 119 83 94 119 83 94 119 83 94 119 83 94 119 83 94 119 83 94 119 83 94 119 83 94 119 83 94 119 83 94 119 83 94 119 83 94 119 83 94 119 83 94 119 83 94 119 83 94 119 83 94 119 83 94 119 83 94 119 83 94 119 83 94 119 83 94 119 83 94 119 83 94 119 83 94 119 83 94 119 83 94 119 83 94 119 83 94 119 83 94 119 83 94 119 83 94 119 83 94 119 83 94 119 83 94 119 83 94 119 83 94 119 83 94 119 83 94 119 83 94 119 83 94 119 83 94 119 83 94 
164 196 214 164 196 214 164 196 214 164 196 214 164 196 214 164 196 214 164 196 214 164 196 214 164 196 214 164 196 214 164 196 214 164 196 214 164 196 214 164 196 214 164 196 214 164 196 214 164 196 214 164 196 214 0 0 255 0 0 255 164 196 214 164 196 214 164 196 214 164 196 214 164 196 214 164 196 214 164 196 214 164 196 214 0 0 255 147 98 96 147 98 96 147 98 96 147 98 96 147 98 96 147 98 96 147 98 96 147 98 96 147 98 96 147 98 96 147 98 96 147 98 96 147 98 96 147 98 96 147 98 96 147 98 96 147 98 96 147 98 96 147 98 96 147 98 96 147 98 96 147 98 96 147 98 96 147 98 96 147 98 96 147 98 96 147 98 96 147 98 96 147 98 96 147 98 96 147 98 96 147 98 96 147 98 96 147 98 96 147 98 96 147 98 96 147 98 96 147 98 96 147 98 96 147 98 96 147 98 96 147 98 96 147 98 96 147 98 96 147 98 96 147 98 96 147 98 96 147 98 96 147 98 96 147 98 96 147 98 96 147 98 96 147 98 96 147 98 96 147 98 96 147 98 96 147 98 96 147 98 96 147 98 96 147 98 96 147 98 96 147 98 96 147 98 96 147 98 96 147 98 96 147 98 96 147 98 96 147 98 96 147 98 96 147 98 96 147 98 96 147 98 96 147 98 96 147 98 96 147 98 96 147 98 96 147 98 96 147 98 96 147 98 96 147 98 96 147 98 96 147 98 96 147 98 96 147 98 96 0 0 255 167 176 177 167 176 177 0 0 255 0 0 255 147 98 96 147 98 96 147 98 96 147 98 96 147 98 96 147 98 96 0 0 255 167 176 177 167 176 177 167 176 177 167 176 177 0 0 255 147 98 96 147 98 96 147 98 96 0 0 255 167 176 177 0 0 255 147 98 96 147 98 96 147 98 96 147 98 96 147 98 96 147 98 96 147 98 96 147 98 96 147 98 96 147 98 96 147 98 96 147 98 96 147 98 96 147 98 96 147 98 96 0 0 255 167 176 177 167 176 177 167 176 177 167 176 177 167 176 177 167 176 177 167 176 177 167 176 177 167 176 177 167 176 177 167 176 177 167 176 177 167 176 177 167 176 177 167 176 177 167 176 177 167 176 177 167 176 177 167 176 177 167 176 177 0 0 255 119 83 94 119 83 94 119 83 94 119 83 94 119 83 94 119 83 94 119 83 94 119 83 94 119 83 94 119 83 94 119 83 94 119 83 94 119 83 94 119 83 94 119 83 94 119 83 94 119 83 94 119 83 94 119 83 94 119 83 94 0 0 255 167 176 177 167 176 177 167 176 177 167 176 177 0 0 255 119 83 94 119 83 94 119 83 94 119 83 94 119 83 94 119 83 94 119 83 94 119 83 94 119 83 94 119 83 94 119 83 94 119 83 94 119 83 94 119 83 94 119 83 94 119 83 94 119 83 94 119 83 94 119 83 94 119 83 94 119 83 94 119 83 94 119 83 94 119 83 94 119 83 94 119 83 94 119 83 94 119 83 94 119 83 94 119 83 94 119 83 94 119 83 94 119 83 94 119 83 94 119 83 94 119 83 94 119 83 94 119 83 94 119 83 94 119 83 94 119 83 94 119 83 94 119 83 94 119 83 94 119 83 94 119 83 94 119 83 94 119 83 94 119 83 94 119 83 94 119 83 94 119 83 94 119 83 94 119 83 94 119 83 94 119 83 94 119 83 94 
164 196 214 164 196 214 164 196 214 164 196 214 164 196 214 164 196 214 164 196 214 164 196 214 164 196 214 164 196 214 164 196 214 164 196 214 164 196 214 164 196 214 164 196 214 164 196 214 164 196 214 0 0 255 0 0 255 164 196 214 164 196 214 164 196 214 164 196 214 164 196 214 164 196 214 164 196 214 164 196 214 164 196 214 0 0 255 0 0 255 147 98 96 0 0 255 147 98 96 147 98 96 147 98 96 147 98 96 147 98 96 147 98 96 147 98 96 147 98 96 147 98 96 147 98 96 147 98 96 147 98 96 147 98 96 147 98 96 147 98 96 147 98 96 147 98 96 147 98 96 147 98 96 147 98 96 147 98 96 147 98 96 147 98 96 147 98 96 147 98 96 147 98 96 147 98 96 147 98 96 147 98 96 147 98 96 147 98 96 147 98 96 147 98 96 147 98 96 147 98 96 147 98 96 147 98 96 147 98 96 147 98 96 147 98 96 147 98 96 147 98 96 147 98 96 147 98 96 147 98 96 147 98 96 147 98 96 147 98 96 147 98 96 147 98 96 147 98 96 147 98 96 147 98 96 147 98 96 147 98 96 147 98 96 147 98 96 147 98 96 147 98 96 147 98 96 147 98 96 147 98 96 147 98 96 147 98 96 147 98 96 147 98 96 147 98 96 147 98 96 147 98 96 147 98 96 147 98 96 147 98 96 147 98 96 147 98 96 147 98 96 147 98 96 147 98 96 147 98 96 147 98 96 147 98 96 147 98 96 0 0 255 167 176 177 167 176 177 167 176 177 0 0 255 147 98 96 147 98 96 147 98 96 147 98 96 147 98 96 147 98 96 0 0 255 167 176 177 167 176 177 167 176 177 167 176 177 0 0 255 147 98 96 147 98 96 0 0 255 167 176 177 167 176 177 0 0 255 147 98 96 147 98 96 147 98 96 147 98 96 147 98 96 147 98 96 147 98 96 147 98 96 147 98 96 147 98 96 147 98 96 147 98 96 147 98 96 147 98 96 147 98 96 0 0 255 167 176 177 167 176 177 167 176 177 167 176 177 167 176 177 167 176 177 167 176 177 167 176 177 167 176 177 167 176 177 167 176 177 167 176 177 167 176 177 167 176 177 167 176 177 167 176 177 167 176 177 167 176 177 167 176 177 167 176 177 0 0 255 0 0 255 119 83 94 119 83 94 119 83 94 119 83 94 119 83 94 119 83 94 119 83 94 119 83 94 119 83 94 119 83 94 119 83 94 119 83 94 119 83 94 119 83 94 119 83 94 119 83 94 119 83 94 119 83 94 119 83 94 0 0 255 167 176 177 167 176 177 167 176 177 167 176 177 0 0 255 119 83 94 119 83 94 119 83 94 119 83 94 119 83 94 119 83 94 119 83 94 119 83 94 119 83 94 119 83 94 119 83 94 119 83 94 119 83 94 119 83 94 119 83 94 119 83 94 119 83 94 119 83 94 119 83 94 119 83 94 119 83 94 119 83 94 119 83 94 119 83 94 119 83 94 119 83 94 119 83 94 119 83 94 119 83 94 119 83 94 119 83 94 119 83 94 119 83 94 119 83 94 119 83 94 119 83 94 119 83 94 119 83 94 119 83 94 119 83 94 119 83 94 119 83 94 119 83 94 119 83 94 119 83 94 119 83 94 119 83 94 119 83 94 119 83 94 119 83 94 119 83 94 119 83 94 119 83 94 119 83 94 119 83 94 119 83 94 119 83 94 
164 196 214 164 196 214 164 196 214 164 196 214 164 196 214 164 196 214 164 196 214 164 196 214 164 196 214 164 196 214 164 196 214 164 196 214 164 196 214 164 196 214 164 196 214 164 196 214 164 196 214 164 196 214 164 196 214 164 196 214 164 196 214 164 196 214 164 196 214 164 196 214 164 196 214 164 196 214 164 196 214 164 196 214 164 196 214 0 0 255 0 0 255 0 0 255 0 0 255 0 0 255 147 98 96 147 98 96 147 98 96 0 0 255 147 98 96 147 98 96 147 98 96 147 98 96 147 98 96 147 98 96 147 98 96 147 98 96 147 98 96 147 98 96 147 98 96 147 98 96 147 98 96 147 98 96 147 98 96 147 98 96 147 98 96 147 98 96 147 98 96 147 98 96 147 98 96 147 98 96 147 98 96 147 98 96 147 98 96 147 98 96 147 98 96 147 98 96 147 98 96 147 98 96 147 98 96 147 98 96 147 98 96 147 98 96 147 98 96 147 98 96 147 98 96 147 98 96 147 98 96 147 98 96 147 98 96 147 98 96 147 98 96 147 98 96 147 98 96 147 98 96 147 98 96 147 98 96 147 98 96 147 98 96 147 98 96 147 98 96 147 98 96 147 98 96 147 98 96 147 98 96 147 98 96 147 98 96 147 98 96 147 98 96 147 98 96 147 98 96 147 98 96 147 98 96 147 98 96 147 98 96 147 98 96 147 98 96 147 98 96 147 98 96 147 98 96 147 98 96 147 98 96 147 98 96 147 98 96 0 0 255 167 176 177 167 176 177 167 176 177 0 0 255 147 98 96 147 98 96 147 98 96 147 98 96 147 98 96 147 98 96 0 0 255 167 176 177 167 176 177 167 176 177 167 176 177 0 0 255 0 0 255 147 98 96 0 0 255 167 176 177 167 176 177 0 0 255 147 98 96 147 98 96 147 98 96 147 98 96 147 98 96 147 98 96 147 98 96 147 98 96 147 98 96 147 98 96 147 98 96 147 98 96 147 98 96 147 98 96 147 98 96 0 0 255 167 176 177 167 176 177 167 176 177 167 176 177 167 176 177 167 176 177 167 176 177 167 176 177 167 176 177 167 176 177 167 176 177 167 176 177 167 176 177 167 176 177 167 176 177 167 176 177 167 176 177 167 176 177 167 176 177 167 176 177 167 176 177 0 0 255 119 83 94 119 83 94 119 83 94 119 83 94 119 83 94 119 83 94 119 83 94 119 83 94 119 83 94 119 83 94 119 83 94 119 83 94 119 83 94 119 83 94 119 83 94 119 83 94 119 83 94 119 83 94 119 83 94 0 0 255 167 176 177 167 176 177 167 176 177 167 176 177 0 0 255 119 83 94 119 83 94 119 83 94 119 83 94 119 83 94 119 83 94 119 83 94 119 83 94 119 83 94 119 83 94 119 83 94 119 83 94 119 83 94 119 83 94 119 83 94 119 83 94 119 83 94 119 83 94 119 83 94 119 83 94 119 83 94 119 83 94 119 83 94 119 83 94 119 83 94 119 83 94 119 83 94 119 83 94 119 83 94 119 83 94 119 83 94 119 83 94 119 83 94 119 83 94 119 83 94 119 83 94 119 83 94 119 83 94 119 83 94 119 83 94 119 83 94 119 83 94 119 83 94 119 83 94 119 83 94 119 83 94 119 83 94 119 83 94 119 83 94 119 83 94 119 83 94 119 83 94 119 83 94 119 83 94 119 83 94 119 83 94 119 83 94 
164 196 214 164 196 214 164 196 214 164 196 214 164 196 214 164 196 214 164 196 214 164 196 214 164 196 214 164 196 214 164 196 214 164 196 214 164 196 214 164 196 214 164 196 214 164 196 214 164 196 214 164 196 214 164 196 214 164 196 214 164 196 214 164 196 214 164 196 214 164 196 214 164 196 214 164 196 214 164 196 214 164 196 214 164 196 214 164 196 214 164 196 214 164 196 214 164 196 214 0 0 255 0 0 255 147 98 96 0 0 255 0 0 255 147 98 96 147 98 96 147 98 96 147 98 96 147 98 96 147 98 96 147 98 96 147 98 96 147 98 96 147 98 96 147 98 96 147 98 96 147 98 96 147 98 96 147 98 96 147 98 96 147 98 96 147 98 96 147 98 96 147 98 96 147 98 96 147 98 96 147 98 96 147 98 96 147 98 96 147 98 96 147 98 96 147 98 96 147 98 96 147 98 96 147 98 96 147 98 96 147 98 96 147 98 96 147 98 96 147 98 96 147 98 96 147 98 96 147 98 96 147 98 96 147 98 96 147 98 96 147 98 96 147 98 96 147 98 96 147 98 96 147 98 96 147 98 96 147 98 96 147 98 96 147 98 96 147 98 96 147 98 96 147 98 96 147 98 96 147 98 96 147 98 96 147 98 96 147 98 96 147 98 96 147 98 96 147 98 96 147 98 96 147 98 96 147 98 96 147 98 96 147 98 96 147 98 96 147 98 96 147 98 96 147 98 96 147 98 96 147 98 96 147 98 96 147 98 96 0 0 255 167 176 177 167 176 177 167 176 177 0 0 255 147 98 96 147 98 96 147 98 96 147 98 96 147 98 96 147 98 96 0 0 255 167 176 177 167 176 177 167 176 177 167 176 177 167 176 177 0 0 255 0 0 255 167 176 177 167 176 177 167 176 177 0 0 255 0 0 255 147 98 96 147 98 96 147 98 96 147 98 96 147 98 96 147 98 96 147 98 96 147 98 96 147 98 96 147 98 96 147 98 96 147 98 96 147 98 96 147 98 96 0 0 255 167 176 177 167 176 177 167 176 177 167 176 177 167 176 177 167 176 177 167 176 177 167 176 177 167 176 177 167 176 177 167 176 177 167 176 177 167 176 177 167 176 177 167 176 177 167 176 177 167 176 177 167 176 177 167 176 177 167 176 177 0 0 255 119 83 94 119 83 94 119 83 94 119 83 94 119 83 94 119 83 94 119 83 94 119 83 94 119 83 94 119 83 94 119 83 94 119 83 94 119 83 94 119 83 94 119 83 94 119 83 94 119 83 94 119 83 94 119 83 94 119 83 94 0 0 255 167 176 177 167 176 177 167 176 177 167 176 177 0 0 255 119 83 94 119 83 94 119 83 94 119 83 94 119 83 94 119 83 94 119 83 94 119 83 94 119 83 94 119 83 94 119 83 94 119 83 94 119 83 94 119 83 94 119 83 94 119 83 94 119 83 94 119 83 94 119 83 94 119 83 94 119 83 94 119 83 94 119 83 94 119 83 94 119 83 94 119 83 94 119 83 94 119 83 94 119 83 94 119 83 94 119 83 94 119 83 94 119 83 94 119 83 94 119 83 94 119 83 94 119 83 94 119 83 94 119 83 94 119 83 94 119 83 94 119 83 94 119 83 94 119 83 94 119 83 94 119 83 94 119 83 94 119 83 94 119 83 94 119 83 94 119 83 94 119 83 94 119 83 94 119 83 94 119 83 94 119 83 94 119 83 94 
164 196 214 164 196 214 164 196 214 164 196 214 164 196 214 164 196 214 164 196 214 164 196 214 164 196 214 164 196 214 164 196 214 164 196 214 164 196 214 164 196 214 164 196 214 164 196 214 164 196 214 164 196 214 164 196 214 164 196 214 164 196 214 164 196 214 164 196 214 164 196 214 164 196 214 164 196 214 164 196 214 164 196 214 164 196 214 164 196 214 164 196 214 164 196 214 164 196 214 164 196 214 0 0 255 0 0 255 164 196 214 0 0 255 147 98 96 147 98 96 147 98 96 147 98 96 147 98 96 147 98 96 147 98 96 147 98 96 147 98 96 147 98 96 147 98 96 147 98 96 147 98 96 147 98 96 147 98 96 147 98 96 147 98 96 147 98 96 147 98 96 147 98 96 147 98 96 147 98 96 147 98 96 147 98 96 147 98 96 147 98 96 147 98 96 147 98 96 147 98 96 147 98 96 147 98 96 147 98 96 147 98 96 147 98 96 147 98 96 147 98 96 147 98 96 147 98 96 147 98 96 147 98 96 147 98 96 147 98 96 147 98 96 147 98 96 147 98 96 147 98 96 147 98 96 147 98 96 147 98 96 147 98 96 147 98 96 147 98 96 147 98 96 147 98 96 147 98 96 147 98 96 147 98 96 147 98 96 147 98 96 147 98 96 147 98 96 147 98 96 147 98 96 147 98 96 147 98 96 147 98 96 147 98 96 147 98 96 147 98 96 147 98 96 147 98 96 147 98 96 147 98 96 147 98 96 0 0 255 167 176 177 167 176 177 167 176 177 167 176 177 0 0 255 147 98 96 147 98 96 147 98 96 147 98 96 147 98 96 147 98 96 0 0 255 167 176 177 167 176 177 167 176 177 167 176 177 167 176 177 0 0 255 0 0 255 167 176 177 167 176 177 167 176 177 167 176 177 0 0 255 147 98 96 147 98 96 147 98 96 147 98 96 147 98 96 147 98 96 147 98 96 147 98 96 147 98 96 147 98 96 147 98 96 147 98 96 147 98 96 147 98 96 0 0 255 167 176 177 167 176 177 167 176 177 167 176 177 167 176 177 167 176 177 167 176 177 167 176 177 167 176 177 167 176 177 167 176 177 167 176 177 167 176 177 167 176 177 167 176 177 167 176 177 167 176 177 167 176 177 167 176 177 167 176 177 0 0 255 119 83 94 119 83 94 119 83 94 119 83 94 119 83 94 119 83 94 119 83 94 119 83 94 119 83 94 119 83 94 119 83 94 119 83 94 119 83 94 119 83 94 119 83 94 119 83 94 119 83 94 119 83 94 119 83 94 119 83 94 0 0 255 167 176 177 167 176 177 167 176 177 167 176 177 0 0 255 119 83 94 119 83 94 119 83 94 119 83 94 119 83 94 119 83 94 119 83 94 119 83 94 119 83 94 119 83 94 119 83 94 119 83 94 119 83 94 119 83 94 119 83 94 119 83 94 119 83 94 119 83 94 119 83 94 119 83 94 119 83 94 119 83 94 119 83 94 119 83 94 119 83 94 119 83 94 119 83 94 119 83 94 119 83 94 119 83 94 119 83 94 119 83 94 119 83 94 119 83 94 119 83 94 119 83 94 119 83 94 119 83 94 119 83 94 119 83 94 119 83 94 119 83 94 119 83 94 119 83 94 119 83 94 119 83 94 119 83 94 119 83 94 119 83 94 119 83 94 119 83 94 119 83 94 119 83 94 119 83 94 119 83 94 119 83 94 119 83 94 
164 196 214 164 196 214 164 196 214 164 196 214 164 196 214 164 196 214 164 196 214 164 196 214 164 196 214 164 196 214 164 196 214 164 196 214 164 196 214 164 196 214 164 196 214 164 196 214 164 196 214 164 196 214 164 196 214 164 196 214 164 196 214 164 196 214 164 196 214 164 196 214 164 196 214 164 196 214 164 196 214 164 196 214 164 196 214 164 196 214 164 196 214 164 196 214 164 196 214 164 196 214 164 196 214 164 196 214 164 196 214 0 0 255 147 98 96 147 98 96 147 98 96 147 98 96 147 98 96 147 98 96 147 98 96 147 98 96 147 98 96 147 98 96 147 98 96 147 98 96 147 98 96 147 98 96 147 98 96 147 98 96 147 98 96 147 98 96 147 98 96 147 98 96 147 98 96 147 98 96 147 98 96 147 98 96 147 98 96 147 98 96 147 98 96 147 98 96 147 98 96 147 98 96 147 98 96 147 98 96 147 98 96 147 98 96 147 98 96 147 98 96 147 98 96 147 98 96 147 98 96 147 98 96 147 98 96 147 98 96 147 98 96 147 98 96 147 98 96 147 98 96 147 98 96 147 98 96 147 98 96 147 98 96 147 98 96 147 98 96 147 98 96 147 98 96 147 98 96 147 98 96 147 98 96 147 98 96 147 98 96 147 98 96 147 98 96 147 98 96 147 98 96 147 98 96 147 98 96 147 98 96 147 98 96 147 98 96 147 98 96 147 98 96 147 98 96 147 98 96 147 98 96 147 98 96 0 0 255 167 176 177 167 176 177 167 176 177 167 176 177 0 0 255 147 98 96 147 98 96 147 98 96 147 98 96 147 98 96 147 98 96 0 0 255 167 176 177 167 176 177 167 176 177 167 176 177 167 176 177 0 0 255 0 0 255 167 176 177 167 176 177 167 176 177 0 0 255 147 98 96 147 98 96 147 98 96 147 98 96 147 98 96 147 98 96 147 98 96 147 98 96 147 98 96 147 98 96 147 98 96 147 98 96 147 98 96 147 98 96 147 98 96 0 0 255 167 176 177 167 176 177 167 176 177 167 176 177 167 176 177 167 176 177 167 176 177 167 176 177 167 176 177 167 176 177 167 176 177 167 176 177 167 176 177 167 176 177 167 176 177 167 176 177 167 176 177 167 176 177 167 176 177 167 176 177 0 0 255 119 83 94 119 83 94 119 83 94 119 83 94 119 83 94 119 83 94 119 83 94 119 83 94 119 83 94 119 83 94 119 83 94 119 83 94 119 83 94 119 83 94 119 83 94 119 83 94 119 83 94 119 83 94 119 83 94 0 0 255 167 176 177 167 176 177 167 176 177 167 176 177 167 176 177 0 0 255 119 83 94 119 83 94 119 83 94 119 83 94 119 83 94 119 83 94 119 83 94 119 83 94 119 83 94 119 83 94 119 83 94 119 83 94 119 83 94 119 83 94 119 83 94 119 83 94 119 83 94 119 83 94 119 83 94 119 83 94 119 83 94 119 83 94 119 83 94 119 83 94 119 83 94 119 83 94 119 83 94 119 83 94 119 83 94 119 83 94 119 83 94 119 83 94 119 83 94 119 83 94 119 83 94 119 83 94 119 83 94 119 83 94 119 83 94 119 83 94 119 83 94 119 83 94 119 83 94 119 83 94 119 83 94 119 83 94 119 83 94 119 83 94 119 83 94 119 83 94 119 83 94 119 83 94 119 83 94 119 83 94 119 83 94 119 83 94 119 83 94 
164 196 214 164 196 214 164 196 214 164 196 214 164 196 214 164 196 214 164 196 214 164 196 214 164 196 214 164 196 214 164 196 214 164 196 214 164 196 214 164 196 214 164 196 214 164 196 214 164 196 214 164 196 214 164 196 214 164 196 214 164 196 214 164 196 214 164 196 214 164 196 214 164 196 214 164 196 214 164 196 214 164 196 214 164 196 214 164 196 214 164 196 214 164 196 214 164 196 214 164 196 214 164 196 214 164 196 214 164 196 214 0 0 255 147 98 96 147 98 96 147 98 96 147 98 96 147 98 96 147 98 96 147 98 96 147 98 96 147 98 96 147 98 96 147 98 96 147 98 96 147 98 96 147 98 96 147 98 96 147 98 96 147 98 96 147 98 96 147 98 96 147 98 96 147 98 96 147 98 96 147 98 96 147 98 96 147 98 96 147 98 96 147 98 96 147 98 96 147 98 96 147 98 96 147 98 96 147 98 96 147 98 96 147 98 96 147 98 96 147 98 96 147 98 96 147 98 96 147 98 96 147 98 96 147 98 96 147 98 96 147 98 96 147 98 96 147 98 96 147 98 96 147 98 96 147 98 96 147 98 96 147 98 96 147 98 96 147 98 96 147 98 96 147 98 96 147 98 96 147 98 96 147 98 96 147 98 96 147 98 96 147 98 96 147 98 96 147 98 96 147 98 96 147 98 96 147 98 96 147 98 96 147 98 96 147 98 96 147 98 96 147 98 96 147 98 96 147 98 96 147 98 96 147 98 96 0 0 255 167 176 177 167 176 177 167 176 177 167 176 177 0 0 255 0 0 255 147 98 96 147 98 96 147 98 96 147 98 96 147 98 96 0 0 255 167 176 177 167 176 177 167 176 177 167 176 177 167 176 177 0 0 255 0 0 255 167 176 177 167 176 177 167 176 177 0 0 255 147 98 96 147 98 96 147 98 96 147 98 96 147 98 96 147 98 96 147 98 96 147 98 96 147 98 96 147 98 96 147 98 96 147 98 96 147 98 96 147 98 96 147 98 96 0 0 255 167 176 177 167 176 177 167 176 177 167 176 177 167 176 177 167 176 177 167 176 177 167 176 177 167 176 177 167 176 177 167 176 177 167 176 177 167 176 177 167 176 177 167 176 177 167 176 177 167 176 177 167 176 177 167 176 177 167 176 177 0 0 255 119 83 94 119 83 94 119 83 94 119 83 94 119 83 94 119 83 94 119 83 94 119 83 94 119 83 94 119 83 94 119 83 94 119 83 94 119 83 94 119 83 94 119 83 94 119 83 94 119 83 94 119 83 94 119 83 94 0 0 255 167 176 177 167 176 177 167 176 177 167 176 177 167 176 177 0 0 255 119 83 94 119 83 94 119 83 94 119 83 94 119 83 94 119 83 94 119 83 94 119 83 94 119 83 94 119 83 94 119 83 94 119 83 94 119 83 94 119 83 94 119 83 94 119 83 94 119 83 94 119 83 94 119 83 94 119 83 94 119 83 94 119 83 94 119 83 94 119 83 94 119 83 94 119 83 94 119 83 94 119 83 94 119 83 94 119 83 94 119 83 94 119 83 94 119 83 94 119 83 94 119 83 94 119 83 94 119 83 94 119 83 94 119 83 94 119 83 94 119 83 94 119 83 94 119 83 94 119 83 94 119 83 94 119 83 94 119 83 94 119 83 94 119 83 94 119 83 94 119 83 94 119 83 94 119 83 94 119 83 94 119 83 94 119 83 94 119 83 94 
164 196 214 164 196 214 164 196 214 164 196 214 164 196 214 164 196 214 164 196 214 164 196 214 164 196 214 164 196 214 164 196 214 164 196 214 164 196 214 164 196 214 164 196 214 164 196 214 164 196 214 164 196 214 164 196 214 164 196 214 164 196 214 164 196 214 164 196 214 164 196 214 164 196 214 164 196 214 164 196 214 164 196 214 164 196 214 164 196 214 164 196 214 164 196 214 164 196 214 164 196 214 164 196 214 164 196 214 164 196 214 0 0 255 147 98 96 147 98 96 147 98 96 147 98 96 147 98 96 147 98 96 147 98 96 147 98 96 147 98 96 147 98 96 147 98 96 147 98 96 147 98 96 147 98 96 147 98 96 147 98 96 147 98 96 147 98 96 147 98 96 147 98 96 147 98 96 147 98 96 147 98 96 147 98 96 147 98 96 147 98 96 147 98 96 147 98 96 147 98 96 147 98 96 147 98 96 147 98 96 147 98 96 147 98 96 147 98 96 147 98 96 147 98 96 147 98 96 147 98 96 147 98 96 147 98 96 147 98 96 147 98 96 147 98 96 147 98 96 147 98 96 147 98 96 147 98 96 147 98 96 147 98 96 147 98 96 147 98 96 147 98 96 147 98 96 147 98 96 147 98 96 147 98 96 147 98 96 147 98 96 147 98 96 147 98 96 147 98 96 147 98 96 147 98 96 147 98 96 147 98 96 147 98 96 147 98 96 147 98 96 147 98 96 147 98 96 147 98 96 147 98 96 147 98 96 0 0 255 167 176 177 167 176 177 167 176 177 167 176 177 167 176 177 0 0 255 147 98 96 147 98 96 147 98 96 147 98 96 147 98 96 0 0 255 167 176 177 167 176 177 167 176 177 167 176 177 167 176 177 0 0 255 0 0 255 167 176 177 167 176 177 167 176 177 0 0 255 147 98 96 147 98 96 147 98 96 147 98 96 147 98 96 147 98 96 147 98 96 147 98 96 147 98 96 147 98 96 147 98 96 147 98 96 147 98 96 147 98 96 0 0 255 0 0 255 167 176 177 167 176 177 167 176 177 167 176 177 167 176 177 167 176 177 167 176 177 167 176 177 167 176 177 167 176 177 167 176 177 167 176 177 167 176 177 167 176 177 167 176 177 167 176 177 167 176 177 167 176 177 167 176 177 167 176 177 0 0 255 119 83 94 119 83 94 119 83 94 119 83 94 119 83 94 119 83 94 119 83 94 119 83 94 119 83 94 119 83 94 119 83 94 119 83 94 119 83 94 119 83 94 119 83 94 119 83 94 119 83 94 119 83 94 119 83 94 0 0 255 167 176 177 167 176 177 167 176 177 167 176 177 167 176 177 0 0 255 119 83 94 119 83 94 119 83 94 119 83 94 119 83 94 119 83 94 119 83 94 119 83 94 119 83 94 119 83 94 119 83 94 119 83 94 119 83 94 119 83 94 119 83 94 119 83 94 119 83 94 119 83 94 119 83 94 119 83 94 119 83 94 119 83 94 119 83 94 119 83 94 119 83 94 119 83 94 119 83 94 119 83 94 119 83 94 119 83 94 119 83 94 119 83 94 119 83 94 119 83 94 119 83 94 119 83 94 119 83 94 119 83 94 119 83 94 119 83 94 119 83 94 119 83 94 119 83 94 119 83 94 119 83 94 119 83 94 119 83 94 119 83 94 119 83 94 119 83 94 119 83 94 119 83 94 119 83 94 119 83 94 119 83 94 119 83 94 119 83 94 
164 196 214 164 196 214 164 196 214 164 196 214 164 196 214 164 196 214 164 196 214 164 196 214 164 196 214 164 196 214 164 196 214 164 196 214 164 196 214 164 196 214 164 196 214 164 196 214 164 196 214 164 196 214 164 196 214 164 196 214 164 196 214 164 196 214 164 196 214 164 196 214 164 196 214 164 196 214 0 0 255 0 0 255 0 0 255 0 0 255 164 196 214 164 196 214 0 0 255 0 0 255 0 0 255 0 0 255 164 196 214 0 0 255 147 98 96 147 98 96 147 98 96 147 98 96 147 98 96 147 98 96 147 98 96 147 98 96 147 98 96 147 98 96 147 98 96 147 98 96 147 98 96 147 98 96 147 98 96 147 98 96 147 98 96 147 98 96 147 98 96 147 98 96 0 0 255 147 98 96 147 98 96 147 98 96 147 98 96 147 98 96 147 98 96 147 98 96 147 98 96 147 98 96 147 98 96 147 98 96 147 98 96 147 98 96 147 98 96 147 98 96 147 98 96 147 98 96 147 98 96 147 98 96 147 98 96 147 98 96 147 98 96 147 98 96 147 98 96 147 98 96 147 98 96 147 98 96 147 98 96 147 98 96 147 98 96 147 98 96 147 98 96 147 98 96 147 98 96 147 98 96 147 98 96 147 98 96 147 98 96 147 98 96 147 98 96 147 98 96 147 98 96 147 98 96 147 98 96 147 98 96 147 98 96 147 98 96 147 98 96 147 98 96 147 98 96 147 98 96 147 98 96 147 98 96 0 0 255 167 176 177 167 176 177 167 176 177 167 176 177 167 176 177 0 0 255 147 98 96 147 98 96 147 98 96 147 98 96 147 98 96 0 0 255 167 176 177 167 176 177 167 176 177 167 176 177 167 176 177 0 0 255 0 0 255 167 176 177 167 176 177 167 176 177 0 0 255 147 98 96 147 98 96 147 98 96 147 98 96 147 98 96 147 98 96 147 98 96 147 98 96 147 98 96 147 98 96 147 98 96 147 98 96 147 98 96 147 98 96 147 98 96 0 0 255 167 176 177 167 176 177 167 176 177 167 176 177 167 176 177 167 176 177 167 176 177 167 176 177 167 176 177 167 176 177 167 176 177 167 176 177 167 176 177 167 176 177 167 176 177 167 176 177 167 176 177 167 176 177 167 176 177 167 176 177 0 0 255 119 83 94 119 83 94 119 83 94 119 83 94 119 83 94 119 83 94 119 83 94 119 83 94 119 83 94 119 83 94 119 83 94 119 83 94 119 83 94 119 83 94 119 83 94 119 83 94 119 83 94 119 83 94 119 83 94 0 0 255 167 176 177 167 176 177 167 176 177 167 176 177 167 176 177 0 0 255 119 83 94 119 83 94 119 83 94 119 83 94 119 83 94 119 83 94 119 83 94 119 83 94 119 83 94 119 83 94 119 83 94 119 83 94 119 83 94 119 83 94 119 83 94 119 83 94 119 83 94 119 83 94 119 83 94 119 83 94 119 83 94 119 83 94 119 83 94 119 83 94 119 83 94 119 83 94 119 83 94 119 83 94 119 83 94 119 83 94 119 83 94 119 83 94 119 83 94 119 83 94 119 83 94 119 83 94 119 83 94 119 83 94 119 83 94 119 83 94 119 83 94 119 83 94 119 83 94 119 83 94 119 83 94 119 83 94 119 83 94 119 83 94 119 83 94 119 83 94 119 83 94 119 83 94 119 83 94 119 83 94 119 83 94 119 83 94 119 83 94 
164 196 214 164 196 214 164 196 214 164 196 214 164 196 214 164 196 214 164 196 214 164 196 214 164 196 214 164 196 214 164 196 214 164 196 214 164 196 214 164 196 214 164 196 214 164 196 214 164 196 214 164 196 214 164 196 214 164 196 214 164 196 214 164 196 214 0 0 255 0 0 255 0 0 255 0 0 255 147 98 96 147 98 96 147 98 96 0 0 255 0 0 255 0 0 255 147 98 96 147 98 96 147 98 96 0 0 255 0 0 255 147 98 96 147 98 96 147 98 96 147 98 96 147 98 96 147 98 96 147 98 96 147 98 96 147 98 96 147 98 96 147 98 96 147 98 96 147 98 96 147 98 96 147 98 96 147 98 96 147 98 96 147 98 96 147 98 96 147 98 96 0 0 255 0 0 255 147 98 96 147 98 96 147 98 96 147 98 96 147 98 96 147 98 96 147 98 96 147 98 96 147 98 96 147 98 96 147 98 96 147 98 96 147 98 96 147 98 96 147 98 96 147 98 96 147 98 96 147 98 96 147 98 96 147 98 96 147 98 96 147 98 96 147 98 96 147 98 96 147 98 96 147 98 96 147 98 96 147 98 96 147 98 96 147 98 96 147 98 96 147 98 96 147 98 96 147 98 96 147 98 96 147 98 96 147 98 96 147 98 96 147 98 96 147 98 96 147 98 96 147 98 96 147 98 96 147 98 96 147 98 96 147 98 96 147 98 96 147 98 96 147 98 96 147 98 96 147 98 96 147 98 96 147 98 96 0 0 255 167 176 177 167 176 177 167 176 177 167 176 177 167 176 177 0 0 255 147 98 96 147 98 96 147 98 96 147 98 96 147 98 96 0 0 255 167 176 177 167 176 177 167 176 177 167 176 177 167 176 177 0 0 255 0 0 255 167 176 177 167 176 177 167 176 177 0 0 255 147 98 96 147 98 96 147 98 96 147 98 96 147 98 96 147 98 96 147 98 96 147 98 96 147 98 96 147 98 96 147 98 96 147 98 96 147 98 96 147 98 96 147 98 96 0 0 255 167 176 177 167 176 177 167 176 177 167 176 177 167 176 177 167 176 177 167 176 177 167 176 177 167 176 177 167 176 177 167 176 177 167 176 177 167 176 177 167 176 177 167 176 177 167 176 177 167 176 177 167 176 177 167 176 177 167 176 177 0 0 255 119 83 94 119 83 94 119 83 94 119 83 94 119 83 94 119 83 94 119 83 94 119 83 94 119 83 94 119 83 94 119 83 94 119 83 94 119 83 94 119 83 94 119 83 94 119 83 94 119 83 94 119 83 94 119 83 94 0 0 255 167 176 177 167 176 177 167 176 177 167 176 177 167 176 177 0 0 255 119 83 94 119 83 94 119 83 94 119 83 94 119 83 94 119 83 94 119 83 94 119 83 94 119 83 94 119 83 94 119 83 94 119 83 94 119 83 94 119 83 94 119 83 94 119 83 94 119 83 94 119 83 94 119 83 94 119 83 94 119 83 94 119 83 94 119 83 94 119 83 94 119 83 94 119 83 94 119 83 94 119 83 94 119 83 94 119 83 94 119 83 94 119 83 94 119 83 94 119 83 94 119 83 94 119 83 94 119 83 94 119 83 94 119 83 94 119 83 94 119 83 94 119 83 94 119 83 94 119 83 94 119 83 94 119 83 94 119 83 94 119 83 94 119 83 94 119 83 94 119 83 94 119 83 94 119 83 94 119 83 94 119 83 94 119 83 94 119 83 94 
164 196 214 164 196 214 164 196 214 164 196 214 164 196 214 164 196 214 164 196 214 164 196 214 164 196 214 164 196 214 164 196 214 164 196 214 164 196 214 164 196 214 164 196 214 164 196 214 164 196 214 164 196 214 164 196 214 164 196 214 164 196 214 0 0 255 0 0 255 0 0 255 147 98 96 147 98 96 147 98 96 147 98 96 147 98 96 147 98 96 147 98 96 147 98 96 147 98 96 147 98 96 147 98 96 147 98 96 147 98 96 147 98 96 147 98 96 147 98 96 147 98 96 147 98 96 147 98 96 147 98 96 147 98 96 147 98 96 147 98 96 147 98 96 147 98 96 147 98 96 147 98 96 147 98 96 147 98 96 147 98 96 147 98 96 147 98 96 147 98 96 0 0 255 0 0 255 147 98 96 147 98 96 147 98 96 147 98 96 147 98 96 147 98 96 147 98 96 147 98 96 147 98 96 147 98 96 147 98 96 147 98 96 147 98 96 147 98 96 147 98 96 147 98 96 147 98 96 147 98 96 147 98 96 147 98 96 147 98 96 147 98 96 147 98 96 147 98 96 147 98 96 147 98 96 147 98 96 147 98 96 147 98 96 147 98 96 147 98 96 147 98 96 147 98 96 147 98 96 147 98 96 147 98 96 147 98 96 147 98 96 147 98 96 147 98 96 147 98 96 147 98 96 147 98 96 147 98 96 147 98 96 147 98 96 147 98 96 147 98 96 147 98 96 147 98 96 147 98 96 147 98 96 147 98 96 0 0 255 167 176 177 167 176 177 167 176 177 167 176 177 167 176 177 0 0 255 147 98 96 147 98 96 147 98 96 147 98 96 147 98 96 0 0 255 167 176 177 167 176 177 167 176 177 167 176 177 167 176 177 0 0 255 0 0 255 167 176 177 167 176 177 167 176 177 0 0 255 147 98 96 147 98 96 147 98 96 147 98 96 147 98 96 147 98 96 147 98 96 147 98 96 147 98 96 147 98 96 147 98 96 147 98 96 147 98 96 147 98 96 0 0 255 0 0 255 167 176 177 167 176 177 167 176 177 167 176 177 167 176 177 167 176 177 167 176 177 167 176 177 167 176 177 167 176 177 167 176 177 167 176 177 167 176 177 167 176 177 167 176 177 167 176 177 167 176 177 167 176 177 167 176 177 167 176 177 0 0 255 119 83 94 119 83 94 119 83 94 119 83 94 119 83 94 119 83 94 119 83 94 119 83 94 119 83 94 119 83 94 119 83 94 119 83 94 119 83 94 119 83 94 119 83 94 119 83 94 119 83 94 119 83 94 119 83 94 0 0 255 167 176 177 167 176 177 167 176 177 167 176 177 167 176 177 0 0 255 119 83 94 119 83 94 119 83 94 119 83 94 119 83 94 119 83 94 119 83 94 119 83 94 119 83 94 119 83 94 119 83 94 119 83 94 119 83 94 119 83 94 119 83 94 119 83 94 119 83 94 119 83 94 119 83 94 119 83 94 119 83 94 119 83 94 119 83 94 119 83 94 119 83 94 119 83 94 119 83 94 119 83 94 119 83 94 119 83 94 119 83 94 119 83 94 119 83 94 119 83 94 119 83 94 119 83 94 119 83 94 119 83 94 119 83 94 119 83 94 119 83 94 119 83 94 119 83 94 119 83 94 119 83 94 119 83 94 119 83 94 119 83 94 119 83 94 119 83 94 119 83 94 119 83 94 119 83 94 119 83 94 119 83 94 119 83 94 119 83 94 
164 196 214 164 196 214 164 196 214 164 196 214 164 196 214 164 196 214 164 196 214 164 196 214 164 196 214 164 196 214 164 196 214 164 196 214 164 196 214 164 196 214 164 196 214 164 196 214 164 196 214 164 196 214 164 196 214 164 196 214 164 196 214 164 196 214 164 196 214 0 0 255 0 0 255 0 0 255 0 0 255 0 0 255 0 0 255 0 0 255 0 0 255 147 98 96 147 98 96 147 98 96 147 98 96 147 98 96 147 98 96 147 98 96 147 98 96 147 98 96 147 98 96 147 98 96 147 98 96 147 98 96 147 98 96 147 98 96 147 98 96 147 98 96 0 0 255 147 98 96 147 98 96 147 98 96 147 98 96 147 98 96 147 98 96 147 98 96 147 98 96 0 0 255 0 0 255 0 0 255 147 98 96 147 98 96 147 98 96 147 98 96 147 98 96 147 98 96 147 98 96 147 98 96 147 98 96 147 98 96 147 98 96 147 98 96 147 98 96 147 98 96 147 98 96 147 98 96 147 98 96 147 98 96 147 98 96 147 98 96 147 98 96 147 98 96 147 98 96 147 98 96 147 98 96 147 98 96 147 98 96 147 98 96 147 98 96 147 98 96 147 98 96 147 98 96 147 98 96 147 98 96 147 98 96 147 98 96 147 98 96 147 98 96 147 98 96 147 98 96 147 98 96 147 98 96 147 98 96 147 98 96 147 98 96 147 98 96 147 98 96 147 98 96 147 98 96 147 98 96 147 98 96 147 98 96 0 0 255 167 176 177 167 176 177 167 176 177 167 176 177 167 176 177 0 0 255 147 98 96 147 98 96 147 98 96 147 98 96 147 98 96 0 0 255 167 176 177 167 176 177 167 176 177 167 176 177 167 176 177 0 0 255 0 0 255 167 176 177 167 176 177 167 176 177 0 0 255 147 98 96 147 98 96 147 98 96 147 98 96 147 98 96 147 98 96 147 98 96 147 98 96 147 98 96 147 98 96 147 98 96 147 98 96 147 98 96 147 98 96 147 98 96 0 0 255 167 176 177 167 176 177 167 176 177 167 176 177 167 176 177 167 176 177 167 176 177 167 176 177 167 176 177 167 176 177 167 176 177 167 176 177 167 176 177 167 176 177 167 176 177 167 176 177 167 176 177 167 176 177 167 176 177 167 176 177 0 0 255 119 83 94 119 83 94 119 83 94 119 83 94 119 83 94 119 83 94 119 83 94 119 83 94 119 83 94 119 83 94 119 83 94 119 83 94 119 83 94 119 83 94 119 83 94 119 83 94 119 83 94 119 83 94 119 83 94 0 0 255 167 176 177 167 176 177 167 176 177 167 176 177 167 176 177 0 0 255 119 83 94 119 83 94 119 83 94 119 83 94 119 83 94 119 83 94 119 83 94 119 83 94 119 83 94 119 83 94 119 83 94 119 83 94 119 83 94 119 83 94 119 83 94 119 83 94 119 83 94 119 83 94 119 83 94 119 83 94 119 83 94 119 83 94 119 83 94 119 83 94 119 83 94 119 83 94 119 83 94 119 83 94 119 83 94 119 83 94 119 83 94 119 83 94 119 83 94 119 83 94 119 83 94 119 83 94 119 83 94 119 83 94 119 83 94 119 83 94 119 83 94 119 83 94 119 83 94 119 83 94 119 83 94 119 83 94 119 83 94 119 83 94 119 83 94 119 83 94 119 83 94 119 83 94 119 83 94 119 83 94 119 83 94 119 83 94 119 83 94 
164 196 214 164 196 214 164 196 214 164 196 214 164 196 214 164 196 214 164 196 214 164 196 214 164 196 214 164 196 214 164 196 214 164 196 214 164 196 214 164 196 214 164 196 214 164 196 214 164 196 214 164 196 214 164 196 214 164 196 214 164 196 214 164 196 214 164 196 214 164 196 214 164 196 214 164 196 214 164 196 214 164 196 214 164 196 214 164 196 214 0 0 255 0 0 255 147 98 96 147 98 96 147 98 96 147 98 96 147 98 96 147 98 96 147 98 96 147 98 96 147 98 96 147 98 96 147 98 96 147 98 96 0 0 255 0 0 255 0 0 255 0 0 255 0 0 255 147 98 96 147 98 96 147 98 96 147 98 96 0 0 255 147 98 96 147 98 96 0 0 255 164 196 214 164 196 214 0 0 255 147 98 96 147 98 96 147 98 96 147 98 96 147 98 96 147 98 96 147 98 96 147 98 96 147 98 96 147 98 96 147 98 96 147 98 96 147 98 96 147 98 96 147 98 96 147 98 96 147 98 96 147 98 96 147 98 96 147 98 96 147 98 96 147 98 96 147 98 96 147 98 96 147 98 96 147 98 96 147 98 96 147 98 96 147 98 96 147 98 96 147 98 96 147 98 96 147 98 96 147 98 96 147 98 96 147 98 96 147 98 96 147 98 96 147 98 96 147 98 96 147 98 96 147 98 96 147 98 96 147 98 96 147 98 96 147 98 96 147 98 96 147 98 96 147 98 96 147 98 96 147 98 96 147 98 96 0 0 255 167 176 177 167 176 177 167 176 177 167 176 177 167 176 177 0 0 255 147 98 96 147 98 96 147 98 96 147 98 96 147 98 96 0 0 255 167 176 177 167 176 177 167 176 177 167 176 177 167 176 177 0 0 255 0 0 255 167 176 177 167 176 177 167 176 177 0 0 255 147 98 96 147 98 96 147 98 96 147 98 96 147 98 96 147 98 96 147 98 96 147 98 96 147 98 96 147 98 96 147 98 96 147 98 96 147 98 96 147 98 96 0 0 255 167 176 177 167 176 177 167 176 177 167 176 177 167 176 177 167 176 177 167 176 177 167 176 177 167 176 177 167 176 177 167 176 177 167 176 177 167 176 177 167 176 177 167 176 177 167 176 177 167 176 177 167 176 177 167 176 177 167 176 177 167 176 177 0 0 255 0 0 255 119 83 94 119 83 94 119 83 94 119 83 94 119 83 94 119 83 94 119 83 94 119 83 94 119 83 94 119 83 94 119 83 94 119 83 94 119 83 94 119 83 94 119 83 94 119 83 94 119 83 94 119 83 94 0 0 255 167 176 177 167 176 177 167 176 177 167 176 177 167 176 177 0 0 255 119 83 94 119 83 94 119 83 94 119 83 94 119 83 94 119 83 94 119 83 94 119 83 94 119 83 94 119 83 94 119 83 94 119 83 94 119 83 94 119 83 94 119 83 94 119 83 94 119 83 94 119 83 94 119 83 94 119 83 94 119 83 94 119 83 94 119 83 94 119 83 94 119 83 94 119 83 94 119 83 94 119 83 94 119 83 94 119 83 94 119 83 94 119 83 94 119 83 94 119 83 94 119 83 94 119 83 94 119 83 94 119 83 94 119 83 94 119 83 94 119 83 94 119 83 94 119 83 94 119 83 94 119 83 94 119 83 94 119 83 94 119 83 94 119 83 94 119 83 94 119 83 94 119 83 94 119 83 94 119 83 94 119 83 94 119 83 94 119 83 94 
164 196 214 164 196 214 164 196 214 164 196 214 164 196 214 164 196 214 164 196 214 164 196 214 164 196 214 164 196 214 164 196 214 164 196 214 164 196 214 164 196 214 164 196 214 164 196 214 164 196 214 164 196 214 164 196 214 164 196 214 164 196 214 164 196 214 164 196 214 164 196 214 164 196 214 164 196 214 164 196 214 164 196 214 164 196 214 164 196 214 164 196 214 0 0 255 147 98 96 147 98 96 147 98 96 147 98 96 147 98 96 147 98 96 147 98 96 147 98 96 147 98 96 147 98 96 147 98 96 0 0 255 161 104 94 161 104 94 161 104 94 161 104 94 0 0 255 0 0 255 0 0 255 0 0 255 0 0 255 0 0 255 0 0 255 147 98 96 0 0 255 164 196 214 164 196 214 0 0 255 147 98 96 147 98 96 147 98 96 147 98 96 147 98 96 147 98 96 147 98 96 147 98 96 147 98 96 0 0 255 0 0 255 0 0 255 0 0 255 147 98 96 147 98 96 147 98 96 147 98 96 147 98 96 147 98 96 147 98 96 147 98 96 147 98 96 147 98 96 147 98 96 147 98 96 147 98 96 0 0 255 147 98 96 147 98 96 147 98 96 147 98 96 147 98 96 147 98 96 147 98 96 147 98 96 147 98 96 147 98 96 147 98 96 147 98 96 147 98 96 147 98 96 147 98 96 147 98 96 147 98 96 147 98 96 147 98 96 147 98 96 147 98 96 147 98 96 147 98 96 147 98 96 147 98 96 0 0 255 167 176 177 167 176 177 167 176 177 167 176 177 167 176 177 0 0 255 147 98 96 147 98 96 147 98 96 147 98 96 0 0 255 167 176 177 167 176 177 167 176 177 167 176 177 167 176 177 167 176 177 167 176 177 167 176 177 167 176 177 167 176 177 167 176 177 0 0 255 147 98 96 147 98 96 147 98 96 147 98 96 147 98 96 147 98 96 147 98 96 147 98 96 147 98 96 147 98 96 147 98 96 147 98 96 0 0 255 147 98 96 0 0 255 0 0 255 167 176 177 167 176 177 167 176 177 167 176 177 167 176 177 167 176 177 167 176 177 167 176 177 167 176 177 167 176 177 167 176 177 167 176 177 167 176 177 167 176 177 167 176 177 167 176 177 167 176 177 167 176 177 167 176 177 167 176 177 167 176 177 0 0 255 119 83 94 119 83 94 119 83 94 119 83 94 119 83 94 119 83 94 119 83 94 119 83 94 119 83 94 119 83 94 119 83 94 119 83 94 119 83 94 119 83 94 119 83 94 119 83 94 119 83 94 119 83 94 0 0 255 167 176 177 167 176 177 167 176 177 167 176 177 167 176 177 0 0 255 119 83 94 119 83 94 119 83 94 119 83 94 119 83 94 119 83 94 119 83 94 119 83 94 119 83 94 119 83 94 119 83 94 119 83 94 119 83 94 119 83 94 119 83 94 119 83 94 119 83 94 119 83 94 119 83 94 119 83 94 119 83 94 119 83 94 119 83 94 119 83 94 119 83 94 119 83 94 119 83 94 119 83 94 119 83 94 119 83 94 119 83 94 119 83 94 119 83 94 119 83 94 119 83 94 119 83 94 119 83 94 119 83 94 119 83 94 119 83 94 119 83 94 119 83 94 119 83 94 119 83 94 119 83 94 119 83 94 119 83 94 119 83 94 119 83 94 119 83 94 119 83 94 119 83 94 119 83 94 119 83 94 119 83 94 119 83 94 119 83 94 
164 196 214 164 196 214 164 196 214 164 196 214 164 196 214 164 196 214 164 196 214 164 196 214 164 196 214 164 196 214 164 196 214 164 196 214 164 196 214 164 196 214 164 196 214 164 196 214 164 196 214 164 196 214 164 196 214 164 196 214 164 196 214 164 196 214 164 196 214 164 196 214 164 196 214 164 196 214 164 196 214 164 196 214 164 196 214 164 196 214 164 196 214 0 0 255 0 0 255 147 98 96 147 98 96 147 98 96 147 98 96 147 98 96 147 98 96 147 98 96 147 98 96 147 98 96 0 0 255 161 104 94 161 104 94 161 104 94 161 104 94 161 104 94 161 104 94 161 104 94 161 104 94 161 104 94 161 104 94 161 104 94 0 0 255 0 0 255 0 0 255 164 196 214 164 196 214 0 0 255 0 0 255 147 98 96 147 98 96 147 98 96 0 0 255 0 0 255 0 0 255 0 0 255 0 0 255 161 104 94 161 104 94 0 0 255 0 0 255 0 0 255 0 0 255 0 0 255 0 0 255 0 0 255 0 0 255 0 0 255 0 0 255 0 0 255 0 0 255 0 0 255 147 98 96 0 0 255 0 0 255 147 98 96 147 98 96 147 98 96 147 98 96 147 98 96 147 98 96 147 98 96 147 98 96 0 0 255 147 98 96 147 98 96 147 98 96 147 98 96 147 98 96 147 98 96 0 0 255 147 98 96 147 98 96 147 98 96 0 0 255 147 98 96 147 98 96 147 98 96 147 98 96 147 98 96 0 0 255 167 176 177 167 176 177 167 176 177 167 176 177 167 176 177 0 0 255 147 98 96 147 98 96 0 0 255 147 98 96 0 0 255 167 176 177 167 176 177 167 176 177 167 176 177 167 176 177 167 176 177 167 176 177 167 176 177 167 176 177 167 176 177 167 176 177 0 0 255 147 98 96 147 98 96 147 98 96 147 98 96 147 98 96 147 98 96 147 98 96 147 98 96 147 98 96 147 98 96 147 98 96 0 0 255 0 0 255 147 98 96 147 98 96 0 0 255 167 176 177 167 176 177 167 176 177 167 176 177 167 176 177 167 176 177 167 176 177 167 176 177 167 176 177 167 176 177 167 176 177 167 176 177 167 176 177 167 176 177 167 176 177 167 176 177 167 176 177 167 176 177 167 176 177 167 176 177 0 0 255 119 83 94 119 83 94 119 83 94 119 83 94 119 83 94 119 83 94 119 83 94 119 83 94 119 83 94 119 83 94 119 83 94 119 83 94 119 83 94 119 83 94 119 83 94 119 83 94 119 83 94 119 83 94 119 83 94 0 0 255 167 176 177 167 176 177 167 176 177 167 176 177 0 0 255 0 0 255 119 83 94 119 83 94 119 83 94 119 83 94 119 83 94 119 83 94 119 83 94 119 83 94 119 83 94 119 83 94 119 83 94 119 83 94 119 83 94 119 83 94 119 83 94 119 83 94 119 83 94 119 83 94 119 83 94 119 83 94 119 83 94 119 83 94 119 83 94 119 83 94 119 83 94 119 83 94 119 83 94 119 83 94 119 83 94 119 83 94 119 83 94 119 83 94 119 83 94 119 83 94 119 83 94 119 83 94 119 83 94 119 83 94 119 83 94 119 83 94 119 83 94 119 83 94 119 83 94 119 83 94 119 83 94 119 83 94 119 83 94 119 83 94 119 83 94 119 83 94 119 83 94 119 83 94 119 83 94 119 83 94 119 83 94 119 83 94 119 83 94 
164 196 214 164 196 214 164 196 214 164 196 214 164 196 214 164 196 214 164 196 214 164 196 214 164 196 214 164 196 214 164 196 214 164 196 214 164 196 214 164 196 214 164 196 214 164 196 214 164 196 214 164 196 214 164 196 214 164 196 214 164 196 214 164 196 214 164 196 214 164 196 214 164 196 214 164 196 214 164 196 214 164 196 214 164 196 214 164 196 214 164 196 214 164 196 214 0 0 255 147 98 96 147 98 96 147 98 96 147 98 96 147 98 96 147 98 96 147 98 96 0 0 255 0 0 255 161 104 94 161 104 94 161 104 94 161 104 94 161 104 94 161 104 94 161 104 94 161 104 94 161 104 94 161 104 94 161 104 94 161 104 94 0 0 255 0 0 255 0 0 255 164 196 214 164 196 214 0 0 255 0 0 255 147 98 96 147 98 96 0 0 255 161 104 94 161 104 94 161 104 94 161 104 94 161 104 94 161 104 94 0 0 255 0 0 255 161 104 94 161 104 94 161 104 94 161 104 94 161 104 94 161 104 94 161 104 94 161 104 94 0 0 255 161 104 94 161 104 94 0 0 255 147 98 96 147 98 96 147 98 96 147 98 96 147 98 96 147 98 96 147 98 96 0 0 255 0 0 255 147 98 96 0 0 255 0 0 255 147 98 96 147 98 96 147 98 96 147 98 96 147 98 96 0 0 255 0 0 255 147 98 96 147 98 96 0 0 255 0 0 255 147 98 96 147 98 96 147 98 96 147 98 96 147 98 96 0 0 255 167 176 177 167 176 177 167 176 177 167 176 177 167 176 177 0 0 255 147 98 96 0 0 255 0 0 255 147 98 96 0 0 255 167 176 177 167 176 177 167 176 177 167 176 177 167 176 177 167 176 177 167 176 177 167 176 177 167 176 177 167 176 177 167 176 177 0 0 255 147 98 96 147 98 96 147 98 96 147 98 96 147 98 96 147 98 96 147 98 96 147 98 96 147 98 96 147 98 96 147 98 96 147 98 96 147 98 96 147 98 96 0 0 255 167 176 177 167 176 177 167 176 177 167 176 177 167 176 177 167 176 177 167 176 177 167 176 177 167 176 177 167 176 177 167 176 177 167 176 177 167 176 177 167 176 177 167 176 177 167 176 177 167 176 177 167 176 177 167 176 177 167 176 177 167 176 177 0 0 255 119 83 94 119 83 94 119 83 94 119 83 94 119 83 94 119 83 94 119 83 94 119 83 94 119 83 94 119 83 94 119 83 94 119 83 94 119 83 94 119 83 94 119 83 94 119 83 94 119 83 94 119 83 94 119 83 94 0 0 255 167 176 177 167 176 177 167 176 177 167 176 177 167 176 177 0 0 255 119 83 94 119 83 94 119 83 94 119 83 94 119 83 94 119 83 94 119 83 94 119 83 94 119 83 94 119 83 94 119 83 94 119 83 94 119 83 94 119 83 94 119 83 94 119 83 94 119 83 94 119 83 94 119 83 94 119 83 94 119 83 94 119 83 94 119 83 94 119 83 94 119 83 94 119 83 94 119 83 94 119 83 94 119 83 94 119 83 94 119 83 94 119 83 94 119 83 94 119 83 94 119 83 94 119 83 94 119 83 94 119 83 94 119 83 94 119 83 94 119 83 94 119 83 94 119 83 94 119 83 94 119 83 94 119 83 94 119 83 94 119 83 94 119 83 94 119 83 94 119 83 94 119 83 94 119 83 94 119 83 94 119 83 94 119 83 94 119 83 94 
164 196 214 164 196 214 164 196 214 164 196 214 164 196 214 164 196 214 164 196 214 164 196 214 164 196 214 164 196 214 164 196 214 164 196 214 164 196 214 164 196 214 164 196 214 164 196 214 164 196 214 164 196 214 164 196 214 164 196 214 164 196 214 164 196 214 164 196 214 164 196 214 164 196 214 164 196 214 164 196 214 164 196 214 164 196 214 164 196 214 164 196 214 164 196 214 0 0 255 0 0 255 0 0 255 147 98 96 147 98 96 147 98 96 147 98 96 0 0 255 0 0 255 161 104 94 161 104 94 161 104 94 161 104 94 161 104 94 161 104 94 161 104 94 161 104 94 161 104 94 161 104 94 161 104 94 161 104 94 161 104 94 161 104 94 161 104 94 0 0 255 164 196 214 164 196 214 164 196 214 0 0 255 147 98 96 0 0 255 0 0 255 161 104 94 161 104 94 161 104 94 161 104 94 161 104 94 161 104 94 161 104 94 161 104 94 161 104 94 161 104 94 161 104 94 161 104 94 161 104 94 161 104 94 161 104 94 0 0 255 0 0 255 161 104 94 0 0 255 0 0 255 0 0 255 0 0 255 0 0 255 147 98 96 147 98 96 147 98 96 0 0 255 161 104 94 0 0 255 0 0 255 0 0 255 0 0 255 0 0 255 0 0 255 0 0 255 0 0 255 147 98 96 0 0 255 0 0 255 147 98 96 147 98 96 0 0 255 0 0 255 147 98 96 147 98 96 147 98 96 147 98 96 0 0 255 0 0 255 167 176 177 167 176 177 167 176 177 167 176 177 167 176 177 0 0 255 147 98 96 0 0 255 0 0 255 0 0 255 167 176 177 167 176 177 167 176 177 167 176 177 167 176 177 167 176 177 167 176 177 167 176 177 167 176 177 167 176 177 167 176 177 167 176 177 0 0 255 147 98 96 147 98 96 147 98 96 147 98 96 147 98 96 147 98 96 147 98 96 147 98 96 147 98 96 147 98 96 147 98 96 147 98 96 147 98 96 147 98 96 0 0 255 167 176 177 167 176 177 167 176 177 167 176 177 167 176 177 167 176 177 167 176 177 167 176 177 167 176 177 167 176 177 167 176 177 167 176 177 167 176 177 167 176 177 167 176 177 167 176 177 167 176 177 167 176 177 167 176 177 167 176 177 167 176 177 0 0 255 119 83 94 119 83 94 119 83 94 119 83 94 119 83 94 119 83 94 119 83 94 119 83 94 119 83 94 119 83 94 119 83 94 119 83 94 119 83 94 119 83 94 119 83 94 119 83 94 119 83 94 119 83 94 0 0 255 0 0 255 167 176 177 167 176 177 167 176 177 167 176 177 167 176 177 0 0 255 119 83 94 119 83 94 119 83 94 119 83 94 119 83 94 119 83 94 119 83 94 119 83 94 119 83 94 119 83 94 119 83 94 119 83 94 119 83 94 119 83 94 119 83 94 119 83 94 119 83 94 119 83 94 119 83 94 119 83 94 119 83 94 119 83 94 119 83 94 119 83 94 119 83 94 119 83 94 119 83 94 119 83 94 119 83 94 119 83 94 119 83 94 119 83 94 119 83 94 119 83 94 119 83 94 119 83 94 119 83 94 119 83 94 119 83 94 119 83 94 119 83 94 119 83 94 119 83 94 119 83 94 119 83 94 119 83 94 119 83 94 119 83 94 119 83 94 119 83 94 119 83 94 119 83 94 119 83 94 119 83 94 119 83 94 119 83 94 119 83 94 
164 196 214 164 196 214 164 196 214 164 196 214 164 196 214 164 196 214 164 196 214 164 196 214 164 196 214 164 196 214 164 196 214 164 196 214 164 196 214 164 196 214 164 196 214 164 196 214 164 196 214 164 196 214 164 196 214 164 196 214 164 196 214 164 196 214 164 196 214 164 196 214 164 196 214 164 196 214 164 196 214 164 196 214 164 196 214 164 196 214 164 196 214 164 196 214 164 196 214 0 0 255 0 0 255 0 0 255 0 0 255 0 0 255 0 0 255 0 0 255 0 0 255 161 104 94 161 104 94 161 104 94 161 104 94 161 104 94 161 104 94 161 104 94 161 104 94 161 104 94 161 104 94 161 104 94 161 104 94 161 104 94 161 104 94 161 104 94 0 0 255 164 196 214 164 196 214 164 196 214 0 0 255 0 0 255 0 0 255 0 0 255 161 104 94 161 104 94 161 104 94 161 104 94 161 104 94 161 104 94 161 104 94 161 104 94 161 104 94 161 104 94 161 104 94 161 104 94 161 104 94 161 104 94 161 104 94 161 104 94 161 104 94 161 104 94 161 104 94 161 104 94 161 104 94 161 104 94 0 0 255 0 0 255 0 0 255 0 0 255 161 104 94 161 104 94 161 104 94 161 104 94 161 104 94 161 104 94 161 104 94 161 104 94 161 104 94 0 0 255 0 0 255 0 0 255 0 0 255 0 0 255 0 0 255 0 0 255 0 0 255 147 98 96 147 98 96 147 98 96 0 0 255 161 104 94 0 0 255 167 176 177 167 176 177 167 176 177 167 176 177 167 176 177 0 0 255 0 0 255 167 176 177 167 176 177 167 176 177 167 176 177 167 176 177 167 176 177 167 176 177 167 176 177 167 176 177 167 176 177 167 176 177 167 176 177 167 176 177 167 176 177 167 176 177 0 0 255 147 98 96 147 98 96 147 98 96 147 98 96 147 98 96 147 98 96 147 98 96 147 98 96 147 98 96 147 98 96 147 98 96 147 98 96 147 98 96 147 98 96 0 0 255 167 176 177 167 176 177 167 176 177 167 176 177 167 176 177 167 176 177 167 176 177 167 176 177 167 176 177 167 176 177 167 176 177 167 176 177 167 176 177 167 176 177 167 176 177 167 176 177 167 176 177 167 176 177 167 176 177 167 176 177 167 176 177 0 0 255 119 83 94 119 83 94 119 83 94 119 83 94 119 83 94 119 83 94 119 83 94 119 83 94 119 83 94 119 83 94 119 83 94 119 83 94 119 83 94 119 83 94 119 83 94 119 83 94 119 83 94 119 83 94 119 83 94 0 0 255 167 176 177 167 176 177 167 176 177 167 176 177 167 176 177 0 0 255 119 83 94 119 83 94 119 83 94 119 83 94 119 83 94 119 83 94 119 83 94 119 83 94 119 83 94 119 83 94 119 83 94 119 83 94 119 83 94 119 83 94 119 83 94 119 83 94 119 83 94 119 83 94 119 83 94 119 83 94 119 83 94 119 83 94 119 83 94 119 83 94 119 83 94 119 83 94 119 83 94 119 83 94 119 83 94 119 83 94 119 83 94 119 83 94 119 83 94 119 83 94 119 83 94 119 83 94 119 83 94 119 83 94 119 83 94 119 83 94 119 83 94 119 83 94 119 83 94 119 83 94 119 83 94 119 83 94 119 83 94 119 83 94 119 83 94 119 83 94 119 83 94 119 83 94 119 83 94 119 83 94 119 83 94 119 83 94 119 83 94 
164 196 214 164 196 214 164 196 214 164 196 214 164 196 214 164 196 214 164 196 214 164 196 214 164 196 214 164 196 214 164 196 214 164 196 214 164 196 214 164 196 214 164 196 214 164 196 214 164 196 214 164 196 214 164 196 214 164 196 214 164 196 214 164 196 214 164 196 214 164 196 214 164 196 214 164 196 214 164 196 214 164 196 214 164 196 214 164 196 214 164 196 214 164 196 214 164 196 214 164 196 214 0 0 255 0 0 255 0 0 255 161 104 94 0 0 255 0 0 255 0 0 255 161 104 94 161 104 94 161 104 94 161 104 94 161 104 94 161 104 94 161 104 94 161 104 94 161 104 94 161 104 94 161 104 94 161 104 94 161 104 94 161 104 94 161 104 94 0 0 255 164 196 214 164 196 214 164 196 214 0 0 255 161 104 94 161 104 94 161 104 94 161 104 94 161 104 94 161 104 94 161 104 94 161 104 94 161 104 94 161 104 94 161 104 94 161 104 94 161 104 94 161 104 94 161 104 94 161 104 94 161 104 94 161 104 94 161 104 94 161 104 94 161 104 94 161 104 94 161 104 94 161 104 94 161 104 94 161 104 94 161 104 94 161 104 94 161 104 94 161 104 94 161 104 94 161 104 94 161 104 94 161 104 94 161 104 94 161 104 94 161 104 94 161 104 94 161 104 94 0 0 255 161 104 94 161 104 94 161 104 94 161 104 94 161 104 94 0 0 255 147 98 96 147 98 96 147 98 96 0 0 255 161 104 94 0 0 255 167 176 177 167 176 177 167 176 177 167 176 177 167 176 177 0 0 255 0 0 255 167 176 177 167 176 177 167 176 177 167 176 177 167 176 177 167 176 177 167 176 177 167 176 177 167 176 177 167 176 177 167 176 177 167 176 177 167 176 177 167 176 177 167 176 177 0 0 255 147 98 96 147 98 96 147 98 96 147 98 96 147 98 96 147 98 96 147 98 96 147 98 96 147 98 96 147 98 96 147 98 96 0 0 255 0 0 255 147 98 96 0 0 255 167 176 177 167 176 177 167 176 177 167 176 177 167 176 177 167 176 177 167 176 177 167 176 177 167 176 177 167 176 177 167 176 177 167 176 177 167 176 177 167 176 177 167 176 177 167 176 177 167 176 177 167 176 177 167 176 177 167 176 177 167 176 177 0 0 255 119 83 94 119 83 94 119 83 94 119 83 94 119 83 94 119 83 94 119 83 94 119 83 94 119 83 94 119 83 94 119 83 94 119 83 94 119 83 94 119 83 94 119 83 94 119 83 94 119 83 94 119 83 94 119 83 94 0 0 255 167 176 177 167 176 177 167 176 177 167 176 177 167 176 177 0 0 255 119 83 94 119 83 94 119 83 94 119 83 94 119 83 94 119 83 94 119 83 94 119 83 94 119 83 94 119 83 94 119 83 94 119 83 94 119 83 94 119 83 94 119 83 94 119 83 94 0 0 255 119 83 94 119 83 94 119 83 94 119 83 94 119 83 94 119 83 94 119 83 94 119 83 94 119 83 94 119 83 94 119 83 94 119 83 94 119 83 94 119 83 94 119 83 94 119 83 94 119 83 94 119 83 94 119 83 94 119 83 94 119 83 94 119 83 94 119 83 94 119 83 94 119 83 94 119 83 94 119 83 94 119 83 94 119 83 94 119 83 94 119 83 94 119 83 94 119 83 94 119 83 94 119 83 94 119 83 94 119 83 94 119 83 94 119 83 94 119 83 94 
164 196 214 164 196 214 164 196 214 164 196 214 164 196 214 164 196 214 164 196 214 164 196 214 164 196 214 164 196 214 164 196 214 164 196 214 164 196 214 164 196 214 164 196 214 164 196 214 164 196 214 164 196 214 164 196 214 164 196 214 164 196 214 164 196 214 164 196 214 164 196 214 164 196 214 164 196 214 164 196 214 164 196 214 164 196 214 164 196 214 164 196 214 164 196 214 164 196 214 164 196 214 164 196 214 164 196 214 0 0 255 0 0 255 164 196 214 0 0 255 0 0 255 161 104 94 161 104 94 161 104 94 161 104 94 161 104 94 161 104 94 161 104 94 161 104 94 161 104 94 161 104 94 161 104 94 161 104 94 161 104 94 161 104 94 161 104 94 0 0 255 164 196 214 164 196 214 164 196 214 0 0 255 0 0 255 161 104 94 161 104 94 161 104 94 161 104 94 161 104 94 161 104 94 161 104 94 161 104 94 161 104 94 161 104 94 161 104 94 161 104 94 161 104 94 161 104 94 161 104 94 161 104 94 161 104 94 161 104 94 161 104 94 161 104 94 161 104 94 161 104 94 161 104 94 161 104 94 161 104 94 161 104 94 161 104 94 161 104 94 161 104 94 161 104 94 161 104 94 161 104 94 161 104 94 161 104 94 161 104 94 161 104 94 161 104 94 0 0 255 0 0 255 161 104 94 161 104 94 161 104 94 161 104 94 161 104 94 0 0 255 0 0 255 0 0 255 0 0 255 0 0 255 161 104 94 0 0 255 167 176 177 167 176 177 167 176 177 167 176 177 167 176 177 0 0 255 0 0 255 167 176 177 167 176 177 167 176 177 167 176 177 167 176 177 167 176 177 167 176 177 167 176 177 167 176 177 167 176 177 167 176 177 167 176 177 167 176 177 167 176 177 167 176 177 0 0 255 147 98 96 147 98 96 147 98 96 147 98 96 147 98 96 147 98 96 147 98 96 147 98 96 147 98 96 147 98 96 0 0 255 0 0 255 0 0 255 147 98 96 0 0 255 167 176 177 167 176 177 167 176 177 167 176 177 167 176 177 167 176 177 167 176 177 167 176 177 167 176 177 167 176 177 167 176 177 167 176 177 167 176 177 167 176 177 167 176 177 167 176 177 167 176 177 167 176 177 167 176 177 167 176 177 167 176 177 0 0 255 119 83 94 119 83 94 119 83 94 119 83 94 119 83 94 119 83 94 119 83 94 119 83 94 119 83 94 119 83 94 119 83 94 119 83 94 119 83 94 119 83 94 119 83 94 119 83 94 119 83 94 119 83 94 0 0 255 167 176 177 167 176 177 167 176 177 167 176 177 167 176 177 167 176 177 0 0 255 119 83 94 119 83 94 119 83 94 119 83 94 119 83 94 119 83 94 119 83 94 119 83 94 119 83 94 119 83 94 119 83 94 119 83 94 119 83 94 119 83 94 119 83 94 0 0 255 0 0 255 119 83 94 119 83 94 119 83 94 119 83 94 119 83 94 119 83 94 119 83 94 119 83 94 119 83 94 119 83 94 119 83 94 119 83 94 119 83 94 119 83 94 119 83 94 119 83 94 119 83 94 119 83 94 119 83 94 119 83 94 119 83 94 119 83 94 119 83 94 119 83 94 119 83 94 119 83 94 119 83 94 119 83 94 119 83 94 119 83 94 119 83 94 119 83 94 119 83 94 119 83 94 119 83 94 119 83 94 119 83 94 119 83 94 119 83 94 119 83 94 
164 196 214 164 196 214 164 196 214 164 196 214 164 196 214 164 196 214 164 196 214 164 196 214 164 196 214 164 196 214 164 196 214 164 196 214 164 196 214 164 196 214 164 196 214 164 196 214 164 196 214 164 196 214 164 196 214 164 196 214 164 196 214 164 196 214 164 196 214 164 196 214 164 196 214 164 196 214 164 196 214 164 196 214 164 196 214 164 196 214 164 196 214 164 196 214 164 196 214 164 196 214 164 196 214 0 0 255 161 104 94 0 0 255 0 0 255 0 0 255 0 0 255 161 104 94 161 104 94 161 104 94 161 104 94 161 104 94 161 104 94 161 104 94 161 104 94 161 104 94 161 104 94 161 104 94 161 104 94 161 104 94 161 104 94 161 104 94 0 0 255 164 196 214 164 196 214 164 196 214 164 196 214 0 0 255 161 104 94 161 104 94 161 104 94 161 104 94 161 104 94 161 104 94 161 104 94 161 104 94 161 104 94 161 104 94 161 104 94 161 104 94 161 104 94 161 104 94 161 104 94 161 104 94 161 104 94 161 104 94 161 104 94 161 104 94 161 104 94 161 104 94 161 104 94 161 104 94 161 104 94 161 104 94 161 104 94 161 104 94 161 104 94 161 104 94 161 104 94 161 104 94 161 104 94 161 104 94 161 104 94 161 104 94 161 104 94 161 104 94 161 104 94 161 104 94 161 104 94 161 104 94 161 104 94 161 104 94 161 104 94 161 104 94 161 104 94 161 104 94 161 104 94 161 104 94 0 0 255 167 176 177 167 176 177 167 176 177 167 176 177 167 176 177 0 0 255 0 0 255 167 176 177 167 176 177 167 176 177 167 176 177 167 176 177 167 176 177 167 176 177 167 176 177 167 176 177 167 176 177 167 176 177 167 176 177 167 176 177 167 176 177 167 176 177 0 0 255 0 0 255 147 98 96 147 98 96 147 98 96 147 98 96 147 98 96 147 98 96 147 98 96 147 98 96 147 98 96 147 98 96 147 98 96 147 98 96 0 0 255 0 0 255 167 176 177 167 176 177 167 176 177 167 176 177 167 176 177 167 176 177 167 176 177 167 176 177 167 176 177 167 176 177 167 176 177 167 176 177 167 176 177 167 176 177 167 176 177 167 176 177 167 176 177 167 176 177 167 176 177 167 176 177 167 176 177 0 0 255 119 83 94 119 83 94 119 83 94 119 83 94 119 83 94 119 83 94 119 83 94 119 83 94 119 83 94 119 83 94 119 83 94 119 83 94 119 83 94 119 83 94 119 83 94 119 83 94 119 83 94 119 83 94 0 0 255 167 176 177 167 176 177 167 176 177 167 176 177 167 176 177 167 176 177 0 0 255 119 83 94 119 83 94 119 83 94 119 83 94 119 83 94 119 83 94 119 83 94 119 83 94 119 83 94 119 83 94 119 83 94 119 83 94 119 83 94 119 83 94 119 83 94 119 83 94 119 83 94 119 83 94 119 83 94 119 83 94 119 83 94 119 83 94 119 83 94 119 83 94 119 83 94 119 83 94 119 83 94 119 83 94 119 83 94 119 83 94 119 83 94 119 83 94 119 83 94 119 83 94 119 83 94 119 83 94 119 83 94 119 83 94 119 83 94 119 83 94 119 83 94 119 83 94 119 83 94 119 83 94 119 83 94 119 83 94 119 83 94 119 83 94 119 83 94 119 83 94 119 83 94 119 83 94 119 83 94 119 83 94 119 83 94 119 83 94 119 83 94 
164 196 214 164 196 214 164 196 214 164 196 214 164 196 214 164 196 214 164 196 214 164 196 214 164 196 214 164 196 214 164 196 214 164 196 214 164 196 214 164 196 214 164 196 214 164 196 214 164 196 214 164 196 214 164 196 214 164 196 214 164 196 214 164 196 214 164 196 214 164 196 214 164 196 214 164 196 214 164 196 214 164 196 214 164 196 214 164 196 214 164 196 214 164 196 214 164 196 214 164 196 214 0 0 255 161 104 94 161 104 94 161 104 94 161 104 94 161 104 94 161 104 94 161 104 94 161 104 94 161 104 94 161 104 94 161 104 94 161 104 94 161 104 94 161 104 94 161 104 94 161 104 94 161 104 94 161 104 94 161 104 94 161 104 94 161 104 94 0 0 255 164 196 214 164 196 214 164 196 214 164 196 214 0 0 255 161 104 94 161 104 94 161 104 94 161 104 94 161 104 94 161 104 94 161 104 94 161 104 94 161 104 94 161 104 94 161 104 94 161 104 94 161 104 94 161 104 94 161 104 94 161 104 94 161 104 94 161 104 94 161 104 94 161 104 94 161 104 94 161 104 94 161 104 94 161 104 94 161 104 94 161 104 94 161 104 94 161 104 94 161 104 94 161 104 94 161 104 94 161 104 94 161 104 94 161 104 94 161 104 94 161 104 94 161 104 94 161 104 94 161 104 94 161 104 94 161 104 94 161 104 94 161 104 94 161 104 94 161 104 94 161 104 94 161 104 94 161 104 94 161 104 94 161 104 94 0 0 255 167 176 177 167 176 177 167 176 177 167 176 177 167 176 177 0 0 255 0 0 255 167 176 177 167 176 177 167 176 177 167 176 177 167 176 177 167 176 177 167 176 177 167 176 177 167 176 177 167 176 177 167 176 177 167 176 177 167 176 177 167 176 177 167 176 177 0 0 255 0 0 255 0 0 255 0 0 255 0 0 255 0 0 255 0 0 255 147 98 96 0 0 255 0 0 255 147 98 96 147 98 96 147 98 96 147 98 96 0 0 255 0 0 255 167 176 177 167 176 177 167 176 177 167 176 177 167 176 177 167 176 177 167 176 177 167 176 177 167 176 177 167 176 177 167 176 177 167 176 177 167 176 177 167 176 177 167 176 177 167 176 177 167 176 177 167 176 177 167 176 177 167 176 177 167 176 177 0 0 255 119 83 94 119 83 94 119 83 94 119 83 94 119 83 94 119 83 94 119 83 94 119 83 94 119 83 94 119 83 94 119 83 94 119 83 94 119 83 94 119 83 94 119 83 94 119 83 94 119 83 94 0 0 255 0 0 255 167 176 177 167 176 177 167 176 177 167 176 177 167 176 177 167 176 177 0 0 255 119 83 94 119 83 94 119 83 94 119 83 94 119 83 94 119 83 94 119 83 94 119 83 94 119 83 94 119 83 94 119 83 94 119 83 94 119 83 94 0 0 255 0 0 255 0 0 255 119 83 94 119 83 94 119 83 94 119 83 94 119 83 94 119 83 94 119 83 94 119 83 94 119 83 94 119 83 94 119 83 94 119 83 94 119 83 94 119 83 94 119 83 94 119 83 94 119 83 94 119 83 94 119 83 94 119 83 94 119 83 94 119 83 94 119 83 94 119 83 94 119 83 94 119 83 94 119 83 94 119 83 94 119 83 94 119 83 94 119 83 94 119 83 94 119 83 94 119 83 94 119 83 94 119 83 94 119 83 94 119 83 94 119 83 94 119 83 94 119 83 94 
164 196 214 164 196 214 164 196 214 164 196 214 164 196 214 164 196 214 164 196 214 164 196 214 164 196 214 164 196 214 164 196 214 164 196 214 164 196 214 164 196 214 164 196 214 164 196 214 164 196 214 164 196 214 164 196 214 164 196 214 164 196 214 164 196 214 164 196 214 164 196 214 164 196 214 164 196 214 164 196 214 164 196 214 164 196 214 164 196 214 164 196 214 164 196 214 164 196 214 0 0 255 0 0 255 161 104 94 161 104 94 161 104 94 0 0 255 161 104 94 161 104 94 161 104 94 161 104 94 161 104 94 161 104 94 161 104 94 161 104 94 161 104 94 161 104 94 161 104 94 161 104 94 161 104 94 161 104 94 161 104 94 161 104 94 161 104 94 0 0 255 164 196 214 164 196 214 164 196 214 164 196 214 0 0 255 161 104 94 161 104 94 161 104 94 161 104 94 161 104 94 161 104 94 161 104 94 161 104 94 161 104 94 161 104 94 161 104 94 161 104 94 161 104 94 161 104 94 161 104 94 161 104 94 161 104 94 161 104 94 161 104 94 161 104 94 161 104 94 161 104 94 161 104 94 161 104 94 161 104 94 161 104 94 161 104 94 161 104 94 161 104 94 161 104 94 161 104 94 161 104 94 161 104 94 161 104 94 161 104 94 161 104 94 161 104 94 161 104 94 161 104 94 161 104 94 161 104 94 161 104 94 161 104 94 161 104 94 161 104 94 161 104 94 161 104 94 161 104 94 161 104 94 161 104 94 0 0 255 167 176 177 167 176 177 167 176 177 167 176 177 167 176 177 0 0 255 0 0 255 167 176 177 167 176 177 167 176 177 167 176 177 167 176 177 167 176 177 167 176 177 167 176 177 167 176 177 167 176 177 167 176 177 167 176 177 167 176 177 167 176 177 167 176 177 0 0 255 161 104 94 161 104 94 161 104 94 161 104 94 0 0 255 0 0 255 0 0 255 161 104 94 0 0 255 0 0 255 0 0 255 147 98 96 0 0 255 0 0 255 0 0 255 167 176 177 167 176 177 167 176 177 167 176 177 167 176 177 167 176 177 167 176 177 167 176 177 167 176 177 167 176 177 167 176 177 167 176 177 167 176 177 167 176 177 167 176 177 167 176 177 167 176 177 167 176 177 167 176 177 167 176 177 167 176 177 0 0 255 119 83 94 119 83 94 119 83 94 119 83 94 119 83 94 119 83 94 119 83 94 119 83 94 119 83 94 119 83 94 119 83 94 119 83 94 119 83 94 119 83 94 119 83 94 119 83 94 0 0 255 0 0 255 0 0 255 167 176 177 167 176 177 167 176 177 167 176 177 167 176 177 167 176 177 0 0 255 119 83 94 119 83 94 119 83 94 119 83 94 119 83 94 119 83 94 119 83 94 119 83 94 119 83 94 119 83 94 119 83 94 119 83 94 0 0 255 0 0 255 0 0 255 0 0 255 119 83 94 119 83 94 119 83 94 119 83 94 119 83 94 119 83 94 119 83 94 119 83 94 119 83 94 119 83 94 119 83 94 119 83 94 119 83 94 119 83 94 119 83 94 119 83 94 119 83 94 119 83 94 119 83 94 119 83 94 119 83 94 119 83 94 119 83 94 119 83 94 119 83 94 119 83 94 119 83 94 119 83 94 119 83 94 119 83 94 119 83 94 119 83 94 119 83 94 119 83 94 119 83 94 119 83 94 119 83 94 119 83 94 119 83 94 119 83 94 119 83 94 
164 196 214 164 196 214 164 196 214 164 196 214 164 196 214 164 196 214 164 196 214 164 196 214 164 196 214 164 196 214 164 196 214 164 196 214 164 196 214 164 196 214 164 196 214 164 196 214 164 196 214 164 196 214 164 196 214 164 196 214 164 196 214 164 196 214 164 196 214 164 196 214 164 196 214 164 196 214 164 196 214 164 196 214 164 196 214 164 196 214 164 196 214 164 196 214 164 196 214 164 196 214 0 0 255 161 104 94 161 104 94 0 0 255 0 0 255 161 104 94 161 104 94 161 104 94 161 104 94 161 104 94 161 104 94 161 104 94 161 104 94 161 104 94 161 104 94 161 104 94 161 104 94 161 104 94 161 104 94 161 104 94 161 104 94 161 104 94 0 0 255 164 196 214 164 196 214 164 196 214 0 0 255 161 104 94 161 104 94 161 104 94 161 104 94 161 104 94 161 104 94 161 104 94 161 104 94 161 104 94 161 104 94 161 104 94 161 104 94 161 104 94 161 104 94 161 104 94 161 104 94 161 104 94 161 104 94 161 104 94 161 104 94 161 104 94 161 104 94 161 104 94 161 104 94 161 104 94 161 104 94 161 104 94 161 104 94 161 104 94 161 104 94 161 104 94 161 104 94 161 104 94 161 104 94 161 104 94 161 104 94 161 104 94 161 104 94 161 104 94 161 104 94 161 104 94 161 104 94 161 104 94 161 104 94 161 104 94 161 104 94 161 104 94 161 104 94 161 104 94 161 104 94 161 104 94 0 0 255 167 176 177 167 176 177 167 176 177 167 176 177 167 176 177 0 0 255 0 0 255 167 176 177 167 176 177 167 176 177 167 176 177 167 176 177 167 176 177 167 176 177 167 176 177 167 176 177 167 176 177 167 176 177 167 176 177 167 176 177 167 176 177 167 176 177 0 0 255 161 104 94 161 104 94 161 104 94 0 0 255 0 0 255 0 0 255 0 0 255 161 104 94 161 104 94 161 104 94 0 0 255 0 0 255 0 0 255 0 0 255 0 0 255 167 176 177 167 176 177 167 176 177 167 176 177 167 176 177 167 176 177 167 176 177 167 176 177 167 176 177 167 176 177 167 176 177 167 176 177 167 176 177 167 176 177 167 176 177 167 176 177 167 176 177 167 176 177 167 176 177 167 176 177 167 176 177 0 0 255 119 83 94 119 83 94 119 83 94 119 83 94 119 83 94 119 83 94 119 83 94 119 83 94 119 83 94 119 83 94 119 83 94 119 83 94 119 83 94 119 83 94 119 83 94 119 83 94 119 83 94 119 83 94 0 0 255 167 176 177 167 176 177 167 176 177 167 176 177 167 176 177 167 176 177 0 0 255 119 83 94 119 83 94 119 83 94 0 0 255 119 83 94 119 83 94 119 83 94 119 83 94 119 83 94 119 83 94 119 83 94 119 83 94 119 83 94 119 83 94 119 83 94 119 83 94 119 83 94 119 83 94 119 83 94 119 83 94 119 83 94 119 83 94 119 83 94 119 83 94 119 83 94 119 83 94 119 83 94 119 83 94 0 0 255 119 83 94 119 83 94 119 83 94 119 83 94 119 83 94 119 83 94 119 83 94 119 83 94 119 83 94 119 83 94 119 83 94 119 83 94 119 83 94 119 83 94 119 83 94 119 83 94 119 83 94 119 83 94 119 83 94 119 83 94 119 83 94 119 83 94 119 83 94 119 83 94 119 83 94 119 83 94 119 83 94 119 83 94 
164 196 214 164 196 214 164 196 214 164 196 214 164 196 214 164 196 214 164 196 214 164 196 214 164 196 214 164 196 214 164 196 214 164 196 214 164 196 214 164 196 214 164 196 214 164 196 214 164 196 214 164 196 214 164 196 214 164 196 214 164 196 214 164 196 214 164 196 214 164 196 214 164 196 214 164 196 214 164 196 214 164 196 214 164 196 214 164 196 214 164 196 214 164 196 214 164 196 214 164 196 214 0 0 255 161 104 94 161 104 94 161 104 94 161 104 94 161 104 94 161 104 94 161 104 94 161 104 94 161 104 94 161 104 94 161 104 94 161 104 94 161 104 94 161 104 94 161 104 94 161 104 94 161 104 94 161 104 94 161 104 94 161 104 94 161 104 94 0 0 255 164 196 214 164 196 214 164 196 214 0 0 255 161 104 94 161 104 94 161 104 94 161 104 94 161 104 94 161 104 94 161 104 94 161 104 94 161 104 94 161 104 94 161 104 94 161 104 94 161 104 94 161 104 94 161 104 94 161 104 94 161 104 94 161 104 94 161 104 94 161 104 94 161 104 94 161 104 94 161 104 94 161 104 94 161 104 94 161 104 94 161 104 94 161 104 94 161 104 94 161 104 94 161 104 94 161 104 94 161 104 94 161 104 94 161 104 94 161 104 94 161 104 94 161 104 94 161 104 94 161 104 94 161 104 94 161 104 94 161 104 94 161 104 94 161 104 94 161 104 94 161 104 94 161 104 94 161 104 94 161 104 94 161 104 94 0 0 255 167 176 177 167 176 177 167 176 177 167 176 177 167 176 177 167 176 177 167 176 177 167 176 177 167 176 177 167 176 177 167 176 177 167 176 177 167 176 177 167 176 177 167 176 177 167 176 177 167 176 177 167 176 177 167 176 177 167 176 177 167 176 177 167 176 177 0 0 255 161 104 94 161 104 94 161 104 94 161 104 94 161 104 94 161 104 94 161 104 94 161 104 94 161 104 94 161 104 94 161 104 94 0 0 255 0 0 255 0 0 255 0 0 255 167 176 177 167 176 177 167 176 177 167 176 177 167 176 177 167 176 177 167 176 177 167 176 177 167 176 177 167 176 177 167 176 177 167 176 177 167 176 177 167 176 177 167 176 177 167 176 177 167 176 177 167 176 177 167 176 177 167 176 177 167 176 177 0 0 255 119 83 94 119 83 94 119 83 94 119 83 94 119 83 94 119 83 94 119 83 94 119 83 94 119 83 94 119 83 94 119 83 94 119 83 94 119 83 94 119 83 94 119 83 94 119 83 94 119 83 94 119 83 94 0 0 255 167 176 177 167 176 177 167 176 177 167 176 177 167 176 177 0 0 255 119 83 94 119 83 94 119 83 94 0 0 255 0 0 255 119 83 94 119 83 94 119 83 94 119 83 94 119 83 94 119 83 94 119 83 94 119 83 94 119 83 94 119 83 94 119 83 94 119 83 94 119 83 94 119 83 94 119 83 94 119 83 94 119 83 94 119 83 94 119 83 94 119 83 94 119 83 94 119 83 94 119 83 94 0 0 255 0 0 255 119 83 94 119 83 94 119 83 94 119 83 94 119 83 94 119 83 94 119 83 94 119 83 94 119 83 94 119 83 94 119 83 94 119 83 94 119 83 94 119 83 94 119 83 94 119 83 94 119 83 94 119 83 94 119 83 94 119 83 94 119 83 94 119 83 94 119 83 94 119 83 94 119 83 94 119 83 94 119 83 94 119 83 94 
164 196 214 164 196 214 164 196 214 164 196 214 164 196 214 164 196 214 164 196 214 164 196 214 164 196 214 164 196 214 164 196 214 164 196 214 164 196 214 164 196 214 164 196 214 164 196 214 164 196 214 164 196 214 164 196 214 164 196 214 164 196 214 164 196 214 164 196 214 164 196 214 164 196 214 164 196 214 164 196 214 164 196 214 164 196 214 164 196 214 164 196 214 164 196 214 164 196 214 164 196 214 0 0 255 161 104 94 161 104 94 161 104 94 161 104 94 161 104 94 161 104 94 161 104 94 161 104 94 161 104 94 161 104 94 161 104 94 161 104 94 161 104 94 161 104 94 161 104 94 161 104 94 161 104 94 161 104 94 161 104 94 161 104 94 0 0 255 0 0 255 164 196 214 164 196 214 164 196 214 0 0 255 161 104 94 161 104 94 161 104 94 161 104 94 161 104 94 161 104 94 161 104 94 161 104 94 161 104 94 161 104 94 161 104 94 161 104 94 161 104 94 161 104 94 161 104 94 161 104 94 161 104 94 161 104 94 161 104 94 161 104 94 161 104 94 161 104 94 161 104 94 161 104 94 161 104 94 161 104 94 161 104 94 161 104 94 161 104 94 161 104 94 161 104 94 161 104 94 161 104 94 161 104 94 161 104 94 161 104 94 161 104 94 161 104 94 161 104 94 161 104 94 161 104 94 161 104 94 161 104 94 161 104 94 161 104 94 161 104 94 161 104 94 161 104 94 161 104 94 161 104 94 161 104 94 0 0 255 167 176 177 167 176 177 167 176 177 167 176 177 167 176 177 167 176 177 167 176 177 167 176 177 167 176 177 167 176 177 167 176 177 167 176 177 167 176 177 167 176 177 167 176 177 167 176 177 167 176 177 167 176 177 167 176 177 167 176 177 167 176 177 167 176 177 0 0 255 161 104 94 161 104 94 161 104 94 161 104 94 161 104 94 161 104 94 161 104 94 161 104 94 161 104 94 161 104 94 161 104 94 161 104 94 0 0 255 0 0 255 0 0 255 167 176 177 167 176 177 167 176 177 167 176 177 167 176 177 167 176 177 167 176 177 167 176 177 167 176 177 167 176 177 167 176 177 167 176 177 167 176 177 167 176 177 167 176 177 167 176 177 167 176 177 167 176 177 167 176 177 167 176 177 167 176 177 0 0 255 119 83 94 119 83 94 119 83 94 119 83 94 119 83 94 119 83 94 119 83 94 119 83 94 119 83 94 119 83 94 119 83 94 119 83 94 119 83 94 119 83 94 119 83 94 119 83 94 119 83 94 119 83 94 0 0 255 167 176 177 167 176 177 167 176 177 167 176 177 167 176 177 0 0 255 0 0 255 0 0 255 119 83 94 119 83 94 119 83 94 119 83 94 119 83 94 119 83 94 119 83 94 119 83 94 119 83 94 119 83 94 119 83 94 119 83 94 119 83 94 119 83 94 119 83 94 119 83 94 119 83 94 119 83 94 119 83 94 119 83 94 119 83 94 119 83 94 119 83 94 119 83 94 119 83 94 119 83 94 119 83 94 119 83 94 119 83 94 119 83 94 119 83 94 119 83 94 119 83 94 119 83 94 119 83 94 119 83 94 119 83 94 119 83 94 119 83 94 119 83 94 0 0 255 119 83 94 119 83 94 119 83 94 119 83 94 119 83 94 119 83 94 119 83 94 119 83 94 119 83 94 119 83 94 119 83 94 119 83 94 119 83 94 119 83 94 119 83 94 
164 196 214 164 196 214 164 196 214 164 196 214 164 196 214 164 196 214 164 196 214 164 196 214 164 196 214 164 196 214 164 196 214 164 196 214 164 196 214 164 196 214 164 196 214 164 196 214 164 196 214 164 196 214 164 196 214 164 196 214 164 196 214 164 196 214 164 196 214 164 196 214 164 196 214 164 196 214 164 196 214 164 196 214 164 196 214 164 196 214 164 196 214 164 196 214 164 196 214 164 196 214 0 0 255 161 104 94 161 104 94 161 104 94 161 104 94 161 104 94 161 104 94 161 104 94 161 104 94 161 104 94 161 104 94 161 104 94 161 104 94 161 104 94 161 104 94 161 104 94 161 104 94 161 104 94 161 104 94 161 104 94 161 104 94 161 104 94 0 0 255 164 196 214 164 196 214 164 196 214 0 0 255 161 104 94 161 104 94 161 104 94 161 104 94 161 104 94 161 104 94 161 104 94 161 104 94 161 104 94 161 104 94 161 104 94 161 104 94 161 104 94 161 104 94 161 104 94 161 104 94 161 104 94 161 104 94 161 104 94 161 104 94 161 104 94 161 104 94 161 104 94 161 104 94 161 104 94 161 104 94 161 104 94 161 104 94 161 104 94 161 104 94 161 104 94 161 104 94 161 104 94 161 104 94 161 104 94 161 104 94 161 104 94 161 104 94 161 104 94 161 104 94 161 104 94 161 104 94 161 104 94 161 104 94 161 104 94 161 104 94 161 104 94 161 104 94 161 104 94 161 104 94 0 0 255 0 0 255 167 176 177 167 176 177 167 176 177 167 176 177 167 176 177 167 176 177 167 176 177 167 176 177 167 176 177 167 176 177 167 176 177 167 176 177 167 176 177 167 176 177 167 176 177 167 176 177 167 176 177 167 176 177 167 176 177 167 176 177 167 176 177 167 176 177 0 0 255 161 104 94 161 104 94 161 104 94 161 104 94 161 104 94 161 104 94 161 104 94 161 104 94 161 104 94 161 104 94 161 104 94 161 104 94 161 104 94 161 104 94 0 0 255 167 176 177 167 176 177 167 176 177 167 176 177 167 176 177 167 176 177 167 176 177 167 176 177 167 176 177 167 176 177 167 176 177 167 176 177 167 176 177 167 176 177 167 176 177 167 176 177 167 176 177 167 176 177 167 176 177 167 176 177 167 176 177 0 0 255 119 83 94 119 83 94 119 83 94 119 83 94 119 83 94 119 83 94 119 83 94 119 83 94 119 83 94 119 83 94 119 83 94 119 83 94 119 83 94 119 83 94 119 83 94 119 83 94 119 83 94 119 83 94 0 0 255 167 176 177 167 176 177 167 176 177 167 176 177 167 176 177 167 176 177 0 0 255 0 0 255 119 83 94 119 83 94 119 83 94 119 83 94 0 0 255 119 83 94 119 83 94 119 83 94 119 83 94 119 83 94 119 83 94 119 83 94 119 83 94 119 83 94 119 83 94 119 83 94 119 83 94 119 83 94 119 83 94 119 83 94 119 83 94 119 83 94 119 83 94 119 83 94 119 83 94 119 83 94 119 83 94 119 83 94 119 83 94 119 83 94 0 0 255 119 83 94 119 83 94 119 83 94 119 83 94 119 83 94 119 83 94 119 83 94 119 83 94 0 0 255 0 0 255 119 83 94 119 83 94 119 83 94 119 83 94 119 83 94 119 83 94 119 83 94 119 83 94 119 83 94 119 83 94 119 83 94 119 83 94 119 83 94 119 83 94 119 83 94 
164 196 214 164 196 214 164 196 214 164 196 214 164 196 214 164 196 214 164 196 214 164 196 214 164 196 214 164 196 214 164 196 214 164 196 214 164 196 214 164 196 214 164 196 214 164 196 214 164 196 214 164 196 214 164 196 214 164 196 214 164 196 214 164 196 214 164 196 214 164 196 214 164 196 214 164 196 214 164 196 214 164 196 214 164 196 214 164 196 214 164 196 214 164 196 214 164 196 214 164 196 214 0 0 255 161 104 94 161 104 94 161 104 94 161 104 94 161 104 94 161 104 94 161 104 94 161 104 94 161 104 94 161 104 94 161 104 94 161 104 94 161 104 94 161 104 94 161 104 94 161 104 94 161 104 94 161 104 94 161 104 94 161 104 94 161 104 94 0 0 255 164 196 214 164 196 214 164 196 214 0 0 255 161 104 94 161 104 94 161 104 94 161 104 94 161 104 94 161 104 94 161 104 94 161 104 94 161 104 94 161 104 94 161 104 94 161 104 94 161 104 94 161 104 94 161 104 94 161 104 94 161 104 94 161 104 94 161 104 94 161 104 94 161 104 94 161 104 94 161 104 94 161 104 94 161 104 94 161 104 94 161 104 94 161 104 94 161 104 94 161 104 94 161 104 94 161 104 94 161 104 94 161 104 94 161 104 94 161 104 94 161 104 94 161 104 94 161 104 94 161 104 94 161 104 94 161 104 94 161 104 94 161 104 94 161 104 94 161 104 94 161 104 94 161 104 94 161 104 94 0 0 255 167 176 177 167 176 177 167 176 177 167 176 177 167 176 177 167 176 177 167 176 177 167 176 177 167 176 177 167 176 177 167 176 177 167 176 177 167 176 177 167 176 177 167 176 177 167 176 177 167 176 177 0 0 255 0 0 255 0 0 255 0 0 255 0 0 255 0 0 255 0 0 255 0 0 255 161 104 94 161 104 94 161 104 94 161 104 94 161 104 94 161 104 94 161 104 94 161 104 94 161 104 94 161 104 94 161 104 94 161 104 94 161 104 94 161 104 94 0 0 255 167 176 177 167 176 177 167 176 177 167 176 177 167 176 177 167 176 177 167 176 177 167 176 177 167 176 177 167 176 177 167 176 177 167 176 177 167 176 177 167 176 177 167 176 177 167 176 177 167 176 177 167 176 177 167 176 177 167 176 177 167 176 177 0 0 255 119 83 94 119 83 94 119 83 94 119 83 94 119 83 94 119 83 94 119 83 94 119 83 94 119 83 94 119 83 94 119 83 94 119 83 94 119 83 94 119 83 94 119 83 94 119 83 94 119 83 94 119 83 94 0 0 255 167 176 177 167 176 177 167 176 177 167 176 177 167 176 177 0 0 255 119 83 94 119 83 94 119 83 94 119 83 94 119 83 94 0 0 255 0 0 255 119 83 94 119 83 94 119 83 94 119 83 94 119 83 94 119 83 94 119 83 94 119 83 94 119 83 94 119 83 94 119 83 94 119 83 94 119 83 94 119 83 94 119 83 94 119 83 94 119 83 94 119 83 94 119 83 94 119 83 94 119 83 94 119 83 94 119 83 94 119 83 94 0 0 255 0 0 255 119 83 94 119 83 94 119 83 94 119 83 94 119 83 94 119 83 94 119 83 94 119 83 94 119 83 94 119 83 94 119 83 94 119 83 94 119 83 94 119 83 94 119 83 94 119 83 94 119 83 94 119 83 94 119 83 94 119 83 94 119 83 94 119 83 94 119 83 94 119 83 94 119 83 94 
164 196 214 164 196 214 164 196 214 164 196 214 164 196 214 164 196 214 164 196 214 164 196 214 164 196 214 164 196 214 164 196 214 164 196 214 164 196 214 164 196 214 164 196 214 164 196 214 164 196 214 164 196 214 164 196 214 164 196 214 164 196 214 164 196 214 164 196 214 164 196 214 164 196 214 164 196 214 164 196 214 164 196 214 164 196 214 164 196 214 164 196 214 164 196 214 164 196 214 164 196 214 0 0 255 161 104 94 161 104 94 161 104 94 161 104 94 161 104 94 161 104 94 161 104 94 161 104 94 161 104 94 161 104 94 161 104 94 161 104 94 161 104 94 161 104 94 161 104 94 161 104 94 161 104 94 161 104 94 161 104 94 161 104 94 161 104 94 0 0 255 164 196 214 164 196 214 164 196 214 0 0 255 161 104 94 161 104 94 161 104 94 161 104 94 161 104 94 161 104 94 161 104 94 161 104 94 161 104 94 161 104 94 161 104 94 161 104 94 161 104 94 161 104 94 161 104 94 161 104 94 161 104 94 161 104 94 161 104 94 161 104 94 161 104 94 161 104 94 161 104 94 161 104 94 161 104 94 161 104 94 161 104 94 161 104 94 161 104 94 161 104 94 161 104 94 161 104 94 161 104 94 161 104 94 161 104 94 161 104 94 161 104 94 161 104 94 161 104 94 161 104 94 161 104 94 161 104 94 161 104 94 161 104 94 161 104 94 161 104 94 161 104 94 161 104 94 0 0 255 167 176 177 167 176 177 167 176 177 167 176 177 167 176 177 167 176 177 167 176 177 167 176 177 167 176 177 167 176 177 167 176 177 167 176 177 167 176 177 0 0 255 0 0 255 0 0 255 0 0 255 0 0 255 0 0 255 161 104 94 0 0 255 0 0 255 0 0 255 0 0 255 161 104 94 161 104 94 161 104 94 161 104 94 161 104 94 161 104 94 161 104 94 161 104 94 161 104 94 161 104 94 161 104 94 161 104 94 161 104 94 161 104 94 161 104 94 161 104 94 0 0 255 167 176 177 167 176 177 167 176 177 167 176 177 167 176 177 167 176 177 167 176 177 167 176 177 167 176 177 167 176 177 167 176 177 167 176 177 167 176 177 167 176 177 167 176 177 167 176 177 167 176 177 167 176 177 167 176 177 167 176 177 167 176 177 0 0 255 119 83 94 119 83 94 119 83 94 119 83 94 119 83 94 119 83 94 119 83 94 119 83 94 119 83 94 119 83 94 119 83 94 119 83 94 119 83 94 119 83 94 119 83 94 119 83 94 119 83 94 119 83 94 0 0 255 167 176 177 167 176 177 167 176 177 167 176 177 167 176 177 0 0 255 119 83 94 119 83 94 119 83 94 119 83 94 119 83 94 119 83 94 119 83 94 119 83 94 119 83 94 119 83 94 119 83 94 119 83 94 119 83 94 119 83 94 119 83 94 119 83 94 119 83 94 119 83 94 119 83 94 119 83 94 119 83 94 119 83 94 119 83 94 119 83 94 119 83 94 119 83 94 119 83 94 119 83 94 119 83 94 119 83 94 119 83 94 119 83 94 119 83 94 119 83 94 119 83 94 119 83 94 119 83 94 119 83 94 119 83 94 119 83 94 119 83 94 119 83 94 119 83 94 119 83 94 119 83 94 119 83 94 0 0 255 119 83 94 119 83 94 119 83 94 119 83 94 119 83 94 119 83 94 119 83 94 119 83 94 119 83 94 119 83 94 119 83 94 
164 196 214 164 196 214 164 196 214 164 196 214 164 196 214 164 196 214 164 196 214 164 196 214 164 196 214 164 196 214 164 196 214 164 196 214 164 196 214 164 196 214 164 196 214 164 196 214 164 196 214 164 196 214 164 196 214 164 196 214 164 196 214 164 196 214 164 196 214 164 196 214 164 196 214 164 196 214 164 196 214 164 196 214 164 196 214 164 196 214 164 196 214 164 196 214 164 196 214 164 196 214 0 0 255 161 104 94 161 104 94 161 104 94 161 104 94 161 104 94 161 104 94 161 104 94 161 104 94 161 104 94 161 104 94 161 104 94 161 104 94 161 104 94 161 104 94 161 104 94 161 104 94 161 104 94 161 104 94 161 104 94 161 104 94 0 0 255 164 196 214 164 196 214 164 196 214 164 196 214 0 0 255 161 104 94 161 104 94 161 104 94 161 104 94 161 104 94 161 104 94 161 104 94 161 104 94 161 104 94 161 104 94 161 104 94 161 104 94 161 104 94 161 104 94 161 104 94 161 104 94 161 104 94 161 104 94 161 104 94 161 104 94 161 104 94 161 104 94 161 104 94 161 104 94 161 104 94 161 104 94 161 104 94 161 104 94 161 104 94 161 104 94 161 104 94 161 104 94 161 104 94 161 104 94 161 104 94 161 104 94 161 104 94 161 104 94 161 104 94 161 104 94 161 104 94 161 104 94 161 104 94 161 104 94 161 104 94 161 104 94 161 104 94 161 104 94 0 0 255 167 176 177 167 176 177 167 176 177 167 176 177 167 176 177 167 176 177 167 176 177 0 0 255 0 0 255 0 0 255 0 0 255 0 0 255 0 0 255 161 104 94 161 104 94 161 104 94 0 0 255 0 0 255 0 0 255 161 104 94 161 104 94 161 104 94 161 104 94 161 104 94 161 104 94 161 104 94 161 104 94 161 104 94 161 104 94 161 104 94 161 104 94 161 104 94 161 104 94 161 104 94 161 104 94 161 104 94 161 104 94 161 104 94 161 104 94 0 0 255 0 0 255 167 176 177 167 176 177 167 176 177 167 176 177 167 176 177 167 176 177 167 176 177 167 176 177 167 176 177 167 176 177 167 176 177 167 176 177 167 176 177 167 176 177 167 176 177 167 176 177 167 176 177 167 176 177 167 176 177 167 176 177 167 176 177 0 0 255 119 83 94 119 83 94 119 83 94 119 83 94 119 83 94 119 83 94 119 83 94 119 83 94 119 83 94 119 83 94 119 83 94 119 83 94 119 83 94 119 83 94 119 83 94 119 83 94 119 83 94 119 83 94 0 0 255 167 176 177 167 176 177 167 176 177 167 176 177 167 176 177 0 0 255 119 83 94 119 83 94 119 83 94 119 83 94 0 0 255 119 83 94 119 83 94 119 83 94 119 83 94 119 83 94 119 83 94 0 0 255 0 0 255 119 83 94 119 83 94 119 83 94 119 83 94 119 83 94 119 83 94 119 83 94 119 83 94 119 83 94 119 83 94 119 83 94 119 83 94 119 83 94 119 83 94 119 83 94 119 83 94 119 83 94 119 83 94 119 83 94 119 83 94 119 83 94 119 83 94 119 83 94 119 83 94 119 83 94 119 83 94 119 83 94 119 83 94 119 83 94 119 83 94 119 83 94 119 83 94 0 0 255 0 0 255 119 83 94 119 83 94 119 83 94 119 83 94 119 83 94 0 0 255 0 0 255 119 83 94 119 83 94 119 83 94 119 83 94 
164 196 214 164 196 214 164 196 214 164 196 214 164 196 214 164 196 214 164 196 214 164 196 214 164 196 214 164 196 214 164 196 214 164 196 214 164 196 214 164 196 214 164 196 214 164 196 214 164 196 214 164 196 214 164 196 214 164 196 214 164 196 214 164 196 214 164 196 214 164 196 214 164 196 214 164 196 214 164 196 214 164 196 214 164 196 214 164 196 214 164 196 214 164 196 214 164 196 214 164 196 214 0 0 255 161 104 94 161 104 94 161 104 94 161 104 94 161 104 94 161 104 94 161 104 94 161 104 94 161 104 94 161 104 94 161 104 94 161 104 94 161 104 94 161 104 94 161 104 94 161 104 94 161 104 94 161 104 94 161 104 94 161 104 94 0 0 255 164 196 214 164 196 214 164 196 214 164 196 214 0 0 255 161 104 94 161 104 94 161 104 94 161 104 94 161 104 94 161 104 94 161 104 94 161 104 94 161 104 94 161 104 94 161 104 94 161 104 94 161 104 94 161 104 94 161 104 94 161 104 94 161 104 94 161 104 94 161 104 94 161 104 94 161 104 94 161 104 94 161 104 94 161 104 94 161 104 94 161 104 94 161 104 94 161 104 94 161 104 94 161 104 94 161 104 94 161 104 94 161 104 94 161 104 94 161 104 94 161 104 94 161 104 94 161 104 94 161 104 94 161 104 94 161 104 94 161 104 94 161 104 94 161 104 94 161 104 94 161 104 94 161 104 94 161 104 94 0 0 255 0 0 255 167 176 177 0 0 255 0 0 255 0 0 255 0 0 255 0 0 255 161 104 94 161 104 94 161 104 94 161 104 94 161 104 94 161 104 94 161 104 94 161 104 94 161 104 94 161 104 94 161 104 94 161 104 94 161 104 94 161 104 94 161 104 94 161 104 94 161 104 94 161 104 94 161 104 94 161 104 94 161 104 94 161 104 94 161 104 94 161 104 94 161 104 94 161 104 94 161 104 94 161 104 94 161 104 94 161 104 94 161 104 94 161 104 94 161 104 94 0 0 255 167 176 177 167 176 177 167 176 177 167 176 177 167 176 177 167 176 177 167 176 177 167 176 177 167 176 177 167 176 177 167 176 177 167 176 177 167 176 177 167 176 177 167 176 177 167 176 177 167 176 177 167 176 177 167 176 177 167 176 177 167 176 177 0 0 255 119 83 94 119 83 94 119 83 94 119 83 94 119 83 94 119 83 94 119 83 94 119 83 94 119 83 94 119 83 94 119 83 94 119 83 94 119 83 94 119 83 94 119 83 94 119 83 94 119 83 94 119 83 94 0 0 255 167 176 177 167 176 177 167 176 177 167 176 177 167 176 177 0 0 255 119 83 94 119 83 94 119 83 94 0 0 255 0 0 255 119 83 94 119 83 94 119 83 94 119 83 94 119 83 94 0 0 255 0 0 255 0 0 255 119 83 94 119 83 94 0 0 255 119 83 94 0 0 255 0 0 255 119 83 94 119 83 94 119 83 94 119 83 94 119 83 94 119 83 94 119 83 94 119 83 94 119 83 94 119 83 94 119 83 94 119 83 94 119 83 94 119 83 94 119 83 94 119 83 94 119 83 94 119 83 94 119 83 94 119 83 94 119 83 94 119 83 94 119 83 94 119 83 94 119 83 94 119 83 94 119 83 94 119 83 94 119 83 94 119 83 94 119 83 94 119 83 94 0 0 255 0 0 255 0 0 255 119 83 94 119 83 94 119 83 94 119 83 94 
164 196 214 164 196 214 164 196 214 164 196 214 164 196 214 164 196 214 164 196 214 164 196 214 164 196 214 164 196 214 164 196 214 164 196 214 164 196 214 164 196 214 164 196 214 164 196 214 164 196 214 164 196 214 164 196 214 164 196 214 164 196 214 164 196 214 164 196 214 164 196 214 164 196 214 164 196 214 164 196 214 164 196 214 164 196 214 164 196 214 164 196 214 164 196 214 164 196 214 164 196 214 0 0 255 161 104 94 161 104 94 161 104 94 161 104 94 161 104 94 161 104 94 161 104 94 161 104 94 161 104 94 161 104 94 161 104 94 161 104 94 161 104 94 161 104 94 161 104 94 161 104 94 161 104 94 161 104 94 161 104 94 161 104 94 0 0 255 164 196 214 164 196 214 164 196 214 164 196 214 0 0 255 161 104 94 161 104 94 161 104 94 161 104 94 161 104 94 161 104 94 161 104 94 161 104 94 161 104 94 161 104 94 161 104 94 161 104 94 161 104 94 161 104 94 161 104 94 161 104 94 161 104 94 161 104 94 161 104 94 161 104 94 161 104 94 161 104 94 161 104 94 161 104 94 161 104 94 161 104 94 161 104 94 161 104 94 161 104 94 161 104 94 161 104 94 161 104 94 161 104 94 161 104 94 161 104 94 161 104 94 161 104 94 161 104 94 161 104 94 161 104 94 161 104 94 161 104 94 161 104 94 161 104 94 161 104 94 161 104 94 161 104 94 161 104 94 161 104 94 0 0 255 0 0 255 161 104 94 161 104 94 161 104 94 161 104 94 161 104 94 161 104 94 161 104 94 161 104 94 161 104 94 161 104 94 161 104 94 161 104 94 161 104 94 161 104 94 161 104 94 161 104 94 161 104 94 161 104 94 161 104 94 161 104 94 161 104 94 161 104 94 161 104 94 161 104 94 161 104 94 161 104 94 161 104 94 161 104 94 161 104 94 161 104 94 161 104 94 161 104 94 161 104 94 161 104 94 161 104 94 161 104 94 161 104 94 161 104 94 0 0 255 167 176 177 167 176 177 167 176 177 167 176 177 167 176 177 167 176 177 167 176 177 167 176 177 167 176 177 167 176 177 167 176 177 167 176 177 167 176 177 167 176 177 167 176 177 167 176 177 167 176 177 167 176 177 167 176 177 167 176 177 167 176 177 0 0 255 119 83 94 119 83 94 119 83 94 119 83 94 119 83 94 119 83 94 119 83 94 119 83 94 119 83 94 119 83 94 119 83 94 119 83 94 119 83 94 119 83 94 119 83 94 119 83 94 119 83 94 0 0 255 0 0 255 167 176 177 167 176 177 167 176 177 167 176 177 167 176 177 0 0 255 0 0 255 119 83 94 0 0 255 0 0 255 0 0 255 119 83 94 119 83 94 119 83 94 119 83 94 119 83 94 119 83 94 119 83 94 119 83 94 119 83 94 0 0 255 0 0 255 0 0 255 0 0 255 0 0 255 119 83 94 119 83 94 119 83 94 119 83 94 119 83 94 119 83 94 119 83 94 119 83 94 119 83 94 119 83 94 119 83 94 119 83 94 119 83 94 119 83 94 119 83 94 119 83 94 119 83 94 119 83 94 119 83 94 119 83 94 119 83 94 119 83 94 119 83 94 119 83 94 119 83 94 119 83 94 119 83 94 119 83 94 119 83 94 119 83 94 119 83 94 0 0 255 119 83 94 119 83 94 119 83 94 119 83 94 119 83 94 119 83 94 119 83 94 
164 196 214 164 196 214 164 196 214 164 196 214 164 196 214 164 196 214 164 196 214 164 196 214 164 196 214 164 196 214 164 196 214 164 196 214 164 196 214 164 196 214 164 196 214 164 196 214 164 196 214 164 196 214 164 196 214 164 196 214 164 196 214 164 196 214 164 196 214 164 196 214 164 196 214 164 196 214 164 196 214 164 196 214 164 196 214 164 196 214 164 196 214 164 196 214 164 196 214 164 196 214 0 0 255 161 104 94 161 104 94 161 104 94 161 104 94 161 104 94 161 104 94 161 104 94 161 104 94 161 104 94 161 104 94 161 104 94 161 104 94 161 104 94 161 104 94 161 104 94 161 104 94 161 104 94 161 104 94 161 104 94 161 104 94 0 0 255 164 196 214 164 196 214 164 196 214 0 0 255 161 104 94 161 104 94 161 104 94 161 104 94 161 104 94 161 104 94 161 104 94 161 104 94 161 104 94 161 104 94 161 104 94 161 104 94 161 104 94 161 104 94 161 104 94 161 104 94 161 104 94 161 104 94 161 104 94 161 104 94 161 104 94 161 104 94 161 104 94 161 104 94 161 104 94 161 104 94 161 104 94 161 104 94 161 104 94 161 104 94 161 104 94 161 104 94 161 104 94 161 104 94 161 104 94 161 104 94 161 104 94 161 104 94 161 104 94 161 104 94 161 104 94 161 104 94 161 104 94 161 104 94 161 104 94 161 104 94 161 104 94 161 104 94 161 104 94 161 104 94 161 104 94 161 104 94 161 104 94 161 104 94 161 104 94 161 104 94 161 104 94 161 104 94 161 104 94 161 104 94 161 104 94 161 104 94 161 104 94 161 104 94 161 104 94 161 104 94 161 104 94 161 104 94 161 104 94 161 104 94 161 104 94 161 104 94 161 104 94 161 104 94 161 104 94 161 104 94 161 104 94 161 104 94 161 104 94 161 104 94 161 104 94 161 104 94 161 104 94 161 104 94 161 104 94 161 104 94 161 104 94 161 104 94 161 104 94 161 104 94 0 0 255 167 176 177 167 176 177 167 176 177 167 176 177 167 176 177 167 176 177 167 176 177 167 176 177 167 176 177 167 176 177 167 176 177 167 176 177 167 176 177 167 176 177 167 176 177 167 176 177 167 176 177 167 176 177 167 176 177 167 176 177 167 176 177 0 0 255 119 83 94 119 83 94 119 83 94 119 83 94 119 83 94 119 83 94 119 83 94 119 83 94 119 83 94 119 83 94 119 83 94 119 83 94 119 83 94 119 83 94 119 83 94 119 83 94 119 83 94 119 83 94 0 0 255 167 176 177 167 176 177 167 176 177 167 176 177 167 176 177 167 176 177 0 0 255 0 0 255 0 0 255 0 0 255 0 0 255 119 83 94 119 83 94 119 83 94 0 0 255 119 83 94 119 83 94 119 83 94 119 83 94 119 83 94 119 83 94 119 83 94 119 83 94 119 83 94 119 83 94 119 83 94 119 83 94 119 83 94 119 83 94 119 83 94 119 83 94 119 83 94 119 83 94 119 83 94 119 83 94 119 83 94 119 83 94 0 0 255 0 0 255 119 83 94 119 83 94 119 83 94 119 83 94 119 83 94 119 83 94 119 83 94 119 83 94 119 83 94 119 83 94 119 83 94 119 83 94 119 83 94 119 83 94 119 83 94 119 83 94 0 0 255 0 0 255 119 83 94 119 83 94 119 83 94 119 83 94 0 0 255 119 83 94 119 83 94 
164 196 214 164 196 214 164 196 214 164 196 214 164 196 214 164 196 214 164 196 214 164 196 214 164 196 214 164 196 214 164 196 214 164 196 214 164 196 214 164 196 214 164 196 214 164 196 214 164 196 214 164 196 214 164 196 214 164 196 214 164 196 214 164 196 214 164 196 214 164 196 214 164 196 214 164 196 214 164 196 214 164 196 214 164 196 214 164 196 214 164 196 214 164 196 214 164 196 214 164 196 214 0 0 255 161 104 94 161 104 94 161 104 94 161 104 94 161 104 94 161 104 94 161 104 94 161 104 94 161 104 94 161 104 94 161 104 94 161 104 94 161 104 94 161 104 94 161 104 94 161 104 94 161 104 94 161 104 94 161 104 94 161 104 94 0 0 255 164 196 214 164 196 214 164 196 214 0 0 255 161 104 94 161 104 94 161 104 94 161 104 94 161 104 94 161 104 94 161 104 94 161 104 94 161 104 94 161 104 94 161 104 94 161 104 94 161 104 94 161 104 94 161 104 94 161 104 94 161 104 94 161 104 94 161 104 94 161 104 94 161 104 94 161 104 94 161 104 94 161 104 94 161 104 94 161 104 94 161 104 94 161 104 94 161 104 94 161 104 94 161 104 94 161 104 94 161 104 94 161 104 94 161 104 94 161 104 94 161 104 94 161 104 94 161 104 94 161 104 94 161 104 94 161 104 94 161 104 94 161 104 94 161 104 94 161 104 94 161 104 94 161 104 94 161 104 94 161 104 94 161 104 94 161 104 94 161 104 94 161 104 94 161 104 94 161 104 94 161 104 94 161 104 94 161 104 94 161 104 94 161 104 94 161 104 94 161 104 94 161 104 94 161 104 94 161 104 94 161 104 94 161 104 94 161 104 94 161 104 94 161 104 94 161 104 94 161 104 94 161 104 94 161 104 94 161 104 94 161 104 94 161 104 94 161 104 94 161 104 94 161 104 94 161 104 94 161 104 94 161 104 94 161 104 94 161 104 94 161 104 94 161 104 94 161 104 94 161 104 94 0 0 255 167 176 177 167 176 177 167 176 177 167 176 177 167 176 177 167 176 177 167 176 177 167 176 177 167 176 177 167 176 177 167 176 177 167 176 177 167 176 177 167 176 177 167 176 177 167 176 177 167 176 177 167 176 177 167 176 177 167 176 177 167 176 177 0 0 255 119 83 94 119 83 94 119 83 94 119 83 94 119 83 94 119 83 94 119 83 94 119 83 94 119 83 94 119 83 94 119 83 94 119 83 94 119 83 94 119 83 94 119 83 94 119 83 94 119 83 94 119 83 94 0 0 255 167 176 177 167 176 177 167 176 177 167 176 177 167 176 177 0 0 255 119 83 94 119 83 94 119 83 94 119 83 94 119 83 94 119 83 94 119 83 94 0 0 255 0 0 255 119 83 94 119 83 94 119 83 94 119 83 94 119 83 94 119 83 94 119 83 94 119 83 94 119 83 94 119 83 94 119 83 94 119 83 94 119 83 94 119 83 94 119 83 94 119 83 94 119 83 94 119 83 94 119 83 94 119 83 94 119 83 94 0 0 255 0 0 255 0 0 255 119 83 94 119 83 94 119 83 94 119 83 94 119 83 94 119 83 94 119 83 94 119 83 94 119 83 94 119 83 94 0 0 255 0 0 255 0 0 255 0 0 255 0 0 255 0 0 255 0 0 255 119 83 94 0 0 255 119 83 94 119 83 94 0 0 255 0 0 255 119 83 94 119 83 94 
164 196 214 164 196 214 164 196 214 164 196 214 164 196 214 164 196 214 164 196 214 164 196 214 164 196 214 164 196 214 164 196 214 164 196 214 164 196 214 164 196 214 164 196 214 164 196 214 164 196 214 164 196 214 164 196 214 164 196 214 164 196 214 164 196 214 164 196 214 164 196 214 164 196 214 164 196 214 164 196 214 164 196 214 164 196 214 164 196 214 164 196 214 164 196 214 164 196 214 164 196 214 0 0 255 161 104 94 161 104 94 161 104 94 161 104 94 161 104 94 161 104 94 161 104 94 161 104 94 161 104 94 161 104 94 161 104 94 161 104 94 161 104 94 161 104 94 161 104 94 161 104 94 161 104 94 161 104 94 161 104 94 161 104 94 0 0 255 164 196 214 164 196 214 164 196 214 0 0 255 161 104 94 161 104 94 161 104 94 161 104 94 161 104 94 161 104 94 161 104 94 161 104 94 161 104 94 161 104 94 161 104 94 161 104 94 161 104 94 161 104 94 161 104 94 161 104 94 161 104 94 161 104 94 161 104 94 161 104 94 161 104 94 161 104 94 161 104 94 161 104 94 161 104 94 161 104 94 161 104 94 161 104 94 161 104 94 161 104 94 161 104 94 161 104 94 161 104 94 161 104 94 161 104 94 161 104 94 161 104 94 161 104 94 161 104 94 161 104 94 161 104 94 161 104 94 161 104 94 161 104 94 161 104 94 161 104 94 161 104 94 161 104 94 161 104 94 161 104 94 161 104 94 161 104 94 161 104 94 161 104 94 161 104 94 161 104 94 161 104 94 161 104 94 161 104 94 161 104 94 161 104 94 161 104 94 161 104 94 161 104 94 161 104 94 161 104 94 161 104 94 161 104 94 161 104 94 161 104 94 161 104 94 161 104 94 161 104 94 161 104 94 161 104 94 161 104 94 161 104 94 161 104 94 161 104 94 161 104 94 161 104 94 161 104 94 161 104 94 161 104 94 161 104 94 161 104 94 161 104 94 161 104 94 161 104 94 161 104 94 0 0 255 167 176 177 167 176 177 167 176 177 167 176 177 167 176 177 167 176 177 167 176 177 167 176 177 167 176 177 167 176 177 167 176 177 167 176 177 167 176 177 167 176 177 167 176 177 167 176 177 167 176 177 167 176 177 167 176 177 167 176 177 167 176 177 0 0 255 119 83 94 119 83 94 119 83 94 119 83 94 119 83 94 119 83 94 119 83 94 119 83 94 119 83 94 119 83 94 119 83 94 119 83 94 119 83 94 119 83 94 119 83 94 119 83 94 119 83 94 119 83 94 0 0 255 167 176 177 167 176 177 167 176 177 167 176 177 167 176 177 0 0 255 119 83 94 119 83 94 119 83 94 119 83 94 119 83 94 119 83 94 119 83 94 119 83 94 119 83 94 119 83 94 119 83 94 119 83 94 119 83 94 119 83 94 119 83 94 119 83 94 119 83 94 119 83 94 119 83 94 119 83 94 119 83 94 119 83 94 119 83 94 119 83 94 119 83 94 119 83 94 119 83 94 119 83 94 119 83 94 119 83 94 119 83 94 119 83 94 119 83 94 119 83 94 119 83 94 119 83 94 0 0 255 0 0 255 119 83 94 119 83 94 119 83 94 119 83 94 0 0 255 98 68 80 98 68 80 98 68 80 98 68 80 98 68 80 98 68 80 0 0 255 0 0 255 0 0 255 119 83 94 0 0 255 98 68 80 0 0 255 119 83 94 119 83 94 
164 196 214 164 196 214 164 196 214 164 196 214 164 196 214 164 196 214 164 196 214 164 196 214 164 196 214 164 196 214 164 196 214 164 196 214 164 196 214 164 196 214 164 196 214 164 196 214 164 196 214 164 196 214 164 196 214 164 196 214 164 196 214 164 196 214 164 196 214 164 196 214 164 196 214 164 196 214 164 196 214 164 196 214 164 196 214 164 196 214 164 196 214 164 196 214 164 196 214 164 196 214 0 0 255 161 104 94 161 104 94 161 104 94 161 104 94 161 104 94 161 104 94 161 104 94 161 104 94 161 104 94 161 104 94 161 104 94 161 104 94 161 104 94 161 104 94 161 104 94 161 104 94 161 104 94 161 104 94 161 104 94 161 104 94 0 0 255 164 196 214 164 196 214 164 196 214 0 0 255 161 104 94 161 104 94 161 104 94 161 104 94 161 104 94 161 104 94 161 104 94 161 104 94 161 104 94 161 104 94 161 104 94 161 104 94 161 104 94 161 104 94 161 104 94 161 104 94 161 104 94 161 104 94 161 104 94 161 104 94 161 104 94 161 104 94 161 104 94 161 104 94 161 104 94 161 104 94 161 104 94 161 104 94 161 104 94 161 104 94 161 104 94 161 104 94 161 104 94 161 104 94 161 104 94 161 104 94 161 104 94 161 104 94 161 104 94 161 104 94 161 104 94 161 104 94 161 104 94 161 104 94 161 104 94 161 104 94 161 104 94 161 104 94 161 104 94 161 104 94 161 104 94 161 104 94 161 104 94 161 104 94 161 104 94 161 104 94 161 104 94 161 104 94 161 104 94 161 104 94 161 104 94 161 104 94 161 104 94 161 104 94 161 104 94 161 104 94 161 104 94 161 104 94 161 104 94 161 104 94 161 104 94 161 104 94 161 104 94 161 104 94 161 104 94 161 104 94 161 104 94 161 104 94 161 104 94 161 104 94 161 104 94 161 104 94 161 104 94 161 104 94 161 104 94 161 104 94 161 104 94 161 104 94 161 104 94 161 104 94 0 0 255 167 176 177 167 176 177 167 176 177 167 176 177 167 176 177 167 176 177 167 176 177 167 176 177 167 176 177 167 176 177 167 176 177 167 176 177 167 176 177 167 176 177 167 176 177 167 176 177 167 176 177 167 176 177 167 176 177 167 176 177 167 176 177 0 0 255 119 83 94 119 83 94 119 83 94 119 83 94 119 83 94 119 83 94 119 83 94 119 83 94 119 83 94 119 83 94 119 83 94 119 83 94 119 83 94 119 83 94 119 83 94 119 83 94 119 83 94 119 83 94 0 0 255 167 176 177 167 176 177 167 176 177 167 176 177 167 176 177 0 0 255 119 83 94 119 83 94 119 83 94 119 83 94 119 83 94 119 83 94 119 83 94 119 83 94 119 83 94 119 83 94 119 83 94 0 0 255 0 0 255 0 0 255 119 83 94 119 83 94 119 83 94 119 83 94 119 83 94 119 83 94 119 83 94 119 83 94 119 83 94 119 83 94 119 83 94 119 83 94 119 83 94 119 83 94 119 83 94 119 83 94 119 83 94 119 83 94 119 83 94 119 83 94 119 83 94 0 0 255 98 68 80 0 0 255 0 0 255 0 0 255 0 0 255 0 0 255 98 68 80 98 68 80 98 68 80 0 0 255 0 0 255 0 0 255 0 0 255 119 83 94 0 0 255 0 0 255 0 0 255 0 0 255 0 0 255 119 83 94 119 83 94 119 83 94 
164 196 214 164 196 214 164 196 214 164 196 214 164 196 214 164 196 214 164 196 214 164 196 214 164 196 214 164 196 214 164 196 214 164 196 214 164 196 214 164 196 214 164 196 214 164 196 214 164 196 214 164 196 214 164 196 214 164 196 214 164 196 214 164 196 214 164 196 214 164 196 214 164 196 214 164 196 214 164 196 214 164 196 214 164 196 214 164 196 214 164 196 214 164 196 214 164 196 214 164 196 214 0 0 255 161 104 94 161 104 94 161 104 94 161 104 94 161 104 94 161 104 94 161 104 94 161 104 94 161 104 94 161 104 94 161 104 94 161 104 94 161 104 94 161 104 94 161 104 94 161 104 94 161 104 94 161 104 94 161 104 94 161 104 94 0 0 255 164 196 214 164 196 214 0 0 255 161 104 94 161 104 94 161 104 94 161 104 94 161 104 94 161 104 94 161 104 94 161 104 94 161 104 94 161 104 94 161 104 94 161 104 94 161 104 94 161 104 94 161 104 94 161 104 94 161 104 94 161 104 94 161 104 94 161 104 94 161 104 94 161 104 94 161 104 94 161 104 94 161 104 94 161 104 94 161 104 94 161 104 94 161 104 94 161 104 94 161 104 94 161 104 94 161 104 94 161 104 94 161 104 94 161 104 94 161 104 94 161 104 94 161 104 94 161 104 94 161 104 94 161 104 94 161 104 94 161 104 94 161 104 94 161 104 94 161 104 94 161 104 94 161 104 94 161 104 94 161 104 94 161 104 94 161 104 94 161 104 94 161 104 94 161 104 94 161 104 94 161 104 94 161 104 94 161 104 94 161 104 94 161 104 94 161 104 94 161 104 94 161 104 94 161 104 94 161 104 94 161 104 94 161 104 94 161 104 94 161 104 94 161 104 94 161 104 94 161 104 94 161 104 94 161 104 94 161 104 94 161 104 94 161 104 94 161 104 94 161 104 94 161 104 94 161 104 94 161 104 94 161 104 94 161 104 94 161 104 94 161 104 94 161 104 94 161 104 94 161 104 94 0 0 255 167 176 177 167 176 177 167 176 177 167 176 177 167 176 177 167 176 177 167 176 177 167 176 177 167 176 177 167 176 177 167 176 177 167 176 177 167 176 177 167 176 177 167 176 177 167 176 177 167 176 177 167 176 177 167 176 177 167 176 177 167 176 177 0 0 255 119 83 94 119 83 94 119 83 94 119 83 94 119 83 94 119 83 94 119 83 94 119 83 94 119 83 94 119 83 94 119 83 94 119 83 94 119 83 94 119 83 94 119 83 94 119 83 94 119 83 94 0 0 255 167 176 177 167 176 177 167 176 177 167 176 177 167 176 177 167 176 177 0 0 255 119 83 94 119 83 94 119 83 94 119 83 94 119 83 94 119 83 94 119 83 94 119 83 94 119 83 94 119 83 94 0 0 255 0 0 255 0 0 255 0 0 255 119 83 94 119 83 94 119 83 94 119 83 94 0 0 255 119 83 94 119 83 94 119 83 94 119 83 94 119 83 94 0 0 255 0 0 255 119 83 94 119 83 94 119 83 94 0 0 255 0 0 255 0 0 255 119 83 94 119 83 94 119 83 94 0 0 255 98 68 80 98 68 80 98 68 80 98 68 80 0 0 255 0 0 255 0 0 255 0 0 255 0 0 255 119 83 94 119 83 94 0 0 255 0 0 255 0 0 255 0 0 255 119 83 94 119 83 94 119 83 94 119 83 94 119 83 94 0 0 255 119 83 94 
164 196 214 164 196 214 164 196 214 164 196 214 164 196 214 164 196 214 164 196 214 164 196 214 164 196 214 164 196 214 164 196 214 164 196 214 164 196 214 164 196 214 164 196 214 164 196 214 164 196 214 164 196 214 164 196 214 164 196 214 164 196 214 164 196 214 164 196 214 164 196 214 164 196 214 164 196 214 164 196 214 164 196 214 164 196 214 164 196 214 164 196 214 164 196 214 164 196 214 164 196 214 0 0 255 161 104 94 161 104 94 161 104 94 161 104 94 161 104 94 161 104 94 161 104 94 161 104 94 161 104 94 161 104 94 161 104 94 161 104 94 161 104 94 161 104 94 161 104 94 161 104 94 161 104 94 161 104 94 161 104 94 0 0 255 0 0 255 164 196 214 164 196 214 0 0 255 161 104 94 161 104 94 161 104 94 161 104 94 161 104 94 161 104 94 161 104 94 161 104 94 161 104 94 161 104 94 161 104 94 161 104 94 161 104 94 161 104 94 161 104 94 161 104 94 161 104 94 161 104 94 161 104 94 161 104 94 161 104 94 161 104 94 161 104 94 161 104 94 161 104 94 161 104 94 161 104 94 161 104 94 161 104 94 161 104 94 161 104 94 161 104 94 161 104 94 161 104 94 161 104 94 161 104 94 161 104 94 161 104 94 161 104 94 161 104 94 161 104 94 161 104 94 161 104 94 161 104 94 161 104 94 161 104 94 161 104 94 161 104 94 161 104 94 161 104 94 161 104 94 161 104 94 161 104 94 161 104 94 161 104 94 161 104 94 161 104 94 161 104 94 161 104 94 161 104 94 161 104 94 161 104 94 161 104 94 161 104 94 161 104 94 161 104 94 161 104 94 161 104 94 161 104 94 161 104 94 161 104 94 161 104 94 161 104 94 161 104 94 161 104 94 161 104 94 161 104 94 161 104 94 161 104 94 161 104 94 161 104 94 161 104 94 161 104 94 161 104 94 161 104 94 161 104 94 161 104 94 161 104 94 161 104 94 161 104 94 0 0 255 0 0 255 167 176 177 167 176 177 167 176 177 167 176 177 167 176 177 167 176 177 167 176 177 167 176 177 167 176 177 167 176 177 167 176 177 167 176 177 167 176 177 167 176 177 167 176 177 167 176 177 167 176 177 167 176 177 167 176 177 167 176 177 167 176 177 0 0 255 119 83 94 119 83 94 119 83 94 119 83 94 119 83 94 119 83 94 119 83 94 119 83 94 119 83 94 119 83 94 119 83 94 119 83 94 119 83 94 119 83 94 119 83 94 119 83 94 119 83 94 0 0 255 167 176 177 167 176 177 167 176 177 167 176 177 167 176 177 167 176 177 0 0 255 119 83 94 119 83 94 119 83 94 119 83 94 119 83 94 119 83 94 119 83 94 119 83 94 119 83 94 119 83 94 119 83 94 119 83 94 119 83 94 119 83 94 119 83 94 119 83 94 119 83 94 0 0 255 0 0 255 119 83 94 119 83 94 119 83 94 119 83 94 0 0 255 0 0 255 0 0 255 0 0 255 119 83 94 0 0 255 98 68 80 98 68 80 0 0 255 0 0 255 0 0 255 0 0 255 98 68 80 98 68 80 98 68 80 98 68 80 0 0 255 0 0 255 0 0 255 0 0 255 0 0 255 0 0 255 119 83 94 119 83 94 119 83 94 119 83 94 119 83 94 119 83 94 119 83 94 119 83 94 119 83 94 119 83 94 0 0 255 0 0 255 119 83 94 
164 196 214 164 196 214 164 196 214 164 196 214 164 196 214 164 196 214 164 196 214 164 196 214 164 196 214 164 196 214 164 196 214 164 196 214 164 196 214 164 196 214 164 196 214 164 196 214 164 196 214 164 196 214 164 196 214 164 196 214 164 196 214 164 196 214 164 196 214 164 196 214 164 196 214 164 196 214 164 196 214 164 196 214 164 196 214 164 196 214 164 196 214 164 196 214 164 196 214 164 196 214 0 0 255 161 104 94 161 104 94 161 104 94 161 104 94 161 104 94 161 104 94 161 104 94 161 104 94 161 104 94 161 104 94 161 104 94 161 104 94 161 104 94 161 104 94 161 104 94 161 104 94 161 104 94 161 104 94 0 0 255 164 196 214 164 196 214 164 196 214 164 196 214 0 0 255 161 104 94 161 104 94 161 104 94 161 104 94 161 104 94 161 104 94 161 104 94 161 104 94 161 104 94 161 104 94 161 104 94 161 104 94 161 104 94 161 104 94 161 104 94 161 104 94 161 104 94 161 104 94 161 104 94 161 104 94 161 104 94 161 104 94 161 104 94 161 104 94 161 104 94 161 104 94 161 104 94 161 104 94 161 104 94 161 104 94 161 104 94 161 104 94 161 104 94 161 104 94 161 104 94 161 104 94 161 104 94 161 104 94 161 104 94 161 104 94 161 104 94 161 104 94 161 104 94 161 104 94 161 104 94 161 104 94 161 104 94 161 104 94 161 104 94 161 104 94 161 104 94 161 104 94 161 104 94 161 104 94 161 104 94 161 104 94 161 104 94 161 104 94 161 104 94 161 104 94 161 104 94 161 104 94 161 104 94 161 104 94 161 104 94 161 104 94 161 104 94 161 104 94 161 104 94 161 104 94 161 104 94 161 104 94 161 104 94 161 104 94 161 104 94 161 104 94 161 104 94 161 104 94 161 104 94 161 104 94 161 104 94 161 104 94 161 104 94 161 104 94 161 104 94 161 104 94 161 104 94 161 104 94 161 104 94 161 104 94 161 104 94 0 0 255 167 176 177 167 176 177 167 176 177 167 176 177 167 176 177 167 176 177 167 176 177 167 176 177 167 176 177 167 176 177 167 176 177 167 176 177 167 176 177 167 176 177 167 176 177 167 176 177 167 176 177 167 176 177 167 176 177 167 176 177 167 176 177 0 0 255 119 83 94 119 83 94 119 83 94 119 83 94 119 83 94 119 83 94 119 83 94 119 83 94 119 83 94 119 83 94 119 83 94 119 83 94 119 83 94 119 83 94 119 83 94 119 83 94 0 0 255 0 0 255 0 0 255 167 176 177 167 176 177 167 176 177 167 176 177 167 176 177 0 0 255 119 83 94 119 83 94 119 83 94 119 83 94 119 83 94 119 83 94 119 83 94 119 83 94 119 83 94 119 83 94 119 83 94 119 83 94 119 83 94 119 83 94 119 83 94 119 83 94 119 83 94 119 83 94 119 83 94 119 83 94 0 0 255 119 83 94 119 83 94 0 0 255 0 0 255 0 0 255 0 0 255 119 83 94 0 0 255 98 68 80 98 68 80 98 68 80 98 68 80 98 68 80 98 68 80 98 68 80 0 0 255 0 0 255 98 68 80 98 68 80 98 68 80 98 68 80 0 0 255 0 0 255 0 0 255 119 83 94 0 0 255 119 83 94 119 83 94 119 83 94 0 0 255 119 83 94 119 83 94 119 83 94 0 0 255 98 68 80 0 0 255 0 0 255 
164 196 214 164 196 214 164 196 214 164 196 214 164 196 214 164 196 214 164 196 214 164 196 214 164 196 214 164 196 214 164 196 214 164 196 214 164 196 214 164 196 214 164 196 214 164 196 214 164 196 214 164 196 214 164 196 214 164 196 214 164 196 214 164 196 214 164 196 214 164 196 214 164 196 214 164 196 214 164 196 214 164 196 214 164 196 214 164 196 214 164 196 214 164 196 214 164 196 214 164 196 214 0 0 255 161 104 94 161 104 94 161 104 94 161 104 94 161 104 94 161 104 94 161 104 94 161 104 94 161 104 94 161 104 94 161 104 94 161 104 94 161 104 94 161 104 94 161 104 94 161 104 94 161 104 94 0 0 255 164 196 214 164 196 214 164 196 214 164 196 214 0 0 255 161 104 94 161 104 94 161 104 94 161 104 94 161 104 94 161 104 94 161 104 94 161 104 94 161 104 94 161 104 94 161 104 94 161 104 94 161 104 94 161 104 94 161 104 94 161 104 94 161 104 94 161 104 94 161 104 94 161 104 94 161 104 94 161 104 94 161 104 94 161 104 94 161 104 94 161 104 94 161 104 94 161 104 94 161 104 94 161 104 94 161 104 94 161 104 94 161 104 94 161 104 94 161 104 94 161 104 94 161 104 94 161 104 94 161 104 94 161 104 94 161 104 94 161 104 94 161 104 94 161 104 94 161 104 94 161 104 94 161 104 94 161 104 94 161 104 94 161 104 94 161 104 94 161 104 94 161 104 94 161 104 94 161 104 94 161 104 94 161 104 94 161 104 94 161 104 94 161 104 94 161 104 94 161 104 94 161 104 94 161 104 94 161 104 94 161 104 94 161 104 94 161 104 94 161 104 94 161 104 94 161 104 94 161 104 94 161 104 94 161 104 94 161 104 94 161 104 94 161 104 94 161 104 94 161 104 94 161 104 94 161 104 94 161 104 94 161 104 94 161 104 94 161 104 94 161 104 94 161 104 94 161 104 94 161 104 94 161 104 94 161 104 94 0 0 255 167 176 177 167 176 177 167 176 177 167 176 177 167 176 177 167 176 177 167 176 177 167 176 177 167 176 177 167 176 177 167 176 177 167 176 177 167 176 177 167 176 177 167 176 177 167 176 177 167 176 177 167 176 177 167 176 177 167 176 177 167 176 177 167 176 177 0 0 255 119 83 94 119 83 94 119 83 94 119 83 94 119 83 94 119 83 94 119 83 94 119 83 94 119 83 94 119 83 94 119 83 94 119 83 94 119 83 94 119 83 94 119 83 94 0 0 255 0 0 255 119 83 94 0 0 255 167 176 177 167 176 177 167 176 177 167 176 177 167 176 177 0 0 255 119 83 94 119 83 94 119 83 94 119 83 94 119 83 94 119 83 94 119 83 94 119 83 94 119 83 94 119 83 94 119 83 94 119 83 94 119 83 94 119 83 94 119 83 94 119 83 94 119 83 94 119 83 94 119 83 94 0 0 255 0 0 255 0 0 255 0 0 255 98 68 80 0 0 255 0 0 255 0 0 255 0 0 255 0 0 255 98 68 80 98 68 80 98 68 80 98 68 80 98 68 80 98 68 80 0 0 255 0 0 255 0 0 255 98 68 80 98 68 80 0 0 255 0 0 255 119 83 94 119 83 94 119 83 94 0 0 255 0 0 255 119 83 94 119 83 94 0 0 255 0 0 255 0 0 255 0 0 255 0 0 255 0 0 255 98 68 80 98 68 80 98 68 80 
164 196 214 164 196 214 164 196 214 164 196 214 164 196 214 164 196 214 164 196 214 164 196 214 164 196 214 164 196 214 164 196 214 164 196 214 164 196 214 164 196 214 164 196 214 164 196 214 164 196 214 164 196 214 164 196 214 164 196 214 164 196 214 164 196 214 164 196 214 164 196 214 164 196 214 164 196 214 164 196 214 164 196 214 164 196 214 164 196 214 164 196 214 164 196 214 164 196 214 164 196 214 0 0 255 161 104 94 161 104 94 161 104 94 161 104 94 161 104 94 161 104 94 161 104 94 161 104 94 161 104 94 161 104 94 161 104 94 161 104 94 161 104 94 161 104 94 161 104 94 161 104 94 161 104 94 0 0 255 0 0 255 164 196 214 164 196 214 0 0 255 0 0 255 161 104 94 161 104 94 161 104 94 161 104 94 161 104 94 161 104 94 161 104 94 161 104 94 161 104 94 161 104 94 161 104 94 161 104 94 161 104 94 161 104 94 161 104 94 161 104 94 161 104 94 161 104 94 161 104 94 161 104 94 161 104 94 161 104 94 161 104 94 161 104 94 161 104 94 161 104 94 161 104 94 161 104 94 161 104 94 161 104 94 161 104 94 161 104 94 161 104 94 161 104 94 161 104 94 161 104 94 161 104 94 161 104 94 161 104 94 161 104 94 161 104 94 161 104 94 161 104 94 161 104 94 161 104 94 161 104 94 161 104 94 161 104 94 161 104 94 161 104 94 161 104 94 161 104 94 161 104 94 161 104 94 161 104 94 161 104 94 161 104 94 161 104 94 161 104 94 161 104 94 161 104 94 161 104 94 161 104 94 161 104 94 161 104 94 161 104 94 161 104 94 161 104 94 161 104 94 161 104 94 161 104 94 161 104 94 161 104 94 161 104 94 161 104 94 161 104 94 161 104 94 161 104 94 161 104 94 161 104 94 161 104 94 161 104 94 161 104 94 161 104 94 161 104 94 161 104 94 161 104 94 161 104 94 161 104 94 161 104 94 161 104 94 0 0 255 0 0 255 167 176 177 167 176 177 167 176 177 167 176 177 167 176 177 167 176 177 167 176 177 167 176 177 167 176 177 167 176 177 167 176 177 167 176 177 167 176 177 167 176 177 167 176 177 167 176 177 167 176 177 167 176 177 167 176 177 167 176 177 167 176 177 0 0 255 119 83 94 119 83 94 119 83 94 119 83 94 119 83 94 119 83 94 119 83 94 119 83 94 119 83 94 119 83 94 119 83 94 119 83 94 119 83 94 119 83 94 119 83 94 119 83 94 119 83 94 119 83 94 0 0 255 167 176 177 167 176 177 167 176 177 167 176 177 167 176 177 0 0 255 119 83 94 119 83 94 119 83 94 119 83 94 0 0 255 119 83 94 119 83 94 119 83 94 119 83 94 119 83 94 119 83 94 119 83 94 119 83 94 119 83 94 119 83 94 119 83 94 0 0 255 0 0 255 0 0 255 0 0 255 0 0 255 0 0 255 98 68 80 98 68 80 98 68 80 98 68 80 98 68 80 98 68 80 98 68 80 98 68 80 98 68 80 98 68 80 98 68 80 98 68 80 98 68 80 98 68 80 0 0 255 0 0 255 0 0 255 0 0 255 0 0 255 119 83 94 119 83 94 119 83 94 0 0 255 0 0 255 119 83 94 119 83 94 0 0 255 0 0 255 98 68 80 98 68 80 98 68 80 98 68 80 98 68 80 98 68 80 98 68 80 98 68 80 
164 196 214 164 196 214 164 196 214 164 196 214 164 196 214 164 196 214 164 196 214 164 196 214 164 196 214 164 196 214 164 196 214 164 196 214 164 196 214 164 196 214 164 196 214 164 196 214 164 196 214 164 196 214 164 196 214 164 196 214 164 196 214 164 196 214 164 196 214 164 196 214 164 196 214 164 196 214 164 196 214 164 196 214 164 196 214 164 196 214 164 196 214 164 196 214 164 196 214 164 196 214 0 0 255 161 104 94 161 104 94 161 104 94 161 104 94 161 104 94 161 104 94 161 104 94 161 104 94 161 104 94 161 104 94 161 104 94 161 104 94 161 104 94 161 104 94 161 104 94 161 104 94 161 104 94 161 104 94 0 0 255 0 0 255 0 0 255 161 104 94 161 104 94 161 104 94 161 104 94 161 104 94 161 104 94 161 104 94 161 104 94 161 104 94 161 104 94 161 104 94 161 104 94 161 104 94 161 104 94 161 104 94 161 104 94 161 104 94 161 104 94 161 104 94 161 104 94 161 104 94 161 104 94 161 104 94 161 104 94 161 104 94 161 104 94 161 104 94 161 104 94 161 104 94 161 104 94 161 104 94 161 104 94 161 104 94 161 104 94 161 104 94 161 104 94 161 104 94 161 104 94 161 104 94 161 104 94 161 104 94 161 104 94 161 104 94 161 104 94 161 104 94 161 104 94 161 104 94 161 104 94 161 104 94 161 104 94 161 104 94 161 104 94 161 104 94 161 104 94 161 104 94 161 104 94 161 104 94 161 104 94 161 104 94 161 104 94 161 104 94 161 104 94 161 104 94 161 104 94 161 104 94 161 104 94 161 104 94 161 104 94 161 104 94 161 104 94 161 104 94 161 104 94 161 104 94 161 104 94 161 104 94 161 104 94 161 104 94 161 104 94 161 104 94 161 104 94 161 104 94 161 104 94 161 104 94 161 104 94 161 104 94 161 104 94 161 104 94 161 104 94 161 104 94 161 104 94 161 104 94 161 104 94 161 104 94 161 104 94 0 0 255 167 176 177 167 176 177 167 176 177 167 176 177 167 176 177 167 176 177 167 176 177 167 176 177 167 176 177 167 176 177 167 176 177 167 176 177 167 176 177 167 176 177 167 176 177 167 176 177 167 176 177 167 176 177 167 176 177 167 176 177 167 176 177 0 0 255 119 83 94 119 83 94 119 83 94 119 83 94 119 83 94 119 83 94 119 83 94 119 83 94 119 83 94 119 83 94 119 83 94 119 83 94 119 83 94 119 83 94 119 83 94 119 83 94 119 83 94 0 0 255 0 0 255 167 176 177 167 176 177 167 176 177 167 176 177 167 176 177 0 0 255 119 83 94 119 83 94 119 83 94 0 0 255 0 0 255 119 83 94 119 83 94 119 83 94 119 83 94 119 83 94 119 83 94 119 83 94 119 83 94 119 83 94 119 83 94 0 0 255 98 68 80 98 68 80 98 68 80 0 0 255 0 0 255 0 0 255 98 68 80 98 68 80 98 68 80 98 68 80 98 68 80 98 68 80 98 68 80 98 68 80 98 68 80 98 68 80 98 68 80 98 68 80 0 0 255 0 0 255 119 83 94 119 83 94 119 83 94 0 0 255 0 0 255 0 0 255 0 0 255 0 0 255 98 68 80 0 0 255 0 0 255 0 0 255 98 68 80 98 68 80 98 68 80 98 68 80 98 68 80 98 68 80 98 68 80 98 68 80 98 68 80 98 68 80 
164 196 214 164 196 214 164 196 214 164 196 214 164 196 214 164 196 214 164 196 214 164 196 214 164 196 214 164 196 214 164 196 214 164 196 214 164 196 214 164 196 214 164 196 214 164 196 214 164 196 214 164 196 214 164 196 214 164 196 214 164 196 214 164 196 214 164 196 214 164 196 214 164 196 214 164 196 214 164 196 214 164 196 214 164 196 214 164 196 214 164 196 214 164 196 214 164 196 214 164 196 214 0 0 255 161 104 94 161 104 94 161 104 94 161 104 94 161 104 94 161 104 94 161 104 94 161 104 94 161 104 94 161 104 94 161 104 94 161 104 94 161 104 94 161 104 94 161 104 94 161 104 94 161 104 94 161 104 94 161 104 94 161 104 94 161 104 94 161 104 94 161 104 94 161 104 94 161 104 94 161 104 94 161 104 94 161 104 94 161 104 94 161 104 94 161 104 94 161 104 94 161 104 94 161 104 94 161 104 94 161 104 94 161 104 94 161 104 94 161 104 94 161 104 94 161 104 94 161 104 94 161 104 94 161 104 94 161 104 94 161 104 94 161 104 94 161 104 94 161 104 94 161 104 94 161 104 94 161 104 94 161 104 94 161 104 94 161 104 94 161 104 94 161 104 94 161 104 94 161 104 94 161 104 94 161 104 94 161 104 94 161 104 94 161 104 94 161 104 94 161 104 94 161 104 94 161 104 94 161 104 94 161 104 94 161 104 94 161 104 94 161 104 94 161 104 94 161 104 94 161 104 94 161 104 94 161 104 94 161 104 94 161 104 94 161 104 94 161 104 94 161 104 94 161 104 94 161 104 94 161 104 94 161 104 94 161 104 94 161 104 94 161 104 94 161 104 94 161 104 94 161 104 94 161 104 94 161 104 94 161 104 94 161 104 94 161 104 94 161 104 94 161 104 94 161 104 94 161 104 94 161 104 94 161 104 94 161 104 94 161 104 94 161 104 94 161 104 94 161 104 94 161 104 94 161 104 94 161 104 94 161 104 94 161 104 94 161 104 94 0 0 255 167 176 177 167 176 177 167 176 177 167 176 177 167 176 177 167 176 177 167 176 177 167 176 177 167 176 177 167 176 177 167 176 177 167 176 177 167 176 177 167 176 177 167 176 177 167 176 177 167 176 177 167 176 177 167 176 177 167 176 177 167 176 177 0 0 255 119 83 94 119 83 94 119 83 94 119 83 94 119 83 94 119 83 94 119 83 94 119 83 94 119 83 94 119 83 94 119 83 94 119 83 94 119 83 94 119 83 94 119 83 94 119 83 94 0 0 255 0 0 255 167 176 177 167 176 177 167 176 177 167 176 177 167 176 177 167 176 177 0 0 255 0 0 255 119 83 94 0 0 255 0 0 255 0 0 255 119 83 94 119 83 94 119 83 94 119 83 94 0 0 255 0 0 255 0 0 255 0 0 255 0 0 255 0 0 255 98 68 80 98 68 80 98 68 80 98 68 80 98 68 80 98 68 80 98 68 80 98 68 80 98 68 80 98 68 80 98 68 80 98 68 80 98 68 80 98 68 80 98 68 80 98 68 80 0 0 255 0 0 255 0 0 255 119 83 94 0 0 255 119 83 94 119 83 94 0 0 255 98 68 80 98 68 80 98 68 80 98 68 80 98 68 80 98 68 80 98 68 80 98 68 80 98 68 80 98 68 80 98 68 80 98 68 80 98 68 80 98 68 80 98 68 80 98 68 80 98 68 80 98 68 80 98 68 80 
164 196 214 164 196 214 164 196 214 164 196 214 164 196 214 164 196 214 164 196 214 164 196 214 164 196 214 164 196 214 164 196 214 164 196 214 164 196 214 164 196 214 164 196 214 164 196 214 164 196 214 164 196 214 164 196 214 164 196 214 164 196 214 164 196 214 164 196 214 164 196 214 164 196 214 164 196 214 164 196 214 164 196 214 164 196 214 164 196 214 164 196 214 164 196 214 164 196 214 164 196 214 0 0 255 161 104 94 161 104 94 161 104 94 161 104 94 161 104 94 161 104 94 161 104 94 161 104 94 161 104 94 161 104 94 161 104 94 161 104 94 161 104 94 161 104 94 161 104 94 161 104 94 161 104 94 161 104 94 161 104 94 161 104 94 161 104 94 161 104 94 161 104 94 161 104 94 161 104 94 161 104 94 161 104 94 161 104 94 161 104 94 161 104 94 161 104 94 161 104 94 161 104 94 161 104 94 161 104 94 161 104 94 161 104 94 161 104 94 161 104 94 161 104 94 161 104 94 161 104 94 161 104 94 161 104 94 161 104 94 161 104 94 161 104 94 161 104 94 161 104 94 161 104 94 161 104 94 161 104 94 161 104 94 161 104 94 161 104 94 161 104 94 161 104 94 161 104 94 161 104 94 161 104 94 161 104 94 161 104 94 161 104 94 161 104 94 161 104 94 161 104 94 161 104 94 161 104 94 161 104 94 161 104 94 161 104 94 161 104 94 161 104 94 161 104 94 161 104 94 161 104 94 161 104 94 161 104 94 161 104 94 161 104 94 161 104 94 161 104 94 161 104 94 161 104 94 161 104 94 161 104 94 161 104 94 161 104 94 161 104 94 161 104 94 161 104 94 161 104 94 161 104 94 161 104 94 161 104 94 161 104 94 161 104 94 161 104 94 161 104 94 161 104 94 161 104 94 161 104 94 161 104 94 161 104 94 161 104 94 161 104 94 161 104 94 161 104 94 161 104 94 161 104 94 161 104 94 161 104 94 161 104 94 161 104 94 161 104 94 0 0 255 167 176 177 167 176 177 167 176 177 167 176 177 167 176 177 167 176 177 167 176 177 167 176 177 167 176 177 167 176 177 167 176 177 167 176 177 167 176 177 167 176 177 167 176 177 167 176 177 167 176 177 167 176 177 167 176 177 167 176 177 167 176 177 0 0 255 119 83 94 119 83 94 119 83 94 119 83 94 119 83 94 119 83 94 119 83 94 119 83 94 119 83 94 119 83 94 119 83 94 119 83 94 119 83 94 119 83 94 119 83 94 119 83 94 119 83 94 0 0 255 0 0 255 167 176 177 167 176 177 167 176 177 167 176 177 167 176 177 167 176 177 0 0 255 0 0 255 0 0 255 0 0 255 0 0 255 119 83 94 0 0 255 0 0 255 0 0 255 98 68 80 98 68 80 98 68 80 98 68 80 98 68 80 98 68 80 98 68 80 98 68 80 98 68 80 98 68 80 98 68 80 98 68 80 98 68 80 98 68 80 98 68 80 98 68 80 98 68 80 98 68 80 98 68 80 98 68 80 98 68 80 0 0 255 0 0 255 0 0 255 0 0 255 0 0 255 0 0 255 0 0 255 0 0 255 0 0 255 98 68 80 98 68 80 98 68 80 98 68 80 98 68 80 98 68 80 98 68 80 98 68 80 98 68 80 98 68 80 98 68 80 98 68 80 98 68 80 98 68 80 98 68 80 98 68 80 98 68 80 98 68 80 98 68 80 
164 196 214 164 196 214 164 196 214 164 196 214 164 196 214 164 196 214 164 196 214 164 196 214 164 196 214 164 196 214 164 196 214 164 196 214 164 196 214 164 196 214 164 196 214 164 196 214 164 196 214 164 196 214 164 196 214 164 196 214 164 196 214 164 196 214 164 196 214 164 196 214 164 196 214 164 196 214 164 196 214 164 196 214 164 196 214 164 196 214 164 196 214 164 196 214 164 196 214 0 0 255 161 104 94 161 104 94 161 104 94 161 104 94 161 104 94 161 104 94 161 104 94 161 104 94 161 104 94 161 104 94 161 104 94 161 104 94 161 104 94 161 104 94 161 104 94 161 104 94 161 104 94 161 104 94 161 104 94 161 104 94 161 104 94 161 104 94 161 104 94 161 104 94 161 104 94 161 104 94 161 104 94 161 104 94 161 104 94 161 104 94 161 104 94 161 104 94 161 104 94 161 104 94 161 104 94 161 104 94 161 104 94 161 104 94 161 104 94 161 104 94 161 104 94 161 104 94 161 104 94 161 104 94 161 104 94 161 104 94 161 104 94 161 104 94 161 104 94 161 104 94 161 104 94 161 104 94 161 104 94 161 104 94 161 104 94 161 104 94 161 104 94 161 104 94 161 104 94 161 104 94 161 104 94 161 104 94 161 104 94 161 104 94 161 104 94 161 104 94 161 104 94 161 104 94 161 104 94 161 104 94 161 104 94 161 104 94 161 104 94 161 104 94 161 104 94 161 104 94 161 104 94 161 104 94 161 104 94 161 104 94 161 104 94 161 104 94 161 104 94 161 104 94 161 104 94 161 104 94 161 104 94 161 104 94 161 104 94 161 104 94 161 104 94 161 104 94 161 104 94 161 104 94 161 104 94 161 104 94 161 104 94 161 104 94 161 104 94 161 104 94 161 104 94 161 104 94 161 104 94 161 104 94 161 104 94 161 104 94 161 104 94 161 104 94 161 104 94 161 104 94 161 104 94 161 104 94 161 104 94 161 104 94 161 104 94 161 104 94 0 0 255 167 176 177 167 176 177 167 176 177 167 176 177 167 176 177 167 176 177 167 176 177 167 176 177 167 176 177 167 176 177 167 176 177 167 176 177 167 176 177 167 176 177 167 176 177 167 176 177 167 176 177 167 176 177 167 176 177 167 176 177 167 176 177 0 0 255 119 83 94 119 83 94 119 83 94 119 83 94 119 83 94 119 83 94 119 83 94 119 83 94 119 83 94 119 83 94 119 83 94 119 83 94 119 83 94 119 83 94 119 83 94 119 83 94 119 83 94 119 83 94 0 0 255 167 176 177 167 176 177 167 176 177 167 176 177 167 176 177 0 0 255 119 83 94 119 83 94 0 0 255 0 0 255 0 0 255 0 0 255 0 0 255 0 0 255 0 0 255 98 68 80 98 68 80 98 68 80 98 68 80 98 68 80 98 68 80 98 68 80 98 68 80 98 68 80 98 68 80 98 68 80 98 68 80 98 68 80 98 68 80 98 68 80 98 68 80 98 68 80 0 0 255 98 68 80 98 68 80 98 68 80 98 68 80 98 68 80 98 68 80 98 68 80 98 68 80 98 68 80 98 68 80 98 68 80 98 68 80 98 68 80 98 68 80 98 68 80 98 68 80 98 68 80 98 68 80 98 68 80 98 68 80 98 68 80 98 68 80 98 68 80 98 68 80 98 68 80 98 68 80 98 68 80 98 68 80 98 68 80 98 68 80 98 68 80 
164 196 214 164 196 214 164 196 214 164 196 214 164 196 214 164 196 214 164 196 214 164 196 214 164 196 214 164 196 214 164 196 214 164 196 214 164 196 214 164 196 214 164 196 214 164 196 214 164 196 214 164 196 214 164 196 214 164 196 214 164 196 214 164 196 214 164 196 214 164 196 214 164 196 214 164 196 214 164 196 214 164 196 214 164 196 214 164 196 214 164 196 214 164 196 214 164 196 214 0 0 255 161 104 94 161 104 94 161 104 94 161 104 94 161 104 94 161 104 94 161 104 94 161 104 94 161 104 94 161 104 94 161 104 94 161 104 94 161 104 94 161 104 94 161 104 94 161 104 94 161 104 94 161 104 94 161 104 94 161 104 94 161 104 94 161 104 94 161 104 94 161 104 94 161 104 94 161 104 94 161 104 94 161 104 94 161 104 94 161 104 94 161 104 94 161 104 94 161 104 94 161 104 94 161 104 94 161 104 94 161 104 94 161 104 94 161 104 94 161 104 94 161 104 94 161 104 94 161 104 94 161 104 94 161 104 94 161 104 94 161 104 94 161 104 94 161 104 94 161 104 94 161 104 94 161 104 94 161 104 94 161 104 94 161 104 94 161 104 94 161 104 94 161 104 94 161 104 94 161 104 94 161 104 94 161 104 94 161 104 94 161 104 94 161 104 94 161 104 94 161 104 94 161 104 94 161 104 94 161 104 94 161 104 94 161 104 94 161 104 94 161 104 94 161 104 94 161 104 94 161 104 94 161 104 94 161 104 94 161 104 94 161 104 94 161 104 94 161 104 94 161 104 94 161 104 94 161 104 94 161 104 94 161 104 94 161 104 94 161 104 94 161 104 94 161 104 94 161 104 94 161 104 94 161 104 94 161 104 94 161 104 94 161 104 94 161 104 94 161 104 94 161 104 94 161 104 94 161 104 94 161 104 94 161 104 94 161 104 94 161 104 94 161 104 94 161 104 94 161 104 94 161 104 94 161 104 94 161 104 94 161 104 94 161 104 94 0 0 255 0 0 255 167 176 177 167 176 177 167 176 177 167 176 177 167 176 177 167 176 177 167 176 177 167 176 177 167 176 177 167 176 177 167 176 177 167 176 177 167 176 177 167 176 177 167 176 177 167 176 177 167 176 177 167 176 177 167 176 177 167 176 177 0 0 255 0 0 255 119 83 94 119 83 94 119 83 94 119 83 94 119 83 94 119 83 94 119 83 94 119 83 94 119 83 94 119 83 94 119 83 94 119 83 94 119 83 94 119 83 94 119 83 94 119 83 94 119 83 94 119 83 94 0 0 255 167 176 177 167 176 177 167 176 177 167 176 177 167 176 177 0 0 255 119 83 94 0 0 255 98 68 80 98 68 80 98 68 80 98 68 80 98 68 80 98 68 80 98 68 80 98 68 80 98 68 80 98 68 80 98 68 80 98 68 80 98 68 80 98 68 80 98 68 80 98 68 80 98 68 80 98 68 80 98 68 80 98 68 80 98 68 80 98 68 80 98 68 80 0 0 255 0 0 255 98 68 80 98 68 80 98 68 80 98 68 80 98 68 80 98 68 80 98 68 80 98 68 80 98 68 80 98 68 80 98 68 80 98 68 80 98 68 80 98 68 80 98 68 80 98 68 80 98 68 80 98 68 80 98 68 80 98 68 80 98 68 80 98 68 80 98 68 80 98 68 80 98 68 80 98 68 80 98 68 80 98 68 80 98 68 80 98 68 80 98 68 80 
164 196 214 164 196 214 164 196 214 164 196 214 164 196 214 164 196 214 164 196 214 164 196 214 164 196 214 164 196 214 164 196 214 164 196 214 164 196 214 164 196 214 164 196 214 164 196 214 164 196 214 164 196 214 164 196 214 164 196 214 164 196 214 164 196 214 164 196 214 164 196 214 164 196 214 164 196 214 164 196 214 164 196 214 164 196 214 164 196 214 164 196 214 164 196 214 164 196 214 0 0 255 161 104 94 161 104 94 161 104 94 161 104 94 161 104 94 161 104 94 161 104 94 161 104 94 161 104 94 161 104 94 161 104 94 161 104 94 161 104 94 161 104 94 161 104 94 161 104 94 161 104 94 161 104 94 161 104 94 161 104 94 161 104 94 161 104 94 161 104 94 161 104 94 161 104 94 161 104 94 161 104 94 161 104 94 161 104 94 161 104 94 161 104 94 161 104 94 161 104 94 161 104 94 161 104 94 161 104 94 161 104 94 161 104 94 161 104 94 161 104 94 161 104 94 161 104 94 161 104 94 161 104 94 161 104 94 161 104 94 161 104 94 161 104 94 161 104 94 161 104 94 161 104 94 161 104 94 161 104 94 161 104 94 161 104 94 161 104 94 161 104 94 161 104 94 161 104 94 161 104 94 161 104 94 161 104 94 161 104 94 161 104 94 161 104 94 161 104 94 161 104 94 161 104 94 161 104 94 161 104 94 161 104 94 161 104 94 161 104 94 161 104 94 161 104 94 161 104 94 161 104 94 161 104 94 161 104 94 161 104 94 161 104 94 161 104 94 161 104 94 161 104 94 161 104 94 161 104 94 161 104 94 161 104 94 161 104 94 161 104 94 161 104 94 161 104 94 161 104 94 161 104 94 161 104 94 161 104 94 161 104 94 161 104 94 161 104 94 161 104 94 161 104 94 161 104 94 161 104 94 161 104 94 161 104 94 161 104 94 161 104 94 161 104 94 161 104 94 161 104 94 161 104 94 161 104 94 161 104 94 161 104 94 161 104 94 161 104 94 0 0 255 167 176 177 167 176 177 167 176 177 167 176 177 167 176 177 167 176 177 167 176 177 167 176 177 167 176 177 167 176 177 167 176 177 167 176 177 167 176 177 167 176 177 167 176 177 167 176 177 167 176 177 167 176 177 167 176 177 167 176 177 167 176 177 0 0 255 119 83 94 119 83 94 119 83 94 119 83 94 119 83 94 0 0 255 119 83 94 119 83 94 119 83 94 119 83 94 119 83 94 119 83 94 119 83 94 119 83 94 119 83 94 119 83 94 119 83 94 119 83 94 0 0 255 167 176 177 167 176 177 167 176 177 167 176 177 167 176 177 0 0 255 0 0 255 98 68 80 98 68 80 98 68 80 98 68 80 98 68 80 98 68 80 98 68 80 98 68 80 98 68 80 98 68 80 98 68 80 98 68 80 98 68 80 98 68 80 98 68 80 98 68 80 98 68 80 0 0 255 0 0 255 98 68 80 98 68 80 98 68 80 98 68 80 98 68 80 98 68 80 98 68 80 98 68 80 98 68 80 98 68 80 98 68 80 98 68 80 98 68 80 98 68 80 98 68 80 98 68 80 98 68 80 98 68 80 98 68 80 98 68 80 98 68 80 98 68 80 98 68 80 98 68 80 98 68 80 98 68 80 98 68 80 98 68 80 98 68 80 98 68 80 98 68 80 98 68 80 98 68 80 98 68 80 98 68 80 98 68 80 98 68 80 98 68 80 
164 196 214 164 196 214 164 196 214 164 196 214 164 196 214 164 196 214 164 196 214 164 196 214 164 196 214 164 196 214 164 196 214 164 196 214 164 196 214 164 196 214 164 196 214 164 196 214 164 196 214 164 196 214 164 196 214 164 196 214 164 196 214 164 196 214 164 196 214 164 196 214 164 196 214 164 196 214 164 196 214 164 196 214 164 196 214 164 196 214 164 196 214 164 196 214 164 196 214 0 0 255 161 104 94 161 104 94 161 104 94 161 104 94 161 104 94 161 104 94 161 104 94 161 104 94 161 104 94 161 104 94 161 104 94 161 104 94 161 104 94 161 104 94 161 104 94 161 104 94 161 104 94 161 104 94 161 104 94 161 104 94 161 104 94 161 104 94 161 104 94 161 104 94 161 104 94 161 104 94 161 104 94 161 104 94 161 104 94 161 104 94 161 104 94 161 104 94 161 104 94 161 104 94 161 104 94 161 104 94 161 104 94 161 104 94 161 104 94 161 104 94 161 104 94 161 104 94 161 104 94 161 104 94 161 104 94 161 104 94 161 104 94 161 104 94 161 104 94 161 104 94 161 104 94 161 104 94 161 104 94 161 104 94 161 104 94 161 104 94 161 104 94 161 104 94 161 104 94 161 104 94 161 104 94 161 104 94 161 104 94 161 104 94 161 104 94 161 104 94 161 104 94 161 104 94 161 104 94 161 104 94 161 104 94 161 104 94 161 104 94 161 104 94 161 104 94 161 104 94 161 104 94 161 104 94 161 104 94 161 104 94 161 104 94 161 104 94 161 104 94 161 104 94 161 104 94 161 104 94 161 104 94 161 104 94 161 104 94 161 104 94 161 104 94 161 104 94 161 104 94 161 104 94 161 104 94 161 104 94 161 104 94 161 104 94 161 104 94 161 104 94 161 104 94 161 104 94 161 104 94 161 104 94 161 104 94 161 104 94 161 104 94 161 104 94 161 104 94 161 104 94 161 104 94 161 104 94 161 104 94 161 104 94 161 104 94 161 104 94 0 0 255 167 176 177 167 176 177 167 176 177 167 176 177 167 176 177 167 176 177 167 176 177 167 176 177 167 176 177 167 176 177 167 176 177 167 176 177 167 176 177 167 176 177 167 176 177 167 176 177 167 176 177 167 176 177 167 176 177 167 176 177 167 176 177 0 0 255 0 0 255 0 0 255 0 0 255 119 83 94 0 0 255 0 0 255 119 83 94 119 83 94 119 83 94 119 83 94 119 83 94 119 83 94 119 83 94 119 83 94 119 83 94 0 0 255 119 83 94 0 0 255 167 176 177 167 176 177 167 176 177 167 176 177 167 176 177 167 176 177 0 0 255 98 68 80 98 68 80 98 68 80 98 68 80 98 68 80 98 68 80 98 68 80 98 68 80 98 68 80 98 68 80 98 68 80 98 68 80 98 68 80 98 68 80 98 68 80 98 68 80 98 68 80 0 0 255 0 0 255 0 0 255 98 68 80 98 68 80 98 68 80 98 68 80 98 68 80 98 68 80 98 68 80 98 68 80 98 68 80 98 68 80 98 68 80 98 68 80 98 68 80 98 68 80 98 68 80 98 68 80 98 68 80 98 68 80 98 68 80 98 68 80 98 68 80 98 68 80 98 68 80 98 68 80 98 68 80 98 68 80 98 68 80 98 68 80 98 68 80 98 68 80 98 68 80 98 68 80 98 68 80 98 68 80 98 68 80 98 68 80 98 68 80 98 68 80 
164 196 214 164 196 214 164 196 214 164 196 214 164 196 214 164 196 214 164 196 214 164 196 214 164 196 214 164 196 214 164 196 214 164 196 214 164 196 214 164 196 214 164 196 214 164 196 214 164 196 214 164 196 214 164 196 214 164 196 214 164 196 214 164 196 214 164 196 214 164 196 214 164 196 214 164 196 214 164 196 214 164 196 214 164 196 214 164 196 214 164 196 214 164 196 214 164 196 214 0 0 255 161 104 94 161 104 94 161 104 94 161 104 94 161 104 94 161 104 94 161 104 94 161 104 94 161 104 94 161 104 94 161 104 94 161 104 94 161 104 94 161 104 94 161 104 94 161 104 94 161 104 94 161 104 94 161 104 94 161 104 94 161 104 94 161 104 94 161 104 94 161 104 94 161 104 94 161 104 94 161 104 94 161 104 94 161 104 94 161 104 94 161 104 94 161 104 94 161 104 94 161 104 94 161 104 94 161 104 94 161 104 94 161 104 94 161 104 94 161 104 94 161 104 94 161 104 94 161 104 94 161 104 94 161 104 94 161 104 94 161 104 94 161 104 94 161 104 94 161 104 94 161 104 94 161 104 94 161 104 94 161 104 94 161 104 94 161 104 94 161 104 94 161 104 94 161 104 94 161 104 94 161 104 94 161 104 94 161 104 94 161 104 94 161 104 94 161 104 94 161 104 94 161 104 94 161 104 94 161 104 94 161 104 94 161 104 94 161 104 94 161 104 94 161 104 94 161 104 94 161 104 94 161 104 94 161 104 94 161 104 94 161 104 94 161 104 94 161 104 94 161 104 94 161 104 94 161 104 94 161 104 94 161 104 94 161 104 94 161 104 94 161 104 94 161 104 94 161 104 94 161 104 94 161 104 94 161 104 94 161 104 94 161 104 94 161 104 94 161 104 94 161 104 94 161 104 94 161 104 94 161 104 94 161 104 94 161 104 94 161 104 94 161 104 94 161 104 94 161 104 94 161 104 94 161 104 94 161 104 94 161 104 94 161 104 94 161 104 94 0 0 255 167 176 177 167 176 177 167 176 177 167 176 177 167 176 177 167 176 177 167 176 177 167 176 177 167 176 177 167 176 177 167 176 177 167 176 177 167 176 177 167 176 177 167 176 177 167 176 177 167 176 177 167 176 177 167 176 177 167 176 177 0 0 255 0 0 255 0 0 255 0 0 255 0 0 255 119 83 94 119 83 94 119 83 94 119 83 94 119 83 94 119 83 94 119 83 94 0 0 255 0 0 255 0 0 255 0 0 255 0 0 255 0 0 255 0 0 255 0 0 255 0 0 255 167 176 177 167 176 177 167 176 177 167 176 177 167 176 177 0 0 255 0 0 255 98 68 80 98 68 80 98 68 80 98 68 80 98 68 80 98 68 80 98 68 80 98 68 80 98 68 80 98 68 80 98 68 80 98 68 80 98 68 80 98 68 80 98 68 80 98 68 80 98 68 80 98 68 80 98 68 80 98 68 80 98 68 80 98 68 80 98 68 80 98 68 80 98 68 80 98 68 80 98 68 80 98 68 80 98 68 80 98 68 80 98 68 80 98 68 80 98 68 80 98 68 80 98 68 80 0 0 255 0 0 255 98 68 80 98 68 80 98 68 80 98 68 80 98 68 80 98 68 80 98 68 80 98 68 80 98 68 80 98 68 80 98 68 80 98 68 80 98 68 80 98 68 80 98 68 80 98 68 80 98 68 80 98 68 80 98 68 80 98 68 80 
164 196 214 164 196 214 164 196 214 164 196 214 164 196 214 164 196 214 164 196 214 164 196 214 164 196 214 164 196 214 164 196 214 164 196 214 164 196 214 164 196 214 164 196 214 164 196 214 164 196 214 164 196 214 164 196 214 164 196 214 164 196 214 164 196 214 164 196 214 164 196 214 164 196 214 164 196 214 164 196 214 164 196 214 164 196 214 164 196 214 164 196 214 164 196 214 164 196 214 0 0 255 161 104 94 161 104 94 161 104 94 161 104 94 161 104 94 161 104 94 161 104 94 161 104 94 161 104 94 161 104 94 161 104 94 161 104 94 161 104 94 161 104 94 161 104 94 161 104 94 161 104 94 161 104 94 161 104 94 161 104 94 161 104 94 161 104 94 161 104 94 161 104 94 161 104 94 161 104 94 161 104 94 161 104 94 161 104 94 161 104 94 161 104 94 161 104 94 161 104 94 161 104 94 161 104 94 161 104 94 161 104 94 161 104 94 161 104 94 161 104 94 161 104 94 161 104 94 161 104 94 161 104 94 161 104 94 161 104 94 161 104 94 161 104 94 161 104 94 161 104 94 161 104 94 161 104 94 161 104 94 161 104 94 161 104 94 161 104 94 161 104 94 161 104 94 161 104 94 161 104 94 161 104 94 161 104 94 161 104 94 161 104 94 161 104 94 161 104 94 161 104 94 161 104 94 161 104 94 161 104 94 161 104 94 161 104 94 161 104 94 161 104 94 161 104 94 161 104 94 161 104 94 161 104 94 161 104 94 161 104 94 161 104 94 161 104 94 161 104 94 161 104 94 161 104 94 161 104 94 161 104 94 161 104 94 161 104 94 161 104 94 161 104 94 161 104 94 161 104 94 161 104 94 161 104 94 161 104 94 161 104 94 161 104 94 161 104 94 161 104 94 161 104 94 161 104 94 161 104 94 161 104 94 161 104 94 161 104 94 161 104 94 161 104 94 161 104 94 161 104 94 161 104 94 161 104 94 161 104 94 161 104 94 161 104 94 161 104 94 0 0 255 167 176 177 167 176 177 167 176 177 167 176 177 167 176 177 167 176 177 167 176 177 167 176 177 167 176 177 167 176 177 167 176 177 167 176 177 167 176 177 167 176 177 167 176 177 167 176 177 167 176 177 167 176 177 167 176 177 167 176 177 167 176 177 0 0 255 0 0 255 0 0 255 119 83 94 0 0 255 0 0 255 119 83 94 0 0 255 0 0 255 0 0 255 0 0 255 98 68 80 0 0 255 0 0 255 98 68 80 98 68 80 98 68 80 98 68 80 98 68 80 0 0 255 0 0 255 167 176 177 167 176 177 167 176 177 167 176 177 167 176 177 0 0 255 98 68 80 98 68 80 98 68 80 98 68 80 98 68 80 98 68 80 98 68 80 98 68 80 98 68 80 98 68 80 98 68 80 98 68 80 98 68 80 98 68 80 98 68 80 98 68 80 98 68 80 98 68 80 98 68 80 98 68 80 98 68 80 98 68 80 98 68 80 98 68 80 98 68 80 98 68 80 98 68 80 98 68 80 98 68 80 98 68 80 98 68 80 98 68 80 98 68 80 98 68 80 0 0 255 0 0 255 0 0 255 98 68 80 98 68 80 98 68 80 98 68 80 98 68 80 98 68 80 98 68 80 98 68 80 98 68 80 98 68 80 98 68 80 98 68 80 98 68 80 98 68 80 98 68 80 98 68 80 98 68 80 98 68 80 98 68 80 98 68 80 
164 196 214 164 196 214 164 196 214 164 196 214 164 196 214 164 196 214 164 196 214 164 196 214 164 196 214 164 196 214 164 196 214 164 196 214 164 196 214 164 196 214 164 196 214 164 196 214 164 196 214 164 196 214 164 196 214 164 196 214 164 196 214 164 196 214 164 196 214 164 196 214 164 196 214 164 196 214 164 196 214 164 196 214 164 196 214 164 196 214 164 196 214 164 196 214 164 196 214 0 0 255 161 104 94 161 104 94 161 104 94 161 104 94 161 104 94 161 104 94 161 104 94 161 104 94 161 104 94 161 104 94 161 104 94 161 104 94 161 104 94 161 104 94 161 104 94 161 104 94 161 104 94 161 104 94 161 104 94 161 104 94 161 104 94 161 104 94 161 104 94 161 104 94 161 104 94 161 104 94 161 104 94 161 104 94 161 104 94 161 104 94 161 104 94 161 104 94 161 104 94 161 104 94 161 104 94 161 104 94 161 104 94 161 104 94 161 104 94 161 104 94 161 104 94 161 104 94 161 104 94 161 104 94 161 104 94 161 104 94 161 104 94 161 104 94 161 104 94 161 104 94 161 104 94 161 104 94 161 104 94 161 104 94 161 104 94 161 104 94 161 104 94 161 104 94 161 104 94 161 104 94 161 104 94 161 104 94 161 104 94 161 104 94 161 104 94 161 104 94 161 104 94 161 104 94 161 104 94 161 104 94 161 104 94 161 104 94 161 104 94 161 104 94 161 104 94 161 104 94 161 104 94 161 104 94 161 104 94 161 104 94 161 104 94 161 104 94 161 104 94 161 104 94 161 104 94 161 104 94 161 104 94 161 104 94 161 104 94 161 104 94 161 104 94 161 104 94 161 104 94 161 104 94 161 104 94 161 104 94 161 104 94 161 104 94 161 104 94 161 104 94 161 104 94 161 104 94 161 104 94 161 104 94 161 104 94 161 104 94 161 104 94 161 104 94 161 104 94 161 104 94 161 104 94 161 104 94 161 104 94 161 104 94 161 104 94 161 104 94 0 0 255 167 176 177 167 176 177 167 176 177 167 176 177 167 176 177 167 176 177 167 176 177 167 176 177 167 176 177 167 176 177 167 176 177 167 176 177 167 176 177 167 176 177 167 176 177 167 176 177 167 176 177 167 176 177 167 176 177 167 176 177 167 176 177 0 0 255 0 0 255 0 0 255 0 0 255 0 0 255 0 0 255 0 0 255 0 0 255 0 0 255 0 0 255 0 0 255 0 0 255 0 0 255 0 0 255 98 68 80 98 68 80 98 68 80 98 68 80 98 68 80 98 68 80 0 0 255 167 176 177 167 176 177 167 176 177 167 176 177 0 0 255 98 68 80 98 68 80 98 68 80 98 68 80 98 68 80 98 68 80 98 68 80 98 68 80 98 68 80 98 68 80 98 68 80 98 68 80 98 68 80 98 68 80 98 68 80 98 68 80 98 68 80 98 68 80 98 68 80 98 68 80 98 68 80 98 68 80 98 68 80 98 68 80 98 68 80 98 68 80 98 68 80 98 68 80 98 68 80 98 68 80 98 68 80 98 68 80 98 68 80 98 68 80 98 68 80 98 68 80 98 68 80 98 68 80 98 68 80 98 68 80 98 68 80 98 68 80 98 68 80 98 68 80 98 68 80 98 68 80 98 68 80 98 68 80 98 68 80 98 68 80 98 68 80 98 68 80 98 68 80 98 68 80 98 68 80 98 68 80 98 68 80 98 68 80 
164 196 214 164 196 214 164 196 214 164 196 214 164 196 214 164 196 214 164 196 214 164 196 214 164 196 214 164 196 214 164 196 214 164 196 214 164 196 214 164 196 214 164 196 214 164 196 214 164 196 214 164 196 214 164 196 214 164 196 214 164 196 214 164 196 214 164 196 214 164 196 214 164 196 214 164 196 214 164 196 214 164 196 214 164 196 214 164 196 214 164 196 214 164 196 214 164 196 214 0 0 255 161 104 94 161 104 94 161 104 94 161 104 94 161 104 94 161 104 94 161 104 94 161 104 94 161 104 94 161 104 94 161 104 94 161 104 94 161 104 94 161 104 94 161 104 94 161 104 94 161 104 94 161 104 94 161 104 94 161 104 94 161 104 94 161 104 94 161 104 94 161 104 94 161 104 94 161 104 94 161 104 94 161 104 94 161 104 94 161 104 94 161 104 94 161 104 94 161 104 94 161 104 94 161 104 94 161 104 94 161 104 94 161 104 94 161 104 94 161 104 94 161 104 94 161 104 94 161 104 94 161 104 94 161 104 94 161 104 94 161 104 94 161 104 94 161 104 94 161 104 94 161 104 94 161 104 94 161 104 94 161 104 94 161 104 94 161 104 94 161 104 94 161 104 94 161 104 94 161 104 94 161 104 94 161 104 94 161 104 94 161 104 94 161 104 94 161 104 94 161 104 94 161 104 94 161 104 94 161 104 94 161 104 94 161 104 94 161 104 94 161 104 94 161 104 94 161 104 94 161 104 94 161 104 94 161 104 94 161 104 94 161 104 94 161 104 94 161 104 94 161 104 94 161 104 94 161 104 94 161 104 94 161 104 94 161 104 94 161 104 94 161 104 94 161 104 94 161 104 94 161 104 94 161 104 94 161 104 94 161 104 94 161 104 94 161 104 94 161 104 94 161 104 94 161 104 94 161 104 94 161 104 94 161 104 94 161 104 94 161 104 94 161 104 94 161 104 94 161 104 94 161 104 94 161 104 94 161 104 94 161 104 94 161 104 94 0 0 255 0 0 255 167 176 177 167 176 177 167 176 177 167 176 177 167 176 177 167 176 177 167 176 177 167 176 177 167 176 177 167 176 177 167 176 177 167 176 177 167 176 177 167 176 177 167 176 177 167 176 177 167 176 177 167 176 177 167 176 177 167 176 177 0 0 255 0 0 255 0 0 255 0 0 255 0 0 255 0 0 255 0 0 255 0 0 255 119 83 94 0 0 255 0 0 255 0 0 255 98 68 80 98 68 80 98 68 80 98 68 80 98 68 80 98 68 80 98 68 80 98 68 80 98 68 80 0 0 255 0 0 255 167 176 177 167 176 177 167 176 177 0 0 255 98 68 80 98 68 80 98 68 80 98 68 80 98 68 80 98 68 80 98 68 80 98 68 80 98 68 80 98 68 80 98 68 80 98 68 80 98 68 80 98 68 80 98 68 80 98 68 80 98 68 80 98 68 80 98 68 80 98 68 80 98 68 80 98 68 80 98 68 80 98 68 80 98 68 80 98 68 80 98 68 80 98 68 80 98 68 80 98 68 80 98 68 80 98 68 80 98 68 80 98 68 80 98 68 80 98 68 80 98 68 80 98 68 80 98 68 80 98 68 80 98 68 80 98 68 80 98 68 80 98 68 80 98 68 80 98 68 80 98 68 80 98 68 80 98 68 80 98 68 80 98 68 80 98 68 80 98 68 80 98 68 80 98 68 80 98 68 80 98 68 80 98 68 80 
164 196 214 164 196 214 164 196 214 164 196 214 164 196 214 164 196 214 164 196 214 164 196 214 164 196 214 164 196 214 164 196 214 164 196 214 164 196 214 164 196 214 164 196 214 164 196 214 164 196 214 164 196 214 164 196 214 164 196 214 164 196 214 164 196 214 164 196 214 164 196 214 164 196 214 164 196 214 164 196 214 164 196 214 164 196 214 164 196 214 164 196 214 164 196 214 164 196 214 0 0 255 161 104 94 161 104 94 161 104 94 161 104 94 161 104 94 161 104 94 161 104 94 161 104 94 161 104 94 161 104 94 161 104 94 161 104 94 161 104 94 161 104 94 161 104 94 161 104 94 161 104 94 161 104 94 161 104 94 161 104 94 161 104 94 161 104 94 161 104 94 161 104 94 161 104 94 161 104 94 161 104 94 161 104 94 161 104 94 161 104 94 161 104 94 161 104 94 161 104 94 161 104 94 161 104 94 161 104 94 161 104 94 161 104 94 161 104 94 161 104 94 161 104 94 161 104 94 161 104 94 161 104 94 161 104 94 161 104 94 161 104 94 161 104 94 161 104 94 161 104 94 161 104 94 161 104 94 161 104 94 161 104 94 161 104 94 161 104 94 161 104 94 161 104 94 161 104 94 161 104 94 161 104 94 161 104 94 161 104 94 161 104 94 161 104 94 161 104 94 161 104 94 161 104 94 161 104 94 161 104 94 161 104 94 161 104 94 161 104 94 161 104 94 161 104 94 161 104 94 161 104 94 161 104 94 161 104 94 161 104 94 161 104 94 161 104 94 161 104 94 161 104 94 161 104 94 161 104 94 161 104 94 161 104 94 161 104 94 161 104 94 161 104 94 161 104 94 161 104 94 161 104 94 161 104 94 161 104 94 161 104 94 161 104 94 161 104 94 161 104 94 161 104 94 161 104 94 161 104 94 161 104 94 161 104 94 161 104 94 161 104 94 161 104 94 161 104 94 161 104 94 161 104 94 161 104 94 161 104 94 161 104 94 161 104 94 161 104 94 0 0 255 167 176 177 167 176 177 167 176 177 167 176 177 167 176 177 167 176 177 167 176 177 167 176 177 167 176 177 167 176 177 167 176 177 167 176 177 167 176 177 167 176 177 167 176 177 167 176 177 167 176 177 167 176 177 167 176 177 167 176 177 167 176 177 167 176 177 0 0 255 0 0 255 0 0 255 0 0 255 0 0 255 0 0 255 0 0 255 98 68 80 98 68 80 98 68 80 98 68 80 98 68 80 98 68 80 98 68 80 98 68 80 98 68 80 98 68 80 98 68 80 98 68 80 98 68 80 0 0 255 0 0 255 0 0 255 0 0 255 98 68 80 98 68 80 98 68 80 98 68 80 98 68 80 98 68 80 98 68 80 98 68 80 98 68 80 98 68 80 98 68 80 98 68 80 98 68 80 98 68 80 98 68 80 98 68 80 98 68 80 98 68 80 98 68 80 98 68 80 98 68 80 98 68 80 98 68 80 98 68 80 98 68 80 98 68 80 98 68 80 98 68 80 98 68 80 98 68 80 98 68 80 98 68 80 98 68 80 98 68 80 98 68 80 98 68 80 98 68 80 98 68 80 98 68 80 98 68 80 98 68 80 98 68 80 98 68 80 98 68 80 98 68 80 98 68 80 98 68 80 98 68 80 98 68 80 98 68 80 98 68 80 98 68 80 98 68 80 98 68 80 98 68 80 98 68 80 98 68 80 98 68 80 98 68 80 
164 196 214 164 196 214 164 196 214 164 196 214 164 196 214 164 196 214 164 196 214 164 196 214 164 196 214 164 196 214 164 196 214 164 196 214 164 196 214 164 196 214 164 196 214 164 196 214 164 196 214 164 196 214 164 196 214 164 196 214 164 196 214 164 196 214 164 196 214 164 196 214 164 196 214 164 196 214 164 196 214 164 196 214 164 196 214 164 196 214 164 196 214 164 196 214 164 196 214 0 0 255 161 104 94 161 104 94 161 104 94 161 104 94 161 104 94 161 104 94 161 104 94 161 104 94 161 104 94 161 104 94 161 104 94 161 104 94 161 104 94 161 104 94 161 104 94 161 104 94 161 104 94 161 104 94 161 104 94 161 104 94 161 104 94 161 104 94 161 104 94 161 104 94 161 104 94 161 104 94 161 104 94 161 104 94 161 104 94 161 104 94 161 104 94 161 104 94 161 104 94 161 104 94 161 104 94 161 104 94 161 104 94 161 104 94 161 104 94 161 104 94 161 104 94 161 104 94 161 104 94 161 104 94 161 104 94 161 104 94 161 104 94 161 104 94 161 104 94 161 104 94 161 104 94 161 104 94 161 104 94 161 104 94 161 104 94 161 104 94 161 104 94 161 104 94 161 104 94 161 104 94 161 104 94 161 104 94 161 104 94 161 104 94 161 104 94 161 104 94 161 104 94 161 104 94 161 104 94 161 104 94 161 104 94 161 104 94 161 104 94 161 104 94 161 104 94 161 104 94 161 104 94 161 104 94 161 104 94 161 104 94 161 104 94 161 104 94 161 104 94 161 104 94 161 104 94 161 104 94 161 104 94 161 104 94 161 104 94 161 104 94 161 104 94 161 104 94 161 104 94 161 104 94 161 104 94 161 104 94 161 104 94 161 104 94 161 104 94 161 104 94 161 104 94 161 104 94 161 104 94 161 104 94 161 104 94 161 104 94 161 104 94 161 104 94 161 104 94 161 104 94 161 104 94 161 104 94 161 104 94 161 104 94 161 104 94 0 0 255 167 176 177 167 176 177 167 176 177 167 176 177 167 176 177 167 176 177 167 176 177 167 176 177 167 176 177 167 176 177 167 176 177 167 176 177 167 176 177 167 176 177 167 176 177 167 176 177 167 176 177 167 176 177 167 176 177 167 176 177 167 176 177 167 176 177 0 0 255 98 68 80 98 68 80 98 68 80 98 68 80 98 68 80 98 68 80 98 68 80 98 68 80 98 68 80 98 68 80 98 68 80 98 68 80 98 68 80 98 68 80 98 68 80 98 68 80 98 68 80 98 68 80 98 68 80 98 68 80 98 68 80 98 68 80 98 68 80 98 68 80 98 68 80 98 68 80 98 68 80 98 68 80 98 68 80 98 68 80 98 68 80 98 68 80 98 68 80 98 68 80 98 68 80 98 68 80 98 68 80 98 68 80 98 68 80 98 68 80 98 68 80 98 68 80 98 68 80 98 68 80 98 68 80 98 68 80 98 68 80 98 68 80 98 68 80 98 68 80 98 68 80 98 68 80 98 68 80 98 68 80 98 68 80 98 68 80 98 68 80 98 68 80 98 68 80 98 68 80 98 68 80 98 68 80 98 68 80 98 68 80 98 68 80 98 68 80 98 68 80 98 68 80 98 68 80 98 68 80 98 68 80 98 68 80 98 68 80 98 68 80 98 68 80 98 68 80 98 68 80 98 68 80 98 68 80 98 68 80 98 68 80 98 68 80 98 68 80 
164 196 214 164 196 214 164 196 214 164 196 214 164 196 214 164 196 214 164 196 214 164 196 214 164 196 214 164 196 214 164 196 214 164 196 214 164 196 214 164 196 214 164 196 214 164 196 214 164 196 214 164 196 214 164 196 214 164 196 214 164 196 214 164 196 214 164 196 214 164 196 214 164 196 214 164 196 214 164 196 214 164 196 214 164 196 214 164 196 214 164 196 214 164 196 214 164 196 214 0 0 255 161 104 94 161 104 94 161 104 94 161 104 94 161 104 94 161 104 94 161 104 94 161 104 94 161 104 94 161 104 94 161 104 94 161 104 94 161 104 94 161 104 94 161 104 94 161 104 94 161 104 94 161 104 94 161 104 94 161 104 94 161 104 94 161 104 94 161 104 94 161 104 94 161 104 94 161 104 94 161 104 94 161 104 94 161 104 94 161 104 94 161 104 94 161 104 94 161 104 94 161 104 94 161 104 94 161 104 94 161 104 94 161 104 94 161 104 94 161 104 94 161 104 94 161 104 94 161 104 94 161 104 94 161 104 94 161 104 94 161 104 94 161 104 94 161 104 94 161 104 94 161 104 94 161 104 94 161 104 94 161 104 94 161 104 94 161 104 94 161 104 94 161 104 94 161 104 94 161 104 94 161 104 94 161 104 94 161 104 94 161 104 94 161 104 94 161 104 94 161 104 94 161 104 94 161 104 94 161 104 94 161 104 94 161 104 94 161 104 94 161 104 94 161 104 94 161 104 94 161 104 94 161 104 94 161 104 94 161 104 94 161 104 94 161 104 94 161 104 94 161 104 94 161 104 94 161 104 94 161 104 94 161 104 94 161 104 94 161 104 94 161 104 94 161 104 94 161 104 94 161 104 94 161 104 94 161 104 94 161 104 94 161 104 94 161 104 94 161 104 94 161 104 94 161 104 94 161 104 94 161 104 94 161 104 94 161 104 94 161 104 94 161 104 94 161 104 94 161 104 94 161 104 94 161 104 94 161 104 94 161 104 94 161 104 94 0 0 255 167 176 177 167 176 177 167 176 177 167 176 177 167 176 177 167 176 177 167 176 177 167 176 177 167 176 177 167 176 177 167 176 177 167 176 177 167 176 177 167 176 177 167 176 177 167 176 177 167 176 177 167 176 177 167 176 177 167 176 177 167 176 177 0 0 255 98 68 80 98 68 80 98 68 80 98 68 80 98 68 80 98 68 80 98 68 80 98 68 80 98 68 80 98 68 80 98 68 80 98 68 80 98 68 80 98 68 80 98 68 80 98 68 80 98 68 80 98 68 80 98 68 80 98 68 80 98 68 80 98 68 80 98 68 80 98 68 80 98 68 80 98 68 80 98 68 80 98 68 80 98 68 80 98 68 80 98 68 80 98 68 80 98 68 80 98 68 80 98 68 80 98 68 80 98 68 80 98 68 80 98 68 80 98 68 80 98 68 80 98 68 80 98 68 80 98 68 80 98 68 80 98 68 80 98 68 80 98 68 80 98 68 80 98 68 80 98 68 80 98 68 80 98 68 80 98 68 80 98 68 80 98 68 80 98 68 80 98 68 80 98 68 80 98 68 80 98 68 80 98 68 80 98 68 80 98 68 80 98 68 80 98 68 80 98 68 80 98 68 80 98 68 80 98 68 80 98 68 80 98 68 80 98 68 80 98 68 80 98 68 80 98 68 80 98 68 80 98 68 80 98 68 80 98 68 80 98 68 80 98 68 80 98 68 80 98 68 80 
164 196 214 164 196 214 164 196 214 164 196 214 164 196 214 164 196 214 164 196 214 164 196 214 164 196 214 164 196 214 164 196 214 164 196 214 164 196 214 164 196 214 164 196 214 164 196 214 164 196 214 164 196 214 164 196 214 164 196 214 164 196 214 164 196 214 164 196 214 164 196 214 164 196 214 164 196 214 164 196 214 164 196 214 164 196 214 164 196 214 164 196 214 164 196 214 164 196 214 0 0 255 161 104 94 161 104 94 161 104 94 161 104 94 161 104 94 161 104 94 161 104 94 161 104 94 161 104 94 161 104 94 161 104 94 161 104 94 161 104 94 161 104 94 161 104 94 161 104 94 161 104 94 161 104 94 161 104 94 161 104 94 161 104 94 161 104 94 161 104 94 161 104 94 161 104 94 161 104 94 161 104 94 161 104 94 161 104 94 161 104 94 161 104 94 161 104 94 161 104 94 161 104 94 161 104 94 161 104 94 161 104 94 161 104 94 161 104 94 161 104 94 161 104 94 161 104 94 161 104 94 161 104 94 161 104 94 161 104 94 161 104 94 161 104 94 161 104 94 161 104 94 161 104 94 161 104 94 161 104 94 161 104 94 161 104 94 161 104 94 161 104 94 161 104 94 161 104 94 161 104 94 161 104 94 161 104 94 161 104 94 161 104 94 161 104 94 161 104 94 161 104 94 161 104 94 161 104 94 161 104 94 161 104 94 161 104 94 161 104 94 161 104 94 161 104 94 161 104 94 161 104 94 161 104 94 161 104 94 161 104 94 161 104 94 161 104 94 161 104 94 161 104 94 161 104 94 161 104 94 161 104 94 161 104 94 161 104 94 161 104 94 161 104 94 161 104 94 161 104 94 161 104 94 161 104 94 161 104 94 161 104 94 161 104 94 161 104 94 161 104 94 161 104 94 161 104 94 161 104 94 161 104 94 161 104 94 161 104 94 161 104 94 161 104 94 161 104 94 161 104 94 161 104 94 161 104 94 161 104 94 161 104 94 161 104 94 0 0 255 167 176 177 167 176 177 167 176 177 167 176 177 167 176 177 167 176 177 167 176 177 167 176 177 167 176 177 167 176 177 167 176 177 167 176 177 167 176 177 167 176 177 167 176 177 167 176 177 167 176 177 167 176 177 167 176 177 167 176 177 167 176 177 0 0 255 98 68 80 98 68 80 98 68 80 98 68 80 98 68 80 98 68 80 98 68 80 98 68 80 98 68 80 98 68 80 98 68 80 98 68 80 98 68 80 98 68 80 98 68 80 98 68 80 98 68 80 98 68 80 98 68 80 98 68 80 98 68 80 98 68 80 98 68 80 98 68 80 98 68 80 98 68 80 98 68 80 98 68 80 98 68 80 98 68 80 98 68 80 98 68 80 98 68 80 98 68 80 98 68 80 98 68 80 98 68 80 98 68 80 98 68 80 98 68 80 98 68 80 98 68 80 98 68 80 98 68 80 98 68 80 98 68 80 98 68 80 98 68 80 98 68 80 98 68 80 98 68 80 98 68 80 98 68 80 98 68 80 98 68 80 98 68 80 98 68 80 98 68 80 98 68 80 98 68 80 98 68 80 98 68 80 98 68 80 98 68 80 98 68 80 98 68 80 98 68 80 98 68 80 98 68 80 98 68 80 98 68 80 98 68 80 98 68 80 0 0 255 0 0 255 0 0 255 0 0 255 0 0 255 0 0 255 0 0 255 0 0 255 0 0 255 0 0 255 0 0 255 
164 196 214 164 196 214 164 196 214 164 196 214 164 196 214 164 196 214 164 196 214 164 196 214 164 196 214 164 196 214 164 196 214 164 196 214 164 196 214 164 196 214 164 196 214 164 196 214 164 196 214 164 196 214 164 196 214 164 196 214 164 196 214 164 196 214 164 196 214 164 196 214 164 196 214 164 196 214 164 196 214 164 196 214 164 196 214 164 196 214 164 196 214 164 196 214 164 196 214 0 0 255 161 104 94 161 104 94 161 104 94 161 104 94 161 104 94 161 104 94 161 104 94 161 104 94 161 104 94 161 104 94 161 104 94 161 104 94 161 104 94 161 104 94 161 104 94 161 104 94 161 104 94 161 104 94 161 104 94 161 104 94 161 104 94 161 104 94 161 104 94 161 104 94 161 104 94 161 104 94 161 104 94 161 104 94 161 104 94 161 104 94 161 104 94 161 104 94 161 104 94 161 104 94 161 104 94 161 104 94 161 104 94 161 104 94 161 104 94 161 104 94 161 104 94 161 104 94 161 104 94 161 104 94 161 104 94 161 104 94 161 104 94 161 104 94 161 104 94 161 104 94 161 104 94 161 104 94 161 104 94 161 104 94 161 104 94 161 104 94 161 104 94 161 104 94 161 104 94 161 104 94 161 104 94 161 104 94 161 104 94 161 104 94 161 104 94 161 104 94 161 104 94 161 104 94 161 104 94 161 104 94 161 104 94 161 104 94 161 104 94 161 104 94 161 104 94 161 104 94 161 104 94 161 104 94 161 104 94 161 104 94 161 104 94 161 104 94 161 104 94 161 104 94 161 104 94 161 104 94 161 104 94 161 104 94 161 104 94 161 104 94 161 104 94 161 104 94 161 104 94 161 104 94 161 104 94 161 104 94 161 104 94 161 104 94 161 104 94 161 104 94 161 104 94 161 104 94 161 104 94 161 104 94 161 104 94 161 104 94 161 104 94 161 104 94 161 104 94 161 104 94 161 104 94 161 104 94 161 104 94 161 104 94 161 104 94 0 0 255 167 176 177 167 176 177 167 176 177 167 176 177 167 176 177 167 176 177 167 176 177 167 176 177 167 176 177 167 176 177 167 176 177 167 176 177 167 176 177 167 176 177 167 176 177 167 176 177 167 176 177 167 176 177 167 176 177 167 176 177 167 176 177 0 0 255 98 68 80 98 68 80 98 68 80 98 68 80 98 68 80 98 68 80 98 68 80 98 68 80 98 68 80 98 68 80 98 68 80 98 68 80 98 68 80 98 68 80 98 68 80 98 68 80 98 68 80 98 68 80 98 68 80 98 68 80 98 68 80 98 68 80 98 68 80 98 68 80 98 68 80 98 68 80 98 68 80 98 68 80 98 68 80 98 68 80 98 68 80 98 68 80 98 68 80 98 68 80 98 68 80 98 68 80 98 68 80 98 68 80 98 68 80 98 68 80 98 68 80 98 68 80 98 68 80 98 68 80 98 68 80 98 68 80 98 68 80 98 68 80 98 68 80 98 68 80 98 68 80 98 68 80 98 68 80 98 68 80 98 68 80 98 68 80 98 68 80 98 68 80 98 68 80 98 68 80 98 68 80 98 68 80 98 68 80 98 68 80 98 68 80 98 68 80 0 0 255 0 0 255 0 0 255 0 0 255 0 0 255 0 0 255 0 0 255 167 176 177 167 176 177 167 176 177 167 176 177 167 176 177 167 176 177 167 176 177 167 176 177 167 176 177 167 176 177 167 176 177 
164 196 214 164 196 214 164 196 214 164 196 214 164 196 214 164 196 214 164 196 214 164 196 214 164 196 214 164 196 214 164 196 214 164 196 214 164 196 214 164 196 214 164 196 214 164 196 214 164 196 214 164 196 214 164 196 214 164 196 214 164 196 214 164 196 214 164 196 214 164 196 214 164 196 214 164 196 214 164 196 214 164 196 214 164 196 214 164 196 214 164 196 214 164 196 214 164 196 214 0 0 255 161 104 94 161 104 94 161 104 94 161 104 94 161 104 94 161 104 94 161 104 94 161 104 94 161 104 94 161 104 94 161 104 94 161 104 94 161 104 94 161 104 94 161 104 94 161 104 94 161 104 94 161 104 94 161 104 94 161 104 94 161 104 94 161 104 94 161 104 94 161 104 94 161 104 94 161 104 94 161 104 94 161 104 94 161 104 94 161 104 94 161 104 94 161 104 94 161 104 94 161 104 94 161 104 94 161 104 94 161 104 94 161 104 94 161 104 94 161 104 94 161 104 94 161 104 94 161 104 94 161 104 94 161 104 94 161 104 94 161 104 94 161 104 94 161 104 94 161 104 94 161 104 94 161 104 94 161 104 94 161 104 94 161 104 94 161 104 94 161 104 94 161 104 94 161 104 94 161 104 94 161 104 94 161 104 94 161 104 94 161 104 94 161 104 94 161 104 94 161 104 94 161 104 94 161 104 94 161 104 94 161 104 94 161 104 94 161 104 94 161 104 94 161 104 94 161 104 94 161 104 94 161 104 94 161 104 94 161 104 94 161 104 94 161 104 94 161 104 94 161 104 94 161 104 94 161 104 94 161 104 94 161 104 94 161 104 94 161 104 94 161 104 94 161 104 94 161 104 94 161 104 94 161 104 94 161 104 94 161 104 94 161 104 94 161 104 94 161 104 94 161 104 94 161 104 94 161 104 94 161 104 94 161 104 94 161 104 94 161 104 94 161 104 94 161 104 94 161 104 94 161 104 94 161 104 94 161 104 94 161 104 94 161 104 94 0 0 255 167 176 177 167 176 177 167 176 177 167 176 177 167 176 177 167 176 177 167 176 177 167 176 177 167 176 177 167 176 177 167 176 177 167 176 177 167 176 177 167 176 177 167 176 177 167 176 177 167 176 177 167 176 177 167 176 177 0 0 255 0 0 255 0 0 255 98 68 80 98 68 80 98 68 80 98 68 80 98 68 80 98 68 80 98 68 80 98 68 80 98 68 80 98 68 80 98 68 80 98 68 80 98 68 80 98 68 80 98 68 80 98 68 80 98 68 80 98 68 80 98 68 80 98 68 80 98 68 80 98 68 80 98 68 80 98 68 80 98 68 80 98 68 80 98 68 80 98 68 80 98 68 80 98 68 80 98 68 80 98 68 80 98 68 80 98 68 80 98 68 80 98 68 80 98 68 80 98 68 80 98 68 80 98 68 80 98 68 80 98 68 80 98 68 80 98 68 80 98 68 80 98 68 80 98 68 80 98 68 80 98 68 80 98 68 80 98 68 80 98 68 80 98 68 80 98 68 80 98 68 80 98 68 80 98 68 80 98 68 80 98 68 80 0 0 255 0 0 255 0 0 255 0 0 255 0 0 255 0 0 255 0 0 255 167 176 177 167 176 177 167 176 177 167 176 177 167 176 177 167 176 177 167 176 177 167 176 177 167 176 177 167 176 177 167 176 177 167 176 177 167 176 177 167 176 177 167 176 177 167 176 177 167 176 177 167 176 177 
164 196 214 164 196 214 164 196 214 164 196 214 164 196 214 164 196 214 164 196 214 164 196 214 164 196 214 164 196 214 164 196 214 164 196 214 164 196 214 164 196 214 164 196 214 164 196 214 164 196 214 164 196 214 164 196 214 164 196 214 164 196 214 164 196 214 164 196 214 164 196 214 164 196 214 164 196 214 164 196 214 164 196 214 164 196 214 164 196 214 164 196 214 164 196 214 164 196 214 0 0 255 161 104 94 161 104 94 161 104 94 161 104 94 161 104 94 161 104 94 161 104 94 161 104 94 161 104 94 161 104 94 161 104 94 161 104 94 161 104 94 161 104 94 161 104 94 161 104 94 161 104 94 161 104 94 161 104 94 161 104 94 161 104 94 161 104 94 161 104 94 161 104 94 161 104 94 161 104 94 161 104 94 161 104 94 161 104 94 161 104 94 161 104 94 161 104 94 161 104 94 161 104 94 161 104 94 161 104 94 161 104 94 161 104 94 161 104 94 161 104 94 161 104 94 161 104 94 161 104 94 161 104 94 161 104 94 161 104 94 161 104 94 161 104 94 161 104 94 161 104 94 161 104 94 161 104 94 161 104 94 161 104 94 161 104 94 161 104 94 161 104 94 161 104 94 161 104 94 161 104 94 161 104 94 161 104 94 161 104 94 161 104 94 161 104 94 161 104 94 161 104 94 161 104 94 161 104 94 161 104 94 161 104 94 161 104 94 161 104 94 161 104 94 161 104 94 161 104 94 161 104 94 161 104 94 161 104 94 161 104 94 161 104 94 161 104 94 161 104 94 161 104 94 161 104 94 161 104 94 161 104 94 161 104 94 161 104 94 161 104 94 161 104 94 161 104 94 161 104 94 161 104 94 161 104 94 161 104 94 161 104 94 161 104 94 161 104 94 161 104 94 161 104 94 161 104 94 161 104 94 161 104 94 161 104 94 161 104 94 161 104 94 161 104 94 161 104 94 161 104 94 161 104 94 161 104 94 161 104 94 161 104 94 161 104 94 0 0 255 167 176 177 167 176 177 167 176 177 167 176 177 167 176 177 167 176 177 167 176 177 167 176 177 167 176 177 167 176 177 167 176 177 167 176 177 167 176 177 167 176 177 167 176 177 167 176 177 0 0 255 0 0 255 0 0 255 98 68 80 98 68 80 98 68 80 98 68 80 98 68 80 98 68 80 98 68 80 98 68 80 98 68 80 98 68 80 98 68 80 98 68 80 98 68 80 98 68 80 98 68 80 98 68 80 98 68 80 98 68 80 98 68 80 98 68 80 98 68 80 98 68 80 98 68 80 98 68 80 98 68 80 98 68 80 98 68 80 98 68 80 98 68 80 98 68 80 98 68 80 98 68 80 98 68 80 98 68 80 98 68 80 98 68 80 98 68 80 98 68 80 98 68 80 98 68 80 98 68 80 98 68 80 98 68 80 98 68 80 98 68 80 98 68 80 98 68 80 98 68 80 98 68 80 98 68 80 98 68 80 98 68 80 98 68 80 98 68 80 98 68 80 98 68 80 0 0 255 0 0 255 0 0 255 0 0 255 0 0 255 0 0 255 167 176 177 167 176 177 167 176 177 167 176 177 167 176 177 167 176 177 167 176 177 167 176 177 167 176 177 167 176 177 167 176 177 167 176 177 167 176 177 167 176 177 167 176 177 167 176 177 167 176 177 167 176 177 167 176 177 167 176 177 167 176 177 167 176 177 167 176 177 167 176 177 167 176 177 
164 196 214 164 196 214 164 196 214 164 196 214 164 196 214 164 196 214 164 196 214 164 196 214 164 196 214 164 196 214 164 196 214 164 196 214 164 196 214 164 196 214 164 196 214 164 196 214 164 196 214 164 196 214 164 196 214 164 196 214 164 196 214 164 196 214 164 196 214 164 196 214 164 196 214 164 196 214 164 196 214 164 196 214 164 196 214 164 196 214 164 196 214 164 196 214 164 196 214 0 0 255 161 104 94 161 104 94 161 104 94 161 104 94 161 104 94 161 104 94 161 104 94 161 104 94 161 104 94 161 104 94 161 104 94 161 104 94 161 104 94 161 104 94 161 104 94 161 104 94 161 104 94 161 104 94 161 104 94 161 104 94 161 104 94 161 104 94 161 104 94 161 104 94 161 104 94 161 104 94 161 104 94 161 104 94 161 104 94 161 104 94 161 104 94 161 104 94 161 104 94 161 104 94 161 104 94 161 104 94 161 104 94 161 104 94 161 104 94 161 104 94 161 104 94 161 104 94 161 104 94 161 104 94 161 104 94 161 104 94 161 104 94 161 104 94 161 104 94 161 104 94 161 104 94 161 104 94 161 104 94 161 104 94 161 104 94 161 104 94 161 104 94 161 104 94 161 104 94 161 104 94 161 104 94 161 104 94 161 104 94 161 104 94 161 104 94 161 104 94 161 104 94 161 104 94 161 104 94 161 104 94 161 104 94 161 104 94 161 104 94 161 104 94 161 104 94 161 104 94 161 104 94 161 104 94 161 104 94 161 104 94 161 104 94 161 104 94 161 104 94 161 104 94 161 104 94 161 104 94 161 104 94 161 104 94 161 104 94 161 104 94 161 104 94 161 104 94 161 104 94 161 104 94 161 104 94 161 104 94 161 104 94 161 104 94 161 104 94 161 104 94 161 104 94 161 104 94 161 104 94 161 104 94 161 104 94 161 104 94 161 104 94 161 104 94 161 104 94 161 104 94 161 104 94 161 104 94 161 104 94 161 104 94 161 104 94 0 0 255 167 176 177 167 176 177 167 176 177 167 176 177 167 176 177 167 176 177 167 176 177 167 176 177 167 176 177 167 176 177 167 176 177 167 176 177 0 0 255 0 0 255 0 0 255 0 0 255 98 68 80 98 68 80 98 68 80 98 68 80 98 68 80 98 68 80 98 68 80 98 68 80 98 68 80 98 68 80 98 68 80 98 68 80 98 68 80 98 68 80 98 68 80 98 68 80 98 68 80 98 68 80 98 68 80 98 68 80 98 68 80 98 68 80 98 68 80 98 68 80 98 68 80 98 68 80 98 68 80 98 68 80 98 68 80 98 68 80 98 68 80 98 68 80 98 68 80 98 68 80 98 68 80 98 68 80 98 68 80 98 68 80 98 68 80 98 68 80 98 68 80 98 68 80 98 68 80 98 68 80 98 68 80 98 68 80 98 68 80 98 68 80 98 68 80 98 68 80 98 68 80 98 68 80 0 0 255 0 0 255 0 0 255 0 0 255 0 0 255 0 0 255 0 0 255 167 176 177 167 176 177 167 176 177 167 176 177 167 176 177 167 176 177 167 176 177 167 176 177 167 176 177 167 176 177 167 176 177 167 176 177 167 176 177 167 176 177 167 176 177 167 176 177 167 176 177 167 176 177 167 176 177 167 176 177 167 176 177 167 176 177 167 176 177 167 176 177 167 176 177 167 176 177 167 176 177 167 176 177 167 176 177 167 176 177 167 176 177 
164 196 214 164 196 214 164 196 214 164 196 214 164 196 214 164 196 214 164 196 214 164 196 214 164 196 214 164 196 214 164 196 214 164 196 214 164 196 214 164 196 214 164 196 214 164 196 214 164 196 214 164 196 214 164 196 214 164 196 214 164 196 214 164 196 214 164 196 214 164 196 214 164 196 214 164 196 214 164 196 214 164 196 214 164 196 214 164 196 214 164 196 214 164 196 214 164 196 214 0 0 255 161 104 94 161 104 94 161 104 94 161 104 94 161 104 94 161 104 94 161 104 94 161 104 94 161 104 94 161 104 94 161 104 94 161 104 94 161 104 94 161 104 94 161 104 94 161 104 94 161 104 94 161 104 94 161 104 94 161 104 94 161 104 94 161 104 94 161 104 94 161 104 94 161 104 94 161 104 94 161 104 94 161 104 94 161 104 94 161 104 94 161 104 94 161 104 94 161 104 94 161 104 94 161 104 94 161 104 94 161 104 94 161 104 94 161 104 94 161 104 94 161 104 94 161 104 94 161 104 94 161 104 94 161 104 94 161 104 94 161 104 94 161 104 94 161 104 94 161 104 94 161 104 94 161 104 94 161 104 94 161 104 94 161 104 94 161 104 94 161 104 94 161 104 94 161 104 94 161 104 94 161 104 94 161 104 94 161 104 94 161 104 94 161 104 94 161 104 94 161 104 94 161 104 94 161 104 94 161 104 94 161 104 94 161 104 94 161 104 94 161 104 94 161 104 94 161 104 94 161 104 94 161 104 94 161 104 94 161 104 94 161 104 94 161 104 94 161 104 94 161 104 94 161 104 94 161 104 94 161 104 94 161 104 94 161 104 94 161 104 94 161 104 94 161 104 94 161 104 94 161 104 94 161 104 94 161 104 94 161 104 94 161 104 94 161 104 94 161 104 94 161 104 94 161 104 94 161 104 94 161 104 94 161 104 94 161 104 94 161 104 94 161 104 94 161 104 94 161 104 94 161 104 94 161 104 94 161 104 94 161 104 94 161 104 94 0 0 255 167 176 177 167 176 177 167 176 177 167 176 177 167 176 177 167 176 177 167 176 177 167 176 177 167 176 177 167 176 177 0 0 255 0 0 255 98 68 80 98 68 80 98 68 80 98 68 80 98 68 80 98 68 80 98 68 80 98 68 80 98 68 80 98 68 80 98 68 80 98 68 80 98 68 80 98 68 80 98 68 80 98 68 80 98 68 80 98 68 80 98 68 80 98 68 80 98 68 80 98 68 80 98 68 80 98 68 80 98 68 80 98 68 80 98 68 80 98 68 80 98 68 80 98 68 80 98 68 80 98 68 80 98 68 80 98 68 80 98 68 80 98 68 80 98 68 80 98 68 80 98 68 80 98 68 80 98 68 80 98 68 80 98 68 80 98 68 80 98 68 80 98 68 80 98 68 80 98 68 80 98 68 80 0 0 255 0 0 255 0 0 255 0 0 255 0 0 255 0 0 255 0 0 255 167 176 177 167 176 177 167 176 177 167 176 177 167 176 177 167 176 177 167 176 177 167 176 177 167 176 177 167 176 177 167 176 177 167 176 177 167 176 177 167 176 177 167 176 177 167 176 177 167 176 177 167 176 177 167 176 177 167 176 177 167 176 177 167 176 177 167 176 177 167 176 177 167 176 177 167 176 177 167 176 177 167 176 177 167 176 177 167 176 177 0 0 255 0 0 255 0 0 255 0 0 255 0 0 255 0 0 255 0 0 255 167 176 177 
164 196 214 164 196 214 164 196 214 164 196 214 164 196 214 164 196 214 164 196 214 164 196 214 164 196 214 164 196 214 164 196 214 164 196 214 164 196 214 164 196 214 164 196 214 164 196 214 164 196 214 164 196 214 164 196 214 164 196 214 164 196 214 164 196 214 164 196 214 164 196 214 164 196 214 164 196 214 164 196 214 164 196 214 164 196 214 164 196 214 164 196 214 164 196 214 164 196 214 0 0 255 161 104 94 161 104 94 161 104 94 161 104 94 161 104 94 161 104 94 161 104 94 161 104 94 161 104 94 161 104 94 161 104 94 161 104 94 161 104 94 161 104 94 161 104 94 161 104 94 161 104 94 161 104 94 161 104 94 161 104 94 161 104 94 161 104 94 161 104 94 161 104 94 161 104 94 161 104 94 161 104 94 161 104 94 161 104 94 161 104 94 161 104 94 161 104 94 161 104 94 161 104 94 161 104 94 161 104 94 161 104 94 161 104 94 161 104 94 161 104 94 161 104 94 161 104 94 161 104 94 161 104 94 161 104 94 161 104 94 161 104 94 161 104 94 161 104 94 161 104 94 161 104 94 161 104 94 161 104 94 161 104 94 161 104 94 161 104 94 161 104 94 161 104 94 161 104 94 161 104 94 161 104 94 161 104 94 161 104 94 161 104 94 161 104 94 161 104 94 161 104 94 161 104 94 161 104 94 161 104 94 161 104 94 161 104 94 161 104 94 161 104 94 161 104 94 161 104 94 161 104 94 161 104 94 161 104 94 161 104 94 161 104 94 161 104 94 161 104 94 161 104 94 161 104 94 161 104 94 161 104 94 161 104 94 161 104 94 161 104 94 161 104 94 161 104 94 161 104 94 161 104 94 161 104 94 161 104 94 161 104 94 161 104 94 161 104 94 161 104 94 161 104 94 161 104 94 161 104 94 161 104 94 161 104 94 161 104 94 161 104 94 161 104 94 161 104 94 161 104 94 161 104 94 161 104 94 161 104 94 161 104 94 161 104 94 0 0 255 167 176 177 167 176 177 167 176 177 167 176 177 167 176 177 167 176 177 167 176 177 0 0 255 0 0 255 0 0 255 98 68 80 98 68 80 98 68 80 98 68 80 98 68 80 98 68 80 98 68 80 98 68 80 98 68 80 98 68 80 98 68 80 98 68 80 98 68 80 98 68 80 98 68 80 98 68 80 98 68 80 98 68 80 98 68 80 98 68 80 98 68 80 98 68 80 98 68 80 98 68 80 98 68 80 98 68 80 98 68 80 98 68 80 98 68 80 98 68 80 98 68 80 98 68 80 98 68 80 98 68 80 98 68 80 98 68 80 98 68 80 98 68 80 98 68 80 98 68 80 98 68 80 98 68 80 98 68 80 98 68 80 0 0 255 0 0 255 0 0 255 0 0 255 0 0 255 0 0 255 0 0 255 167 176 177 167 176 177 167 176 177 167 176 177 167 176 177 167 176 177 167 176 177 167 176 177 167 176 177 167 176 177 167 176 177 167 176 177 167 176 177 167 176 177 167 176 177 167 176 177 167 176 177 167 176 177 167 176 177 167 176 177 167 176 177 167 176 177 167 176 177 167 176 177 167 176 177 167 176 177 167 176 177 167 176 177 167 176 177 167 176 177 167 176 177 0 0 255 0 0 255 0 0 255 0 0 255 0 0 255 0 0 255 98 68 80 98 68 80 98 68 80 98 68 80 98 68 80 98 68 80 0 0 255 167 176 177 
164 196 214 164 196 214 164 196 214 164 196 214 164 196 214 164 196 214 164 196 214 164 196 214 164 196 214 164 196 214 164 196 214 164 196 214 164 196 214 164 196 214 164 196 214 164 196 214 164 196 214 164 196 214 164 196 214 164 196 214 164 196 214 164 196 214 164 196 214 164 196 214 164 196 214 164 196 214 164 196 214 164 196 214 164 196 214 164 196 214 164 196 214 164 196 214 164 196 214 0 0 255 161 104 94 161 104 94 161 104 94 161 104 94 161 104 94 161 104 94 161 104 94 161 104 94 161 104 94 161 104 94 161 104 94 161 104 94 161 104 94 161 104 94 161 104 94 161 104 94 161 104 94 161 104 94 161 104 94 161 104 94 161 104 94 161 104 94 161 104 94 161 104 94 161 104 94 161 104 94 161 104 94 161 104 94 161 104 94 161 104 94 161 104 94 161 104 94 161 104 94 161 104 94 161 104 94 161 104 94 161 104 94 161 104 94 161 104 94 161 104 94 161 104 94 161 104 94 161 104 94 161 104 94 161 104 94 161 104 94 161 104 94 161 104 94 161 104 94 161 104 94 161 104 94 161 104 94 161 104 94 161 104 94 161 104 94 161 104 94 161 104 94 161 104 94 161 104 94 161 104 94 161 104 94 161 104 94 161 104 94 161 104 94 161 104 94 161 104 94 161 104 94 161 104 94 161 104 94 161 104 94 161 104 94 161 104 94 161 104 94 161 104 94 161 104 94 161 104 94 161 104 94 161 104 94 161 104 94 161 104 94 161 104 94 161 104 94 161 104 94 161 104 94 161 104 94 161 104 94 161 104 94 161 104 94 161 104 94 161 104 94 161 104 94 161 104 94 161 104 94 161 104 94 161 104 94 161 104 94 161 104 94 161 104 94 161 104 94 161 104 94 161 104 94 161 104 94 161 104 94 161 104 94 161 104 94 161 104 94 161 104 94 161 104 94 161 104 94 161 104 94 161 104 94 161 104 94 161 104 94 161 104 94 161 104 94 0 0 255 167 176 177 167 176 177 167 176 177 167 176 177 167 176 177 0 0 255 0 0 255 98 68 80 98 68 80 98 68 80 98 68 80 98 68 80 98 68 80 98 68 80 98 68 80 98 68 80 98 68 80 98 68 80 98 68 80 98 68 80 98 68 80 98 68 80 98 68 80 98 68 80 98 68 80 98 68 80 98 68 80 98 68 80 98 68 80 98 68 80 98 68 80 98 68 80 98 68 80 98 68 80 98 68 80 98 68 80 98 68 80 98 68 80 98 68 80 98 68 80 98 68 80 98 68 80 98 68 80 98 68 80 98 68 80 98 68 80 98 68 80 0 0 255 0 0 255 0 0 255 0 0 255 0 0 255 0 0 255 0 0 255 167 176 177 167 176 177 167 176 177 167 176 177 167 176 177 167 176 177 167 176 177 167 176 177 167 176 177 167 176 177 167 176 177 167 176 177 167 176 177 167 176 177 167 176 177 167 176 177 167 176 177 167 176 177 167 176 177 167 176 177 167 176 177 167 176 177 167 176 177 167 176 177 167 176 177 167 176 177 167 176 177 167 176 177 167 176 177 0 0 255 0 0 255 0 0 255 0 0 255 0 0 255 167 176 177 167 176 177 167 176 177 0 0 255 98 68 80 98 68 80 98 68 80 98 68 80 98 68 80 98 68 80 98 68 80 98 68 80 98 68 80 98 68 80 98 68 80 98 68 80 0 0 255 167 176 177 
164 196 214 164 196 214 164 196 214 164 196 214 164 196 214 164 196 214 164 196 214 164 196 214 164 196 214 164 196 214 164 196 214 164 196 214 164 196 214 164 196 214 164 196 214 164 196 214 164 196 214 164 196 214 164 196 214 164 196 214 164 196 214 164 196 214 164 196 214 164 196 214 164 196 214 164 196 214 164 196 214 164 196 214 164 196 214 164 196 214 164 196 214 164 196 214 164 196 214 0 0 255 161 104 94 161 104 94 161 104 94 161 104 94 161 104 94 161 104 94 161 104 94 161 104 94 161 104 94 161 104 94 161 104 94 161 104 94 161 104 94 161 104 94 161 104 94 161 104 94 161 104 94 161 104 94 161 104 94 161 104 94 161 104 94 161 104 94 161 104 94 161 104 94 161 104 94 161 104 94 161 104 94 161 104 94 161 104 94 161 104 94 161 104 94 161 104 94 161 104 94 161 104 94 161 104 94 161 104 94 161 104 94 161 104 94 161 104 94 161 104 94 161 104 94 161 104 94 161 104 94 161 104 94 161 104 94 161 104 94 161 104 94 161 104 94 161 104 94 161 104 94 161 104 94 161 104 94 161 104 94 161 104 94 161 104 94 161 104 94 161 104 94 161 104 94 161 104 94 161 104 94 161 104 94 161 104 94 161 104 94 161 104 94 161 104 94 161 104 94 161 104 94 161 104 94 161 104 94 161 104 94 161 104 94 161 104 94 161 104 94 161 104 94 161 104 94 161 104 94 161 104 94 161 104 94 161 104 94 161 104 94 161 104 94 161 104 94 161 104 94 161 104 94 161 104 94 161 104 94 161 104 94 161 104 94 161 104 94 161 104 94 161 104 94 161 104 94 161 104 94 161 104 94 161 104 94 161 104 94 161 104 94 161 104 94 161 104 94 161 104 94 161 104 94 161 104 94 161 104 94 161 104 94 161 104 94 161 104 94 161 104 94 161 104 94 161 104 94 161 104 94 161 104 94 161 104 94 161 104 94 161 104 94 161 104 94 0 0 255 0 0 255 0 0 255 0 0 255 0 0 255 0 0 255 0 0 255 98 68 80 98 68 80 98 68 80 98 68 80 98 68 80 98 68 80 98 68 80 98 68 80 98 68 80 98 68 80 98 68 80 98 68 80 98 68 80 98 68 80 98 68 80 98 68 80 98 68 80 98 68 80 98 68 80 98 68 80 98 68 80 98 68 80 98 68 80 98 68 80 98 68 80 98 68 80 98 68 80 98 68 80 98 68 80 98 68 80 98 68 80 98 68 80 98 68 80 98 68 80 0 0 255 0 0 255 0 0 255 0 0 255 0 0 255 0 0 255 0 0 255 167 176 177 167 176 177 167 176 177 167 176 177 167 176 177 167 176 177 167 176 177 167 176 177 167 176 177 167 176 177 167 176 177 167 176 177 167 176 177 167 176 177 167 176 177 167 176 177 167 176 177 167 176 177 167 176 177 167 176 177 167 176 177 167 176 177 167 176 177 167 176 177 167 176 177 167 176 177 167 176 177 167 176 177 167 176 177 167 176 177 0 0 255 0 0 255 0 0 255 0 0 255 0 0 255 0 0 255 98 68 80 98 68 80 98 68 80 98 68 80 0 0 255 167 176 177 167 176 177 167 176 177 0 0 255 0 0 255 98 68 80 98 68 80 98 68 80 98 68 80 0 0 255 0 0 255 98 68 80 98 68 80 98 68 80 98 68 80 0 0 255 0 0 255 0 0 255 
164 196 214 164 196 214 164 196 214 164 196 214 164 196 214 164 196 214 164 196 214 164 196 214 164 196 214 164 196 214 164 196 214 164 196 214 164 196 214 164 196 214 164 196 214 164 196 214 164 196 214 164 196 214 164 196 214 164 196 214 164 196 214 164 196 214 164 196 214 164 196 214 164 196 214 164 196 214 164 196 214 164 196 214 164 196 214 164 196 214 164 196 214 164 196 214 164 196 214 0 0 255 161 104 94 161 104 94 161 104 94 161 104 94 161 104 94 161 104 94 161 104 94 161 104 94 161 104 94 161 104 94 161 104 94 161 104 94 161 104 94 161 104 94 161 104 94 161 104 94 161 104 94 161 104 94 161 104 94 161 104 94 161 104 94 161 104 94 161 104 94 161 104 94 161 104 94 161 104 94 161 104 94 161 104 94 161 104 94 161 104 94 161 104 94 161 104 94 161 104 94 161 104 94 161 104 94 161 104 94 161 104 94 161 104 94 161 104 94 161 104 94 161 104 94 161 104 94 161 104 94 161 104 94 161 104 94 161 104 94 161 104 94 161 104 94 161 104 94 161 104 94 161 104 94 161 104 94 161 104 94 161 104 94 161 104 94 161 104 94 161 104 94 161 104 94 161 104 94 161 104 94 161 104 94 161 104 94 161 104 94 161 104 94 161 104 94 161 104 94 161 104 94 161 104 94 161 104 94 161 104 94 161 104 94 161 104 94 161 104 94 161 104 94 161 104 94 161 104 94 161 104 94 161 104 94 161 104 94 161 104 94 161 104 94 161 104 94 161 104 94 161 104 94 161 104 94 161 104 94 161 104 94 161 104 94 161 104 94 161 104 94 161 104 94 161 104 94 161 104 94 161 104 94 161 104 94 161 104 94 161 104 94 161 104 94 161 104 94 161 104 94 161 104 94 161 104 94 161 104 94 161 104 94 161 104 94 161 104 94 161 104 94 161 104 94 161 104 94 161 104 94 161 104 94 161 104 94 161 104 94 161 104 94 161 104 94 161 104 94 0 0 255 0 0 255 0 0 255 98 68 80 98 68 80 98 68 80 98 68 80 98 68 80 98 68 80 98 68 80 98 68 80 98 68 80 98 68 80 98 68 80 98 68 80 98 68 80 98 68 80 98 68 80 98 68 80 98 68 80 98 68 80 98 68 80 98 68 80 98 68 80 98 68 80 98 68 80 98 68 80 98 68 80 98 68 80 98 68 80 98 68 80 98 68 80 98 68 80 0 0 255 0 0 255 0 0 255 0 0 255 0 0 255 0 0 255 0 0 255 167 176 177 167 176 177 167 176 177 167 176 177 167 176 177 167 176 177 167 176 177 167 176 177 167 176 177 167 176 177 167 176 177 167 176 177 167 176 177 167 176 177 167 176 177 167 176 177 167 176 177 167 176 177 167 176 177 167 176 177 167 176 177 167 176 177 167 176 177 167 176 177 167 176 177 167 176 177 167 176 177 167 176 177 167 176 177 0 0 255 0 0 255 0 0 255 0 0 255 0 0 255 0 0 255 0 0 255 0 0 255 98 68 80 98 68 80 98 68 80 98 68 80 98 68 80 98 68 80 98 68 80 98 68 80 98 68 80 98 68 80 0 0 255 167 176 177 167 176 177 167 176 177 167 176 177 0 0 255 98 68 80 98 68 80 98 68 80 0 0 255 0 0 255 0 0 255 98 68 80 98 68 80 98 68 80 98 68 80 98 68 80 98 68 80 98 68 80 
164 196 214 164 196 214 164 196 214 164 196 214 164 196 214 164 196 214 164 196 214 164 196 214 164 196 214 164 196 214 164 196 214 164 196 214 164 196 214 164 196 214 164 196 214 164 196 214 164 196 214 164 196 214 164 196 214 164 196 214 164 196 214 164 196 214 164 196 214 164 196 214 164 196 214 164 196 214 164 196 214 164 196 214 164 196 214 164 196 214 164 196 214 164 196 214 164 196 214 0 0 255 161 104 94 161 104 94 161 104 94 161 104 94 161 104 94 161 104 94 161 104 94 161 104 94 161 104 94 161 104 94 161 104 94 161 104 94 161 104 94 161 104 94 161 104 94 161 104 94 161 104 94 161 104 94 161 104 94 161 104 94 161 104 94 161 104 94 161 104 94 161 104 94 161 104 94 161 104 94 161 104 94 161 104 94 161 104 94 161 104 94 161 104 94 161 104 94 161 104 94 161 104 94 161 104 94 161 104 94 161 104 94 161 104 94 161 104 94 161 104 94 161 104 94 161 104 94 161 104 94 161 104 94 161 104 94 161 104 94 161 104 94 161 104 94 161 104 94 161 104 94 161 104 94 161 104 94 161 104 94 161 104 94 161 104 94 161 104 94 161 104 94 161 104 94 161 104 94 161 104 94 161 104 94 161 104 94 161 104 94 161 104 94 161 104 94 161 104 94 161 104 94 161 104 94 161 104 94 161 104 94 161 104 94 161 104 94 161 104 94 161 104 94 161 104 94 161 104 94 161 104 94 161 104 94 161 104 94 161 104 94 161 104 94 161 104 94 161 104 94 161 104 94 161 104 94 161 104 94 161 104 94 161 104 94 161 104 94 161 104 94 161 104 94 161 104 94 161 104 94 161 104 94 161 104 94 161 104 94 161 104 94 161 104 94 161 104 94 161 104 94 161 104 94 161 104 94 161 104 94 161 104 94 161 104 94 161 104 94 161 104 94 161 104 94 161 104 94 161 104 94 161 104 94 161 104 94 0 0 255 0 0 255 0 0 255 0 0 255 98 68 80 98 68 80 98 68 80 98 68 80 98 68 80 98 68 80 98 68 80 98 68 80 98 68 80 98 68 80 98 68 80 98 68 80 98 68 80 98 68 80 98 68 80 98 68 80 98 68 80 98 68 80 98 68 80 98 68 80 98 68 80 98 68 80 98 68 80 98 68 80 98 68 80 98 68 80 0 0 255 0 0 255 0 0 255 0 0 255 0 0 255 0 0 255 0 0 255 167 176 177 167 176 177 167 176 177 167 176 177 167 176 177 167 176 177 167 176 177 167 176 177 167 176 177 167 176 177 167 176 177 167 176 177 167 176 177 167 176 177 167 176 177 167 176 177 167 176 177 167 176 177 167 176 177 167 176 177 167 176 177 167 176 177 167 176 177 167 176 177 167 176 177 167 176 177 167 176 177 167 176 177 0 0 255 0 0 255 0 0 255 0 0 255 0 0 255 0 0 255 0 0 255 0 0 255 98 68 80 98 68 80 98 68 80 98 68 80 98 68 80 98 68 80 98 68 80 98 68 80 98 68 80 98 68 80 98 68 80 0 0 255 0 0 255 0 0 255 0 0 255 0 0 255 0 0 255 0 0 255 0 0 255 167 176 177 167 176 177 167 176 177 167 176 177 0 0 255 98 68 80 98 68 80 98 68 80 98 68 80 98 68 80 98 68 80 98 68 80 98 68 80 98 68 80 98 68 80 98 68 80 98 68 80 98 68 80 
164 196 214 164 196 214 164 196 214 164 196 214 164 196 214 164 196 214 164 196 214 164 196 214 164 196 214 164 196 214 164 196 214 164 196 214 164 196 214 164 196 214 164 196 214 164 196 214 164 196 214 164 196 214 164 196 214 164 196 214 164 196 214 164 196 214 164 196 214 164 196 214 164 196 214 164 196 214 164 196 214 164 196 214 164 196 214 164 196 214 164 196 214 164 196 214 164 196 214 0 0 255 161 104 94 161 104 94 161 104 94 161 104 94 161 104 94 161 104 94 161 104 94 161 104 94 161 104 94 161 104 94 161 104 94 161 104 94 161 104 94 161 104 94 161 104 94 161 104 94 161 104 94 161 104 94 161 104 94 161 104 94 161 104 94 161 104 94 161 104 94 161 104 94 161 104 94 161 104 94 161 104 94 161 104 94 161 104 94 161 104 94 161 104 94 161 104 94 161 104 94 161 104 94 161 104 94 161 104 94 161 104 94 161 104 94 161 104 94 161 104 94 161 104 94 161 104 94 161 104 94 161 104 94 161 104 94 161 104 94 161 104 94 161 104 94 161 104 94 161 104 94 161 104 94 161 104 94 161 104 94 161 104 94 161 104 94 161 104 94 161 104 94 161 104 94 161 104 94 161 104 94 161 104 94 161 104 94 161 104 94 161 104 94 161 104 94 161 104 94 161 104 94 161 104 94 161 104 94 161 104 94 161 104 94 161 104 94 161 104 94 161 104 94 161 104 94 161 104 94 161 104 94 161 104 94 161 104 94 161 104 94 161 104 94 161 104 94 161 104 94 161 104 94 161 104 94 161 104 94 161 104 94 161 104 94 161 104 94 161 104 94 161 104 94 161 104 94 161 104 94 161 104 94 161 104 94 161 104 94 161 104 94 161 104 94 161 104 94 161 104 94 161 104 94 161 104 94 161 104 94 161 104 94 161 104 94 161 104 94 161 104 94 161 104 94 161 104 94 0 0 255 0 0 255 0 0 255 98 68 80 98 68 80 98 68 80 0 0 255 98 68 80 98 68 80 98 68 80 98 68 80 98 68 80 98 68 80 98 68 80 98 68 80 98 68 80 98 68 80 98 68 80 98 68 80 98 68 80 98 68 80 98 68 80 98 68 80 98 68 80 98 68 80 0 0 255 0 0 255 0 0 255 0 0 255 0 0 255 0 0 255 0 0 255 0 0 255 167 176 177 167 176 177 167 176 177 167 176 177 167 176 177 167 176 177 167 176 177 167 176 177 167 176 177 167 176 177 167 176 177 167 176 177 167 176 177 167 176 177 167 176 177 167 176 177 167 176 177 167 176 177 167 176 177 167 176 177 167 176 177 167 176 177 167 176 177 167 176 177 167 176 177 167 176 177 167 176 177 167 176 177 167 176 177 0 0 255 0 0 255 0 0 255 0 0 255 0 0 255 0 0 255 98 68 80 98 68 80 98 68 80 98 68 80 98 68 80 98 68 80 98 68 80 98 68 80 98 68 80 98 68 80 98 68 80 98 68 80 0 0 255 0 0 255 0 0 255 0 0 255 0 0 255 0 0 255 0 0 255 167 176 177 0 0 255 0 0 255 0 0 255 0 0 255 0 0 255 0 0 255 0 0 255 167 176 177 167 176 177 167 176 177 167 176 177 0 0 255 0 0 255 98 68 80 98 68 80 98 68 80 98 68 80 98 68 80 98 68 80 98 68 80 98 68 80 98 68 80 98 68 80 98 68 80 98 68 80 
164 196 214 164 196 214 164 196 214 164 196 214 164 196 214 164 196 214 164 196 214 164 196 214 164 196 214 164 196 214 164 196 214 164 196 214 164 196 214 164 196 214 164 196 214 164 196 214 164 196 214 164 196 214 164 196 214 164 196 214 164 196 214 164 196 214 164 196 214 164 196 214 164 196 214 164 196 214 164 196 214 164 196 214 164 196 214 164 196 214 164 196 214 164 196 214 164 196 214 0 0 255 161 104 94 161 104 94 161 104 94 161 104 94 161 104 94 161 104 94 161 104 94 161 104 94 161 104 94 161 104 94 161 104 94 161 104 94 161 104 94 161 104 94 161 104 94 161 104 94 161 104 94 161 104 94 161 104 94 161 104 94 161 104 94 161 104 94 161 104 94 161 104 94 161 104 94 161 104 94 161 104 94 161 104 94 161 104 94 161 104 94 161 104 94 161 104 94 161 104 94 161 104 94 161 104 94 161 104 94 161 104 94 161 104 94 161 104 94 161 104 94 161 104 94 161 104 94 161 104 94 161 104 94 161 104 94 161 104 94 161 104 94 161 104 94 161 104 94 161 104 94 161 104 94 161 104 94 161 104 94 161 104 94 161 104 94 161 104 94 161 104 94 161 104 94 161 104 94 161 104 94 161 104 94 161 104 94 161 104 94 161 104 94 161 104 94 161 104 94 161 104 94 161 104 94 161 104 94 161 104 94 161 104 94 161 104 94 161 104 94 161 104 94 161 104 94 161 104 94 161 104 94 161 104 94 161 104 94 161 104 94 161 104 94 161 104 94 161 104 94 161 104 94 161 104 94 161 104 94 161 104 94 161 104 94 161 104 94 161 104 94 161 104 94 161 104 94 161 104 94 161 104 94 161 104 94 161 104 94 161 104 94 161 104 94 161 104 94 161 104 94 161 104 94 161 104 94 161 104 94 161 104 94 161 104 94 161 104 94 0 0 255 161 104 94 0 0 255 98 68 80 0 0 255 98 68 80 98 68 80 98 68 80 0 0 255 0 0 255 98 68 80 98 68 80 98 68 80 98 68 80 98 68 80 98 68 80 98 68 80 98 68 80 98 68 80 98 68 80 98 68 80 0 0 255 0 0 255 0 0 255 0 0 255 0 0 255 0 0 255 0 0 255 167 176 177 167 176 177 167 176 177 167 176 177 167 176 177 167 176 177 167 176 177 167 176 177 167 176 177 167 176 177 167 176 177 167 176 177 167 176 177 167 176 177 167 176 177 167 176 177 167 176 177 167 176 177 167 176 177 167 176 177 167 176 177 167 176 177 167 176 177 167 176 177 167 176 177 167 176 177 167 176 177 167 176 177 167 176 177 167 176 177 0 0 255 0 0 255 0 0 255 0 0 255 0 0 255 0 0 255 0 0 255 98 68 80 98 68 80 98 68 80 98 68 80 98 68 80 98 68 80 98 68 80 98 68 80 98 68 80 98 68 80 98 68 80 0 0 255 0 0 255 0 0 255 0 0 255 0 0 255 0 0 255 0 0 255 167 176 177 0 0 255 0 0 255 0 0 255 0 0 255 0 0 255 0 0 255 0 0 255 98 68 80 98 68 80 98 68 80 98 68 80 98 68 80 98 68 80 0 0 255 0 0 255 167 176 177 167 176 177 167 176 177 167 176 177 0 0 255 98 68 80 98 68 80 98 68 80 98 68 80 98 68 80 98 68 80 98 68 80 98 68 80 98 68 80 98 68 80 98 68 80 98 68 80 
164 196 214 164 196 214 164 196 214 164 196 214 164 196 214 164 196 214 164 196 214 164 196 214 164 196 214 164 196 214 164 196 214 164 196 214 164 196 214 164 196 214 164 196 214 164 196 214 164 196 214 164 196 214 164 196 214 164 196 214 164 196 214 164 196 214 164 196 214 164 196 214 164 196 214 164 196 214 164 196 214 164 196 214 164 196 214 164 196 214 164 196 214 164 196 214 164 196 214 0 0 255 161 104 94 161 104 94 161 104 94 161 104 94 161 104 94 161 104 94 161 104 94 161 104 94 161 104 94 161 104 94 161 104 94 161 104 94 161 104 94 161 104 94 161 104 94 161 104 94 161 104 94 161 104 94 161 104 94 161 104 94 161 104 94 161 104 94 161 104 94 161 104 94 161 104 94 161 104 94 161 104 94 161 104 94 161 104 94 161 104 94 161 104 94 161 104 94 161 104 94 161 104 94 161 104 94 161 104 94 161 104 94 161 104 94 161 104 94 161 104 94 161 104 94 161 104 94 161 104 94 161 104 94 161 104 94 161 104 94 161 104 94 161 104 94 161 104 94 161 104 94 161 104 94 161 104 94 161 104 94 161 104 94 161 104 94 161 104 94 161 104 94 161 104 94 161 104 94 161 104 94 161 104 94 161 104 94 161 104 94 161 104 94 161 104 94 161 104 94 161 104 94 161 104 94 161 104 94 161 104 94 161 104 94 161 104 94 161 104 94 161 104 94 161 104 94 161 104 94 161 104 94 161 104 94 161 104 94 161 104 94 161 104 94 161 104 94 161 104 94 161 104 94 161 104 94 161 104 94 161 104 94 161 104 94 161 104 94 161 104 94 161 104 94 161 104 94 161 104 94 161 104 94 161 104 94 161 104 94 161 104 94 161 104 94 161 104 94 161 104 94 161 104 94 161 104 94 0 0 255 161 104 94 161 104 94 0 0 255 0 0 255 0 0 255 0 0 255 0 0 255 0 0 255 98 68 80 98 68 80 98 68 80 0 0 255 0 0 255 98 68 80 98 68 80 98 68 80 0 0 255 0 0 255 0 0 255 0 0 255 0 0 255 0 0 255 0 0 255 0 0 255 0 0 255 167 176 177 167 176 177 167 176 177 167 176 177 167 176 177 167 176 177 167 176 177 167 176 177 167 176 177 167 176 177 167 176 177 167 176 177 167 176 177 167 176 177 167 176 177 167 176 177 167 176 177 167 176 177 167 176 177 167 176 177 167 176 177 167 176 177 167 176 177 167 176 177 167 176 177 167 176 177 167 176 177 167 176 177 0 0 255 0 0 255 0 0 255 0 0 255 0 0 255 0 0 255 0 0 255 0 0 255 98 68 80 98 68 80 98 68 80 98 68 80 98 68 80 98 68 80 98 68 80 98 68 80 98 68 80 98 68 80 0 0 255 0 0 255 0 0 255 0 0 255 0 0 255 0 0 255 0 0 255 0 0 255 0 0 255 0 0 255 0 0 255 0 0 255 0 0 255 0 0 255 0 0 255 0 0 255 98 68 80 98 68 80 98 68 80 98 68 80 98 68 80 98 68 80 98 68 80 98 68 80 98 68 80 98 68 80 98 68 80 98 68 80 98 68 80 98 68 80 0 0 255 167 176 177 167 176 177 167 176 177 167 176 177 0 0 255 0 0 255 98 68 80 98 68 80 98 68 80 98 68 80 98 68 80 98 68 80 98 68 80 98 68 80 98 68 80 98 68 80 98 68 80 
164 196 214 164 196 214 164 196 214 164 196 214 164 196 214 164 196 214 164 196 214 164 196 214 164 196 214 164 196 214 164 196 214 164 196 214 164 196 214 164 196 214 164 196 214 164 196 214 164 196 214 164 196 214 164 196 214 164 196 214 164 196 214 164 196 214 164 196 214 164 196 214 164 196 214 164 196 214 164 196 214 164 196 214 164 196 214 164 196 214 164 196 214 164 196 214 0 0 255 161 104 94 161 104 94 161 104 94 161 104 94 161 104 94 161 104 94 161 104 94 161 104 94 161 104 94 161 104 94 161 104 94 161 104 94 161 104 94 161 104 94 161 104 94 161 104 94 161 104 94 161 104 94 161 104 94 161 104 94 161 104 94 161 104 94 161 104 94 161 104 94 161 104 94 161 104 94 161 104 94 161 104 94 161 104 94 161 104 94 161 104 94 161 104 94 161 104 94 161 104 94 161 104 94 161 104 94 161 104 94 161 104 94 161 104 94 161 104 94 161 104 94 161 104 94 161 104 94 161 104 94 161 104 94 161 104 94 161 104 94 161 104 94 161 104 94 161 104 94 161 104 94 161 104 94 161 104 94 161 104 94 161 104 94 161 104 94 161 104 94 161 104 94 161 104 94 161 104 94 161 104 94 161 104 94 161 104 94 161 104 94 161 104 94 161 104 94 161 104 94 161 104 94 161 104 94 161 104 94 161 104 94 161 104 94 161 104 94 161 104 94 161 104 94 161 104 94 161 104 94 161 104 94 161 104 94 161 104 94 161 104 94 161 104 94 161 104 94 161 104 94 161 104 94 161 104 94 161 104 94 161 104 94 161 104 94 161 104 94 161 104 94 161 104 94 161 104 94 161 104 94 161 104 94 161 104 94 161 104 94 161 104 94 161 104 94 161 104 94 161 104 94 161 104 94 0 0 255 0 0 255 0 0 255 0 0 255 0 0 255 98 68 80 98 68 80 98 68 80 98 68 80 98 68 80 98 68 80 0 0 255 0 0 255 0 0 255 0 0 255 0 0 255 0 0 255 0 0 255 0 0 255 167 176 177 167 176 177 167 176 177 167 176 177 167 176 177 167 176 177 167 176 177 167 176 177 167 176 177 167 176 177 167 176 177 167 176 177 167 176 177 167 176 177 167 176 177 167 176 177 167 176 177 167 176 177 167 176 177 167 176 177 167 176 177 167 176 177 167 176 177 167 176 177 167 176 177 167 176 177 167 176 177 167 176 177 167 176 177 167 176 177 0 0 255 0 0 255 0 0 255 0 0 255 0 0 255 0 0 255 98 68 80 98 68 80 98 68 80 98 68 80 98 68 80 98 68 80 98 68 80 98 68 80 98 68 80 98 68 80 98 68 80 0 0 255 0 0 255 0 0 255 0 0 255 0 0 255 0 0 255 0 0 255 0 0 255 0 0 255 0 0 255 0 0 255 0 0 255 0 0 255 0 0 255 0 0 255 98 68 80 98 68 80 98 68 80 98 68 80 98 68 80 98 68 80 98 68 80 98 68 80 98 68 80 98 68 80 98 68 80 98 68 80 98 68 80 98 68 80 98 68 80 98 68 80 98 68 80 98 68 80 98 68 80 98 68 80 98 68 80 98 68 80 0 0 255 0 0 255 167 176 177 167 176 177 167 176 177 167 176 177 0 0 255 0 0 255 98 68 80 98 68 80 98 68 80 98 68 80 98 68 80 98 68 80 98 68 80 98 68 80 98 68 80 98 68 80 
164 196 214 164 196 214 164 196 214 164 196 214 164 196 214 164 196 214 164 196 214 164 196 214 164 196 214 164 196 214 164 196 214 164 196 214 164 196 214 164 196 214 164 196 214 164 196 214 164 196 214 164 196 214 164 196 214 164 196 214 164 196 214 164 196 214 164 196 214 164 196 214 164 196 214 164 196 214 164 196 214 164 196 214 164 196 214 164 196 214 164 196 214 164 196 214 0 0 255 161 104 94 161 104 94 161 104 94 161 104 94 161 104 94 161 104 94 161 104 94 161 104 94 161 104 94 161 104 94 161 104 94 161 104 94 161 104 94 161 104 94 161 104 94 161 104 94 161 104 94 161 104 94 161 104 94 161 104 94 161 104 94 161 104 94 161 104 94 161 104 94 161 104 94 161 104 94 161 104 94 161 104 94 161 104 94 161 104 94 161 104 94 161 104 94 161 104 94 161 104 94 161 104 94 161 104 94 161 104 94 161 104 94 161 104 94 161 104 94 161 104 94 161 104 94 161 104 94 161 104 94 161 104 94 161 104 94 161 104 94 161 104 94 161 104 94 161 104 94 161 104 94 161 104 94 161 104 94 161 104 94 161 104 94 161 104 94 161 104 94 161 104 94 161 104 94 161 104 94 161 104 94 161 104 94 161 104 94 161 104 94 161 104 94 161 104 94 161 104 94 161 104 94 161 104 94 161 104 94 161 104 94 161 104 94 161 104 94 161 104 94 161 104 94 161 104 94 161 104 94 161 104 94 161 104 94 161 104 94 161 104 94 161 104 94 161 104 94 161 104 94 161 104 94 161 104 94 161 104 94 161 104 94 161 104 94 161 104 94 161 104 94 161 104 94 161 104 94 161 104 94 161 104 94 161 104 94 161 104 94 0 0 255 0 0 255 0 0 255 0 0 255 0 0 255 0 0 255 0 0 255 0 0 255 0 0 255 0 0 255 0 0 255 0 0 255 0 0 255 0 0 255 0 0 255 0 0 255 0 0 255 167 176 177 167 176 177 167 176 177 167 176 177 167 176 177 167 176 177 167 176 177 167 176 177 167 176 177 167 176 177 167 176 177 167 176 177 167 176 177 167 176 177 167 176 177 167 176 177 167 176 177 167 176 177 167 176 177 167 176 177 167 176 177 167 176 177 167 176 177 167 176 177 167 176 177 167 176 177 167 176 177 167 176 177 0 0 255 0 0 255 0 0 255 0 0 255 0 0 255 0 0 255 0 0 255 0 0 255 0 0 255 98 68 80 98 68 80 98 68 80 98 68 80 98 68 80 98 68 80 98 68 80 98 68 80 98 68 80 98 68 80 0 0 255 0 0 255 0 0 255 0 0 255 0 0 255 0 0 255 0 0 255 0 0 255 0 0 255 0 0 255 0 0 255 0 0 255 0 0 255 0 0 255 98 68 80 98 68 80 98 68 80 98 68 80 98 68 80 98 68 80 98 68 80 98 68 80 98 68 80 98 68 80 98 68 80 98 68 80 98 68 80 98 68 80 98 68 80 98 68 80 98 68 80 98 68 80 98 68 80 98 68 80 98 68 80 98 68 80 98 68 80 98 68 80 98 68 80 98 68 80 98 68 80 98 68 80 98 68 80 98 68 80 98 68 80 0 0 255 0 0 255 0 0 255 167 176 177 167 176 177 167 176 177 0 0 255 0 0 255 98 68 80 98 68 80 98 68 80 98 68 80 98 68 80 98 68 80 98 68 80 98 68 80 98 68 80 
164 196 214 164 196 214 164 196 214 164 196 214 164 196 214 164 196 214 164 196 214 164 196 214 164 196 214 164 196 214 164 196 214 164 196 214 164 196 214 164 196 214 164 196 214 164 196 214 164 196 214 164 196 214 164 196 214 164 196 214 164 196 214 164 196 214 164 196 214 164 196 214 164 196 214 164 196 214 164 196 214 164 196 214 164 196 214 164 196 214 164 196 214 164 196 214 0 0 255 161 104 94 161 104 94 161 104 94 161 104 94 161 104 94 161 104 94 161 104 94 161 104 94 161 104 94 161 104 94 161 104 94 161 104 94 161 104 94 161 104 94 161 104 94 161 104 94 161 104 94 161 104 94 161 104 94 161 104 94 161 104 94 161 104 94 161 104 94 161 104 94 161 104 94 161 104 94 161 104 94 161 104 94 161 104 94 161 104 94 161 104 94 161 104 94 161 104 94 161 104 94 161 104 94 161 104 94 161 104 94 161 104 94 161 104 94 161 104 94 161 104 94 161 104 94 161 104 94 161 104 94 161 104 94 161 104 94 161 104 94 161 104 94 161 104 94 161 104 94 161 104 94 161 104 94 161 104 94 161 104 94 161 104 94 161 104 94 161 104 94 161 104 94 161 104 94 161 104 94 161 104 94 161 104 94 161 104 94 161 104 94 161 104 94 161 104 94 161 104 94 161 104 94 161 104 94 161 104 94 161 104 94 161 104 94 161 104 94 161 104 94 161 104 94 161 104 94 161 104 94 161 104 94 161 104 94 161 104 94 161 104 94 161 104 94 161 104 94 161 104 94 161 104 94 161 104 94 161 104 94 161 104 94 161 104 94 161 104 94 161 104 94 161 104 94 0 0 255 0 0 255 0 0 255 0 0 255 0 0 255 0 0 255 0 0 255 0 0 255 0 0 255 0 0 255 0 0 255 0 0 255 0 0 255 0 0 255 0 0 255 167 176 177 167 176 177 167 176 177 167 176 177 167 176 177 167 176 177 167 176 177 167 176 177 167 176 177 167 176 177 167 176 177 167 176 177 167 176 177 167 176 177 167 176 177 167 176 177 167 176 177 167 176 177 167 176 177 167 176 177 167 176 177 167 176 177 167 176 177 167 176 177 167 176 177 167 176 177 167 176 177 167 176 177 167 176 177 0 0 255 0 0 255 0 0 255 0 0 255 0 0 255 0 0 255 98 68 80 98 68 80 98 68 80 98 68 80 98 68 80 98 68 80 98 68 80 98 68 80 98 68 80 98 68 80 98 68 80 0 0 255 0 0 255 0 0 255 0 0 255 0 0 255 0 0 255 0 0 255 0 0 255 0 0 255 0 0 255 0 0 255 0 0 255 0 0 255 0 0 255 0 0 255 98 68 80 98 68 80 98 68 80 98 68 80 98 68 80 98 68 80 98 68 80 98 68 80 98 68 80 98 68 80 98 68 80 98 68 80 98 68 80 98 68 80 98 68 80 98 68 80 98 68 80 98 68 80 98 68 80 98 68 80 98 68 80 98 68 80 98 68 80 98 68 80 98 68 80 98 68 80 98 68 80 98 68 80 98 68 80 98 68 80 98 68 80 98 68 80 98 68 80 98 68 80 98 68 80 98 68 80 98 68 80 98 68 80 98 68 80 98 68 80 0 0 255 0 0 255 0 0 255 167 176 177 167 176 177 0 0 255 98 68 80 0 0 255 0 0 255 98 68 80 98 68 80 98 68 80 98 68 80 98 68 80 98 68 80 
164 196 214 164 196 214 164 196 214 164 196 214 164 196 214 164 196 214 164 196 214 164 196 214 164 196 214 164 196 214 164 196 214 164 196 214 164 196 214 164 196 214 164 196 214 164 196 214 164 196 214 164 196 214 164 196 214 164 196 214 164 196 214 164 196 214 164 196 214 164 196 214 164 196 214 164 196 214 164 196 214 164 196 214 164 196 214 164 196 214 164 196 214 164 196 214 0 0 255 161 104 94 161 104 94 161 104 94 161 104 94 161 104 94 161 104 94 161 104 94 161 104 94 161 104 94 161 104 94 161 104 94 161 104 94 161 104 94 161 104 94 161 104 94 161 104 94 161 104 94 161 104 94 161 104 94 161 104 94 161 104 94 161 104 94 161 104 94 161 104 94 161 104 94 161 104 94 161 104 94 161 104 94 161 104 94 161 104 94 161 104 94 161 104 94 161 104 94 161 104 94 161 104 94 161 104 94 161 104 94 161 104 94 161 104 94 161 104 94 161 104 94 161 104 94 161 104 94 161 104 94 161 104 94 161 104 94 161 104 94 161 104 94 161 104 94 161 104 94 161 104 94 161 104 94 161 104 94 161 104 94 161 104 94 161 104 94 161 104 94 161 104 94 161 104 94 161 104 94 161 104 94 161 104 94 161 104 94 161 104 94 161 104 94 161 104 94 161 104 94 161 104 94 161 104 94 161 104 94 161 104 94 161 104 94 161 104 94 161 104 94 161 104 94 161 104 94 161 104 94 161 104 94 161 104 94 161 104 94 161 104 94 161 104 94 161 104 94 161 104 94 161 104 94 161 104 94 161 104 94 161 104 94 161 104 94 161 104 94 161 104 94 0 0 255 0 0 255 0 0 255 0 0 255 0 0 255 0 0 255 0 0 255 0 0 255 0 0 255 167 176 177 167 176 177 167 176 177 167 176 177 167 176 177 167 176 177 167 176 177 167 176 177 167 176 177 167 176 177 167 176 177 167 176 177 167 176 177 167 176 177 167 176 177 167 176 177 167 176 177 167 176 177 167 176 177 167 176 177 167 176 177 167 176 177 167 176 177 167 176 177 167 176 177 167 176 177 167 176 177 167 176 177 0 0 255 0 0 255 0 0 255 0 0 255 0 0 255 0 0 255 0 0 255 0 0 255 98 68 80 98 68 80 98 68 80 98 68 80 98 68 80 98 68 80 98 68 80 98 68 80 98 68 80 0 0 255 0 0 255 0 0 255 0 0 255 0 0 255 98 68 80 0 0 255 0 0 255 0 0 255 0 0 255 0 0 255 0 0 255 0 0 255 0 0 255 0 0 255 98 68 80 98 68 80 98 68 80 98 68 80 98 68 80 98 68 80 98 68 80 98 68 80 98 68 80 98 68 80 98 68 80 98 68 80 98 68 80 98 68 80 98 68 80 98 68 80 98 68 80 98 68 80 98 68 80 98 68 80 98 68 80 98 68 80 98 68 80 98 68 80 98 68 80 98 68 80 98 68 80 98 68 80 98 68 80 98 68 80 98 68 80 98 68 80 98 68 80 98 68 80 98 68 80 98 68 80 98 68 80 98 68 80 98 68 80 98 68 80 98 68 80 98 68 80 98 68 80 98 68 80 98 68 80 98 68 80 98 68 80 98 68 80 98 68 80 98 68 80 0 0 255 0 0 255 0 0 255 0 0 255 0 0 255 167 176 177 0 0 255 0 0 255 0 0 255 0 0 255 98 68 80 98 68 80 98 68 80 
164 196 214 164 196 214 164 196 214 164 196 214 164 196 214 164 196 214 164 196 214 164 196 214 164 196 214 164 196 214 164 196 214 164 196 214 164 196 214 164 196 214 164 196 214 164 196 214 164 196 214 164 196 214 164 196 214 164 196 214 164 196 214 164 196 214 164 196 214 164 196 214 164 196 214 164 196 214 164 196 214 164 196 214 164 196 214 164 196 214 164 196 214 164 196 214 0 0 255 161 104 94 161 104 94 161 104 94 161 104 94 161 104 94 161 104 94 161 104 94 161 104 94 161 104 94 161 104 94 161 104 94 161 104 94 161 104 94 161 104 94 161 104 94 161 104 94 161 104 94 161 104 94 161 104 94 161 104 94 161 104 94 161 104 94 161 104 94 161 104 94 161 104 94 161 104 94 161 104 94 161 104 94 161 104 94 161 104 94 161 104 94 161 104 94 161 104 94 161 104 94 161 104 94 161 104 94 161 104 94 161 104 94 161 104 94 161 104 94 161 104 94 161 104 94 161 104 94 161 104 94 161 104 94 161 104 94 161 104 94 161 104 94 161 104 94 161 104 94 161 104 94 161 104 94 161 104 94 161 104 94 161 104 94 161 104 94 161 104 94 161 104 94 161 104 94 161 104 94 161 104 94 161 104 94 161 104 94 161 104 94 161 104 94 161 104 94 161 104 94 161 104 94 161 104 94 161 104 94 161 104 94 161 104 94 161 104 94 161 104 94 161 104 94 161 104 94 161 104 94 161 104 94 161 104 94 161 104 94 161 104 94 161 104 94 161 104 94 161 104 94 161 104 94 161 104 94 0 0 255 0 0 255 0 0 255 0 0 255 0 0 255 0 0 255 0 0 255 167 176 177 167 176 177 167 176 177 167 176 177 167 176 177 167 176 177 167 176 177 167 176 177 167 176 177 167 176 177 167 176 177 167 176 177 167 176 177 167 176 177 167 176 177 167 176 177 167 176 177 167 176 177 167 176 177 167 176 177 167 176 177 167 176 177 167 176 177 167 176 177 167 176 177 167 176 177 0 0 255 0 0 255 0 0 255 0 0 255 0 0 255 0 0 255 0 0 255 0 0 255 0 0 255 98 68 80 98 68 80 98 68 80 98 68 80 98 68 80 98 68 80 98 68 80 98 68 80 98 68 80 98 68 80 0 0 255 0 0 255 0 0 255 0 0 255 0 0 255 0 0 255 0 0 255 0 0 255 0 0 255 0 0 255 0 0 255 0 0 255 0 0 255 0 0 255 98 68 80 98 68 80 98 68 80 98 68 80 98 68 80 98 68 80 98 68 80 98 68 80 98 68 80 98 68 80 98 68 80 98 68 80 98 68 80 98 68 80 98 68 80 98 68 80 98 68 80 98 68 80 98 68 80 98 68 80 98 68 80 98 68 80 98 68 80 98 68 80 98 68 80 98 68 80 98 68 80 98 68 80 98 68 80 98 68 80 98 68 80 98 68 80 98 68 80 98 68 80 98 68 80 98 68 80 98 68 80 98 68 80 98 68 80 98 68 80 98 68 80 98 68 80 98 68 80 98 68 80 98 68 80 98 68 80 98 68 80 98 68 80 98 68 80 98 68 80 98 68 80 98 68 80 98 68 80 98 68 80 98 68 80 98 68 80 98 68 80 98 68 80 98 68 80 98 68 80 98 68 80 98 68 80 0 0 255 0 0 255 0 0 255 0 0 255 167 176 177 0 0 255 0 0 255 98 68 80 98 68 80 
164 196 214 164 196 214 164 196 214 164 196 214 164 196 214 164 196 214 164 196 214 164 196 214 164 196 214 164 196 214 164 196 214 164 196 214 164 196 214 164 196 214 164 196 214 164 196 214 164 196 214 164 196 214 164 196 214 164 196 214 164 196 214 164 196 214 164 196 214 164 196 214 164 196 214 164 196 214 164 196 214 164 196 214 164 196 214 164 196 214 164 196 214 164 196 214 0 0 255 161 104 94 161 104 94 161 104 94 161 104 94 161 104 94 161 104 94 161 104 94 161 104 94 161 104 94 161 104 94 161 104 94 161 104 94 161 104 94 161 104 94 161 104 94 161 104 94 161 104 94 161 104 94 161 104 94 161 104 94 161 104 94 161 104 94 161 104 94 161 104 94 161 104 94 161 104 94 161 104 94 161 104 94 161 104 94 161 104 94 161 104 94 161 104 94 161 104 94 161 104 94 161 104 94 161 104 94 161 104 94 161 104 94 161 104 94 161 104 94 161 104 94 161 104 94 161 104 94 161 104 94 161 104 94 161 104 94 161 104 94 161 104 94 161 104 94 161 104 94 161 104 94 161 104 94 161 104 94 161 104 94 161 104 94 161 104 94 161 104 94 161 104 94 161 104 94 161 104 94 161 104 94 161 104 94 161 104 94 161 104 94 161 104 94 161 104 94 161 104 94 161 104 94 161 104 94 161 104 94 161 104 94 161 104 94 161 104 94 161 104 94 161 104 94 161 104 94 161 104 94 161 104 94 161 104 94 161 104 94 161 104 94 161 104 94 161 104 94 161 104 94 161 104 94 0 0 255 167 176 177 167 176 177 167 176 177 167 176 177 167 176 177 167 176 177 167 176 177 167 176 177 167 176 177 167 176 177 167 176 177 167 176 177 167 176 177 167 176 177 167 176 177 167 176 177 167 176 177 167 176 177 167 176 177 167 176 177 167 176 177 167 176 177 167 176 177 167 176 177 167 176 177 0 0 255 0 0 255 0 0 255 0 0 255 0 0 255 0 0 255 0 0 255 0 0 255 0 0 255 0 0 255 0 0 255 98 68 80 98 68 80 98 68 80 98 68 80 98 68 80 98 68 80 98 68 80 98 68 80 98 68 80 0 0 255 0 0 255 0 0 255 0 0 255 0 0 255 0 0 255 0 0 255 0 0 255 0 0 255 0 0 255 0 0 255 0 0 255 0 0 255 98 68 80 98 68 80 98 68 80 98 68 80 98 68 80 98 68 80 98 68 80 98 68 80 98 68 80 98 68 80 98 68 80 98 68 80 98 68 80 98 68 80 98 68 80 98 68 80 98 68 80 98 68 80 98 68 80 98 68 80 98 68 80 98 68 80 98 68 80 98 68 80 98 68 80 98 68 80 98 68 80 98 68 80 98 68 80 98 68 80 98 68 80 98 68 80 98 68 80 98 68 80 98 68 80 98 68 80 98 68 80 98 68 80 98 68 80 98 68 80 98 68 80 98 68 80 98 68 80 98 68 80 98 68 80 98 68 80 98 68 80 98 68 80 98 68 80 98 68 80 98 68 80 98 68 80 98 68 80 98 68 80 98 68 80 98 68 80 98 68 80 98 68 80 98 68 80 98 68 80 98 68 80 98 68 80 98 68 80 98 68 80 98 68 80 98 68 80 98 68 80 98 68 80 98 68 80 98 68 80 98 68 80 98 68 80 98 68 80 0 0 255 0 0 255 0 0 255 0 0 255 98 68 80 0 0 255 
164 196 214 164 196 214 164 196 214 164 196 214 164 196 214 164 196 214 164 196 214 164 196 214 164 196 214 164 196 214 164 196 214 164 196 214 164 196 214 164 196 214 164 196 214 164 196 214 164 196 214 164 196 214 164 196 214 164 196 214 164 196 214 164 196 214 164 196 214 164 196 214 164 196 214 164 196 214 164 196 214 164 196 214 164 196 214 164 196 214 164 196 214 164 196 214 0 0 255 161 104 94 161 104 94 161 104 94 161 104 94 161 104 94 161 104 94 161 104 94 161 104 94 161 104 94 161 104 94 161 104 94 161 104 94 161 104 94 161 104 94 161 104 94 161 104 94 161 104 94 161 104 94 161 104 94 161 104 94 161 104 94 161 104 94 161 104 94 161 104 94 161 104 94 161 104 94 161 104 94 161 104 94 161 104 94 161 104 94 161 104 94 161 104 94 161 104 94 161 104 94 161 104 94 161 104 94 161 104 94 161 104 94 161 104 94 161 104 94 161 104 94 161 104 94 161 104 94 161 104 94 161 104 94 161 104 94 161 104 94 161 104 94 161 104 94 161 104 94 161 104 94 161 104 94 161 104 94 161 104 94 161 104 94 161 104 94 161 104 94 161 104 94 161 104 94 161 104 94 161 104 94 161 104 94 161 104 94 161 104 94 161 104 94 161 104 94 161 104 94 161 104 94 161 104 94 161 104 94 161 104 94 161 104 94 161 104 94 161 104 94 161 104 94 161 104 94 161 104 94 161 104 94 161 104 94 161 104 94 161 104 94 161 104 94 161 104 94 161 104 94 0 0 255 0 0 255 0 0 255 0 0 255 0 0 255 0 0 255 167 176 177 167 176 177 167 176 177 167 176 177 167 176 177 167 176 177 0 0 255 0 0 255 167 176 177 167 176 177 0 0 255 0 0 255 0 0 255 0 0 255 0 0 255 0 0 255 0 0 255 0 0 255 0 0 255 0 0 255 0 0 255 0 0 255 0 0 255 0 0 255 0 0 255 0 0 255 0 0 255 98 68 80 98 68 80 98 68 80 98 68 80 98 68 80 98 68 80 0 0 255 0 0 255 0 0 255 0 0 255 0 0 255 0 0 255 0 0 255 0 0 255 0 0 255 0 0 255 0 0 255 0 0 255 0 0 255 0 0 255 98 68 80 98 68 80 98 68 80 98 68 80 98 68 80 98 68 80 98 68 80 98 68 80 98 68 80 98 68 80 98 68 80 98 68 80 98 68 80 98 68 80 98 68 80 98 68 80 98 68 80 98 68 80 98 68 80 98 68 80 98 68 80 98 68 80 98 68 80 98 68 80 98 68 80 98 68 80 98 68 80 98 68 80 98 68 80 98 68 80 98 68 80 98 68 80 98 68 80 98 68 80 98 68 80 98 68 80 98 68 80 98 68 80 98 68 80 98 68 80 98 68 80 98 68 80 98 68 80 98 68 80 98 68 80 98 68 80 98 68 80 98 68 80 98 68 80 98 68 80 98 68 80 98 68 80 98 68 80 98 68 80 98 68 80 98 68 80 98 68 80 98 68 80 98 68 80 98 68 80 98 68 80 98 68 80 98 68 80 98 68 80 98 68 80 98 68 80 98 68 80 98 68 80 98 68 80 98 68 80 98 68 80 98 68 80 98 68 80 98 68 80 98 68 80 98 68 80 98 68 80 98 68 80 98 68 80 98 68 80 98 68 80 98 68 80 98 68 80 98 68 80 0 0 255 0 0 255 
164 196 214 164 196 214 164 196 214 164 196 214 164 196 214 164 196 214 164 196 214 164 196 214 164 196 214 164 196 214 164 196 214 164 196 214 164 196 214 164 196 214 164 196 214 164 196 214 164 196 214 164 196 214 164 196 214 164 196 214 164 196 214 164 196 214 164 196 214 164 196 214 164 196 214 164 196 214 164 196 214 164 196 214 164 196 214 164 196 214 164 196 214 164 196 214 0 0 255 161 104 94 161 104 94 161 104 94 161 104 94 161 104 94 161 104 94 161 104 94 161 104 94 161 104 94 161 104 94 161 104 94 161 104 94 161 104 94 161 104 94 161 104 94 161 104 94 161 104 94 161 104 94 161 104 94 161 104 94 161 104 94 161 104 94 161 104 94 161 104 94 161 104 94 161 104 94 161 104 94 161 104 94 161 104 94 161 104 94 161 104 94 161 104 94 161 104 94 161 104 94 161 104 94 161 104 94 161 104 94 161 104 94 161 104 94 161 104 94 161 104 94 161 104 94 161 104 94 161 104 94 161 104 94 161 104 94 161 104 94 161 104 94 161 104 94 161 104 94 161 104 94 161 104 94 161 104 94 161 104 94 161 104 94 161 104 94 161 104 94 161 104 94 161 104 94 161 104 94 161 104 94 161 104 94 161 104 94 161 104 94 161 104 94 161 104 94 161 104 94 161 104 94 161 104 94 161 104 94 161 104 94 161 104 94 161 104 94 161 104 94 161 104 94 161 104 94 161 104 94 161 104 94 161 104 94 161 104 94 161 104 94 161 104 94 161 104 94 161 104 94 161 104 94 161 104 94 161 104 94 161 104 94 161 104 94 0 0 255 0 0 255 0 0 255 0 0 255 0 0 255 0 0 255 0 0 255 161 104 94 0 0 255 0 0 255 0 0 255 161 104 94 161 104 94 161 104 94 0 0 255 0 0 255 0 0 255 0 0 255 0 0 255 0 0 255 98 68 80 0 0 255 0 0 255 0 0 255 0 0 255 0 0 255 0 0 255 0 0 255 0 0 255 0 0 255 0 0 255 0 0 255 0 0 255 0 0 255 0 0 255 0 0 255 0 0 255 0 0 255 0 0 255 0 0 255 0 0 255 98 68 80 98 68 80 98 68 80 98 68 80 98 68 80 98 68 80 98 68 80 98 68 80 98 68 80 98 68 80 98 68 80 98 68 80 98 68 80 98 68 80 98 68 80 98 68 80 98 68 80 98 68 80 98 68 80 98 68 80 98 68 80 98 68 80 98 68 80 98 68 80 98 68 80 98 68 80 98 68 80 98 68 80 98 68 80 98 68 80 98 68 80 98 68 80 98 68 80 98 68 80 98 68 80 98 68 80 98 68 80 98 68 80 98 68 80 98 68 80 98 68 80 98 68 80 98 68 80 98 68 80 98 68 80 98 68 80 98 68 80 98 68 80 98 68 80 98 68 80 98 68 80 98 68 80 98 68 80 98 68 80 98 68 80 98 68 80 98 68 80 98 68 80 98 68 80 98 68 80 98 68 80 98 68 80 98 68 80 98 68 80 98 68 80 98 68 80 98 68 80 98 68 80 98 68 80 98 68 80 98 68 80 98 68 80 98 68 80 98 68 80 98 68 80 98 68 80 98 68 80 98 68 80 98 68 80 98 68 80 98 68 80 98 68 80 98 68 80 98 68 80 98 68 80 98 68 80 98 68 80 98 68 80 98 68 80 98 68 80 98 68 80 98 68 80 98 68 80 
164 196 214 164 196 214 164 196 214 164 196 214 164 196 214 164 196 214 164 196 214 164 196 214 164 196 214 164 196 214 164 196 214 164 196 214 164 196 214 164 196 214 164 196 214 164 196 214 164 196 214 164 196 214 164 196 214 164 196 214 164 196 214 164 196 214 164 196 214 164 196 214 164 196 214 164 196 214 164 196 214 164 196 214 164 196 214 164 196 214 164 196 214 164 196 214 0 0 255 161 104 94 161 104 94 161 104 94 161 104 94 161 104 94 161 104 94 161 104 94 161 104 94 161 104 94 161 104 94 161 104 94 161 104 94 161 104 94 161 104 94 161 104 94 161 104 94 161 104 94 161 104 94 161 104 94 161 104 94 161 104 94 161 104 94 161 104 94 161 104 94 161 104 94 161 104 94 161 104 94 161 104 94 161 104 94 161 104 94 161 104 94 161 104 94 161 104 94 161 104 94 161 104 94 161 104 94 161 104 94 161 104 94 161 104 94 161 104 94 161 104 94 161 104 94 161 104 94 161 104 94 161 104 94 161 104 94 161 104 94 161 104 94 161 104 94 161 104 94 161 104 94 161 104 94 161 104 94 161 104 94 161 104 94 161 104 94 161 104 94 161 104 94 161 104 94 161 104 94 161 104 94 161 104 94 161 104 94 161 104 94 161 104 94 161 104 94 161 104 94 161 104 94 161 104 94 161 104 94 161 104 94 161 104 94 161 104 94 161 104 94 161 104 94 161 104 94 161 104 94 161 104 94 161 104 94 161 104 94 161 104 94 161 104 94 161 104 94 161 104 94 161 104 94 161 104 94 161 104 94 161 104 94 161 104 94 161 104 94 161 104 94 161 104 94 161 104 94 161 104 94 161 104 94 161 104 94 0 0 255 0 0 255 0 0 255 0 0 255 0 0 255 0 0 255 0 0 255 0 0 255 0 0 255 0 0 255 0 0 255 0 0 255 0 0 255 0 0 255 161 104 94 161 104 94 161 104 94 161 104 94 161 104 94 161 104 94 161 104 94 0 0 255 0 0 255 0 0 255 0 0 255 0 0 255 0 0 255 98 68 80 98 68 80 98 68 80 98 68 80 98 68 80 98 68 80 98 68 80 98 68 80 98 68 80 98 68 80 98 68 80 98 68 80 98 68 80 98 68 80 98 68 80 98 68 80 98 68 80 98 68 80 98 68 80 98 68 80 98 68 80 98 68 80 98 68 80 98 68 80 98 68 80 98 68 80 98 68 80 98 68 80 98 68 80 98 68 80 98 68 80 98 68 80 98 68 80 98 68 80 98 68 80 98 68 80 98 68 80 98 68 80 98 68 80 98 68 80 98 68 80 98 68 80 98 68 80 98 68 80 98 68 80 98 68 80 98 68 80 98 68 80 98 68 80 98 68 80 98 68 80 98 68 80 98 68 80 98 68 80 98 68 80 98 68 80 98 68 80 98 68 80 98 68 80 98 68 80 98 68 80 98 68 80 98 68 80 98 68 80 98 68 80 98 68 80 98 68 80 98 68 80 98 68 80 98 68 80 98 68 80 98 68 80 98 68 80 98 68 80 98 68 80 98 68 80 98 68 80 98 68 80 98 68 80 98 68 80 98 68 80 98 68 80 98 68 80 98 68 80 98 68 80 98 68 80 98 68 80 98 68 80 98 68 80 98 68 80 98 68 80 98 68 80 98 68 80 98 68 80 98 68 80 98 68 80 98 68 80 98 68 80 98 68 80 98 68 80 
164 196 214 164 196 214 164 196 214 164 196 214 164 196 214 164 196 214 164 196 214 164 196 214 164 196 214 164 196 214 164 196 214 164 196 214 164 196 214 164 196 214 164 196 214 164 196 214 164 196 214 164 196 214 164 196 214 164 196 214 164 196 214 164 196 214 164 196 214 164 196 214 164 196 214 164 196 214 164 196 214 164 196 214 164 196 214 164 196 214 164 196 214 164 196 214 0 0 255 161 104 94 161 104 94 161 104 94 161 104 94 161 104 94 161 104 94 161 104 94 161 104 94 161 104 94 161 104 94 161 104 94 161 104 94 161 104 94 161 104 94 161 104 94 161 104 94 161 104 94 161 104 94 161 104 94 161 104 94 161 104 94 161 104 94 161 104 94 161 104 94 161 104 94 161 104 94 161 104 94 161 104 94 161 104 94 161 104 94 161 104 94 161 104 94 161 104 94 161 104 94 161 104 94 161 104 94 161 104 94 161 104 94 161 104 94 161 104 94 161 104 94 161 104 94 161 104 94 161 104 94 161 104 94 161 104 94 161 104 94 161 104 94 161 104 94 161 104 94 161 104 94 161 104 94 161 104 94 161 104 94 161 104 94 161 104 94 161 104 94 161 104 94 161 104 94 161 104 94 161 104 94 161 104 94 161 104 94 161 104 94 161 104 94 161 104 94 161 104 94 161 104 94 161 104 94 161 104 94 161 104 94 161 104 94 161 104 94 161 104 94 161 104 94 161 104 94 161 104 94 161 104 94 161 104 94 161 104 94 161 104 94 161 104 94 161 104 94 161 104 94 161 104 94 161 104 94 161 104 94 161 104 94 161 104 94 161 104 94 161 104 94 161 104 94 161 104 94 161 104 94 0 0 255 0 0 255 0 0 255 0 0 255 0 0 255 0 0 255 0 0 255 0 0 255 161 104 94 161 104 94 161 104 94 161 104 94 161 104 94 161 104 94 161 104 94 161 104 94 161 104 94 161 104 94 161 104 94 161 104 94 0 0 255 0 0 255 0 0 255 98 68 80 98 68 80 98 68 80 98 68 80 98 68 80 98 68 80 98 68 80 98 68 80 98 68 80 98 68 80 98 68 80 98 68 80 98 68 80 98 68 80 98 68 80 98 68 80 98 68 80 98 68 80 98 68 80 98 68 80 98 68 80 98 68 80 98 68 80 98 68 80 98 68 80 98 68 80 98 68 80 98 68 80 98 68 80 98 68 80 98 68 80 98 68 80 98 68 80 98 68 80 98 68 80 98 68 80 98 68 80 98 68 80 98 68 80 98 68 80 98 68 80 98 68 80 98 68 80 98 68 80 98 68 80 98 68 80 98 68 80 98 68 80 98 68 80 98 68 80 98 68 80 98 68 80 98 68 80 98 68 80 98 68 80 98 68 80 98 68 80 98 68 80 98 68 80 98 68 80 98 68 80 98 68 80 98 68 80 98 68 80 98 68 80 98 68 80 98 68 80 98 68 80 98 68 80 98 68 80 98 68 80 98 68 80 98 68 80 98 68 80 98 68 80 98 68 80 98 68 80 98 68 80 98 68 80 98 68 80 98 68 80 98 68 80 98 68 80 98 68 80 98 68 80 98 68 80 98 68 80 98 68 80 98 68 80 98 68 80 98 68 80 98 68 80 98 68 80 98 68 80 98 68 80 98 68 80 98 68 80 98 68 80 98 68 80 98 68 80 98 68 80 98 68 80 98 68 80 98 68 80 98 68 80 98 68 80 
164 196 214 164 196 214 164 196 214 164 196 214 164 196 214 164 196 214 164 196 214 164 196 214 164 196 214 164 196 214 164 196 214 164 196 214 164 196 214 164 196 214 164 196 214 164 196 214 164 196 214 164 196 214 164 196 214 164 196 214 164 196 214 164 196 214 164 196 214 164 196 214 164 196 214 164 196 214 164 196 214 164 196 214 0 0 255 0 0 255 0 0 255 0 0 255 161 104 94 161 104 94 161 104 94 161 104 94 161 104 94 161 104 94 161 104 94 161 104 94 161 104 94 161 104 94 161 104 94 161 104 94 161 104 94 161 104 94 161 104 94 161 104 94 161 104 94 161 104 94 161 104 94 161 104 94 161 104 94 161 104 94 161 104 94 161 104 94 161 104 94 161 104 94 161 104 94 161 104 94 161 104 94 161 104 94 161 104 94 161 104 94 161 104 94 161 104 94 161 104 94 161 104 94 161 104 94 161 104 94 161 104 94 161 104 94 161 104 94 161 104 94 161 104 94 161 104 94 161 104 94 161 104 94 161 104 94 161 104 94 161 104 94 161 104 94 161 104 94 161 104 94 161 104 94 161 104 94 161 104 94 161 104 94 161 104 94 161 104 94 161 104 94 161 104 94 161 104 94 161 104 94 161 104 94 161 104 94 161 104 94 161 104 94 161 104 94 161 104 94 161 104 94 161 104 94 161 104 94 161 104 94 161 104 94 161 104 94 161 104 94 161 104 94 161 104 94 161 104 94 161 104 94 161 104 94 161 104 94 161 104 94 161 104 94 161 104 94 161 104 94 161 104 94 161 104 94 161 104 94 161 104 94 161 104 94 161 104 94 161 104 94 161 104 94 161 104 94 0 0 255 0 0 255 161 104 94 161 104 94 161 104 94 161 104 94 161 104 94 161 104 94 161 104 94 161 104 94 161 104 94 0 0 255 0 0 255 0 0 255 0 0 255 0 0 255 0 0 255 0 0 255 0 0 255 0 0 255 0 0 255 98 68 80 98 68 80 98 68 80 98 68 80 98 68 80 98 68 80 98 68 80 98 68 80 98 68 80 98 68 80 98 68 80 98 68 80 98 68 80 98 68 80 98 68 80 98 68 80 98 68 80 98 68 80 98 68 80 98 68 80 98 68 80 98 68 80 98 68 80 98 68 80 98 68 80 98 68 80 98 68 80 98 68 80 98 68 80 98 68 80 98 68 80 98 68 80 98 68 80 98 68 80 98 68 80 98 68 80 98 68 80 98 68 80 98 68 80 98 68 80 98 68 80 98 68 80 98 68 80 98 68 80 98 68 80 98 68 80 98 68 80 98 68 80 98 68 80 98 68 80 98 68 80 98 68 80 98 68 80 98 68 80 98 68 80 98 68 80 98 68 80 98 68 80 98 68 80 98 68 80 98 68 80 98 68 80 98 68 80 98 68 80 98 68 80 98 68 80 98 68 80 98 68 80 98 68 80 98 68 80 98 68 80 98 68 80 98 68 80 98 68 80 98 68 80 98 68 80 98 68 80 98 68 80 98 68 80 98 68 80 98 68 80 98 68 80 98 68 80 98 68 80 98 68 80 98 68 80 98 68 80 98 68 80 98 68 80 98 68 80 98 68 80 98 68 80 98 68 80 98 68 80 98 68 80 98 68 80 98 68 80 98 68 80 98 68 80 98 68 80 98 68 80 98 68 80 98 68 80 98 68 80 98 68 80 98 68 80 98 68 80 98 68 80 98 68 80 
164 196 214 164 196 214 164 196 214 164 196 214 164 196 214 164 196 214 164 196 214 164 196 214 164 196 214 164 196 214 164 196 214 164 196 214 164 196 214 164 196 214 164 196 214 164 196 214 164 196 214 164 196 214 164 196 214 164 196 214 164 196 214 164 196 214 164 196 214 164 196 214 164 196 214 0 0 255 0 0 255 0 0 255 161 104 94 161 104 94 161 104 94 161 104 94 161 104 94 161 104 94 161 104 94 161 104 94 161 104 94 161 104 94 161 104 94 161 104 94 161 104 94 161 104 94 161 104 94 161 104 94 161 104 94 161 104 94 161 104 94 161 104 94 161 104 94 161 104 94 161 104 94 161 104 94 161 104 94 161 104 94 161 104 94 161 104 94 161 104 94 161 104 94 161 104 94 161 104 94 161 104 94 161 104 94 161 104 94 161 104 94 161 104 94 161 104 94 161 104 94 161 104 94 161 104 94 161 104 94 161 104 94 161 104 94 161 104 94 161 104 94 161 104 94 161 104 94 161 104 94 161 104 94 161 104 94 161 104 94 161 104 94 161 104 94 161 104 94 161 104 94 161 104 94 161 104 94 161 104 94 161 104 94 161 104 94 161 104 94 161 104 94 161 104 94 161 104 94 161 104 94 161 104 94 161 104 94 161 104 94 161 104 94 161 104 94 161 104 94 161 104 94 161 104 94 161 104 94 161 104 94 161 104 94 161 104 94 161 104 94 161 104 94 161 104 94 161 104 94 161 104 94 161 104 94 161 104 94 161 104 94 161 104 94 161 104 94 161 104 94 161 104 94 161 104 94 161 104 94 161 104 94 161 104 94 161 104 94 161 104 94 161 104 94 161 104 94 161 104 94 161 104 94 161 104 94 161 104 94 0 0 255 0 0 255 0 0 255 0 0 255 0 0 255 0 0 255 0 0 255 98 68 80 98 68 80 98 68 80 98 68 80 98 68 80 98 68 80 98 68 80 98 68 80 98 68 80 98 68 80 98 68 80 98 68 80 98 68 80 98 68 80 98 68 80 98 68 80 98 68 80 98 68 80 98 68 80 98 68 80 98 68 80 98 68 80 98 68 80 98 68 80 98 68 80 98 68 80 98 68 80 98 68 80 98 68 80 98 68 80 98 68 80 98 68 80 98 68 80 98 68 80 98 68 80 98 68 80 98 68 80 98 68 80 98 68 80 98 68 80 98 68 80 98 68 80 98 68 80 98 68 80 98 68 80 98 68 80 98 68 80 98 68 80 98 68 80 98 68 80 98 68 80 98 68 80 98 68 80 98 68 80 98 68 80 98 68 80 98 68 80 98 68 80 98 68 80 98 68 80 98 68 80 98 68 80 98 68 80 98 68 80 98 68 80 98 68 80 98 68 80 98 68 80 98 68 80 98 68 80 98 68 80 98 68 80 98 68 80 98 68 80 98 68 80 98 68 80 98 68 80 98 68 80 98 68 80 98 68 80 98 68 80 98 68 80 98 68 80 98 68 80 98 68 80 98 68 80 98 68 80 98 68 80 98 68 80 98 68 80 98 68 80 98 68 80 98 68 80 98 68 80 98 68 80 98 68 80 98 68 80 98 68 80 98 68 80 98 68 80 98 68 80 98 68 80 98 68 80 98 68 80 98 68 80 98 68 80 98 68 80 98 68 80 98 68 80 98 68 80 98 68 80 98 68 80 98 68 80 98 68 80 98 68 80 98 68 80 98 68 80 98 68 80 98 68 80 
164 196 214 164 196 214 164 196 214 164 196 214 164 196 214 164 196 214 164 196 214 164 196 214 164 196 214 164 196 214 164 196 214 164 196 214 164 196 214 164 196 214 164 196 214 164 196 214 164 196 214 164 196 214 164 196 214 164 196 214 164 196 214 0 0 255 0 0 255 0 0 255 0 0 255 161 104 94 161 104 94 161 104 94 161 104 94 161 104 94 161 104 94 161 104 94 161 104 94 161 104 94 161 104 94 161 104 94 161 104 94 161 104 94 161 104 94 161 104 94 161 104 94 161 104 94 161 104 94 161 104 94 161 104 94 161 104 94 161 104 94 161 104 94 161 104 94 161 104 94 161 104 94 161 104 94 161 104 94 161 104 94 161 104 94 161 104 94 161 104 94 161 104 94 161 104 94 161 104 94 161 104 94 161 104 94 161 104 94 161 104 94 161 104 94 161 104 94 161 104 94 161 104 94 161 104 94 161 104 94 161 104 94 161 104 94 161 104 94 161 104 94 161 104 94 161 104 94 161 104 94 161 104 94 161 104 94 161 104 94 161 104 94 161 104 94 161 104 94 161 104 94 161 104 94 161 104 94 161 104 94 161 104 94 161 104 94 161 104 94 161 104 94 161 104 94 161 104 94 161 104 94 161 104 94 161 104 94 161 104 94 161 104 94 161 104 94 161 104 94 161 104 94 161 104 94 161 104 94 161 104 94 161 104 94 161 104 94 161 104 94 161 104 94 161 104 94 161 104 94 161 104 94 161 104 94 161 104 94 161 104 94 161 104 94 161 104 94 161 104 94 161 104 94 161 104 94 161 104 94 161 104 94 161 104 94 161 104 94 161 104 94 161 104 94 161 104 94 161 104 94 161 104 94 161 104 94 0 0 255 0 0 255 0 0 255 0 0 255 0 0 255 98 68 80 98 68 80 98 68 80 98 68 80 98 68 80 98 68 80 98 68 80 98 68 80 98 68 80 98 68 80 98 68 80 98 68 80 98 68 80 98 68 80 98 68 80 98 68 80 98 68 80 98 68 80 98 68 80 98 68 80 98 68 80 98 68 80 98 68 80 98 68 80 98 68 80 98 68 80 98 68 80 98 68 80 98 68 80 98 68 80 98 68 80 98 68 80 98 68 80 98 68 80 98 68 80 98 68 80 98 68 80 98 68 80 98 68 80 98 68 80 98 68 80 98 68 80 98 68 80 98 68 80 98 68 80 98 68 80 98 68 80 98 68 80 98 68 80 98 68 80 98 68 80 98 68 80 98 68 80 98 68 80 98 68 80 98 68 80 98 68 80 98 68 80 98 68 80 98 68 80 98 68 80 98 68 80 98 68 80 98 68 80 98 68 80 98 68 80 98 68 80 98 68 80 98 68 80 98 68 80 98 68 80 98 68 80 98 68 80 98 68 80 98 68 80 98 68 80 98 68 80 98 68 80 98 68 80 98 68 80 98 68 80 98 68 80 98 68 80 98 68 80 98 68 80 98 68 80 98 68 80 98 68 80 98 68 80 98 68 80 98 68 80 98 68 80 98 68 80 98 68 80 98 68 80 98 68 80 98 68 80 98 68 80 98 68 80 98 68 80 98 68 80 98 68 80 98 68 80 98 68 80 98 68 80 98 68 80 98 68 80 98 68 80 98 68 80 98 68 80 98 68 80 98 68 80 98 68 80 98 68 80 98 68 80 98 68 80 98 68 80 98 68 80 98 68 80 98 68 80 98 68 80 98 68 80 
164 196 214 164 196 214 164 196 214 164 196 214 164 196 214 164 196 214 164 196 214 164 196 214 164 196 214 164 196 214 164 196 214 164 196 214 164 196 214 164 196 214 164 196 214 164 196 214 164 196 214 164 196 214 0 0 255 0 0 255 0 0 255 161 104 94 161 104 94 161 104 94 161 104 94 161 104 94 161 104 94 161 104 94 161 104 94 161 104 94 161 104 94 161 104 94 161 104 94 161 104 94 161 104 94 161 104 94 161 104 94 161 104 94 161 104 94 161 104 94 161 104 94 161 104 94 161 104 94 161 104 94 161 104 94 161 104 94 161 104 94 161 104 94 161 104 94 161 104 94 161 104 94 161 104 94 161 104 94 161 104 94 161 104 94 161 104 94 161 104 94 161 104 94 161 104 94 161 104 94 161 104 94 161 104 94 161 104 94 161 104 94 161 104 94 161 104 94 161 104 94 161 104 94 161 104 94 161 104 94 161 104 94 161 104 94 161 104 94 161 104 94 161 104 94 161 104 94 161 104 94 161 104 94 161 104 94 161 104 94 161 104 94 161 104 94 161 104 94 161 104 94 161 104 94 161 104 94 161 104 94 161 104 94 161 104 94 161 104 94 161 104 94 161 104 94 161 104 94 161 104 94 161 104 94 161 104 94 161 104 94 161 104 94 161 104 94 161 104 94 161 104 94 161 104 94 161 104 94 161 104 94 161 104 94 161 104 94 161 104 94 161 104 94 161 104 94 161 104 94 161 104 94 161 104 94 161 104 94 161 104 94 161 104 94 161 104 94 161 104 94 161 104 94 161 104 94 161 104 94 161 104 94 161 104 94 161 104 94 161 104 94 161 104 94 161 104 94 161 104 94 161 104 94 161 104 94 161 104 94 161 104 94 161 104 94 161 104 94 0 0 255 0 0 255 0 0 255 0 0 255 0 0 255 0 0 255 0 0 255 0 0 255 0 0 255 98 68 80 98 68 80 98 68 80 98 68 80 98 68 80 98 68 80 98 68 80 98 68 80 98 68 80 98 68 80 98 68 80 98 68 80 98 68 80 98 68 80 98 68 80 98 68 80 98 68 80 98 68 80 98 68 80 98 68 80 98 68 80 98 68 80 98 68 80 98 68 80 98 68 80 98 68 80 98 68 80 98 68 80 98 68 80 98 68 80 98 68 80 98 68 80 98 68 80 98 68 80 98 68 80 98 68 80 98 68 80 98 68 80 98 68 80 98 68 80 98 68 80 98 68 80 98 68 80 98 68 80 98 68 80 98 68 80 98 68 80 98 68 80 98 68 80 98 68 80 98 68 80 98 68 80 98 68 80 98 68 80 98 68 80 98 68 80 98 68 80 98 68 80 98 68 80 98 68 80 98 68 80 98 68 80 98 68 80 98 68 80 98 68 80 98 68 80 98 68 80 98 68 80 98 68 80 98 68 80 98 68 80 98 68 80 98 68 80 98 68 80 98 68 80 98 68 80 98 68 80 98 68 80 98 68 80 98 68 80 98 68 80 98 68 80 98 68 80 98 68 80 98 68 80 98 68 80 98 68 80 98 68 80 98 68 80 98 68 80 98 68 80 98 68 80 98 68 80 98 68 80 98 68 80 98 68 80 98 68 80 98 68 80 98 68 80 98 68 80 98 68 80 98 68 80 98 68 80 98 68 80 98 68 80 98 68 80 98 68 80 98 68 80 98 68 80 98 68 80 98 68 80 98 68 80 98 68 80 98 68 80 
164 196 214 164 196 214 164 196 214 164 196 214 164 196 214 164 196 214 164 196 214 164 196 214 164 196 214 164 196 214 164 196 214 164 196 214 164 196 214 164 196 214 164 196 214 0 0 255 0 0 255 0 0 255 161 104 94 161 104 94 161 104 94 161 104 94 161 104 94 161 104 94 161 104 94 161 104 94 161 104 94 161 104 94 161 104 94 161 104 94 161 104 94 161 104 94 161 104 94 161 104 94 161 104 94 161 104 94 161 104 94 161 104 94 161 104 94 161 104 94 161 104 94 161 104 94 161 104 94 161 104 94 161 104 94 161 104 94 161 104 94 161 104 94 161 104 94 161 104 94 161 104 94 161 104 94 161 104 94 161 104 94 161 104 94 161 104 94 161 104 94 161 104 94 161 104 94 161 104 94 161 104 94 161 104 94 161 104 94 161 104 94 161 104 94 161 104 94 161 104 94 161 104 94 161 104 94 161 104 94 161 104 94 161 104 94 161 104 94 161 104 94 161 104 94 161 104 94 161 104 94 161 104 94 161 104 94 161 104 94 161 104 94 161 104 94 161 104 94 161 104 94 161 104 94 161 104 94 161 104 94 161 104 94 161 104 94 161 104 94 161 104 94 161 104 94 161 104 94 161 104 94 161 104 94 161 104 94 161 104 94 161 104 94 161 104 94 161 104 94 161 104 94 161 104 94 161 104 94 161 104 94 161 104 94 161 104 94 161 104 94 161 104 94 161 104 94 161 104 94 161 104 94 161 104 94 161 104 94 161 104 94 161 104 94 161 104 94 161 104 94 161 104 94 161 104 94 161 104 94 161 104 94 161 104 94 161 104 94 161 104 94 161 104 94 161 104 94 161 104 94 161 104 94 161 104 94 161 104 94 161 104 94 161 104 94 161 104 94 161 104 94 161 104 94 161 104 94 161 104 94 161 104 94 161 104 94 161 104 94 161 104 94 0 0 255 0 0 255 0 0 255 0 0 255 0 0 255 0 0 255 0 0 255 0 0 255 98 68 80 98 68 80 98 68 80 98 68 80 98 68 80 98 68 80 98 68 80 98 68 80 98 68 80 98 68 80 98 68 80 98 68 80 98 68 80 98 68 80 98 68 80 98 68 80 98 68 80 98 68 80 98 68 80 98 68 80 98 68 80 98 68 80 98 68 80 98 68 80 98 68 80 98 68 80 98 68 80 98 68 80 98 68 80 98 68 80 98 68 80 98 68 80 98 68 80 98 68 80 98 68 80 98 68 80 98 68 80 98 68 80 98 68 80 98 68 80 98 68 80 98 68 80 98 68 80 98 68 80 98 68 80 98 68 80 98 68 80 98 68 80 98 68 80 98 68 80 98 68 80 98 68 80 98 68 80 98 68 80 98 68 80 98 68 80 98 68 80 98 68 80 98 68 80 98 68 80 98 68 80 98 68 80 98 68 80 98 68 80 98 68 80 98 68 80 98 68 80 98 68 80 98 68 80 98 68 80 98 68 80 98 68 80 98 68 80 98 68 80 98 68 80 98 68 80 98 68 80 98 68 80 98 68 80 98 68 80 98 68 80 98 68 80 98 68 80 98 68 80 98 68 80 98 68 80 98 68 80 98 68 80 98 68 80 98 68 80 98 68 80 98 68 80 98 68 80 98 68 80 98 68 80 98 68 80 98 68 80 98 68 80 98 68 80 98 68 80 98 68 80 98 68 80 98 68 80 98 68 80 98 68 80 98 68 80 98 68 80 
164 196 214 164 196 214 164 196 214 164 196 214 164 196 214 164 196 214 164 196 214 164 196 214 164 196 214 164 196 214 164 196 214 0 0 255 0 0 255 0 0 255 0 0 255 161 104 94 161 104 94 161 104 94 161 104 94 161 104 94 161 104 94 161 104 94 161 104 94 161 104 94 161 104 94 161 104 94 161 104 94 161 104 94 161 104 94 161 104 94 161 104 94 161 104 94 161 104 94 161 104 94 161 104 94 161 104 94 161 104 94 161 104 94 161 104 94 161 104 94 161 104 94 161 104 94 161 104 94 161 104 94 161 104 94 161 104 94 161 104 94 161 104 94 161 104 94 161 104 94 161 104 94 161 104 94 161 104 94 161 104 94 161 104 94 161 104 94 161 104 94 161 104 94 161 104 94 161 104 94 161 104 94 161 104 94 161 104 94 161 104 94 161 104 94 161 104 94 161 104 94 161 104 94 161 104 94 161 104 94 161 104 94 161 104 94 161 104 94 161 104 94 161 104 94 161 104 94 161 104 94 161 104 94 161 104 94 161 104 94 161 104 94 161 104 94 161 104 94 161 104 94 161 104 94 161 104 94 161 104 94 161 104 94 161 104 94 161 104 94 161 104 94 161 104 94 161 104 94 161 104 94 161 104 94 161 104 94 161 104 94 161 104 94 161 104 94 161 104 94 161 104 94 161 104 94 161 104 94 161 104 94 161 104 94 161 104 94 161 104 94 161 104 94 161 104 94 161 104 94 161 104 94 161 104 94 161 104 94 161 104 94 161 104 94 161 104 94 161 104 94 161 104 94 161 104 94 161 104 94 161 104 94 161 104 94 161 104 94 161 104 94 161 104 94 161 104 94 161 104 94 161 104 94 161 104 94 161 104 94 161 104 94 161 104 94 161 104 94 161 104 94 161 104 94 161 104 94 161 104 94 161 104 94 161 104 94 161 104 94 161 104 94 161 104 94 161 104 94 161 104 94 161 104 94 161 104 94 161 104 94 161 104 94 0 0 255 98 68 80 98 68 80 98 68 80 98 68 80 98 68 80 98 68 80 98 68 80 98 68 80 98 68 80 98 68 80 98 68 80 98 68 80 98 68 80 98 68 80 98 68 80 98 68 80 98 68 80 98 68 80 98 68 80 98 68 80 98 68 80 98 68 80 98 68 80 98 68 80 98 68 80 98 68 80 98 68 80 98 68 80 98 68 80 98 68 80 98 68 80 98 68 80 98 68 80 98 68 80 98 68 80 98 68 80 98 68 80 98 68 80 98 68 80 98 68 80 98 68 80 98 68 80 98 68 80 98 68 80 98 68 80 98 68 80 98 68 80 98 68 80 98 68 80 98 68 80 98 68 80 98 68 80 98 68 80 98 68 80 98 68 80 98 68 80 98 68 80 98 68 80 98 68 80 98 68 80 98 68 80 98 68 80 98 68 80 98 68 80 98 68 80 98 68 80 98 68 80 98 68 80 98 68 80 98 68 80 98 68 80 98 68 80 98 68 80 98 68 80 98 68 80 98 68 80 98 68 80 98 68 80 98 68 80 98 68 80 98 68 80 98 68 80 98 68 80 98 68 80 98 68 80 98 68 80 98 68 80 98 68 80 98 68 80 98 68 80 98 68 80 98 68 80 98 68 80 98 68 80 98 68 80 98 68 80 98 68 80 98 68 80 98 68 80 98 68 80 98 68 80 98 68 80 98 68 80 98 68 80 98 68 80 98 68 80 98 68 80 
164 196 214 164 196 214 164 196 214 164 196 214 164 196 214 164 196 214 164 196 214 164 196 214 0 0 255 0 0 255 0 0 255 161 104 94 161 104 94 161 104 94 161 104 94 161 104 94 161 104 94 161 104 94 161 104 94 161 104 94 161 104 94 161 104 94 161 104 94 161 104 94 161 104 94 161 104 94 161 104 94 161 104 94 161 104 94 161 104 94 161 104 94 161 104 94 161 104 94 161 104 94 161 104 94 161 104 94 161 104 94 161 104 94 161 104 94 161 104 94 161 104 94 161 104 94 161 104 94 161 104 94 161 104 94 161 104 94 161 104 94 161 104 94 161 104 94 161 104 94 161 104 94 161 104 94 161 104 94 161 104 94 161 104 94 161 104 94 161 104 94 161 104 94 161 104 94 161 104 94 161 104 94 161 104 94 161 104 94 161 104 94 161 104 94 161 104 94 161 104 94 161 104 94 161 104 94 161 104 94 161 104 94 161 104 94 161 104 94 161 104 94 161 104 94 161 104 94 161 104 94 161 104 94 161 104 94 161 104 94 161 104 94 161 104 94 161 104 94 161 104 94 161 104 94 161 104 94 161 104 94 161 104 94 161 104 94 161 104 94 161 104 94 161 104 94 161 104 94 161 104 94 161 104 94 161 104 94 161 104 94 161 104 94 161 104 94 161 104 94 161 104 94 161 104 94 161 104 94 161 104 94 161 104 94 161 104 94 161 104 94 161 104 94 161 104 94 161 104 94 161 104 94 161 104 94 161 104 94 161 104 94 161 104 94 161 104 94 161 104 94 161 104 94 161 104 94 161 104 94 161 104 94 161 104 94 161 104 94 161 104 94 161 104 94 161 104 94 161 104 94 161 104 94 161 104 94 161 104 94 161 104 94 161 104 94 161 104 94 161 104 94 161 104 94 161 104 94 161 104 94 161 104 94 161 104 94 161 104 94 161 104 94 161 104 94 161 104 94 161 104 94 161 104 94 161 104 94 161 104 94 161 104 94 0 0 255 98 68 80 98 68 80 98 68 80 98 68 80 98 68 80 98 68 80 98 68 80 98 68 80 98 68 80 98 68 80 98 68 80 98 68 80 98 68 80 98 68 80 98 68 80 98 68 80 98 68 80 98 68 80 98 68 80 98 68 80 98 68 80 98 68 80 98 68 80 98 68 80 98 68 80 98 68 80 98 68 80 98 68 80 98 68 80 98 68 80 98 68 80 98 68 80 98 68 80 98 68 80 98 68 80 98 68 80 98 68 80 98 68 80 98 68 80 98 68 80 98 68 80 98 68 80 98 68 80 98 68 80 98 68 80 98 68 80 98 68 80 98 68 80 98 68 80 98 68 80 98 68 80 98 68 80 98 68 80 98 68 80 98 68 80 98 68 80 98 68 80 98 68 80 98 68 80 98 68 80 98 68 80 98 68 80 98 68 80 98 68 80 98 68 80 98 68 80 98 68 80 98 68 80 98 68 80 98 68 80 98 68 80 98 68 80 98 68 80 98 68 80 98 68 80 98 68 80 98 68 80 98 68 80 98 68 80 98 68 80 98 68 80 98 68 80 98 68 80 98 68 80 98 68 80 98 68 80 98 68 80 98 68 80 98 68 80 98 68 80 98 68 80 98 68 80 98 68 80 98 68 80 98 68 80 98 68 80 0 0 255 98 68 80 98 68 80 98 68 80 98 68 80 98 68 80 98 68 80 98 68 80 98 68 80 98 68 80 98 68 80 
164 196 214 164 196 214 164 196 214 164 196 214 164 196 214 0 0 255 0 0 255 0 0 255 161 104 94 161 104 94 161 104 94 161 104 94 161 104 94 161 104 94 161 104 94 161 104 94 161 104 94 161 104 94 161 104 94 161 104 94 161 104 94 161 104 94 161 104 94 161 104 94 161 104 94 161 104 94 161 104 94 161 104 94 161 104 94 161 104 94 161 104 94 161 104 94 161 104 94 161 104 94 161 104 94 161 104 94 161 104 94 161 104 94 161 104 94 161 104 94 161 104 94 161 104 94 161 104 94 161 104 94 161 104 94 161 104 94 161 104 94 161 104 94 161 104 94 161 104 94 161 104 94 161 104 94 161 104 94 161 104 94 161 104 94 161 104 94 161 104 94 161 104 94 161 104 94 161 104 94 161 104 94 161 104 94 161 104 94 161 104 94 161 104 94 161 104 94 161 104 94 161 104 94 161 104 94 161 104 94 161 104 94 161 104 94 161 104 94 161 104 94 161 104 94 161 104 94 161 104 94 161 104 94 161 104 94 161 104 94 161 104 94 161 104 94 161 104 94 161 104 94 161 104 94 161 104 94 161 104 94 161 104 94 161 104 94 161 104 94 161 104 94 161 104 94 161 104 94 161 104 94 161 104 94 161 104 94 161 104 94 161 104 94 161 104 94 161 104 94 161 104 94 161 104 94 161 104 94 161 104 94 161 104 94 161 104 94 161 104 94 161 104 94 161 104 94 161 104 94 161 104 94 161 104 94 161 104 94 161 104 94 161 104 94 161 104 94 161 104 94 161 104 94 161 104 94 161 104 94 161 104 94 161 104 94 161 104 94 161 104 94 161 104 94 161 104 94 161 104 94 161 104 94 161 104 94 161 104 94 161 104 94 161 104 94 161 104 94 161 104 94 161 104 94 161 104 94 161 104 94 161 104 94 161 104 94 161 104 94 161 104 94 161 104 94 161 104 94 161 104 94 161 104 94 161 104 94 161 104 94 161 104 94 0 0 255 98 68 80 98 68 80 98 68 80 98 68 80 98 68 80 98 68 80 98 68 80 98 68 80 98 68 80 98 68 80 98 68 80 98 68 80 98 68 80 98 68 80 98 68 80 98 68 80 98 68 80 98 68 80 98 68 80 98 68 80 98 68 80 98 68 80 98 68 80 98 68 80 98 68 80 98 68 80 98 68 80 98 68 80 98 68 80 98 68 80 98 68 80 98 68 80 98 68 80 98 68 80 98 68 80 98 68 80 98 68 80 98 68 80 98 68 80 98 68 80 98 68 80 98 68 80 98 68 80 98 68 80 98 68 80 98 68 80 98 68 80 98 68 80 98 68 80 98 68 80 98 68 80 98 68 80 98 68 80 98 68 80 98 68 80 98 68 80 98 68 80 98 68 80 98 68 80 98 68 80 98 68 80 98 68 80 98 68 80 98 68 80 98 68 80 98 68 80 98 68 80 98 68 80 98 68 80 98 68 80 98 68 80 98 68 80 98 68 80 98 68 80 98 68 80 98 68 80 98 68 80 98 68 80 98 68 80 98 68 80 98 68 80 98 68 80 98 68 80 98 68 80 98 68 80 98 68 80 98 68 80 98 68 80 98 68 80 98 68 80 98 68 80 98 68 80 98 68 80 98 68 80 98 68 80 0 0 255 0 0 255 98 68 80 98 68 80 98 68 80 98 68 80 98 68 80 98 68 80 98 68 80 98 68 80 98 68 80 98 68 80 
164 196 214 0 0 255 0 0 255 0 0 255 0 0 255 161 104 94 161 104 94 161 104 94 161 104 94 161 104 94 161 104 94 161 104 94 161 104 94 161 104 94 161 104 94 161 104 94 161 104 94 161 104 94 161 104 94 161 104 94 161 104 94 161 104 94 161 104 94 161 104 94 161 104 94 161 104 94 161 104 94 161 104 94 161 104 94 161 104 94 161 104 94 161 104 94 161 104 94 161 104 94 161 104 94 161 104 94 161 104 94 161 104 94 161 104 94 161 104 94 161 104 94 161 104 94 161 104 94 161 104 94 161 104 94 161 104 94 161 104 94 161 104 94 161 104 94 161 104 94 161 104 94 161 104 94 161 104 94 161 104 94 161 104 94 161 104 94 161 104 94 161 104 94 161 104 94 161 104 94 161 104 94 161 104 94 161 104 94 161 104 94 161 104 94 161 104 94 161 104 94 161 104 94 161 104 94 161 104 94 161 104 94 161 104 94 161 104 94 161 104 94 161 104 94 161 104 94 161 104 94 161 104 94 161 104 94 161 104 94 161 104 94 161 104 94 161 104 94 161 104 94 161 104 94 161 104 94 161 104 94 161 104 94 161 104 94 161 104 94 161 104 94 161 104 94 161 104 94 161 104 94 161 104 94 161 104 94 161 104 94 161 104 94 161 104 94 161 104 94 161 104 94 161 104 94 161 104 94 161 104 94 161 104 94 161 104 94 161 104 94 161 104 94 161 104 94 161 104 94 161 104 94 161 104 94 161 104 94 161 104 94 161 104 94 161 104 94 161 104 94 161 104 94 161 104 94 161 104 94 161 104 94 161 104 94 161 104 94 161 104 94 161 104 94 161 104 94 161 104 94 161 104 94 161 104 94 161 104 94 161 104 94 161 104 94 161 104 94 161 104 94 161 104 94 161 104 94 161 104 94 161 104 94 161 104 94 161 104 94 161 104 94 161 104 94 161 104 94 161 104 94 161 104 94 161 104 94 161 104 94 161 104 94 0 0 255 98 68 80 98 68 80 98 68 80 98 68 80 98 68 80 98 68 80 98 68 80 98 68 80 98 68 80 98 68 80 98 68 80 98 68 80 98 68 80 98 68 80 98 68 80 98 68 80 98 68 80 98 68 80 98 68 80 98 68 80 98 68 80 98 68 80 98 68 80 98 68 80 98 68 80 98 68 80 98 68 80 98 68 80 98 68 80 98 68 80 98 68 80 98 68 80 98 68 80 98 68 80 98 68 80 98 68 80 98 68 80 98 68 80 98 68 80 98 68 80 98 68 80 98 68 80 98 68 80 98 68 80 98 68 80 98 68 80 98 68 80 98 68 80 98 68 80 98 68 80 98 68 80 98 68 80 98 68 80 98 68 80 98 68 80 98 68 80 98 68 80 98 68 80 98 68 80 98 68 80 98 68 80 98 68 80 98 68 80 98 68 80 98 68 80 98 68 80 98 68 80 98 68 80 98 68 80 98 68 80 98 68 80 98 68 80 98 68 80 98 68 80 98 68 80 98 68 80 98 68 80 98 68 80 98 68 80 98 68 80 98 68 80 98 68 80 98 68 80 98 68 80 98 68 80 98 68 80 98 68 80 98 68 80 98 68 80 98 68 80 98 68 80 98 68 80 98 68 80 98 68 80 0 0 255 167 176 177 0 0 255 98 68 80 98 68 80 98 68 80 98 68 80 98 68 80 98 68 80 98 68 80 98 68 80 98 68 80 98 68 80 
0 0 255 161 104 94 161 104 94 161 104 94 161 104 94 161 104 94 161 104 94 161 104 94 161 104 94 161 104 94 161 104 94 161 104 94 161 104 94 161 104 94 161 104 94 161 104 94 161 104 94 161 104 94 161 104 94 161 104 94 161 104 94 161 104 94 161 104 94 161 104 94 161 104 94 161 104 94 161 104 94 161 104 94 161 104 94 161 104 94 161 104 94 161 104 94 161 104 94 161 104 94 161 104 94 161 104 94 161 104 94 161 104 94 161 104 94 161 104 94 161 104 94 161 104 94 161 104 94 161 104 94 161 104 94 161 104 94 161 104 94 161 104 94 161 104 94 161 104 94 161 104 94 161 104 94 161 104 94 161 104 94 161 104 94 161 104 94 161 104 94 161 104 94 161 104 94 161 104 94 161 104 94 161 104 94 161 104 94 161 104 94 161 104 94 161 104 94 161 104 94 161 104 94 161 104 94 161 104 94 161 104 94 161 104 94 161 104 94 161 104 94 161 104 94 161 104 94 161 104 94 161 104 94 161 104 94 161 104 94 161 104 94 161 104 94 161 104 94 161 104 94 161 104 94 161 104 94 161 104 94 161 104 94 161 104 94 161 104 94 161 104 94 161 104 94 161 104 94 161 104 94 161 104 94 161 104 94 161 104 94 161 104 94 161 104 94 161 104 94 161 104 94 161 104 94 161 104 94 161 104 94 161 104 94 161 104 94 161 104 94 161 104 94 161 104 94 161 104 94 161 104 94 161 104 94 161 104 94 161 104 94 161 104 94 161 104 94 161 104 94 161 104 94 161 104 94 161 104 94 161 104 94 161 104 94 161 104 94 161 104 94 161 104 94 161 104 94 161 104 94 161 104 94 161 104 94 161 104 94 161 104 94 161 104 94 161 104 94 161 104 94 161 104 94 161 104 94 161 104 94 161 104 94 161 104 94 161 104 94 161 104 94 161 104 94 161 104 94 161 104 94 161 104 94 161 104 94 161 104 94 0 0 255 0 0 255 98 68 80 98 68 80 98 68 80 98 68 80 98 68 80 98 68 80 98 68 80 98 68 80 98 68 80 98 68 80 98 68 80 98 68 80 98 68 80 98 68 80 98 68 80 98 68 80 98 68 80 98 68 80 98 68 80 98 68 80 98 68 80 98 68 80 98 68 80 98 68 80 98 68 80 98 68 80 98 68 80 98 68 80 98 68 80 98 68 80 98 68 80 98 68 80 98 68 80 98 68 80 98 68 80 98 68 80 98 68 80 98 68 80 98 68 80 98 68 80 98 68 80 98 68 80 98 68 80 98 68 80 98 68 80 98 68 80 98 68 80 98 68 80 98 68 80 98 68 80 98 68 80 98 68 80 98 68 80 98 68 80 98 68 80 98 68 80 98 68 80 98 68 80 98 68 80 98 68 80 98 68 80 98 68 80 98 68 80 98 68 80 98 68 80 98 68 80 98 68 80 98 68 80 98 68 80 98 68 80 98 68 80 98 68 80 98 68 80 98 68 80 98 68 80 98 68 80 98 68 80 98 68 80 98 68 80 98 68 80 98 68 80 98 68 80 98 68 80 98 68 80 98 68 80 98 68 80 98 68 80 98 68 80 98 68 80 98 68 80 98 68 80 98 68 80 98 68 80 98 68 80 0 0 255 0 0 255 0 0 255 98 68 80 98 68 80 98 68 80 98 68 80 98 68 80 98 68 80 98 68 80 98 68 80 98 68 80 98 68 80 
161 104 94 161 104 94 161 104 94 161 104 94 161 104 94 161 104 94 161 104 94 161 104 94 161 104 94 161 104 94 161 104 94 161 104 94 161 104 94 161 104 94 161 104 94 161 104 94 161 104 94 161 104 94 161 104 94 161 104 94 161 104 94 161 104 94 161 104 94 161 104 94 161 104 94 161 104 94 161 104 94 161 104 94 161 104 94 0 0 255 0 0 255 0 0 255 161 104 94 161 104 94 161 104 94 161 104 94 161 104 94 161 104 94 161 104 94 161 104 94 161 104 94 161 104 94 161 104 94 161 104 94 161 104 94 161 104 94 161 104 94 161 104 94 161 104 94 161 104 94 161 104 94 161 104 94 161 104 94 161 104 94 161 104 94 161 104 94 161 104 94 161 104 94 161 104 94 161 104 94 161 104 94 161 104 94 161 104 94 161 104 94 161 104 94 161 104 94 161 104 94 161 104 94 161 104 94 161 104 94 161 104 94 161 104 94 161 104 94 161 104 94 161 104 94 161 104 94 161 104 94 161 104 94 161 104 94 161 104 94 161 104 94 161 104 94 161 104 94 161 104 94 161 104 94 161 104 94 161 104 94 161 104 94 161 104 94 161 104 94 161 104 94 161 104 94 161 104 94 161 104 94 161 104 94 161 104 94 161 104 94 161 104 94 161 104 94 161 104 94 161 104 94 161 104 94 161 104 94 161 104 94 161 104 94 161 104 94 161 104 94 161 104 94 161 104 94 161 104 94 161 104 94 161 104 94 161 104 94 161 104 94 161 104 94 161 104 94 161 104 94 161 104 94 161 104 94 161 104 94 161 104 94 161 104 94 161 104 94 161 104 94 161 104 94 161 104 94 161 104 94 161 104 94 161 104 94 161 104 94 161 104 94 161 104 94 161 104 94 161 104 94 161 104 94 161 104 94 161 104 94 161 104 94 161 104 94 161 104 94 161 104 94 161 104 94 161 104 94 161 104 94 161 104 94 161 104 94 0 0 255 167 176 177 0 0 255 98 68 80 98 68 80 98 68 80 98 68 80 98 68 80 98 68 80 98 68 80 98 68 80 98 68 80 98 68 80 98 68 80 98 68 80 98 68 80 98 68 80 98 68 80 98 68 80 98 68 80 98 68 80 98 68 80 98 68 80 98 68 80 98 68 80 98 68 80 98 68 80 98 68 80 98 68 80 98 68 80 98 68 80 98 68 80 98 68 80 98 68 80 98 68 80 98 68 80 98 68 80 98 68 80 98 68 80 98 68 80 98 68 80 98 68 80 98 68 80 98 68 80 98 68 80 98 68 80 98 68 80 98 68 80 98 68 80 98 68 80 98 68 80 98 68 80 98 68 80 98 68 80 98 68 80 98 68 80 98 68 80 98 68 80 98 68 80 98 68 80 98 68 80 98 68 80 98 68 80 98 68 80 98 68 80 98 68 80 98 68 80 98 68 80 98 68 80 98 68 80 98 68 80 98 68 80 98 68 80 98 68 80 98 68 80 98 68 80 98 68 80 98 68 80 98 68 80 98 68 80 98 68 80 98 68 80 98 68 80 98 68 80 98 68 80 98 68 80 98 68 80 98 68 80 98 68 80 98 68 80 98 68 80 98 68 80 98 68 80 98 68 80 98 68 80 98 68 80 98 68 80 98 68 80 98 68 80 98 68 80 98 68 80 98 68 80 98 68 80 98 68 80 98 68 80 98 68 80 98 68 80 98 68 80 98 68 80 98 68 80 
161 104 94 161 104 94 161 104 94 161 104 94 161 104 94 161 104 94 161 104 94 161 104 94 161 104 94 161 104 94 161 104 94 161 104 94 161 104 94 161 104 94 161 104 94 161 104 94 161 104 94 161 104 94 161 104 94 161 104 94 161 104 94 161 104 94 161 104 94 161 104 94 161 104 94 161 104 94 0 0 255 0 0 255 0 0 255 164 196 214 164 196 214 0 0 255 0 0 255 161 104 94 161 104 94 161 104 94 161 104 94 161 104 94 161 104 94 161 104 94 161 104 94 161 104 94 161 104 94 161 104 94 161 104 94 161 104 94 161 104 94 161 104 94 161 104 94 161 104 94 161 104 94 161 104 94 161 104 94 161 104 94 161 104 94 161 104 94 161 104 94 161 104 94 161 104 94 161 104 94 161 104 94 161 104 94 161 104 94 161 104 94 161 104 94 161 104 94 161 104 94 161 104 94 161 104 94 161 104 94 161 104 94 161 104 94 161 104 94 161 104 94 161 104 94 161 104 94 161 104 94 161 104 94 161 104 94 161 104 94 161 104 94 161 104 94 161 104 94 161 104 94 161 104 94 161 104 94 161 104 94 161 104 94 161 104 94 161 104 94 161 104 94 161 104 94 161 104 94 161 104 94 161 104 94 161 104 94 161 104 94 161 104 94 161 104 94 161 104 94 161 104 94 161 104 94 161 104 94 161 104 94 161 104 94 161 104 94 161 104 94 161 104 94 161 104 94 161 104 94 161 104 94 161 104 94 161 104 94 161 104 94 161 104 94 161 104 94 161 104 94 161 104 94 161 104 94 161 104 94 161 104 94 161 104 94 161 104 94 161 104 94 161 104 94 161 104 94 161 104 94 161 104 94 161 104 94 161 104 94 161 104 94 161 104 94 161 104 94 161 104 94 161 104 94 161 104 94 161 104 94 161 104 94 161 104 94 161 104 94 161 104 94 161 104 94 161 104 94 161 104 94 161 104 94 161 104 94 0 0 255 167 176 177 0 0 255 98 68 80 98 68 80 98 68 80 98 68 80 98 68 80 98 68 80 98 68 80 98 68 80 98 68 80 98 68 80 98 68 80 98 68 80 98 68 80 98 68 80 98 68 80 98 68 80 98 68 80 98 68 80 98 68 80 98 68 80 98 68 80 98 68 80 98 68 80 98 68 80 98 68 80 98 68 80 98 68 80 98 68 80 98 68 80 98 68 80 98 68 80 98 68 80 98 68 80 98 68 80 98 68 80 98 68 80 98 68 80 98 68 80 98 68 80 98 68 80 98 68 80 98 68 80 98 68 80 98 68 80 98 68 80 98 68 80 98 68 80 98 68 80 98 68 80 98 68 80 98 68 80 98 68 80 98 68 80 98 68 80 98 68 80 98 68 80 98 68 80 98 68 80 98 68 80 98 68 80 98 68 80 98 68 80 98 68 80 98 68 80 98 68 80 98 68 80 98 68 80 98 68 80 98 68 80 98 68 80 98 68 80 98 68 80 98 68 80 98 68 80 98 68 80 98 68 80 98 68 80 98 68 80 98 68 80 98 68 80 98 68 80 98 68 80 98 68 80 98 68 80 98 68 80 98 68 80 98 68 80 98 68 80 98 68 80 98 68 80 98 68 80 98 68 80 98 68 80 98 68 80 98 68 80 98 68 80 98 68 80 98 68 80 98 68 80 98 68 80 98 68 80 98 68 80 98 68 80 98 68 80 98 68 80 98 68 80 98 68 80 
161 104 94 161 104 94 161 104 94 161 104 94 161 104 94 161 104 94 161 104 94 161 104 94 161 104 94 161 104 94 161 104 94 161 104 94 161 104 94 161 104 94 161 104 94 161 104 94 161 104 94 161 104 94 161 104 94 161 104 94 161 104 94 161 104 94 161 104 94 0 0 255 0 0 255 0 0 255 164 196 214 164 196 214 164 196 214 164 196 214 164 196 214 164 196 214 0 0 255 161 104 94 161 104 94 161 104 94 161 104 94 161 104 94 161 104 94 161 104 94 161 104 94 161 104 94 161 104 94 161 104 94 161 104 94 161 104 94 161 104 94 161 104 94 161 104 94 161 104 94 161 104 94 161 104 94 161 104 94 161 104 94 161 104 94 161 104 94 161 104 94 161 104 94 161 104 94 161 104 94 161 104 94 161 104 94 161 104 94 161 104 94 161 104 94 161 104 94 161 104 94 161 104 94 161 104 94 161 104 94 161 104 94 161 104 94 161 104 94 161 104 94 161 104 94 161 104 94 161 104 94 161 104 94 161 104 94 161 104 94 161 104 94 161 104 94 161 104 94 161 104 94 161 104 94 161 104 94 161 104 94 161 104 94 161 104 94 161 104 94 161 104 94 161 104 94 161 104 94 161 104 94 161 104 94 161 104 94 161 104 94 161 104 94 161 104 94 161 104 94 161 104 94 161 104 94 161 104 94 161 104 94 161 104 94 161 104 94 161 104 94 161 104 94 161 104 94 161 104 94 161 104 94 161 104 94 161 104 94 161 104 94 161 104 94 161 104 94 161 104 94 161 104 94 161 104 94 161 104 94 161 104 94 161 104 94 161 104 94 161 104 94 161 104 94 161 104 94 161 104 94 161 104 94 161 104 94 161 104 94 161 104 94 161 104 94 161 104 94 161 104 94 161 104 94 161 104 94 161 104 94 161 104 94 161 104 94 161 104 94 161 104 94 161 104 94 161 104 94 161 104 94 161 104 94 161 104 94 0 0 255 167 176 177 0 0 255 98 68 80 98 68 80 98 68 80 98 68 80 98 68 80 98 68 80 98 68 80 98 68 80 98 68 80 98 68 80 98 68 80 98 68 80 98 68 80 98 68 80 98 68 80 98 68 80 98 68 80 98 68 80 98 68 80 98 68 80 98 68 80 98 68 80 98 68 80 98 68 80 98 68 80 98 68 80 98 68 80 98 68 80 98 68 80 98 68 80 98 68 80 98 68 80 98 68 80 98 68 80 98 68 80 98 68 80 98 68 80 98 68 80 98 68 80 98 68 80 98 68 80 98 68 80 98 68 80 98 68 80 98 68 80 98 68 80 98 68 80 98 68 80 98 68 80 98 68 80 98 68 80 98 68 80 98 68 80 98 68 80 98 68 80 98 68 80 98 68 80 98 68 80 98 68 80 98 68 80 98 68 80 98 68 80 98 68 80 98 68 80 98 68 80 98 68 80 98 68 80 98 68 80 98 68 80 98 68 80 98 68 80 98 68 80 98 68 80 98 68 80 98 68 80 98 68 80 98 68 80 98 68 80 98 68 80 98 68 80 98 68 80 98 68 80 98 68 80 98 68 80 98 68 80 98 68 80 98 68 80 98 68 80 98 68 80 98 68 80 98 68 80 98 68 80 98 68 80 98 68 80 98 68 80 98 68 80 98 68 80 98 68 80 98 68 80 98 68 80 98 68 80 98 68 80 98 68 80 98 68 80 98 68 80 98 68 80 98 68 80 
161 104 94 161 104 94 161 104 94 161 104 94 161 104 94 161 104 94 161 104 94 161 104 94 161 104 94 161 104 94 0 0 255 0 0 255 0 0 255 0 0 255 0 0 255 0 0 255 0 0 255 0 0 255 0 0 255 0 0 255 0 0 255 0 0 255 0 0 255 164 196 214 164 196 214 164 196 214 164 196 214 164 196 214 164 196 214 164 196 214 164 196 214 164 196 214 0 0 255 161 104 94 161 104 94 161 104 94 161 104 94 161 104 94 161 104 94 161 104 94 161 104 94 161 104 94 161 104 94 161 104 94 161 104 94 161 104 94 161 104 94 161 104 94 161 104 94 161 104 94 161 104 94 161 104 94 161 104 94 161 104 94 161 104 94 161 104 94 161 104 94 161 104 94 161 104 94 161 104 94 161 104 94 161 104 94 161 104 94 161 104 94 161 104 94 161 104 94 161 104 94 161 104 94 161 104 94 161 104 94 161 104 94 161 104 94 161 104 94 161 104 94 161 104 94 161 104 94 161 104 94 161 104 94 161 104 94 161 104 94 161 104 94 161 104 94 161 104 94 161 104 94 161 104 94 161 104 94 161 104 94 161 104 94 161 104 94 161 104 94 161 104 94 161 104 94 161 104 94 161 104 94 161 104 94 161 104 94 161 104 94 161 104 94 161 104 94 161 104 94 161 104 94 161 104 94 161 104 94 161 104 94 161 104 94 161 104 94 161 104 94 161 104 94 161 104 94 161 104 94 161 104 94 161 104 94 161 104 94 161 104 94 161 104 94 161 104 94 161 104 94 161 104 94 161 104 94 161 104 94 161 104 94 161 104 94 161 104 94 161 104 94 161 104 94 161 104 94 161 104 94 161 104 94 161 104 94 161 104 94 161 104 94 161 104 94 161 104 94 161 104 94 161 104 94 161 104 94 161 104 94 161 104 94 161 104 94 161 104 94 161 104 94 161 104 94 161 104 94 161 104 94 161 104 94 161 104 94 0 0 255 0 0 255 0 0 255 98 68 80 98 68 80 98 68 80 98 68 80 98 68 80 98 68 80 98 68 80 98 68 80 98 68 80 98 68 80 98 68 80 98 68 80 98 68 80 98 68 80 98 68 80 98 68 80 98 68 80 98 68 80 98 68 80 98 68 80 98 68 80 98 68 80 98 68 80 98 68 80 98 68 80 98 68 80 98 68 80 98 68 80 98 68 80 98 68 80 98 68 80 98 68 80 98 68 80 98 68 80 98 68 80 98 68 80 98 68 80 98 68 80 98 68 80 98 68 80 98 68 80 98 68 80 98 68 80 98 68 80 98 68 80 98 68 80 98 68 80 98 68 80 98 68 80 98 68 80 98 68 80 98 68 80 98 68 80 98 68 80 98 68 80 98 68 80 98 68 80 98 68 80 98 68 80 98 68 80 98 68 80 98 68 80 98 68 80 98 68 80 98 68 80 98 68 80 98 68 80 98 68 80 98 68 80 98 68 80 98 68 80 98 68 80 98 68 80 98 68 80 98 68 80 98 68 80 98 68 80 98 68 80 98 68 80 98 68 80 98 68 80 98 68 80 98 68 80 98 68 80 98 68 80 98 68 80 98 68 80 98 68 80 98 68 80 98 68 80 98 68 80 98 68 80 98 68 80 98 68 80 98 68 80 98 68 80 98 68 80 98 68 80 98 68 80 98 68 80 98 68 80 98 68 80 0 0 255 0 0 255 98 68 80 98 68 80 98 68 80 
161 104 94 161 104 94 0 0 255 0 0 255 0 0 255 0 0 255 0 0 255 0 0 255 0 0 255 0 0 255 164 196 214 164 196 214 164 196 214 164 196 214 164 196 214 0 0 255 0 0 255 0 0 255 0 0 255 0 0 255 164 196 214 164 196 214 164 196 214 164 196 214 164 196 214 164 196 214 164 196 214 164 196 214 164 196 214 164 196 214 164 196 214 164 196 214 0 0 255 161 104 94 161 104 94 161 104 94 161 104 94 161 104 94 161 104 94 161 104 94 161 104 94 161 104 94 161 104 94 161 104 94 161 104 94 161 104 94 161 104 94 161 104 94 161 104 94 161 104 94 161 104 94 161 104 94 161 104 94 161 104 94 161 104 94 161 104 94 161 104 94 161 104 94 161 104 94 161 104 94 161 104 94 161 104 94 161 104 94 161 104 94 161 104 94 161 104 94 161 104 94 161 104 94 161 104 94 161 104 94 161 104 94 161 104 94 161 104 94 161 104 94 161 104 94 161 104 94 161 104 94 161 104 94 161 104 94 161 104 94 161 104 94 161 104 94 161 104 94 161 104 94 161 104 94 161 104 94 161 104 94 161 104 94 161 104 94 161 104 94 161 104 94 161 104 94 161 104 94 161 104 94 161 104 94 161 104 94 161 104 94 161 104 94 161 104 94 161 104 94 161 104 94 161 104 94 161 104 94 161 104 94 161 104 94 161 104 94 161 104 94 161 104 94 161 104 94 161 104 94 161 104 94 161 104 94 161 104 94 161 104 94 161 104 94 161 104 94 161 104 94 161 104 94 161 104 94 161 104 94 161 104 94 161 104 94 161 104 94 161 104 94 161 104 94 161 104 94 161 104 94 161 104 94 161 104 94 161 104 94 161 104 94 161 104 94 161 104 94 161 104 94 161 104 94 161 104 94 161 104 94 161 104 94 161 104 94 161 104 94 161 104 94 161 104 94 161 104 94 161 104 94 161 104 94 161 104 94 161 104 94 0 0 255 98 68 80 98 68 80 98 68 80 98 68 80 98 68 80 98 68 80 98 68 80 98 68 80 98 68 80 98 68 80 98 68 80 98 68 80 98 68 80 98 68 80 98 68 80 98 68 80 98 68 80 98 68 80 98 68 80 98 68 80 98 68 80 98 68 80 98 68 80 98 68 80 98 68 80 98 68 80 98 68 80 98 68 80 98 68 80 98 68 80 98 68 80 98 68 80 98 68 80 98 68 80 98 68 80 98 68 80 98 68 80 98 68 80 98 68 80 98 68 80 98 68 80 98 68 80 98 68 80 98 68 80 98 68 80 98 68 80 98 68 80 98 68 80 98 68 80 98 68 80 98 68 80 98 68 80 98 68 80 98 68 80 98 68 80 98 68 80 98 68 80 98 68 80 98 68 80 98 68 80 98 68 80 98 68 80 98 68 80 98 68 80 98 68 80 98 68 80 98 68 80 98 68 80 98 68 80 98 68 80 98 68 80 98 68 80 98 68 80 98 68 80 98 68 80 98 68 80 98 68 80 98 68 80 98 68 80 98 68 80 98 68 80 98 68 80 98 68 80 98 68 80 98 68 80 98 68 80 98 68 80 98 68 80 98 68 80 98 68 80 98 68 80 98 68 80 98 68 80 98 68 80 98 68 80 98 68 80 98 68 80 98 68 80 98 68 80 98 68 80 98 68 80 98 68 80 0 0 255 167 176 177 0 0 255 98 68 80 98 68 80 98 68 80 
0 0 255 0 0 255 164 196 214 164 196 214 164 196 214 164 196 214 164 196 214 164 196 214 164 196 214 164 196 214 164 196 214 164 196 214 164 196 214 164 196 214 0 0 255 161 104 94 161 104 94 161 104 94 161 104 94 0 0 255 0 0 255 164 196 214 164 196 214 164 196 214 164 196 214 164 196 214 164 196 214 164 196 214 164 196 214 164 196 214 164 196 214 164 196 214 0 0 255 161 104 94 161 104 94 161 104 94 161 104 94 161 104 94 161 104 94 161 104 94 161 104 94 161 104 94 161 104 94 161 104 94 161 104 94 161 104 94 161 104 94 161 104 94 161 104 94 161 104 94 161 104 94 161 104 94 161 104 94 161 104 94 161 104 94 161 104 94 161 104 94 161 104 94 161 104 94 161 104 94 161 104 94 161 104 94 161 104 94 161 104 94 161 104 94 161 104 94 161 104 94 161 104 94 161 104 94 161 104 94 161 104 94 161 104 94 161 104 94 161 104 94 161 104 94 161 104 94 161 104 94 161 104 94 161 104 94 161 104 94 161 104 94 161 104 94 161 104 94 161 104 94 161 104 94 161 104 94 161 104 94 161 104 94 161 104 94 161 104 94 161 104 94 161 104 94 161 104 94 161 104 94 161 104 94 161 104 94 161 104 94 161 104 94 161 104 94 161 104 94 161 104 94 161 104 94 161 104 94 161 104 94 161 104 94 161 104 94 161 104 94 161 104 94 161 104 94 161 104 94 161 104 94 161 104 94 161 104 94 161 104 94 161 104 94 161 104 94 161 104 94 161 104 94 161 104 94 161 104 94 161 104 94 161 104 94 161 104 94 161 104 94 161 104 94 161 104 94 161 104 94 161 104 94 161 104 94 161 104 94 161 104 94 161 104 94 161 104 94 161 104 94 161 104 94 161 104 94 161 104 94 161 104 94 161 104 94 161 104 94 161 104 94 161 104 94 161 104 94 161 104 94 161 104 94 161 104 94 0 0 255 0 0 255 98 68 80 98 68 80 98 68 80 98 68 80 98 68 80 98 68 80 98 68 80 98 68 80 98 68 80 98 68 80 98 68 80 98 68 80 98 68 80 98 68 80 98 68 80 98 68 80 98 68 80 98 68 80 98 68 80 98 68 80 98 68 80 98 68 80 98 68 80 98 68 80 98 68 80 98 68 80 98 68 80 98 68 80 98 68 80 98 68 80 98 68 80 98 68 80 98 68 80 98 68 80 98 68 80 98 68 80 98 68 80 98 68 80 98 68 80 98 68 80 98 68 80 98 68 80 98 68 80 98 68 80 98 68 80 98 68 80 98 68 80 98 68 80 98 68 80 98 68 80 98 68 80 98 68 80 98 68 80 98 68 80 98 68 80 98 68 80 98 68 80 98 68 80 98 68 80 98 68 80 98 68 80 98 68 80 98 68 80 98 68 80 98 68 80 98 68 80 98 68 80 98 68 80 98 68 80 98 68 80 98 68 80 98 68 80 98 68 80 98 68 80 98 68 80 98 68 80 98 68 80 98 68 80 98 68 80 98 68 80 98 68 80 98 68 80 98 68 80 98 68 80 98 68 80 98 68 80 98 68 80 98 68 80 98 68 80 98 68 80 98 68 80 98 68 80 98 68 80 98 68 80 98 68 80 98 68 80 98 68 80 98 68 80 98 68 80 98 68 80 98 68 80 0 0 255 0 0 255 0 0 255 0 0 255 98 68 80 98 68 80 98 68 80 
164 196 214 164 196 214 164 196 214 164 196 214 164 196 214 164 196 214 0 0 255 0 0 255 0 0 255 0 0 255 0 0 255 0 0 255 0 0 255 0 0 255 161 104 94 161 104 94 161 104 94 161 104 94 161 104 94 161 104 94 0 0 255 0 0 255 0 0 255 0 0 255 164 196 214 164 196 214 164 196 214 164 196 214 164 196 214 164 196 214 164 196 214 164 196 214 0 0 255 161 104 94 161 104 94 161 104 94 161 104 94 161 104 94 161 104 94 161 104 94 161 104 94 161 104 94 161 104 94 161 104 94 161 104 94 161 104 94 161 104 94 161 104 94 161 104 94 161 104 94 161 104 94 161 104 94 161 104 94 161 104 94 161 104 94 161 104 94 161 104 94 161 104 94 161 104 94 161 104 94 161 104 94 161 104 94 161 104 94 161 104 94 161 104 94 161 104 94 161 104 94 161 104 94 161 104 94 161 104 94 161 104 94 161 104 94 161 104 94 161 104 94 161 104 94 161 104 94 161 104 94 161 104 94 161 104 94 161 104 94 161 104 94 161 104 94 161 104 94 161 104 94 161 104 94 161 104 94 161 104 94 161 104 94 161 104 94 161 104 94 161 104 94 161 104 94 161 104 94 161 104 94 161 104 94 161 104 94 161 104 94 161 104 94 161 104 94 161 104 94 161 104 94 161 104 94 161 104 94 161 104 94 161 104 94 161 104 94 161 104 94 161 104 94 161 104 94 161 104 94 161 104 94 161 104 94 161 104 94 161 104 94 161 104 94 161 104 94 161 104 94 161 104 94 161 104 94 161 104 94 161 104 94 161 104 94 161 104 94 161 104 94 161 104 94 161 104 94 161 104 94 161 104 94 161 104 94 161 104 94 161 104 94 161 104 94 161 104 94 161 104 94 161 104 94 161 104 94 161 104 94 161 104 94 161 104 94 161 104 94 161 104 94 161 104 94 161 104 94 161 104 94 161 104 94 161 104 94 161 104 94 0 0 255 0 0 255 98 68 80 98 68 80 98 68 80 98 68 80 98 68 80 98 68 80 98 68 80 98 68 80 98 68 80 98 68 80 98 68 80 98 68 80 98 68 80 98 68 80 98 68 80 98 68 80 98 68 80 98 68 80 98 68 80 98 68 80 98 68 80 98 68 80 98 68 80 98 68 80 98 68 80 98 68 80 98 68 80 98 68 80 98 68 80 98 68 80 98 68 80 98 68 80 98 68 80 98 68 80 98 68 80 98 68 80 98 68 80 98 68 80 98 68 80 98 68 80 98 68 80 98 68 80 98 68 80 98 68 80 98 68 80 98 68 80 98 68 80 98 68 80 98 68 80 98 68 80 98 68 80 98 68 80 98 68 80 98 68 80 98 68 80 98 68 80 98 68 80 98 68 80 98 68 80 98 68 80 98 68 80 98 68 80 98 68 80 98 68 80 98 68 80 98 68 80 98 68 80 98 68 80 98 68 80 98 68 80 98 68 80 98 68 80 98 68 80 98 68 80 98 68 80 98 68 80 98 68 80 98 68 80 98 68 80 98 68 80 98 68 80 98 68 80 98 68 80 98 68 80 98 68 80 98 68 80 98 68 80 98 68 80 98 68 80 98 68 80 98 68 80 98 68 80 98 68 80 98 68 80 98 68 80 98 68 80 98 68 80 98 68 80 98 68 80 98 68 80 98 68 80 98 68 80 98 68 80 98 68 80 98 68 80 98 68 80 98 68 80 
0 0 255 0 0 255 0 0 255 0 0 255 0 0 255 0 0 255 161 104 94 161 104 94 161 104 94 161 104 94 161 104 94 161 104 94 161 104 94 161 104 94 161 104 94 161 104 94 161 104 94 161 104 94 161 104 94 161 104 94 161 104 94 161 104 94 161 104 94 0 0 255 0 0 255 164 196 214 164 196 214 164 196 214 164 196 214 164 196 214 164 196 214 164 196 214 0 0 255 161 104 94 161 104 94 161 104 94 161 104 94 161 104 94 161 104 94 161 104 94 161 104 94 161 104 94 161 104 94 161 104 94 161 104 94 161 104 94 161 104 94 161 104 94 161 104 94 161 104 94 161 104 94 161 104 94 161 104 94 161 104 94 161 104 94 161 104 94 161 104 94 161 104 94 161 104 94 161 104 94 161 104 94 161 104 94 161 104 94 161 104 94 161 104 94 161 104 94 161 104 94 161 104 94 161 104 94 161 104 94 161 104 94 161 104 94 161 104 94 161 104 94 161 104 94 161 104 94 161 104 94 161 104 94 161 104 94 161 104 94 161 104 94 161 104 94 161 104 94 161 104 94 161 104 94 161 104 94 161 104 94 161 104 94 161 104 94 161 104 94 161 104 94 161 104 94 161 104 94 161 104 94 161 104 94 161 104 94 161 104 94 161 104 94 161 104 94 161 104 94 161 104 94 161 104 94 161 104 94 161 104 94 161 104 94 161 104 94 161 104 94 161 104 94 161 104 94 161 104 94 161 104 94 161 104 94 161 104 94 161 104 94 161 104 94 161 104 94 161 104 94 161 104 94 161 104 94 161 104 94 161 104 94 161 104 94 161 104 94 161 104 94 161 104 94 161 104 94 161 104 94 161 104 94 161 104 94 161 104 94 161 104 94 161 104 94 161 104 94 161 104 94 161 104 94 161 104 94 161 104 94 161 104 94 161 104 94 161 104 94 161 104 94 161 104 94 161 104 94 161 104 94 161 104 94 161 104 94 161 104 94 161 104 94 0 0 255 98 68 80 98 68 80 98 68 80 98 68 80 98 68 80 98 68 80 98 68 80 98 68 80 98 68 80 98 68 80 98 68 80 98 68 80 98 68 80 98 68 80 98 68 80 98 68 80 98 68 80 98 68 80 98 68 80 98 68 80 98 68 80 98 68 80 98 68 80 98 68 80 98 68 80 98 68 80 98 68 80 98 68 80 98 68 80 98 68 80 98 68 80 98 68 80 98 68 80 98 68 80 98 68 80 98 68 80 98 68 80 98 68 80 98 68 80 98 68 80 98 68 80 98 68 80 98 68 80 98 68 80 98 68 80 98 68 80 98 68 80 98 68 80 98 68 80 98 68 80 98 68 80 98 68 80 98 68 80 98 68 80 98 68 80 98 68 80 98 68 80 98 68 80 98 68 80 98 68 80 98 68 80 98 68 80 98 68 80 98 68 80 98 68 80 98 68 80 98 68 80 98 68 80 98 68 80 98 68 80 98 68 80 98 68 80 98 68 80 98 68 80 98 68 80 98 68 80 98 68 80 98 68 80 98 68 80 98 68 80 98 68 80 98 68 80 98 68 80 98 68 80 98 68 80 98 68 80 98 68 80 98 68 80 98 68 80 98 68 80 98 68 80 98 68 80 98 68 80 98 68 80 98 68 80 98 68 80 98 68 80 98 68 80 98 68 80 98 68 80 98 68 80 98 68 80 98 68 80 98 68 80 98 68 80 98 68 80 98 68 80 
161 104 94 161 104 94 161 104 94 161 104 94 161 104 94 161 104 94 161 104 94 161 104 94 161 104 94 161 104 94 161 104 94 161 104 94 161 104 94 161 104 94 161 104 94 161 104 94 161 104 94 161 104 94 161 104 94 161 104 94 161 104 94 161 104 94 161 104 94 161 104 94 0 0 255 0 0 255 164 196 214 164 196 214 164 196 214 164 196 214 164 196 214 164 196 214 0 0 255 161 104 94 161 104 94 161 104 94 161 104 94 161 104 94 161 104 94 161 104 94 161 104 94 161 104 94 161 104 94 161 104 94 161 104 94 161 104 94 161 104 94 161 104 94 161 104 94 161 104 94 161 104 94 161 104 94 161 104 94 161 104 94 161 104 94 161 104 94 161 104 94 161 104 94 161 104 94 161 104 94 161 104 94 161 104 94 161 104 94 161 104 94 161 104 94 161 104 94 161 104 94 161 104 94 161 104 94 161 104 94 161 104 94 161 104 94 161 104 94 161 104 94 161 104 94 161 104 94 161 104 94 161 104 94 161 104 94 161 104 94 161 104 94 161 104 94 161 104 94 161 104 94 161 104 94 161 104 94 161 104 94 161 104 94 161 104 94 161 104 94 161 104 94 161 104 94 161 104 94 161 104 94 161 104 94 161 104 94 161 104 94 161 104 94 161 104 94 161 104 94 161 104 94 161 104 94 161 104 94 161 104 94 161 104 94 161 104 94 161 104 94 161 104 94 161 104 94 161 104 94 161 104 94 161 104 94 161 104 94 161 104 94 161 104 94 161 104 94 161 104 94 161 104 94 161 104 94 161 104 94 161 104 94 161 104 94 161 104 94 161 104 94 161 104 94 161 104 94 161 104 94 161 104 94 161 104 94 161 104 94 161 104 94 161 104 94 161 104 94 161 104 94 161 104 94 161 104 94 161 104 94 161 104 94 161 104 94 161 104 94 161 104 94 161 104 94 161 104 94 161 104 94 161 104 94 161 104 94 161 104 94 161 104 94 0 0 255 98 68 80 98 68 80 98 68 80 98 68 80 98 68 80 98 68 80 98 68 80 98 68 80 98 68 80 98 68 80 98 68 80 98 68 80 98 68 80 98 68 80 98 68 80 98 68 80 98 68 80 98 68 80 98 68 80 98 68 80 98 68 80 98 68 80 98 68 80 98 68 80 98 68 80 98 68 80 98 68 80 98 68 80 98 68 80 98 68 80 98 68 80 98 68 80 98 68 80 98 68 80 98 68 80 98 68 80 98 68 80 98 68 80 98 68 80 98 68 80 98 68 80 98 68 80 98 68 80 98 68 80 98 68 80 98 68 80 98 68 80 98 68 80 98 68 80 98 68 80 98 68 80 98 68 80 98 68 80 98 68 80 98 68 80 98 68 80 98 68 80 98 68 80 98 68 80 98 68 80 98 68 80 98 68 80 98 68 80 98 68 80 98 68 80 98 68 80 98 68 80 98 68 80 98 68 80 98 68 80 98 68 80 98 68 80 98 68 80 98 68 80 98 68 80 98 68 80 98 68 80 98 68 80 98 68 80 98 68 80 98 68 80 98 68 80 98 68 80 98 68 80 98 68 80 98 68 80 98 68 80 98 68 80 98 68 80 98 68 80 98 68 80 98 68 80 98 68 80 98 68 80 98 68 80 98 68 80 98 68 80 98 68 80 98 68 80 98 68 80 98 68 80 98 68 80 98 68 80 98 68 80 98 68 80 98 68 80 98 68 80 
161 104 94 161 104 94 161 104 94 161 104 94 161 104 94 161 104 94 161 104 94 161 104 94 161 104 94 161 104 94 161 104 94 161 104 94 161 104 94 161 104 94 161 104 94 161 104 94 161 104 94 161 104 94 161 104 94 161 104 94 161 104 94 161 104 94 161 104 94 161 104 94 161 104 94 0 0 255 0 0 255 0 0 255 0 0 255 0 0 255 0 0 255 0 0 255 161 104 94 161 104 94 161 104 94 161 104 94 161 104 94 161 104 94 161 104 94 161 104 94 161 104 94 161 104 94 161 104 94 161 104 94 161 104 94 161 104 94 161 104 94 161 104 94 161 104 94 161 104 94 161 104 94 161 104 94 161 104 94 161 104 94 161 104 94 161 104 94 161 104 94 161 104 94 161 104 94 161 104 94 161 104 94 161 104 94 161 104 94 161 104 94 161 104 94 161 104 94 161 104 94 161 104 94 161 104 94 161 104 94 161 104 94 161 104 94 161 104 94 161 104 94 161 104 94 161 104 94 161 104 94 161 104 94 161 104 94 161 104 94 161 104 94 161 104 94 161 104 94 161 104 94 161 104 94 161 104 94 161 104 94 161 104 94 161 104 94 161 104 94 161 104 94 161 104 94 161 104 94 161 104 94 161 104 94 161 104 94 161 104 94 161 104 94 161 104 94 161 104 94 161 104 94 161 104 94 161 104 94 161 104 94 161 104 94 161 104 94 161 104 94 161 104 94 161 104 94 161 104 94 161 104 94 161 104 94 161 104 94 161 104 94 161 104 94 161 104 94 161 104 94 161 104 94 161 104 94 161 104 94 161 104 94 161 104 94 161 104 94 161 104 94 161 104 94 161 104 94 161 104 94 161 104 94 161 104 94 161 104 94 161 104 94 161 104 94 161 104 94 161 104 94 161 104 94 161 104 94 161 104 94 161 104 94 161 104 94 161 104 94 161 104 94 161 104 94 161 104 94 161 104 94 161 104 94 161 104 94 161 104 94 0 0 255 0 0 255 98 68 80 98 68 80 98 68 80 98 68 80 98 68 80 98 68 80 98 68 80 98 68 80 98 68 80 98 68 80 98 68 80 98 68 80 98 68 80 98 68 80 98 68 80 98 68 80 98 68 80 98 68 80 98 68 80 98 68 80 98 68 80 98 68 80 98 68 80 98 68 80 98 68 80 98 68 80 98 68 80 98 68 80 98 68 80 98 68 80 98 68 80 98 68 80 98 68 80 98 68 80 98 68 80 98 68 80 98 68 80 98 68 80 98 68 80 98 68 80 98 68 80 98 68 80 98 68 80 98 68 80 98 68 80 98 68 80 98 68 80 98 68 80 98 68 80 98 68 80 98 68 80 98 68 80 98 68 80 98 68 80 98 68 80 98 68 80 98 68 80 98 68 80 98 68 80 98 68 80 98 68 80 98 68 80 98 68 80 98 68 80 98 68 80 98 68 80 98 68 80 98 68 80 98 68 80 98 68 80 98 68 80 98 68 80 98 68 80 98 68 80 98 68 80 98 68 80 98 68 80 98 68 80 98 68 80 98 68 80 98 68 80 98 68 80 98 68 80 98 68 80 98 68 80 98 68 80 98 68 80 98 68 80 98 68 80 98 68 80 98 68 80 98 68 80 98 68 80 98 68 80 98 68 80 98 68 80 98 68 80 98 68 80 98 68 80 98 68 80 98 68 80 98 68 80 98 68 80 98 68 80 98 68 80 98 68 80 98 68 80 
161 104 94 161 104 94 161 104 94 161 104 94 161 104 94 161 104 94 161 104 94 161 104 94 161 104 94 161 104 94 161 104 94 161 104 94 161 104 94 161 104 94 161 104 94 161 104 94 161 104 94 161 104 94 161 104 94 161 104 94 161 104 94 161 104 94 161 104 94 161 104 94 161 104 94 161 104 94 161 104 94 161 104 94 161 104 94 161 104 94 161 104 94 0 0 255 161 104 94 161 104 94 161 104 94 161 104 94 161 104 94 161 104 94 161 104 94 161 104 94 161 104 94 161 104 94 161 104 94 161 104 94 161 104 94 161 104 94 161 104 94 161 104 94 161 104 94 161 104 94 161 104 94 161 104 94 161 104 94 161 104 94 161 104 94 161 104 94 161 104 94 161 104 94 161 104 94 161 104 94 161 104 94 161 104 94 161 104 94 161 104 94 161 104 94 161 104 94 161 104 94 161 104 94 161 104 94 161 104 94 161 104 94 161 104 94 161 104 94 161 104 94 161 104 94 161 104 94 161 104 94 161 104 94 161 104 94 161 104 94 161 104 94 161 104 94 161 104 94 161 104 94 161 104 94 161 104 94 161 104 94 161 104 94 161 104 94 161 104 94 161 104 94 161 104 94 161 104 94 161 104 94 161 104 94 161 104 94 161 104 94 161 104 94 161 104 94 161 104 94 161 104 94 161 104 94 161 104 94 161 104 94 161 104 94 161 104 94 161 104 94 161 104 94 161 104 94 161 104 94 161 104 94 161 104 94 161 104 94 161 104 94 161 104 94 161 104 94 161 104 94 161 104 94 161 104 94 161 104 94 161 104 94 161 104 94 161 104 94 161 104 94 161 104 94 161 104 94 161 104 94 161 104 94 161 104 94 161 104 94 161 104 94 161 104 94 161 104 94 161 104 94 161 104 94 161 104 94 161 104 94 161 104 94 161 104 94 161 104 94 161 104 94 161 104 94 161 104 94 161 104 94 161 104 94 161 104 94 161 104 94 161 104 94 0 0 255 98 68 80 98 68 80 98 68 80 98 68 80 98 68 80 98 68 80 98 68 80 98 68 80 98 68 80 98 68 80 98 68 80 98 68 80 98 68 80 98 68 80 98 68 80 98 68 80 98 68 80 98 68 80 98 68 80 98 68 80 98 68 80 98 68 80 98 68 80 98 68 80 98 68 80 98 68 80 98 68 80 98 68 80 98 68 80 98 68 80 98 68 80 98 68 80 98 68 80 98 68 80 98 68 80 98 68 80 98 68 80 98 68 80 98 68 80 98 68 80 98 68 80 98 68 80 98 68 80 98 68 80 98 68 80 98 68 80 98 68 80 98 68 80 98 68 80 98 68 80 98 68 80 98 68 80 98 68 80 98 68 80 98 68 80 98 68 80 98 68 80 98 68 80 98 68 80 98 68 80 98 68 80 98 68 80 98 68 80 98 68 80 98 68 80 98 68 80 98 68 80 98 68 80 98 68 80 98 68 80 98 68 80 98 68 80 98 68 80 98 68 80 98 68 80 98 68 80 98 68 80 98 68 80 98 68 80 98 68 80 98 68 80 98 68 80 98 68 80 98 68 80 98 68 80 98 68 80 98 68 80 98 68 80 98 68 80 98 68 80 98 68 80 98 68 80 98 68 80 98 68 80 98 68 80 98 68 80 98 68 80 98 68 80 98 68 80 98 68 80 98 68 80 98 68 80 98 68 80 98 68 80 98 68 80 98 68 80 98 68 80 
161 104 94 161 104 94 161 104 94 161 104 94 161 104 94 161 104 94 161 104 94 161 104 94 161 104 94 161 104 94 161 104 94 161 104 94 161 104 94 161 104 94 161 104 94 161 104 94 161 104 94 161 104 94 161 104 94 161 104 94 161 104 94 161 104 94 161 104 94 161 104 94 161 104 94 161 104 94 161 104 94 161 104 94 161 104 94 161 104 94 0 0 255 0 0 255 161 104 94 161 104 94 161 104 94 161 104 94 161 104 94 161 104 94 161 104 94 161 104 94 161 104 94 161 104 94 161 104 94 161 104 94 161 104 94 161 104 94 161 104 94 161 104 94 161 104 94 161 104 94 161 104 94 161 104 94 161 104 94 161 104 94 161 104 94 161 104 94 161 104 94 161 104 94 161 104 94 161 104 94 161 104 94 161 104 94 161 104 94 161 104 94 161 104 94 161 104 94 161 104 94 161 104 94 161 104 94 161 104 94 161 104 94 161 104 94 161 104 94 161 104 94 161 104 94 161 104 94 161 104 94 161 104 94 161 104 94 161 104 94 161 104 94 161 104 94 161 104 94 161 104 94 161 104 94 161 104 94 161 104 94 161 104 94 161 104 94 161 104 94 161 104 94 161 104 94 161 104 94 161 104 94 161 104 94 161 104 94 161 104 94 161 104 94 161 104 94 161 104 94 161 104 94 161 104 94 161 104 94 161 104 94 161 104 94 161 104 94 161 104 94 161 104 94 161 104 94 161 104 94 161 104 94 161 104 94 161 104 94 161 104 94 161 104 94 161 104 94 161 104 94 161 104 94 161 104 94 161 104 94 161 104 94 161 104 94 161 104 94 161 104 94 161 104 94 161 104 94 161 104 94 161 104 94 161 104 94 161 104 94 161 104 94 161 104 94 161 104 94 161 104 94 161 104 94 161 104 94 161 104 94 161 104 94 161 104 94 161 104 94 161 104 94 161 104 94 161 104 94 161 104 94 161 104 94 161 104 94 161 104 94 161 104 94 0 0 255 98 68 80 98 68 80 98 68 80 98 68 80 98 68 80 98 68 80 98 68 80 98 68 80 98 68 80 98 68 80 98 68 80 98 68 80 98 68 80 98 68 80 98 68 80 98 68 80 98 68 80 98 68 80 98 68 80 98 68 80 98 68 80 98 68 80 98 68 80 98 68 80 98 68 80 98 68 80 98 68 80 98 68 80 98 68 80 98 68 80 98 68 80 98 68 80 98 68 80 98 68 80 98 68 80 98 68 80 98 68 80 98 68 80 98 68 80 98 68 80 98 68 80 98 68 80 98 68 80 98 68 80 98 68 80 98 68 80 98 68 80 98 68 80 98 68 80 98 68 80 98 68 80 98 68 80 98 68 80 98 68 80 98 68 80 98 68 80 98 68 80 98 68 80 98 68 80 98 68 80 98 68 80 98 68 80 98 68 80 98 68 80 98 68 80 98 68 80 98 68 80 98 68 80 98 68 80 98 68 80 98 68 80 98 68 80 98 68 80 98 68 80 98 68 80 98 68 80 98 68 80 98 68 80 98 68 80 98 68 80 98 68 80 98 68 80 98 68 80 98 68 80 98 68 80 98 68 80 98 68 80 98 68 80 98 68 80 98 68 80 98 68 80 98 68 80 98 68 80 98 68 80 98 68 80 98 68 80 98 68 80 98 68 80 98 68 80 98 68 80 98 68 80 98 68 80 98 68 80 98 68 80 98 68 80 98 68 80 98 68 80 
161 104 94 161 104 94 161 104 94 161 104 94 161 104 94 161 104 94 161 104 94 161 104 94 161 104 94 161 104 94 161 104 94 161 104 94 161 104 94 161 104 94 161 104 94 161 104 94 161 104 94 161 104 94 161 104 94 161 104 94 161 104 94 161 104 94 161 104 94 161 104 94 161 104 94 161 104 94 161 104 94 161 104 94 161 104 94 0 0 255 164 196 214 0 0 255 161 104 94 161 104 94 161 104 94 161 104 94 161 104 94 161 104 94 161 104 94 161 104 94 161 104 94 161 104 94 161 104 94 161 104 94 161 104 94 161 104 94 161 104 94 161 104 94 161 104 94 161 104 94 161 104 94 161 104 94 161 104 94 161 104 94 161 104 94 161 104 94 161 104 94 161 104 94 161 104 94 161 104 94 161 104 94 161 104 94 161 104 94 161 104 94 161 104 94 161 104 94 161 104 94 161 104 94 161 104 94 161 104 94 161 104 94 161 104 94 161 104 94 161 104 94 161 104 94 161 104 94 161 104 94 161 104 94 161 104 94 161 104 94 161 104 94 161 104 94 161 104 94 161 104 94 161 104 94 161 104 94 161 104 94 161 104 94 161 104 94 161 104 94 161 104 94 161 104 94 161 104 94 161 104 94 161 104 94 161 104 94 161 104 94 161 104 94 161 104 94 161 104 94 161 104 94 161 104 94 161 104 94 161 104 94 161 104 94 161 104 94 161 104 94 161 104 94 161 104 94 161 104 94 161 104 94 161 104 94 161 104 94 161 104 94 161 104 94 161 104 94 161 104 94 161 104 94 161 104 94 161 104 94 161 104 94 161 104 94 161 104 94 161 104 94 161 104 94 161 104 94 161 104 94 161 104 94 161 104 94 161 104 94 161 104 94 161 104 94 161 104 94 161 104 94 161 104 94 161 104 94 161 104 94 161 104 94 161 104 94 161 104 94 161 104 94 161 104 94 161 104 94 161 104 94 161 104 94 161 104 94 161 104 94 161 104 94 0 0 255 98 68 80 98 68 80 98 68 80 98 68 80 98 68 80 98 68 80 98 68 80 98 68 80 98 68 80 98 68 80 98 68 80 98 68 80 98 68 80 98 68 80 98 68 80 98 68 80 98 68 80 98 68 80 98 68 80 98 68 80 98 68 80 98 68 80 98 68 80 98 68 80 98 68 80 98 68 80 98 68 80 98 68 80 98 68 80 98 68 80 98 68 80 98 68 80 98 68 80 98 68 80 98 68 80 98 68 80 98 68 80 98 68 80 98 68 80 98 68 80 98 68 80 98 68 80 98 68 80 98 68 80 98 68 80 98 68 80 98 68 80 98 68 80 98 68 80 98 68 80 98 68 80 98 68 80 98 68 80 98 68 80 98 68 80 98 68 80 98 68 80 98 68 80 98 68 80 98 68 80 98 68 80 98 68 80 98 68 80 98 68 80 98 68 80 98 68 80 98 68 80 98 68 80 98 68 80 98 68 80 98 68 80 98 68 80 98 68 80 98 68 80 98 68 80 98 68 80 98 68 80 98 68 80 98 68 80 98 68 80 98 68 80 98 68 80 98 68 80 98 68 80 98 68 80 98 68 80 98 68 80 98 68 80 98 68 80 98 68 80 98 68 80 98 68 80 98 68 80 98 68 80 98 68 80 98 68 80 98 68 80 98 68 80 98 68 80 98 68 80 98 68 80 98 68 80 98 68 80 98 68 80 98 68 80 98 68 80 98 68 80 
161 104 94 161 104 94 161 104 94 161 104 94 161 104 94 161 104 94 161 104 94 161 104 94 161 104 94 161 104 94 161 104 94 161 104 94 161 104 94 161 104 94 161 104 94 161 104 94 161 104 94 161 104 94 161 104 94 161 104 94 161 104 94 161 104 94 161 104 94 161 104 94 161 104 94 161 104 94 161 104 94 161 104 94 161 104 94 0 0 255 164 196 214 0 0 255 161 104 94 161 104 94 161 104 94 161 104 94 161 104 94 161 104 94 161 104 94 161 104 94 161 104 94 161 104 94 161 104 94 161 104 94 161 104 94 161 104 94 161 104 94 161 104 94 161 104 94 161 104 94 161 104 94 161 104 94 161 104 94 161 104 94 161 104 94 161 104 94 161 104 94 161 104 94 161 104 94 161 104 94 161 104 94 161 104 94 161 104 94 161 104 94 161 104 94 161 104 94 161 104 94 161 104 94 161 104 94 161 104 94 161 104 94 161 104 94 161 104 94 161 104 94 161 104 94 161 104 94 161 104 94 161 104 94 161 104 94 161 104 94 161 104 94 161 104 94 161 104 94 161 104 94 161 104 94 161 104 94 161 104 94 161 104 94 161 104 94 161 104 94 161 104 94 161 104 94 161 104 94 161 104 94 161 104 94 161 104 94 161 104 94 161 104 94 161 104 94 161 104 94 161 104 94 161 104 94 161 104 94 161 104 94 161 104 94 161 104 94 161 104 94 161 104 94 161 104 94 161 104 94 161 104 94 161 104 94 161 104 94 161 104 94 161 104 94 161 104 94 161 104 94 161 104 94 161 104 94 161 104 94 161 104 94 161 104 94 161 104 94 161 104 94 161 104 94 161 104 94 161 104 94 161 104 94 161 104 94 161 104 94 161 104 94 161 104 94 161 104 94 161 104 94 161 104 94 161 104 94 161 104 94 161 104 94 161 104 94 161 104 94 161 104 94 161 104 94 161 104 94 161 104 94 161 104 94 161 104 94 161 104 94 161 104 94 0 0 255 98 68 80 98 68 80 98 68 80 98 68 80 98 68 80 98 68 80 98 68 80 98 68 80 98 68 80 98 68 80 98 68 80 98 68 80 98 68 80 98 68 80 98 68 80 98 68 80 98 68 80 98 68 80 98 68 80 98 68 80 98 68 80 98 68 80 98 68 80 98 68 80 98 68 80 98 68 80 98 68 80 98 68 80 98 68 80 98 68 80 98 68 80 98 68 80 98 68 80 98 68 80 98 68 80 98 68 80 98 68 80 98 68 80 98 68 80 98 68 80 98 68 80 98 68 80 98 68 80 98 68 80 98 68 80 98 68 80 98 68 80 98 68 80 98 68 80 98 68 80 98 68 80 98 68 80 98 68 80 98 68 80 98 68 80 98 68 80 98 68 80 98 68 80 98 68 80 98 68 80 98 68 80 98 68 80 98 68 80 98 68 80 98 68 80 98 68 80 98 68 80 98 68 80 98 68 80 98 68 80 98 68 80 98 68 80 98 68 80 98 68 80 98 68 80 98 68 80 98 68 80 98 68 80 98 68 80 98 68 80 98 68 80 98 68 80 98 68 80 98 68 80 98 68 80 98 68 80 98 68 80 98 68 80 98 68 80 98 68 80 98 68 80 98 68 80 98 68 80 98 68 80 98 68 80 98 68 80 98 68 80 98 68 80 98 68 80 98 68 80 98 68 80 98 68 80 98 68 80 98 68 80 98 68 80 98 68 80 98 68 80 
161 104 94 161 104 94 161 104 94 161 104 94 161 104 94 161 104 94 161 104 94 161 104 94 161 104 94 161 104 94 161 104 94 161 104 94 161 104 94 161 104 94 161 104 94 161 104 94 161 104 94 161 104 94 161 104 94 161 104 94 161 104 94 161 104 94 161 104 94 161 104 94 161 104 94 161 104 94 161 104 94 161 104 94 161 104 94 0 0 255 0 0 255 0 0 255 161 104 94 161 104 94 161 104 94 161 104 94 161 104 94 161 104 94 161 104 94 161 104 94 161 104 94 161 104 94 161 104 94 161 104 94 161 104 94 161 104 94 161 104 94 161 104 94 161 104 94 161 104 94 161 104 94 161 104 94 161 104 94 161 104 94 161 104 94 161 104 94 161 104 94 161 104 94 161 104 94 161 104 94 161 104 94 161 104 94 161 104 94 161 104 94 161 104 94 161 104 94 161 104 94 161 104 94 161 104 94 161 104 94 161 104 94 161 104 94 161 104 94 161 104 94 161 104 94 161 104 94 161 104 94 161 104 94 161 104 94 161 104 94 161 104 94 161 104 94 161 104 94 161 104 94 161 104 94 161 104 94 161 104 94 161 104 94 161 104 94 161 104 94 161 104 94 161 104 94 161 104 94 161 104 94 161 104 94 161 104 94 161 104 94 161 104 94 161 104 94 161 104 94 161 104 94 161 104 94 161 104 94 161 104 94 161 104 94 161 104 94 161 104 94 161 104 94 161 104 94 161 104 94 161 104 94 161 104 94 161 104 94 161 104 94 161 104 94 161 104 94 161 104 94 161 104 94 161 104 94 161 104 94 161 104 94 161 104 94 161 104 94 161 104 94 161 104 94 161 104 94 161 104 94 161 104 94 161 104 94 161 104 94 161 104 94 161 104 94 161 104 94 161 104 94 161 104 94 161 104 94 161 104 94 161 104 94 161 104 94 161 104 94 161 104 94 161 104 94 161 104 94 161 104 94 161 104 94 161 104 94 161 104 94 0 0 255 98 68 80 98 68 80 98 68 80 98 68 80 98 68 80 98 68 80 98 68 80 98 68 80 98 68 80 98 68 80 98 68 80 98 68 80 98 68 80 98 68 80 98 68 80 98 68 80 98 68 80 98 68 80 98 68 80 98 68 80 98 68 80 98 68 80 98 68 80 98 68 80 98 68 80 98 68 80 98 68 80 98 68 80 98 68 80 98 68 80 98 68 80 98 68 80 98 68 80 98 68 80 98 68 80 98 68 80 98 68 80 98 68 80 98 68 80 98 68 80 98 68 80 98 68 80 98 68 80 98 68 80 98 68 80 98 68 80 98 68 80 98 68 80 98 68 80 98 68 80 98 68 80 98 68 80 98 68 80 98 68 80 98 68 80 98 68 80 98 68 80 98 68 80 98 68 80 98 68 80 98 68 80 98 68 80 98 68 80 98 68 80 98 68 80 98 68 80 98 68 80 98 68 80 98 68 80 98 68 80 98 68 80 98 68 80 98 68 80 98 68 80 98 68 80 98 68 80 98 68 80 98 68 80 98 68 80 98 68 80 98 68 80 98 68 80 98 68 80 98 68 80 98 68 80 98 68 80 98 68 80 98 68 80 98 68 80 98 68 80 98 68 80 98 68 80 98 68 80 98 68 80 98 68 80 98 68 80 98 68 80 98 68 80 98 68 80 98 68 80 98 68 80 98 68 80 98 68 80 98 68 80 98 68 80 98 68 80 98 68 80 98 68 80 
161 104 94 161 104 94 161 104 94 161 104 94 161 104 94 161 104 94 161 104 94 161 104 94 161 104 94 161 104 94 161 104 94 161 104 94 161 104 94 161 104 94 161 104 94 161 104 94 161 104 94 161 104 94 161 104 94 161 104 94 161 104 94 161 104 94 161 104 94 161 104 94 161 104 94 161 104 94 161 104 94 161 104 94 161 104 94 161 104 94 161 104 94 161 104 94 161 104 94 161 104 94 161 104 94 161 104 94 161 104 94 161 104 94 161 104 94 161 104 94 161 104 94 161 104 94 161 104 94 161 104 94 161 104 94 161 104 94 161 104 94 161 104 94 161 104 94 161 104 94 161 104 94 161 104 94 161 104 94 161 104 94 161 104 94 161 104 94 161 104 94 161 104 94 161 104 94 161 104 94 161 104 94 161 104 94 161 104 94 161 104 94 161 104 94 161 104 94 161 104 94 161 104 94 161 104 94 161 104 94 161 104 94 161 104 94 161 104 94 161 104 94 161 104 94 161 104 94 161 104 94 161 104 94 161 104 94 161 104 94 161 104 94 161 104 94 161 104 94 161 104 94 161 104 94 161 104 94 161 104 94 161 104 94 161 104 94 161 104 94 161 104 94 161 104 94 161 104 94 161 104 94 161 104 94 161 104 94 161 104 94 161 104 94 161 104 94 161 104 94 161 104 94 161 104 94 161 104 94 161 104 94 161 104 94 161 104 94 161 104 94 161 104 94 161 104 94 161 104 94 161 104 94 161 104 94 161 104 94 161 104 94 161 104 94 161 104 94 161 104 94 161 104 94 161 104 94 161 104 94 161 104 94 161 104 94 161 104 94 161 104 94 161 104 94 161 104 94 161 104 94 161 104 94 161 104 94 161 104 94 161 104 94 161 104 94 161 104 94 161 104 94 161 104 94 161 104 94 161 104 94 161 104 94 161 104 94 161 104 94 161 104 94 161 104 94 161 104 94 161 104 94 161 104 94 161 104 94 161 104 94 0 0 255 0 0 255 98 68 80 98 68 80 98 68 80 98 68 80 98 68 80 98 68 80 98 68 80 98 68 80 98 68 80 98 68 80 98 68 80 98 68 80 98 68 80 98 68 80 98 68 80 98 68 80 98 68 80 98 68 80 98 68 80 98 68 80 98 68 80 98 68 80 98 68 80 98 68 80 98 68 80 98 68 80 98 68 80 98 68 80 98 68 80 98 68 80 98 68 80 98 68 80 98 68 80 98 68 80 98 68 80 98 68 80 98 68 80 98 68 80 98 68 80 98 68 80 98 68 80 98 68 80 98 68 80 98 68 80 98 68 80 98 68 80 98 68 80 98 68 80 98 68 80 98 68 80 98 68 80 98 68 80 98 68 80 98 68 80 98 68 80 98 68 80 98 68 80 98 68 80 98 68 80 98 68 80 98 68 80 98 68 80 98 68 80 98 68 80 98 68 80 98 68 80 98 68 80 98 68 80 98 68 80 98 68 80 98 68 80 98 68 80 98 68 80 98 68 80 98 68 80 98 68 80 98 68 80 98 68 80 98 68 80 98 68 80 98 68 80 98 68 80 98 68 80 98 68 80 98 68 80 98 68 80 98 68 80 98 68 80 98 68 80 98 68 80 98 68 80 98 68 80 98 68 80 98 68 80 98 68 80 98 68 80 98 68 80 98 68 80 98 68 80 98 68 80 98 68 80 98 68 80 98 68 80 98 68 80 98 68 80 98 68 80 98 68 80 
161 104 94 161 104 94 161 104 94 161 104 94 161 104 94 161 104 94 161 104 94 161 104 94 161 104 94 161 104 94 161 104 94 161 104 94 161 104 94 161 104 94 161 104 94 161 104 94 161 104 94 161 104 94 161 104 94 161 104 94 161 104 94 161 104 94 161 104 94 161 104 94 161 104 94 161 104 94 161 104 94 161 104 94 161 104 94 161 104 94 161 104 94 161 104 94 161 104 94 161 104 94 161 104 94 161 104 94 161 104 94 161 104 94 161 104 94 161 104 94 161 104 94 161 104 94 161 104 94 161 104 94 161 104 94 161 104 94 161 104 94 161 104 94 161 104 94 161 104 94 161 104 94 161 104 94 161 104 94 161 104 94 161 104 94 161 104 94 161 104 94 161 104 94 161 104 94 161 104 94 161 104 94 161 104 94 161 104 94 161 104 94 161 104 94 161 104 94 161 104 94 161 104 94 161 104 94 161 104 94 161 104 94 161 104 94 161 104 94 161 104 94 161 104 94 161 104 94 161 104 94 161 104 94 161 104 94 161 104 94 161 104 94 161 104 94 161 104 94 161 104 94 161 104 94 161 104 94 161 104 94 161 104 94 161 104 94 161 104 94 161 104 94 161 104 94 161 104 94 161 104 94 161 104 94 161 104 94 161 104 94 161 104 94 161 104 94 161 104 94 161 104 94 161 104 94 161 104 94 161 104 94 161 104 94 161 104 94 161 104 94 161 104 94 161 104 94 161 104 94 161 104 94 161 104 94 161 104 94 161 104 94 161 104 94 161 104 94 161 104 94 161 104 94 161 104 94 161 104 94 161 104 94 161 104 94 161 104 94 161 104 94 161 104 94 161 104 94 161 104 94 161 104 94 161 104 94 161 104 94 161 104 94 161 104 94 161 104 94 161 104 94 161 104 94 161 104 94 161 104 94 161 104 94 161 104 94 161 104 94 161 104 94 161 104 94 161 104 94 161 104 94 161 104 94 161 104 94 161 104 94 161 104 94 0 0 255 98 68 80 98 68 80 98 68 80 98 68 80 98 68 80 98 68 80 98 68 80 98 68 80 98 68 80 98 68 80 98 68 80 98 68 80 98 68 80 98 68 80 98 68 80 98 68 80 98 68 80 98 68 80 98 68 80 98 68 80 98 68 80 98 68 80 98 68 80 98 68 80 98 68 80 98 68 80 98 68 80 98 68 80 98 68 80 98 68 80 98 68 80 98 68 80 98 68 80 98 68 80 98 68 80 98 68 80 98 68 80 98 68 80 98 68 80 98 68 80 98 68 80 98 68 80 98 68 80 98 68 80 98 68 80 98 68 80 98 68 80 98 68 80 98 68 80 98 68 80 98 68 80 98 68 80 98 68 80 98 68 80 98 68 80 98 68 80 98 68 80 98 68 80 98 68 80 98 68 80 98 68 80 98 68 80 98 68 80 98 68 80 98 68 80 98 68 80 98 68 80 98 68 80 98 68 80 98 68 80 98 68 80 98 68 80 98 68 80 98 68 80 98 68 80 98 68 80 98 68 80 98 68 80 98 68 80 98 68 80 98 68 80 98 68 80 98 68 80 98 68 80 98 68 80 98 68 80 98 68 80 98 68 80 98 68 80 98 68 80 98 68 80 98 68 80 98 68 80 98 68 80 98 68 80 98 68 80 98 68 80 98 68 80 98 68 80 98 68 80 98 68 80 98 68 80 98 68 80 98 68 80 98 68 80 98 68 80 98 68 80 
161 104 94 161 104 94 161 104 94 161 104 94 161 104 94 161 104 94 161 104 94 161 104 94 161 104 94 161 104 94 161 104 94 161 104 94 161 104 94 161 104 94 161 104 94 161 104 94 161 104 94 161 104 94 161 104 94 161 104 94 161 104 94 161 104 94 161 104 94 161 104 94 161 104 94 161 104 94 161 104 94 161 104 94 161 104 94 161 104 94 161 104 94 161 104 94 161 104 94 161 104 94 161 104 94 161 104 94 161 104 94 161 104 94 161 104 94 161 104 94 161 104 94 161 104 94 161 104 94 161 104 94 161 104 94 161 104 94 161 104 94 161 104 94 161 104 94 161 104 94 161 104 94 161 104 94 161 104 94 161 104 94 161 104 94 161 104 94 161 104 94 161 104 94 161 104 94 161 104 94 161 104 94 161 104 94 161 104 94 161 104 94 161 104 94 161 104 94 161 104 94 161 104 94 161 104 94 161 104 94 161 104 94 161 104 94 161 104 94 161 104 94 161 104 94 161 104 94 161 104 94 161 104 94 161 104 94 161 104 94 161 104 94 161 104 94 161 104 94 161 104 94 161 104 94 161 104 94 161 104 94 161 104 94 161 104 94 161 104 94 161 104 94 161 104 94 161 104 94 161 104 94 161 104 94 161 104 94 161 104 94 161 104 94 161 104 94 161 104 94 161 104 94 161 104 94 161 104 94 161 104 94 161 104 94 161 104 94 161 104 94 161 104 94 161 104 94 161 104 94 161 104 94 161 104 94 161 104 94 161 104 94 161 104 94 161 104 94 161 104 94 161 104 94 161 104 94 161 104 94 161 104 94 161 104 94 161 104 94 161 104 94 161 104 94 161 104 94 161 104 94 161 104 94 161 104 94 161 104 94 161 104 94 161 104 94 161 104 94 161 104 94 161 104 94 161 104 94 161 104 94 161 104 94 161 104 94 161 104 94 161 104 94 161 104 94 161 104 94 161 104 94 161 104 94 161 104 94 161 104 94 0 0 255 98 68 80 98 68 80 98 68 80 98 68 80 98 68 80 98 68 80 98 68 80 98 68 80 98 68 80 98 68 80 98 68 80 98 68 80 98 68 80 98 68 80 98 68 80 98 68 80 98 68 80 98 68 80 98 68 80 98 68 80 98 68 80 98 68 80 98 68 80 98 68 80 98 68 80 98 68 80 98 68 80 98 68 80 98 68 80 98 68 80 98 68 80 98 68 80 98 68 80 98 68 80 98 68 80 98 68 80 98 68 80 98 68 80 98 68 80 98 68 80 98 68 80 98 68 80 98 68 80 98 68 80 98 68 80 98 68 80 98 68 80 98 68 80 98 68 80 98 68 80 98 68 80 98 68 80 98 68 80 98 68 80 98 68 80 98 68 80 98 68 80 98 68 80 98 68 80 98 68 80 98 68 80 98 68 80 98 68 80 98 68 80 98 68 80 98 68 80 98 68 80 98 68 80 98 68 80 98 68 80 98 68 80 98 68 80 98 68 80 98 68 80 98 68 80 98 68 80 98 68 80 98 68 80 98 68 80 98 68 80 98 68 80 98 68 80 98 68 80 98 68 80 98 68 80 98 68 80 98 68 80 98 68 80 98 68 80 98 68 80 98 68 80 98 68 80 98 68 80 98 68 80 98 68 80 98 68 80 98 68 80 98 68 80 98 68 80 98 68 80 98 68 80 98 68 80 98 68 80 98 68 80 98 68 80 98 68 80 98 68 80 98 68 80 
161 104 94 161 104 94 161 104 94 161 104 94 161 104 94 161 104 94 161 104 94 161 104 94 161 104 94 161 104 94 161 104 94 161 104 94 161 104 94 161 104 94 161 104 94 161 104 94 161 104 94 161 104 94 161 104 94 161 104 94 161 104 94 161 104 94 161 104 94 161 104 94 161 104 94 161 104 94 161 104 94 161 104 94 161 104 94 161 104 94 161 104 94 161 104 94 161 104 94 161 104 94 161 104 94 161 104 94 161 104 94 161 104 94 161 104 94 161 104 94 161 104 94 161 104 94 161 104 94 161 104 94 161 104 94 161 104 94 161 104 94 161 104 94 161 104 94 161 104 94 161 104 94 161 104 94 161 104 94 161 104 94 161 104 94 161 104 94 161 104 94 161 104 94 161 104 94 161 104 94 161 104 94 161 104 94 161 104 94 161 104 94 161 104 94 161 104 94 161 104 94 161 104 94 161 104 94 161 104 94 161 104 94 161 104 94 161 104 94 161 104 94 161 104 94 161 104 94 161 104 94 161 104 94 161 104 94 161 104 94 161 104 94 161 104 94 161 104 94 161 104 94 161 104 94 161 104 94 161 104 94 161 104 94 161 104 94 161 104 94 161 104 94 161 104 94 161 104 94 161 104 94 161 104 94 161 104 94 161 104 94 161 104 94 161 104 94 161 104 94 161 104 94 161 104 94 161 104 94 161 104 94 161 104 94 161 104 94 161 104 94 161 104 94 161 104 94 161 104 94 161 104 94 161 104 94 161 104 94 161 104 94 161 104 94 161 104 94 161 104 94 161 104 94 161 104 94 161 104 94 161 104 94 161 104 94 161 104 94 161 104 94 161 104 94 161 104 94 161 104 94 161 104 94 161 104 94 161 104 94 161 104 94 161 104 94 161 104 94 161 104 94 161 104 94 161 104 94 161 104 94 161 104 94 161 104 94 161 104 94 161 104 94 161 104 94 161 104 94 161 104 94 161 104 94 161 104 94 161 104 94 0 0 255 98 68 80 98 68 80 98 68 80 98 68 80 98 68 80 98 68 80 98 68 80 98 68 80 98 68 80 98 68 80 98 68 80 98 68 80 98 68 80 98 68 80 98 68 80 98 68 80 98 68 80 98 68 80 98 68 80 98 68 80 98 68 80 98 68 80 98 68 80 98 68 80 98 68 80 98 68 80 98 68 80 98 68 80 98 68 80 98 68 80 98 68 80 98 68 80 98 68 80 98 68 80 98 68 80 98 68 80 98 68 80 98 68 80 98 68 80 98 68 80 98 68 80 98 68 80 98 68 80 98 68 80 98 68 80 98 68 80 98 68 80 98 68 80 98 68 80 98 68 80 98 68 80 98 68 80 98 68 80 98 68 80 98 68 80 98 68 80 98 68 80 98 68 80 98 68 80 98 68 80 98 68 80 98 68 80 98 68 80 98 68 80 98 68 80 98 68 80 98 68 80 98 68 80 98 68 80 98 68 80 98 68 80 98 68 80 98 68 80 98 68 80 98 68 80 98 68 80 98 68 80 98 68 80 98 68 80 98 68 80 98 68 80 98 68 80 98 68 80 98 68 80 98 68 80 98 68 80 98 68 80 98 68 80 98 68 80 98 68 80 98 68 80 98 68 80 98 68 80 98 68 80 98 68 80 98 68 80 98 68 80 98 68 80 98 68 80 98 68 80 98 68 80 98 68 80 98 68 80 98 68 80 98 68 80 98 68 80 98 68 80 98 68 80 
161 104 94 161 104 94 161 104 94 161 104 94 161 104 94 161 104 94 161 104 94 161 104 94 161 104 94 161 104 94 161 104 94 161 104 94 161 104 94 161 104 94 161 104 94 161 104 94 161 104 94 161 104 94 161 104 94 161 104 94 161 104 94 161 104 94 161 104 94 161 104 94 161 104 94 161 104 94 161 104 94 161 104 94 161 104 94 161 104 94 161 104 94 161 104 94 161 104 94 161 104 94 161 104 94 161 104 94 161 104 94 161 104 94 161 104 94 161 104 94 161 104 94 161 104 94 161 104 94 161 104 94 161 104 94 161 104 94 161 104 94 161 104 94 161 104 94 161 104 94 161 104 94 161 104 94 161 104 94 161 104 94 161 104 94 161 104 94 161 104 94 161 104 94 161 104 94 161 104 94 161 104 94 161 104 94 161 104 94 161 104 94 161 104 94 161 104 94 161 104 94 161 104 94 161 104 94 161 104 94 161 104 94 161 104 94 161 104 94 161 104 94 161 104 94 161 104 94 161 104 94 161 104 94 161 104 94 161 104 94 161 104 94 161 104 94 161 104 94 161 104 94 161 104 94 161 104 94 161 104 94 161 104 94 161 104 94 161 104 94 161 104 94 161 104 94 161 104 94 161 104 94 161 104 94 161 104 94 161 104 94 161 104 94 161 104 94 161 104 94 161 104 94 161 104 94 161 104 94 161 104 94 161 104 94 161 104 94 161 104 94 161 104 94 161 104 94 161 104 94 161 104 94 161 104 94 161 104 94 161 104 94 161 104 94 161 104 94 161 104 94 161 104 94 161 104 94 161 104 94 161 104 94 161 104 94 161 104 94 161 104 94 161 104 94 161 104 94 161 104 94 161 104 94 161 104 94 161 104 94 161 104 94 161 104 94 161 104 94 161 104 94 161 104 94 161 104 94 161 104 94 161 104 94 161 104 94 161 104 94 161 104 94 161 104 94 161 104 94 161 104 94 161 104 94 161 104 94 161 104 94 0 0 255 98 68 80 98 68 80 98 68 80 98 68 80 98 68 80 98 68 80 98 68 80 98 68 80 98 68 80 98 68 80 98 68 80 98 68 80 98 68 80 98 68 80 98 68 80 98 68 80 98 68 80 98 68 80 98 68 80 98 68 80 98 68 80 98 68 80 98 68 80 98 68 80 98 68 80 98 68 80 98 68 80 98 68 80 98 68 80 98 68 80 98 68 80 98 68 80 98 68 80 98 68 80 98 68 80 98 68 80 98 68 80 98 68 80 98 68 80 98 68 80 98 68 80 98 68 80 98 68 80 98 68 80 98 68 80 98 68 80 98 68 80 98 68 80 98 68 80 98 68 80 98 68 80 98 68 80 98 68 80 98 68 80 98 68 80 98 68 80 98 68 80 98 68 80 98 68 80 98 68 80 98 68 80 98 68 80 98 68 80 98 68 80 98 68 80 98 68 80 98 68 80 98 68 80 98 68 80 98 68 80 98 68 80 98 68 80 98 68 80 98 68 80 98 68 80 98 68 80 98 68 80 98 68 80 98 68 80 98 68 80 98 68 80 98 68 80 98 68 80 98 68 80 98 68 80 98 68 80 98 68 80 98 68 80 98 68 80 98 68 80 98 68 80 98 68 80 98 68 80 98 68 80 98 68 80 98 68 80 98 68 80 98 68 80 98 68 80 98 68 80 98 68 80 98 68 80 98 68 80 98 68 80 98 68 80 98 68 80 98 68 80 98 68 80 
161 104 94 161 104 94 161 104 94 161 104 94 161 104 94 161 104 94 161 104 94 161 104 94 161 104 94 161 104 94 161 104 94 161 104 94 161 104 94 161 104 94 161 104 94 161 104 94 161 104 94 161 104 94 161 104 94 161 104 94 161 104 94 161 104 94 161 104 94 161 104 94 161 104 94 161 104 94 161 104 94 161 104 94 161 104 94 161 104 94 161 104 94 161 104 94 161 104 94 161 104 94 161 104 94 161 104 94 161 104 94 161 104 94 161 104 94 161 104 94 161 104 94 161 104 94 161 104 94 161 104 94 161 104 94 161 104 94 161 104 94 161 104 94 161 104 94 161 104 94 161 104 94 161 104 94 161 104 94 161 104 94 161 104 94 161 104 94 161 104 94 161 104 94 161 104 94 161 104 94 161 104 94 161 104 94 161 104 94 161 104 94 161 104 94 161 104 94 161 104 94 161 104 94 161 104 94 161 104 94 161 104 94 161 104 94 161 104 94 161 104 94 161 104 94 161 104 94 161 104 94 161 104 94 161 104 94 161 104 94 161 104 94 161 104 94 161 104 94 161 104 94 161 104 94 161 104 94 161 104 94 161 104 94 161 104 94 161 104 94 161 104 94 161 104 94 161 104 94 161 104 94 161 104 94 161 104 94 161 104 94 161 104 94 161 104 94 161 104 94 161 104 94 161 104 94 161 104 94 161 104 94 161 104 94 161 104 94 161 104 94 161 104 94 161 104 94 161 104 94 161 104 94 161 104 94 161 104 94 161 104 94 161 104 94 161 104 94 161 104 94 161 104 94 161 104 94 161 104 94 161 104 94 161 104 94 161 104 94 161 104 94 161 104 94 161 104 94 161 104 94 161 104 94 161 104 94 161 104 94 161 104 94 161 104 94 161 104 94 161 104 94 161 104 94 161 104 94 161 104 94 161 104 94 161 104 94 161 104 94 161 104 94 161 104 94 161 104 94 161 104 94 161 104 94 161 104 94 161 104 94 0 0 255 98 68 80 98 68 80 98 68 80 98 68 80 98 68 80 98 68 80 98 68 80 98 68 80 98 68 80 98 68 80 98 68 80 98 68 80 98 68 80 98 68 80 98 68 80 98 68 80 98 68 80 98 68 80 98 68 80 98 68 80 98 68 80 98 68 80 98 68 80 98 68 80 98 68 80 98 68 80 98 68 80 98 68 80 98 68 80 98 68 80 98 68 80 98 68 80 98 68 80 98 68 80 98 68 80 98 68 80 98 68 80 98 68 80 98 68 80 98 68 80 98 68 80 98 68 80 98 68 80 98 68 80 98 68 80 98 68 80 98 68 80 98 68 80 98 68 80 98 68 80 98 68 80 98 68 80 98 68 80 98 68 80 98 68 80 98 68 80 98 68 80 98 68 80 98 68 80 98 68 80 98 68 80 98 68 80 98 68 80 98 68 80 98 68 80 98 68 80 98 68 80 98 68 80 98 68 80 98 68 80 98 68 80 98 68 80 98 68 80 98 68 80 98 68 80 98 68 80 98 68 80 98 68 80 98 68 80 98 68 80 98 68 80 98 68 80 98 68 80 98 68 80 98 68 80 98 68 80 98 68 80 98 68 80 98 68 80 98 68 80 98 68 80 98 68 80 98 68 80 98 68 80 98 68 80 98 68 80 98 68 80 98 68 80 98 68 80 98 68 80 98 68 80 98 68 80 98 68 80 98 68 80 98 68 80 98 68 80 98 68 80 98 68 80 
0 0 255 0 0 255 0 0 255 0 0 255 0 0 255 0 0 255 0 0 255 0 0 255 0 0 255 0 0 255 161 104 94 161 104 94 161 104 94 161 104 94 161 104 94 161 104 94 161 104 94 161 104 94 161 104 94 161 104 94 161 104 94 161 104 94 161 104 94 161 104 94 161 104 94 161 104 94 161 104 94 161 104 94 161 104 94 161 104 94 161 104 94 161 104 94 161 104 94 161 104 94 161 104 94 161 104 94 161 104 94 161 104 94 161 104 94 161 104 94 161 104 94 161 104 94 161 104 94 161 104 94 161 104 94 161 104 94 161 104 94 161 104 94 161 104 94 161 104 94 161 104 94 161 104 94 161 104 94 161 104 94 161 104 94 161 104 94 161 104 94 161 104 94 161 104 94 161 104 94 161 104 94 161 104 94 161 104 94 161 104 94 161 104 94 161 104 94 161 104 94 161 104 94 161 104 94 161 104 94 161 104 94 161 104 94 161 104 94 161 104 94 161 104 94 161 104 94 161 104 94 161 104 94 161 104 94 161 104 94 161 104 94 161 104 94 161 104 94 161 104 94 161 104 94 161 104 94 161 104 94 161 104 94 161 104 94 161 104 94 161 104 94 161 104 94 161 104 94 161 104 94 161 104 94 161 104 94 161 104 94 161 104 94 161 104 94 161 104 94 161 104 94 161 104 94 161 104 94 161 104 94 161 104 94 161 104 94 161 104 94 161 104 94 161 104 94 161 104 94 161 104 94 161 104 94 161 104 94 161 104 94 161 104 94 161 104 94 161 104 94 161 104 94 161 104 94 161 104 94 161 104 94 161 104 94 161 104 94 161 104 94 161 104 94 161 104 94 161 104 94 161 104 94 161 104 94 161 104 94 161 104 94 161 104 94 161 104 94 161 104 94 161 104 94 161 104 94 161 104 94 161 104 94 161 104 94 161 104 94 161 104 94 161 104 94 161 104 94 161 104 94 161 104 94 161 104 94 161 104 94 0 0 255 98 68 80 98 68 80 98 68 80 98 68 80 98 68 80 98 68 80 98 68 80 98 68 80 98 68 80 98 68 80 98 68 80 98 68 80 98 68 80 98 68 80 98 68 80 98 68 80 98 68 80 98 68 80 98 68 80 98 68 80 98 68 80 98 68 80 98 68 80 98 68 80 98 68 80 98 68 80 98 68 80 98 68 80 98 68 80 98 68 80 98 68 80 98 68 80 98 68 80 98 68 80 98 68 80 98 68 80 98 68 80 98 68 80 98 68 80 98 68 80 98 68 80 98 68 80 98 68 80 98 68 80 98 68 80 98 68 80 98 68 80 98 68 80 98 68 80 98 68 80 98 68 80 98 68 80 98 68 80 98 68 80 98 68 80 98 68 80 98 68 80 98 68 80 98 68 80 98 68 80 98 68 80 98 68 80 98 68 80 98 68 80 98 68 80 98 68 80 98 68 80 98 68 80 98 68 80 98 68 80 98 68 80 98 68 80 98 68 80 98 68 80 98 68 80 98 68 80 98 68 80 98 68 80 98 68 80 98 68 80 98 68 80 98 68 80 98 68 80 98 68 80 98 68 80 98 68 80 98 68 80 98 68 80 98 68 80 98 68 80 98 68 80 98 68 80 98 68 80 98 68 80 98 68 80 98 68 80 98 68 80 98 68 80 98 68 80 98 68 80 98 68 80 98 68 80 98 68 80 98 68 80 98 68 80 98 68 80 98 68 80 98 68 80 
164 196 214 164 196 214 164 196 214 164 196 214 164 196 214 164 196 214 164 196 214 164 196 214 164 196 214 0 0 255 0 0 255 0 0 255 0 0 255 0 0 255 0 0 255 0 0 255 0 0 255 0 0 255 0 0 255 0 0 255 0 0 255 0 0 255 161 104 94 161 104 94 161 104 94 161 104 94 161 104 94 161 104 94 161 104 94 161 104 94 161 104 94 161 104 94 161 104 94 161 104 94 161 104 94 161 104 94 161 104 94 161 104 94 161 104 94 161 104 94 161 104 94 161 104 94 161 104 94 161 104 94 161 104 94 161 104 94 161 104 94 161 104 94 161 104 94 161 104 94 161 104 94 161 104 94 161 104 94 161 104 94 161 104 94 161 104 94 161 104 94 161 104 94 161 104 94 161 104 94 161 104 94 161 104 94 161 104 94 161 104 94 161 104 94 161 104 94 161 104 94 161 104 94 161 104 94 161 104 94 161 104 94 161 104 94 161 104 94 161 104 94 161 104 94 161 104 94 161 104 94 161 104 94 161 104 94 161 104 94 161 104 94 161 104 94 161 104 94 161 104 94 161 104 94 161 104 94 161 104 94 161 104 94 161 104 94 161 104 94 161 104 94 161 104 94 161 104 94 161 104 94 161 104 94 161 104 94 161 104 94 161 104 94 161 104 94 161 104 94 161 104 94 161 104 94 161 104 94 161 104 94 161 104 94 161 104 94 161 104 94 161 104 94 161 104 94 161 104 94 161 104 94 161 104 94 161 104 94 161 104 94 161 104 94 161 104 94 161 104 94 161 104 94 161 104 94 161 104 94 161 104 94 161 104 94 161 104 94 161 104 94 161 104 94 161 104 94 161 104 94 161 104 94 161 104 94 161 104 94 161 104 94 161 104 94 161 104 94 161 104 94 161 104 94 161 104 94 161 104 94 161 104 94 161 104 94 161 104 94 161 104 94 161 104 94 161 104 94 161 104 94 161 104 94 161 104 94 161 104 94 0 0 255 98 68 80 98 68 80 98 68 80 98 68 80 98 68 80 98 68 80 98 68 80 98 68 80 98 68 80 98 68 80 98 68 80 98 68 80 98 68 80 98 68 80 98 68 80 98 68 80 98 68 80 98 68 80 98 68 80 98 68 80 98 68 80 98 68 80 98 68 80 98 68 80 98 68 80 98 68 80 98 68 80 98 68 80 98 68 80 98 68 80 98 68 80 98 68 80 98 68 80 98 68 80 98 68 80 98 68 80 98 68 80 98 68 80 98 68 80 98 68 80 98 68 80 98 68 80 98 68 80 98 68 80 98 68 80 98 68 80 98 68 80 98 68 80 98 68 80 98 68 80 98 68 80 98 68 80 98 68 80 98 68 80 98 68 80 98 68 80 98 68 80 98 68 80 98 68 80 98 68 80 98 68 80 98 68 80 98 68 80 98 68 80 98 68 80 98 68 80 98 68 80 98 68 80 98 68 80 98 68 80 98 68 80 98 68 80 98 68 80 98 68 80 98 68 80 98 68 80 98 68 80 98 68 80 98 68 80 98 68 80 98 68 80 98 68 80 98 68 80 98 68 80 98 68 80 98 68 80 98 68 80 98 68 80 98 68 80 98 68 80 98 68 80 98 68 80 98 68 80 98 68 80 98 68 80 98 68 80 98 68 80 98 68 80 98 68 80 98 68 80 98 68 80 98 68 80 98 68 80 98 68 80 98 68 80 98 68 80 98 68 80 98 68 80 
164 196 214 164 196 214 164 196 214 164 196 214 164 196 214 164 196 214 164 196 214 164 196 214 164 196 214 164 196 214 164 196 214 164 196 214 164 196 214 164 196 214 164 196 214 164 196 214 164 196 214 164 196 214 164 196 214 164 196 214 164 196 214 0 0 255 0 0 255 0 0 255 0 0 255 0 0 255 0 0 255 0 0 255 0 0 255 0 0 255 161 104 94 161 104 94 161 104 94 161 104 94 161 104 94 161 104 94 161 104 94 161 104 94 161 104 94 161 104 94 161 104 94 161 104 94 161 104 94 161 104 94 161 104 94 161 104 94 161 104 94 161 104 94 161 104 94 161 104 94 161 104 94 161 104 94 161 104 94 161 104 94 161 104 94 161 104 94 161 104 94 161 104 94 161 104 94 161 104 94 161 104 94 161 104 94 161 104 94 161 104 94 161 104 94 161 104 94 161 104 94 161 104 94 161 104 94 161 104 94 161 104 94 161 104 94 161 104 94 161 104 94 161 104 94 161 104 94 161 104 94 161 104 94 161 104 94 161 104 94 161 104 94 161 104 94 161 104 94 161 104 94 161 104 94 161 104 94 161 104 94 161 104 94 161 104 94 161 104 94 161 104 94 161 104 94 161 104 94 161 104 94 161 104 94 161 104 94 161 104 94 161 104 94 161 104 94 161 104 94 161 104 94 161 104 94 161 104 94 161 104 94 161 104 94 161 104 94 161 104 94 161 104 94 161 104 94 161 104 94 161 104 94 161 104 94 161 104 94 161 104 94 161 104 94 161 104 94 161 104 94 161 104 94 161 104 94 161 104 94 161 104 94 161 104 94 161 104 94 161 104 94 161 104 94 161 104 94 161 104 94 161 104 94 161 104 94 161 104 94 161 104 94 161 104 94 161 104 94 161 104 94 161 104 94 161 104 94 161 104 94 161 104 94 161 104 94 161 104 94 161 104 94 161 104 94 161 104 94 161 104 94 161 104 94 161 104 94 161 104 94 0 0 255 98 68 80 98 68 80 98 68 80 98 68 80 98 68 80 98 68 80 98 68 80 98 68 80 98 68 80 98 68 80 98 68 80 98 68 80 98 68 80 98 68 80 98 68 80 98 68 80 98 68 80 98 68 80 98 68 80 98 68 80 98 68 80 98 68 80 98 68 80 98 68 80 98 68 80 98 68 80 98 68 80 98 68 80 98 68 80 98 68 80 98 68 80 98 68 80 98 68 80 98 68 80 98 68 80 98 68 80 98 68 80 98 68 80 98 68 80 98 68 80 98 68 80 98 68 80 98 68 80 98 68 80 98 68 80 98 68 80 98 68 80 98 68 80 98 68 80 98 68 80 98 68 80 98 68 80 98 68 80 98 68 80 98 68 80 98 68 80 98 68 80 98 68 80 98 68 80 98 68 80 98 68 80 98 68 80 98 68 80 98 68 80 98 68 80 98 68 80 98 68 80 98 68 80 98 68 80 98 68 80 98 68 80 98 68 80 98 68 80 98 68 80 98 68 80 98 68 80 98 68 80 98 68 80 98 68 80 98 68 80 98 68 80 98 68 80 98 68 80 98 68 80 98 68 80 98 68 80 98 68 80 98 68 80 98 68 80 98 68 80 98 68 80 98 68 80 98 68 80 98 68 80 98 68 80 98 68 80 98 68 80 98 68 80 98 68 80 98 68 80 98 68 80 98 68 80 98 68 80 98 68 80 98 68 80 98 68 80 98 68 80 98 68 80 
164 196 214 164 196 214 164 196 214 164 196 214 164 196 214 164 196 214 164 196 214 164 196 214 164 196 214 164 196 214 164 196 214 164 196 214 164 196 214 164 196 214 164 196 214 164 196 214 164 196 214 164 196 214 164 196 214 164 196 214 164 196 214 164 196 214 164 196 214 164 196 214 164 196 214 164 196 214 164 196 214 164 196 214 164 196 214 0 0 255 0 0 255 161 104 94 161 104 94 161 104 94 161 104 94 161 104 94 161 104 94 161 104 94 161 104 94 161 104 94 161 104 94 161 104 94 161 104 94 161 104 94 161 104 94 161 104 94 161 104 94 161 104 94 161 104 94 161 104 94 161 104 94 161 104 94 161 104 94 161 104 94 161 104 94 161 104 94 161 104 94 161 104 94 161 104 94 161 104 94 161 104 94 161 104 94 161 104 94 161 104 94 161 104 94 161 104 94 161 104 94 161 104 94 161 104 94 161 104 94 161 104 94 161 104 94 161 104 94 161 104 94 161 104 94 161 104 94 161 104 94 161 104 94 161 104 94 161 104 94 161 104 94 161 104 94 161 104 94 161 104 94 161 104 94 161 104 94 161 104 94 161 104 94 161 104 94 161 104 94 161 104 94 161 104 94 161 104 94 161 104 94 161 104 94 161 104 94 161 104 94 161 104 94 161 104 94 161 104 94 161 104 94 161 104 94 161 104 94 161 104 94 161 104 94 161 104 94 161 104 94 161 104 94 161 104 94 161 104 94 161 104 94 161 104 94 161 104 94 161 104 94 161 104 94 161 104 94 161 104 94 161 104 94 161 104 94 161 104 94 161 104 94 161 104 94 161 104 94 161 104 94 161 104 94 161 104 94 161 104 94 161 104 94 161 104 94 161 104 94 161 104 94 161 104 94 161 104 94 161 104 94 161 104 94 161 104 94 161 104 94 161 104 94 161 104 94 161 104 94 161 104 94 161 104 94 161 104 94 161 104 94 161 104 94 161 104 94 161 104 94 0 0 255 98 68 80 98 68 80 98 68 80 98 68 80 98 68 80 98 68 80 98 68 80 98 68 80 98 68 80 98 68 80 98 68 80 98 68 80 98 68 80 98 68 80 98 68 80 98 68 80 98 68 80 98 68 80 98 68 80 98 68 80 98 68 80 98 68 80 98 68 80 98 68 80 98 68 80 98 68 80 98 68 80 98 68 80 98 68 80 98 68 80 98 68 80 98 68 80 98 68 80 98 68 80 98 68 80 98 68 80 98 68 80 98 68 80 98 68 80 98 68 80 98 68 80 98 68 80 98 68 80 98 68 80 98 68 80 98 68 80 98 68 80 98 68 80 98 68 80 98 68 80 98 68 80 98 68 80 98 68 80 98 68 80 98 68 80 98 68 80 98 68 80 98 68 80 98 68 80 98 68 80 98 68 80 98 68 80 98 68 80 98 68 80 98 68 80 98 68 80 98 68 80 98 68 80 98 68 80 98 68 80 98 68 80 98 68 80 98 68 80 98 68 80 98 68 80 98 68 80 98 68 80 98 68 80 98 68 80 98 68 80 98 68 80 98 68 80 98 68 80 98 68 80 98 68 80 98 68 80 98 68 80 98 68 80 98 68 80 98 68 80 98 68 80 98 68 80 98 68 80 98 68 80 98 68 80 98 68 80 98 68 80 98 68 80 98 68 80 98 68 80 98 68 80 98 68 80 98 68 80 98 68 80 98 68 80 98 68 80 98 68 80 98 68 80 
164 196 214 164 196 214 164 196 214 164 196 214 164 196 214 164 196 214 164 196 214 164 196 214 164 196 214 164 196 214 164 196 214 164 196 214 164 196 214 164 196 214 164 196 214 164 196 214 164 196 214 164 196 214 164 196 214 164 196 214 164 196 214 164 196 214 164 196 214 164 196 214 164 196 214 164 196 214 164 196 214 164 196 214 164 196 214 164 196 214 0 0 255 161 104 94 161 104 94 161 104 94 161 104 94 161 104 94 161 104 94 161 104 94 161 104 94 161 104 94 161 104 94 161 104 94 161 104 94 161 104 94 161 104 94 161 104 94 161 104 94 161 104 94 161 104 94 161 104 94 161 104 94 161 104 94 161 104 94 161 104 94 161 104 94 161 104 94 161 104 94 161 104 94 161 104 94 161 104 94 161 104 94 161 104 94 161 104 94 161 104 94 161 104 94 161 104 94 161 104 94 161 104 94 161 104 94 161 104 94 161 104 94 161 104 94 161 104 94 161 104 94 161 104 94 161 104 94 161 104 94 161 104 94 161 104 94 161 104 94 161 104 94 161 104 94 161 104 94 161 104 94 161 104 94 161 104 94 161 104 94 161 104 94 161 104 94 161 104 94 161 104 94 161 104 94 161 104 94 161 104 94 161 104 94 161 104 94 161 104 94 161 104 94 161 104 94 161 104 94 161 104 94 161 104 94 161 104 94 161 104 94 161 104 94 161 104 94 161 104 94 161 104 94 161 104 94 161 104 94 161 104 94 161 104 94 161 104 94 161 104 94 161 104 94 161 104 94 161 104 94 161 104 94 161 104 94 161 104 94 161 104 94 161 104 94 161 104 94 161 104 94 161 104 94 161 104 94 161 104 94 161 104 94 161 104 94 161 104 94 161 104 94 161 104 94 161 104 94 161 104 94 161 104 94 161 104 94 161 104 94 161 104 94 161 104 94 161 104 94 161 104 94 161 104 94 161 104 94 161 104 94 161 104 94 161 104 94 161 104 94 0 0 255 98 68 80 98 68 80 98 68 80 98 68 80 98 68 80 98 68 80 98 68 80 98 68 80 98 68 80 98 68 80 98 68 80 98 68 80 98 68 80 98 68 80 98 68 80 98 68 80 98 68 80 98 68 80 98 68 80 98 68 80 98 68 80 98 68 80 98 68 80 98 68 80 98 68 80 98 68 80 98 68 80 98 68 80 98 68 80 98 68 80 98 68 80 98 68 80 98 68 80 98 68 80 98 68 80 98 68 80 98 68 80 98 68 80 98 68 80 98 68 80 98 68 80 98 68 80 98 68 80 98 68 80 98 68 80 98 68 80 98 68 80 98 68 80 98 68 80 98 68 80 98 68 80 98 68 80 98 68 80 98 68 80 98 68 80 98 68 80 98 68 80 98 68 80 98 68 80 98 68 80 98 68 80 98 68 80 98 68 80 98 68 80 98 68 80 98 68 80 98 68 80 98 68 80 98 68 80 98 68 80 98 68 80 98 68 80 98 68 80 98 68 80 98 68 80 98 68 80 98 68 80 98 68 80 98 68 80 98 68 80 98 68 80 98 68 80 98 68 80 98 68 80 98 68 80 98 68 80 98 68 80 98 68 80 98 68 80 98 68 80 98 68 80 98 68 80 98 68 80 98 68 80 98 68 80 98 68 80 98 68 80 98 68 80 98 68 80 98 68 80 98 68 80 98 68 80 98 68 80 98 68 80 98 68 80 98 68 80 98 68 80 98 68 80 
164 196 214 164 196 214 164 196 214 164 196 214 164 196 214 164 196 214 164 196 214 164 196 214 164 196 214 164 196 214 164 196 214 164 196 214 164 196 214 164 196 214 164 196 214 164 196 214 164 196 214 164 196 214 164 196 214 164 196 214 164 196 214 164 196 214 164 196 214 164 196 214 164 196 214 164 196 214 164 196 214 164 196 214 164 196 214 164 196 214 0 0 255 161 104 94 161 104 94 161 104 94 161 104 94 161 104 94 161 104 94 161 104 94 161 104 94 161 104 94 161 104 94 161 104 94 161 104 94 161 104 94 161 104 94 161 104 94 161 104 94 161 104 94 161 104 94 161 104 94 161 104 94 161 104 94 161 104 94 161 104 94 161 104 94 161 104 94 161 104 94 161 104 94 161 104 94 161 104 94 161 104 94 161 104 94 161 104 94 161 104 94 161 104 94 161 104 94 161 104 94 161 104 94 161 104 94 161 104 94 161 104 94 161 104 94 161 104 94 161 104 94 161 104 94 161 104 94 161 104 94 161 104 94 161 104 94 161 104 94 161 104 94 161 104 94 161 104 94 161 104 94 161 104 94 161 104 94 161 104 94 161 104 94 161 104 94 161 104 94 161 104 94 161 104 94 161 104 94 161 104 94 161 104 94 161 104 94 161 104 94 161 104 94 161 104 94 161 104 94 161 104 94 161 104 94 161 104 94 161 104 94 161 104 94 161 104 94 161 104 94 161 104 94 161 104 94 161 104 94 161 104 94 161 104 94 161 104 94 161 104 94 161 104 94 161 104 94 161 104 94 161 104 94 161 104 94 161 104 94 161 104 94 161 104 94 161 104 94 161 104 94 161 104 94 161 104 94 161 104 94 161 104 94 161 104 94 161 104 94 161 104 94 161 104 94 161 104 94 161 104 94 161 104 94 161 104 94 161 104 94 161 104 94 161 104 94 161 104 94 161 104 94 161 104 94 161 104 94 161 104 94 161 104 94 161 104 94 161 104 94 0 0 255 98 68 80 98 68 80 98 68 80 98 68 80 98 68 80 98 68 80 98 68 80 98 68 80 98 68 80 98 68 80 98 68 80 98 68 80 98 68 80 98 68 80 98 68 80 98 68 80 98 68 80 98 68 80 98 68 80 98 68 80 98 68 80 98 68 80 98 68 80 98 68 80 98 68 80 98 68 80 98 68 80 98 68 80 98 68 80 98 68 80 98 68 80 98 68 80 98 68 80 98 68 80 98 68 80 98 68 80 98 68 80 98 68 80 98 68 80 98 68 80 98 68 80 98 68 80 98 68 80 98 68 80 98 68 80 98 68 80 98 68 80 98 68 80 98 68 80 98 68 80 98 68 80 98 68 80 98 68 80 98 68 80 98 68 80 98 68 80 98 68 80 98 68 80 98 68 80 98 68 80 98 68 80 98 68 80 98 68 80 98 68 80 98 68 80 98 68 80 98 68 80 98 68 80 98 68 80 98 68 80 98 68 80 98 68 80 98 68 80 98 68 80 98 68 80 98 68 80 98 68 80 98 68 80 98 68 80 98 68 80 98 68 80 98 68 80 98 68 80 98 68 80 98 68 80 98 68 80 98 68 80 98 68 80 98 68 80 98 68 80 98 68 80 98 68 80 98 68 80 98 68 80 98 68 80 98 68 80 98 68 80 98 68 80 98 68 80 98 68 80 98 68 80 98 68 80 98 68 80 98 68 80 98 68 80 98 68 80 98 68 80 0 0 255 
164 196 214 164 196 214 164 196 214 164 196 214 164 196 214 164 196 214 164 196 214 164 196 214 164 196 214 164 196 214 164 196 214 164 196 214 164 196 214 164 196 214 164 196 214 164 196 214 164 196 214 164 196 214 164 196 214 164 196 214 164 196 214 164 196 214 164 196 214 164 196 214 164 196 214 164 196 214 164 196 214 164 196 214 164 196 214 164 196 214 0 0 255 161 104 94 161 104 94 161 104 94 161 104 94 161 104 94 161 104 94 161 104 94 161 104 94 161 104 94 161 104 94 161 104 94 161 104 94 161 104 94 161 104 94 161 104 94 161 104 94 161 104 94 161 104 94 161 104 94 161 104 94 161 104 94 161 104 94 161 104 94 161 104 94 161 104 94 161 104 94 161 104 94 161 104 94 161 104 94 161 104 94 161 104 94 161 104 94 161 104 94 161 104 94 161 104 94 161 104 94 161 104 94 161 104 94 161 104 94 161 104 94 161 104 94 161 104 94 161 104 94 161 104 94 161 104 94 161 104 94 161 104 94 161 104 94 161 104 94 161 104 94 161 104 94 161 104 94 161 104 94 161 104 94 161 104 94 161 104 94 161 104 94 161 104 94 161 104 94 161 104 94 161 104 94 161 104 94 161 104 94 161 104 94 161 104 94 161 104 94 161 104 94 161 104 94 161 104 94 161 104 94 161 104 94 161 104 94 161 104 94 161 104 94 161 104 94 161 104 94 161 104 94 161 104 94 161 104 94 161 104 94 161 104 94 161 104 94 161 104 94 161 104 94 161 104 94 161 104 94 161 104 94 161 104 94 161 104 94 161 104 94 161 104 94 161 104 94 161 104 94 161 104 94 161 104 94 161 104 94 161 104 94 161 104 94 161 104 94 161 104 94 161 104 94 161 104 94 161 104 94 161 104 94 161 104 94 161 104 94 161 104 94 161 104 94 161 104 94 161 104 94 161 104 94 161 104 94 161 104 94 161 104 94 161 104 94 161 104 94 0 0 255 98 68 80 98 68 80 98 68 80 98 68 80 98 68 80 98 68 80 98 68 80 98 68 80 98 68 80 98 68 80 98 68 80 98 68 80 98 68 80 98 68 80 98 68 80 98 68 80 98 68 80 98 68 80 98 68 80 98 68 80 98 68 80 98 68 80 98 68 80 98 68 80 98 68 80 98 68 80 98 68 80 98 68 80 98 68 80 98 68 80 98 68 80 98 68 80 98 68 80 98 68 80 98 68 80 98 68 80 98 68 80 98 68 80 98 68 80 98 68 80 98 68 80 98 68 80 98 68 80 98 68 80 98 68 80 98 68 80 98 68 80 98 68 80 98 68 80 98 68 80 98 68 80 98 68 80 98 68 80 98 68 80 98 68 80 98 68 80 98 68 80 98 68 80 98 68 80 98 68 80 98 68 80 98 68 80 98 68 80 98 68 80 98 68 80 98 68 80 98 68 80 98 68 80 98 68 80 98 68 80 98 68 80 98 68 80 98 68 80 98 68 80 98 68 80 98 68 80 98 68 80 98 68 80 98 68 80 98 68 80 98 68 80 98 68 80 98 68 80 98 68 80 98 68 80 98 68 80 98 68 80 98 68 80 98 68 80 98 68 80 98 68 80 98 68 80 98 68 80 98 68 80 98 68 80 98 68 80 98 68 80 98 68 80 98 68 80 98 68 80 98 68 80 98 68 80 98 68 80 98 68 80 98 68 80 98 68 80 0 0 255 167 176 177 
164 196 214 164 196 214 164 196 214 164 196 214 164 196 214 164 196 214 164 196 214 164 196 214 164 196 214 164 196 214 164 196 214 164 196 214 164 196 214 164 196 214 164 196 214 164 196 214 164 196 214 164 196 214 164 196 214 164 196 214 164 196 214 164 196 214 164 196 214 164 196 214 164 196 214 164 196 214 164 196 214 164 196 214 164 196 214 164 196 214 0 0 255 161 104 94 161 104 94 161 104 94 161 104 94 161 104 94 161 104 94 161 104 94 161 104 94 161 104 94 161 104 94 161 104 94 161 104 94 161 104 94 161 104 94 161 104 94 161 104 94 161 104 94 161 104 94 161 104 94 161 104 94 161 104 94 161 104 94 161 104 94 161 104 94 161 104 94 161 104 94 161 104 94 161 104 94 161 104 94 161 104 94 161 104 94 161 104 94 161 104 94 161 104 94 161 104 94 161 104 94 161 104 94 161 104 94 161 104 94 161 104 94 161 104 94 161 104 94 161 104 94 161 104 94 161 104 94 161 104 94 161 104 94 161 104 94 161 104 94 161 104 94 161 104 94 161 104 94 161 104 94 161 104 94 161 104 94 161 104 94 161 104 94 161 104 94 161 104 94 161 104 94 161 104 94 161 104 94 161 104 94 161 104 94 161 104 94 161 104 94 161 104 94 161 104 94 161 104 94 161 104 94 161 104 94 161 104 94 161 104 94 161 104 94 161 104 94 161 104 94 161 104 94 161 104 94 161 104 94 161 104 94 161 104 94 161 104 94 161 104 94 161 104 94 161 104 94 161 104 94 161 104 94 161 104 94 161 104 94 161 104 94 161 104 94 161 104 94 161 104 94 161 104 94 161 104 94 161 104 94 161 104 94 161 104 94 161 104 94 161 104 94 161 104 94 161 104 94 161 104 94 161 104 94 161 104 94 161 104 94 161 104 94 161 104 94 161 104 94 161 104 94 161 104 94 161 104 94 161 104 94 161 104 94 161 104 94 161 104 94 0 0 255 98 68 80 98 68 80 98 68 80 98 68 80 98 68 80 98 68 80 98 68 80 98 68 80 98 68 80 98 68 80 98 68 80 98 68 80 98 68 80 98 68 80 98 68 80 98 68 80 98 68 80 98 68 80 98 68 80 98 68 80 98 68 80 98 68 80 98 68 80 98 68 80 98 68 80 98 68 80 98 68 80 98 68 80 98 68 80 98 68 80 98 68 80 98 68 80 98 68 80 98 68 80 98 68 80 98 68 80 98 68 80 98 68 80 98 68 80 98 68 80 98 68 80 98 68 80 98 68 80 98 68 80 98 68 80 98 68 80 98 68 80 98 68 80 98 68 80 98 68 80 98 68 80 98 68 80 98 68 80 98 68 80 98 68 80 98 68 80 98 68 80 98 68 80 98 68 80 98 68 80 98 68 80 98 68 80 98 68 80 98 68 80 98 68 80 98 68 80 98 68 80 98 68 80 98 68 80 98 68 80 98 68 80 98 68 80 98 68 80 98 68 80 98 68 80 98 68 80 98 68 80 98 68 80 98 68 80 98 68 80 98 68 80 98 68 80 98 68 80 98 68 80 98 68 80 98 68 80 98 68 80 98 68 80 98 68 80 98 68 80 98 68 80 98 68 80 98 68 80 98 68 80 98 68 80 98 68 80 98 68 80 98 68 80 98 68 80 98 68 80 98 68 80 98 68 80 98 68 80 98 68 80 98 68 80 98 68 80 0 0 255 167 176 177 
164 196 214 164 196 214 164 196 214 164 196 214 164 196 214 164 196 214 164 196 214 164 196 214 164 196 214 164 196 214 164 196 214 164 196 214 164 196 214 164 196 214 164 196 214 164 196 214 164 196 214 164 196 214 164 196 214 164 196 214 164 196 214 164 196 214 164 196 214 164 196 214 164 196 214 164 196 214 164 196 214 164 196 214 164 196 214 164 196 214 0 0 255 161 104 94 161 104 94 161 104 94 161 104 94 161 104 94 161 104 94 161 104 94 161 104 94 161 104 94 161 104 94 161 104 94 161 104 94 161 104 94 161 104 94 161 104 94 161 104 94 161 104 94 161 104 94 161 104 94 161 104 94 161 104 94 161 104 94 161 104 94 161 104 94 161 104 94 161 104 94 161 104 94 161 104 94 161 104 94 161 104 94 161 104 94 161 104 94 161 104 94 161 104 94 161 104 94 161 104 94 161 104 94 161 104 94 161 104 94 161 104 94 161 104 94 161 104 94 161 104 94 161 104 94 161 104 94 161 104 94 161 104 94 161 104 94 161 104 94 161 104 94 161 104 94 161 104 94 161 104 94 161 104 94 161 104 94 161 104 94 161 104 94 161 104 94 161 104 94 161 104 94 161 104 94 161 104 94 161 104 94 161 104 94 161 104 94 161 104 94 161 104 94 161 104 94 161 104 94 161 104 94 161 104 94 161 104 94 161 104 94 161 104 94 161 104 94 161 104 94 161 104 94 161 104 94 161 104 94 161 104 94 161 104 94 161 104 94 161 104 94 161 104 94 161 104 94 161 104 94 161 104 94 161 104 94 161 104 94 161 104 94 161 104 94 161 104 94 161 104 94 161 104 94 161 104 94 161 104 94 161 104 94 161 104 94 161 104 94 161 104 94 161 104 94 161 104 94 161 104 94 161 104 94 161 104 94 161 104 94 161 104 94 161 104 94 161 104 94 161 104 94 161 104 94 161 104 94 161 104 94 161 104 94 161 104 94 161 104 94 0 0 255 98 68 80 98 68 80 98 68 80 98 68 80 98 68 80 98 68 80 98 68 80 98 68 80 98 68 80 98 68 80 98 68 80 98 68 80 98 68 80 98 68 80 98 68 80 98 68 80 98 68 80 98 68 80 98 68 80 98 68 80 98 68 80 98 68 80 98 68 80 98 68 80 98 68 80 98 68 80 98 68 80 98 68 80 98 68 80 98 68 80 98 68 80 98 68 80 98 68 80 98 68 80 98 68 80 98 68 80 98 68 80 98 68 80 98 68 80 98 68 80 98 68 80 98 68 80 98 68 80 98 68 80 98 68 80 98 68 80 98 68 80 98 68 80 98 68 80 98 68 80 98 68 80 98 68 80 98 68 80 98 68 80 98 68 80 98 68 80 98 68 80 98 68 80 98 68 80 98 68 80 98 68 80 98 68 80 98 68 80 98 68 80 98 68 80 98 68 80 98 68 80 98 68 80 98 68 80 98 68 80 98 68 80 98 68 80 98 68 80 98 68 80 98 68 80 98 68 80 98 68 80 98 68 80 98 68 80 98 68 80 98 68 80 98 68 80 98 68 80 98 68 80 98 68 80 98 68 80 98 68 80 98 68 80 98 68 80 98 68 80 98 68 80 98 68 80 98 68 80 98 68 80 98 68 80 98 68 80 98 68 80 98 68 80 98 68 80 98 68 80 98 68 80 98 68 80 98 68 80 98 68 80 98 68 80 98 68 80 0 0 255 167 176 177 
164 196 214 164 196 214 164 196 214 164 196 214 164 196 214 164 196 214 164 196 214 164 196 214 164 196 214 164 196 214 164 196 214 164 196 214 164 196 214 164 196 214 164 196 214 164 196 214 164 196 214 164 196 214 164 196 214 164 196 214 164 196 214 164 196 214 164 196 214 164 196 214 164 196 214 164 196 214 164 196 214 164 196 214 164 196 214 164 196 214 0 0 255 161 104 94 161 104 94 161 104 94 161 104 94 161 104 94 161 104 94 161 104 94 161 104 94 161 104 94 161 104 94 161 104 94 161 104 94 161 104 94 161 104 94 161 104 94 161 104 94 161 104 94 161 104 94 161 104 94 161 104 94 161 104 94 161 104 94 161 104 94 161 104 94 161 104 94 161 104 94 161 104 94 161 104 94 161 104 94 161 104 94 161 104 94 161 104 94 161 104 94 161 104 94 161 104 94 161 104 94 161 104 94 161 104 94 161 104 94 161 104 94 161 104 94 161 104 94 161 104 94 161 104 94 161 104 94 161 104 94 161 104 94 161 104 94 161 104 94 161 104 94 161 104 94 161 104 94 161 104 94 161 104 94 161 104 94 161 104 94 161 104 94 161 104 94 161 104 94 161 104 94 161 104 94 161 104 94 161 104 94 161 104 94 161 104 94 161 104 94 161 104 94 161 104 94 161 104 94 161 104 94 161 104 94 161 104 94 161 104 94 161 104 94 161 104 94 161 104 94 161 104 94 161 104 94 161 104 94 161 104 94 161 104 94 161 104 94 161 104 94 161 104 94 161 104 94 161 104 94 161 104 94 161 104 94 161 104 94 161 104 94 161 104 94 161 104 94 161 104 94 161 104 94 161 104 94 161 104 94 161 104 94 161 104 94 161 104 94 161 104 94 161 104 94 161 104 94 161 104 94 161 104 94 161 104 94 161 104 94 161 104 94 161 104 94 161 104 94 161 104 94 161 104 94 161 104 94 161 104 94 161 104 94 161 104 94 161 104 94 0 0 255 98 68 80 98 68 80 98 68 80 98 68 80 98 68 80 98 68 80 98 68 80 98 68 80 98 68 80 98 68 80 98 68 80 98 68 80 98 68 80 98 68 80 98 68 80 98 68 80 98 68 80 98 68 80 98 68 80 98 68 80 98 68 80 98 68 80 98 68 80 98 68 80 98 68 80 98 68 80 98 68 80 98 68 80 98 68 80 98 68 80 98 68 80 98 68 80 98 68 80 98 68 80 98 68 80 98 68 80 98 68 80 98 68 80 98 68 80 98 68 80 98 68 80 98 68 80 98 68 80 98 68 80 98 68 80 98 68 80 98 68 80 98 68 80 98 68 80 98 68 80 98 68 80 98 68 80 98 68 80 98 68 80 98 68 80 98 68 80 98 68 80 98 68 80 98 68 80 98 68 80 98 68 80 98 68 80 98 68 80 98 68 80 98 68 80 98 68 80 98 68 80 98 68 80 98 68 80 98 68 80 98 68 80 98 68 80 98 68 80 98 68 80 98 68 80 98 68 80 98 68 80 98 68 80 98 68 80 98 68 80 98 68 80 98 68 80 98 68 80 98 68 80 98 68 80 98 68 80 98 68 80 98 68 80 98 68 80 98 68 80 98 68 80 98 68 80 98 68 80 98 68 80 98 68 80 98 68 80 98 68 80 98 68 80 98 68 80 98 68 80 98 68 80 98 68 80 98 68 80 98 68 80 98 68 80 98 68 80 0 0 255 167 176 177 
